/* XPM */
static char *_033803b63344fe0a9167091bdf0b554xIHCdRjkyQc6IKcI[] = {
/* columns rows colors chars-per-pixel */
"480 272 256 2 ",
"   c #040501",
".  c #060902",
"X  c #0A0B04",
"o  c #0A0806",
"O  c #190804",
"+  c #0C1304",
"@  c #0B1805",
"#  c #151806",
"$  c #141513",
"%  c #240A05",
"&  c #2B0B06",
"*  c #2C0B09",
"=  c #250807",
"-  c #340C0A",
";  c #370C07",
":  c #261808",
">  c #381409",
",  c #301514",
"<  c #0C2607",
"1  c #1B240B",
"2  c #1C2B0B",
"3  c #162608",
"4  c #1A350B",
"5  c #192A14",
"6  c #1C3414",
"7  c #1C3B14",
"8  c #1C3C1B",
"9  c #173617",
"0  c #0D3312",
"q  c #232C0B",
"w  c #262908",
"e  c #23330C",
"r  c #28370A",
"t  c #353A0A",
"y  c #252A15",
"u  c #233C14",
"i  c #2B3C13",
"p  c #233C1B",
"a  c #263616",
"s  c #353B15",
"d  c #37280D",
"f  c #1A3B23",
"g  c #153229",
"h  c #253A24",
"j  c #323329",
"k  c #2D192B",
"l  c #460D07",
"z  c #570D05",
"x  c #491408",
"c  c #5C1405",
"v  c #571708",
"b  c #4F1814",
"n  c #631404",
"m  c #641A05",
"M  c #6C1B05",
"N  c #681807",
"B  c #731C04",
"V  c #7B1B03",
"C  c #761805",
"Z  c #6C1007",
"A  c #4E2F0E",
"S  c #692307",
"D  c #782306",
"F  c #70300F",
"G  c #4D2F2C",
"H  c #652829",
"J  c #1B441A",
"K  c #194913",
"L  c #29440C",
"P  c #38460B",
"I  c #2B4414",
"U  c #24431B",
"Y  c #2B441B",
"T  c #2C4B1C",
"R  c #254818",
"E  c #364818",
"W  c #2A541B",
"Q  c #37551A",
"!  c #37530C",
"~  c #1B4625",
"^  c #1B512D",
"/  c #234423",
"(  c #244B23",
")  c #2B4C23",
"_  c #284829",
"`  c #354A25",
"'  c #2C5324",
"]  c #2C542B",
"[  c #285728",
"{  c #335323",
"}  c #335C2C",
"|  c #385827",
" . c #295834",
".. c #365A34",
"X. c #2D4B33",
"o. c #39652A",
"O. c #396735",
"+. c #3B7438",
"@. c #2D6632",
"#. c #36631D",
"$. c #46490B",
"%. c #464A16",
"&. c #475618",
"*. c #57571A",
"=. c #524D11",
"-. c #6C5013",
";. c #50651B",
":. c #465927",
">. c #565926",
",. c #475A35",
"<. c #4C4D2C",
"1. c #6D5729",
"2. c #476729",
"3. c #566828",
"4. c #49732C",
"5. c #57752B",
"6. c #466936",
"7. c #566936",
"8. c #487637",
"9. c #567837",
"0. c #666927",
"q. c #67762A",
"w. c #667936",
"e. c #777836",
"r. c #746D2F",
"t. c #6B671C",
"y. c #55354E",
"u. c #325847",
"i. c #366F49",
"p. c #2C5962",
"a. c #487845",
"s. c #577846",
"d. c #4D704C",
"f. c #6C764C",
"g. c #595D5D",
"h. c #2C3352",
"j. c #831C03",
"k. c #8B1C02",
"l. c #871605",
"z. c #951B03",
"x. c #891109",
"c. c #A91B04",
"v. c #882505",
"b. c #932303",
"n. c #9A2704",
"m. c #993605",
"M. c #8D320F",
"N. c #AB2C03",
"B. c #A62704",
"V. c #B32C03",
"C. c #B82B05",
"Z. c #A93406",
"A. c #B43303",
"S. c #BC3402",
"D. c #BA3906",
"F. c #AE3614",
"G. c #983529",
"H. c #C33502",
"J. c #C43B03",
"K. c #CB3D03",
"L. c #C73807",
"P. c #CD3306",
"I. c #DD2E06",
"U. c #904B0A",
"Y. c #B1490B",
"T. c #8A7131",
"R. c #A06623",
"E. c #CC4204",
"W. c #C74407",
"Q. c #D34403",
"!. c #D94905",
"~. c #DA5506",
"^. c #CE5012",
"/. c #E34C04",
"(. c #E75705",
"). c #F25B09",
"_. c #D4680A",
"`. c #E96505",
"'. c #F76805",
"]. c #FA7505",
"[. c #F06D11",
"{. c #D85927",
"}. c #897549",
"|. c #8C3849",
" X c #58843A",
".X c #4E8439",
"XX c #678739",
"oX c #788737",
"OX c #728F36",
"+X c #6F9B34",
"@X c #3C875E",
"#X c #588746",
"$X c #538C4E",
"%X c #678946",
"&X c #689549",
"*X c #779847",
"=X c #689856",
"-X c #769A55",
";X c #73894F",
":X c #79A557",
">X c #74A64F",
",X c #508F6D",
"<X c #72946B",
"1X c #77A96C",
"2X c #57A365",
"3X c #509647",
"4X c #878937",
"5X c #8C9036",
"6X c #A29635",
"7X c #FB8C07",
"8X c #D69328",
"9X c #869946",
"0X c #8C934F",
"qX c #87A64A",
"wX c #87A856",
"eX c #94AF53",
"rX c #ABB350",
"tX c #8B976E",
"yX c #96B668",
"uX c #8EB16F",
"iX c #A7B670",
"pX c #AE954D",
"aX c #97C46E",
"sX c #ABC971",
"dX c #A9C456",
"fX c #CCCE66",
"gX c #C7AC58",
"hX c #5B7093",
"jX c #326E95",
"kX c #73A98E",
"lX c #659E9B",
"zX c #6FADD3",
"xX c #6CD3E8",
"cX c #3AADC7",
"vX c #8EB08D",
"bX c #8FB4B0",
"nX c #9EAC92",
"mX c #AECB8E",
"MX c #A4C8A0",
"NX c #CDDCAA",
"BX c #92B3D0",
"VX c #96C8CD",
"CX c #AFD5D3",
"ZX c #B8E4DB",
"AX c #ADD6EB",
"SX c #B4EEF0",
"DX c #94DEF2",
"FX c #CBE6D6",
"GX c #C9E9E7",
"HX c #D5EAEB",
"JX c #D9ECF3",
"KX c #CFF4F4",
"LX c #E7F6F7",
"PX c #CFE2D5",
"IX c #CABC8A",
"UX c #80798D",
/* pixels */
"3 6 9 5 . o @ 5 @ @ 6 6 @ . 5 < . . @ < @ 5 0 @ @ X 6 J 5 9 5 . < 8 @ X a 2 + @ 4 2. X X#XW W #X#.K O.W J T 6.$X@.2 y i +.@./ O.( 0 a ~ @.[ 7 5 9 ~ 9 0 p / [ ~ 8 8  .^ ~ ( / 9 5 5 y _ ) J J ) ( 7 ) U 4 u U W u u T T T 6.Q e T E r :.2.&.3.7.q.w.XXOXq.# + @ X + . . 2 Y Q o.4.2.2.:.! Q { :.Q R I i 3 2 4 I 4 e e e u 9 < 4 7 3 1 1 5 8 Y r 1 @ @ J K 2 + 2 Y 7 0 2 ` / < 5 ` ~ 3 a X.` ) / 7 J R | 6.:.I { 5.9.9.9.5.w.w.! X   + o   o   .   . . . .       . .       X     o X . + . 5 &XaXeX&X:X=X#X X%Xs.=X1X1Xa.4.+X>X8.6.=X#X| #X&X4.;X=XW R | } 6.7.2.8.%X2.T 6.,.U R ) T 4.9.5.Q L e {  X5.Q R o. X X%.P !  X&X X X&XXX5.OXeXrXsXsXrX:.u T :.#X:XyXwXuXyXaXiXsXiXiXuXuXyXiXuXwX-XwXuXeXwX-X9.7.#X1X:X-X#X=XuX-X&X:XuX-X#X:X1X-X-XuXuX1X$XX...=XuXuXvXuX1XuXuXuXuXuXuXnXMXmXmXmXmXmXmXIXNXNXmXmXsXsXsX0X7.3 . + + + + + @ + + + + @ + @ @ @ @ @ @ @ # # 3 3 r T W o.O.+.=X=X$X$X1X1X<XvXMXvXMXvXvXuX1X=X<X$X2X$X=Xi.i.@.i.$Xa.[ ^ i.i.i. .( 9 J  .i.$X^ J ~ ^ i.i.d.O. .i.i.+.@.O.i.i.",
"@ @ < 6 @ X @ 1 @ @ < a $ @ 5 8 + + 6 < + y 7 < @ . < 4 < @ @ + 0 9 + + u 6 + @ Q  X5..X=X4.#.#X8.R 8.$X' r | $Xi.( y u @. .9 [ O.9 5 p @.[ 7 1 8  .^ 0 p  .~ ~ / ~ ~ ~ ~ ] ] h h 5 5 8 8 J ] ] J ( ) p 6 u T R u < u | U I I r :.| &.9.L Q 5.3.;.5.w.q.q.r + + # . @ 5 Y Q | 4.4.L L :.2.Q L I Q :.Q W I 4 3 a I I 4 3 3 u u U J 4 y 3 @ 3 u R 8 5 @ 2 u Y 2 @ e 7 7 2 a / 8 3 p  .a 3 U ` ) 9 0 ) { { T I I { s.7.6.3.3.5.XX5.` +   o +   o   . . . . . .         .   . X . X X X + . 4 uXmXsXyX:XuXuX:X=X=X#X8.#X1X=X#X&X&XW ) 8.#X| 7. X.X%Xo.6.| 7 { { 4.&.o.8.R 4 6.{ 4 { 2.2.4.4.7.2.L L 6.2.! Q 2.8.9.Q I L Q %X&X&X&X%X2.Q XXwX9XeXsXfXsX3.I T W  X X:XwXyXyXiXiXyXiXnXiXiXiXuXuXyXyXuXwXwXuX:X%X#X=X:X1X=X-X-X%X#X-XuX=Xo.s.1XuXuXwXuX:X$X..d.<XuXuXvXuX1XuXuXuXuXuXuXuXmXmXmXsXsXmXmXmXNXmXsXsXsXyX%XE 2 . X + @ + + + + + + + + + + @ @ + @ @ @ # 1 3 2 4 I T W o.+.+.$X2X2X2XvXvXMXvXvXMXvX,X1X<Xd.$XO. . .o.a.a.i... .i.O. . .@. .[ @.i.] 8 ~ @.i. .] i.] ~ ..d.a. .@.i.i. .@.a.i.",
"@ + # h 6 3 @ + @ @ @ @ + X 3 6 @ @ / 9 + 5 7 8 @ X 3 7 5 @ @ $ 6 8 @ @ e e + < 2.+X4.2.%X X#.8.6.r W .X@.e i } $X[ 0 u @.@.9 [ 8.( 0 5 _ @. .p p i.@.6 5 ] ~ 9 9 _ ( [ [  . .( / f / X._ } ..U < / _ U 7 ) :.u 2 2 ` | u I { :.2.2.&.2.! 5.XX5.;.3.w.5.OX&.@ + + + 3 r T 2.2.2.#.L r e W | T 3 2 E Q Q W u @ 5 e T ( 4 3 1 5 p 7 J Y 1 @ @ 3 8 [ 8 # # 2 ) ( 5 < 4 ) p 0 8 _ 3 7 ..e 6 U p U 7 0 ) ] R I u { :.6.E | | 2.3.5.XX5.E . + X . .   o o o o o . .   o   . .   X X X .   @ | yXsXaXsXaXuXwXuXuX1X1X1X9.6.#X$X$X#X=X9...} O.) 6.s.6.| ' 8.{ T 6.L 2.4.2.| r I 6.T L o.9.2.Q R | 2.L &.9.Q E 2.4.2.| Y R I 2. X4.2.9.#X2.! 2.&X>XqXqXrXfXdX5.r { o.8.&X:XuXyXyXyXmXmXnXmXmXiXyXyXyXyXeXwX-XwXuXuX:X-X-XwX&X#X%X%X&X-X:X=Xa.#X-XuXwXwXyX:X=Xa.s.1XuXiXiXuXuXuXyXuXuXuXuXuXuXiXiXsXsXmXmXmXmXsXsXiXwX7.e @ X . + + X . . + + + + + + @ + + @ @ @ @ # 1 5 1 e i T | o.8.a.$X2X1X1X1XvXMXMXNXMXMX1X,X,X .~ ] 9 ~ 8 8 ) d.i._ 9 J ^  .8 9 0 0 ^  . .~ J  .^ ~ ( d. .J ^ i.i. .i.i.i.@.O.i.@.",
"6 @ + 5 7 0 @ X 5 5 @ . + . . 3 < + 7 0 . @ 4 9 @ X 2 u y 6 2 @ 5 p @ @ 3 1 @ 3 4.+X X2. X=X.X#XO.I r +.+.R e i O.@.J K @...0 ( a.O.0 # a O.O.p 7 +. .8 3 ~  .9 0 ~ ] [ K ( [ ] / ~ / ] ..O.) 0 8 _ ) 9 < ) ,.4 3 T | T U E E E I Q E &.5.XX5.w.3.3.5.3.OX3.3 @ @ 2 I L Q 4.4.Q &.Q Q 4 7 T | I 5 1 7 R R I e 2 @ 4 ) ( 6 3 # 5 u J ( 4 3 @ @ < J R u 1 # 7 J ] < 3 ) ) 4 9 ] 6 7 ] 2 U ] 6 7 U U ] ] U T T { { :.I 6.| 2.3.3.XX5.9.e . . o . o o o o o o . .   o         + + X + @ 2.sXaXwXwXaXuX:X=X9.4.#X=X1X>X| T 8.#X@.8.#XO.U U 4 } s.| 4 o.6.R | 6.o.6.2.2.Q 4 | 7.W | 8.9.Q L | 6.| L 2.2.L | 6.Q L u i R 6.4.2.Q 2.9.#XXX5. X*X>X+X+XqXdXdXdX5.T / ] o. X-XwXyXyXmXmXvXmXmXmXiXiXiXyXyXuXwXwXuXyXwX-XwXuX-X%X%X-XwX-X=X#X%X:X:XwXwXwXyXwX:X=X<XuXuXyXiXuXuXuXiXiXuXuXiXnXuXuXiXmXmXmXmXmXmXsXyXf.E 3 + X o o X . X + @ @ @ @ + + + + + @ @ @ # # 3 1 1 2 r I W | +.8.#X$X$X2X1X1XvXmXMXmXNXMXvXvX=X[ [ 9 ~ d...9 < J 0 9 9  .i.i./ f ^  .~ ~  .i. .O. .9 J [ @.^ ~  .@.] O.i.i.i.i.O. .",
"p 5 . @ 9 0 < 5 h h < @ y @ . 5 u 3 9 0 . 1 7 6 . X 2 3 @ a p @ < u 3 4 e 1 < Q XX+X&X2.o.8.a.#X$X+.L o.8.@.W 7 R @.O.} @.] 0 p a.i.0 # 2  .@.0 7  .^ 0 5 9  .) 9 < ' [ [ ^ ^ ~ ~ ( ~ ( ] ] 8 0 / ] _ 0 4 | R 3 U | | Y ` { u 3 3 4 Q 7.3.2.&.;.&.;.3.5.q.w.i + 3 Y { E 2.2.Q Q ! :.2.I 4 4 E Q _ 2 3 2 i Y I 7 3 < u ) U 9 3 # e 7 U J p 5 3 5 3 J T p 1 < J ( 6 2 p / 7 9 ) p 9 { 2 J ] e U ' U ) { 7 R ` R T Q I :.I | 2.&.2.5.OX3.@ X o o . o o o o . .     .   . . o $ . . @ 9.sXsXuX=X:XmXaXaX1Xa.' ] | a.1Xa.R | $X@.' Q } U } W K } ) 7 6.6.4 T o.8.o.L | | 7 | 6.I | 9.o.| o.9.2.R L 2.L L { { 4 4 I W O.2.o.Q 2.2.9.9.8. X%X;X9.2.5.&XeXeXdXdX3.T T | o.8.#XwXuXyXuXyXsXmXmXmXmXsXiXyXuXuXuXyXyXwXwXwXuXuX-X-XwXuX-X-X;X-XwXwXwXwXwXyXyXuX<XtXuXyXyXiXiXuXuXwXwXuXiXmXmXsXsXiXsXsXmXsXsXiX0X>.q X X .   . X . . . + + + + + + + @ @ + @ # # 3 3 2 2 3 e I R R W o.+.a.$X$X2X1XvXvXvXmXmXmXMXMXvX1X1X$X,X$X,Xi.( ~ @.@.~ ~  .i.u.8 ~ @.i.~ 9  ...^  .@. .^  .+.i. .@.i.] ~ ..d.i.u.i.i.",
"3 h @ @ 0 8 5 5 5 f < < h # . @ 4 6 U 9 + # U h @ @ 5 < + 5 U 2 3 2 9 T i 1 5 5.XX5.#X4.o.W O.8.$X#X@.W Q o.a.W e J ] 6.a.~ < a @.$X[ < < ( O.~ 9 [ O.J J 0 9 } X.< 9 ( @. .~ ~ / ] ~ ( _ 8 0 9 J ] / 0 _ ..7 4 | | | T T E E e T I :.| E E &.P ! ;.q.q.5.w.Q @ e { { I Q 2.! Q L Q 2.T 2 3 i I T I 2 3 a i 7 U 6 2 e u U J 2 # 3 3 J J ( p 6 3 # 7 W J 8 6 J J 9 6 / / J 9 6 8 ~ _ 2 J ( 2 U } 4 U ] u U ` I ` Q I E u | 6.:.Q 5.XXq.P + o o X . . X . . .       . X o o . + 2 4.mXsXsXwX%X1XvXaXaXuX1XO.] J o.2X$X' 6.1X=X6.4.6.J 6.8.W R 6 p a.6.7 U 6.8.W R 6.| T | R 4 2.2.R | 2.2.L 3 { 6.L L W U 7 { 2.4.8.L L 2.4.2.4.4.2.#.! Q Q ! 8.-Xw.XX5XsXdX;.R ..o.| o.9.-XwXuXyXyXyXaXiXmXmXiXiXuXuXyXyXyXyXuXwXwXwXwX-XwXuXwXwXyXyXwXwXwXwXwXyXyXuXuXuXuXyXyXiXsXyXyXuXuXuXuXiXsXsXsXyXiXsXsXsXyX*X` @     o . o o . . . X . . @ + + @ @ + @ @ @ @ # 3 2 2 2 2 I R ' W ' @.+.$X$X=X1XvXmXMXvXvXvXvXvX<X$X=X1X$X,Xi.@Xi.a.$X$X$Xi. .~ ^ @. .[  . .~ 8 ~ ~ ~  . .u.^  .@.i.@. .a.i. . .i.i. .i.a.",
". 5 < . + 5 5 < + 5 < @ p 3 @ @ @ @ / 7 + @ 3 9 < 5 a < @ 6 7 e 3 + 0 R 3 + 8  X+X X%X.X X} ' W 2.#X$X+.L I 8.+.{ 0 4 E O.~ < 1 J a.O.J 0 8 ]  .8 J O.[ ~ f 9 [ ..~ 0 0 J ( ~ ( ( ( ~ J 8 9 9 _ ....8 0 ) _ U ' ) { | R u 7 R R 6.6.| L E :.:.E >.q.XXq.5.q.3.e P :.Q ! Q Q Q Q | T I | T 2 u T I T R 4 Y T u U 5 3 4 u u ) h p 3 < 6 6 / / p 6 3 6 U J J h / U 9 5 _ / ( p 5 8 [ u 2 ~ ( 1 8 ] 7 R | 7 R R U R I I I E :.:.Q | 5.5.5.w.e .   X . . . . . . .   . . X o + + u s.sXaXmXyX-X%X#X<X1XuXuX1XO.+.a.O.=X#X8.a.$X#Xo.O.o.7 } 4.8.] < 7  Xs.] ] 8.2.| } 2.R { | 7 T 7.Q 4 { 2.I 4 T 6.| r R T T Q 2.4.4.Q L W 2.4.2.4.4.4.;.! 2.4.4. XXX2.&.OXeXdXqX&.L { | o.o.8.#X-XwXwXuXyXiXmXmXmXsXiXiXiXiXuXuXuXuXyXyXuXwXwXuXuXwXwXiXyXwXwXuXyXyXyXyXyXuXuXuXuXiXiXyXyXyXiXiXyXyXyXyXyXyXyXyXwXwX%X:.+   . . o   o .   . . + @ @ + + @ @ @ @ @ @ @ @ # 1 2 2 4 u U U W [ o.+.8.$X=X1XuXvXMXMXMXMXMXvX$XO.i.a.@.[ ^ ^ @.@. .(  .i.@.~ 9 f u.i.@. .~ ~ ~ 9 9 9 ~ ~  .~ ~ 8 9 ~ ] a.a.i. . .i.i...i.",
"@ + . + o $ @ < @ 1 3 @ h 1 5 h < . 9 p 5 1 @ < 4 h 6 @ $ p 7 u 5 . 9 7 @ @ ]  XXXXX.X4.&X6.W L Q 6.+.$X} 7 R o.8.[ 4 w T ..X.< 0 ( [ } ] 0 < [ u.J W @.J / U 0 ~ O.] 8 8 ~ J J / J ~ ( / / _ ....( 9 / _ U ' ' R ' { { | I I | Q Q Q 2.:.:.:.7.7.q.t.;.5.5.XX&.! ! ! L ! ! ! &.2.T L Q E q 2 4 u p ) 7 7 I E r a 0 0 7 u i / _ / 2 1 1 a ( ] U < 6 _ R J 5 h ' _ 5 8 9 ] _ 5 8 ~ q 5 ^ ( 2 9 U 7 R ) 4 ) ) { R u T I | :.L I :.w.3.3.XX7.@ X o . . . X X . . . . . . X $ 3 9.mXsXyXaXmX-X9.8.2.s.-X1X1X$X$X=Xo...Q .X+.W 8.o.a.[ ..O.K .Xd.5 U 4.8.) ..O.W W 6.| L { { I 6.2.L 4 Q | 4 i 7.6.L r u U T Q Q ! W I T | 6.9.o.Q o.I I L | #X%XXX5.2.9.OXeXdXdX*X! I I | | 2.o.9.%X*XwXuXuXuXiXsXsXsXiXyXmXiXmXiXyXyXyXuXuXuXuXyXwXuXiXyXyXuXiXyXyXyXyXyXyXuXyXyXyXyXyXyXyXyXsXiXyXyXyXyXyXwX;X7.:.| 5   o X . . o . . . . o o X @ + + @ @ @ @ @ # # # 3 2 2 3 4 u U K W o.#X$X$X=X1XuXvXuXvXvXvXvXMXMX<X<Xd.~ K [ X. .$Xi. .8 f ~ ^ J 6 5 f ^ @.@. .O.i._ / 9 8 ] i. .] X.h 9 ~ [ i.i.O. ...d.i...",
"0 0 < @ . @ < 6 + 0 < @ h 5 3 a 5 @ 9 q 2 9 3 . 5 p 4 @ @ a p 7 1 @ 3 I @ 3 XXXX5.9.XX#..X#X#X{ L E T @.+.o.u r } +.( q a [ @.~ 1 p J ( a.} 4 ( ..0 ( @.^ 9 J 9 < 0 f _ ( ^ ^ ^ [ J 8 8 _ / [ [ J 4 ( ) J ( ) U U 6.| 7 { { 6.Y 6 2 T E :.&.3.5.2.&.&.3.5.q.oX;.Q ! &.&.E I I Q Q :.Q Q E 4 3 3 5 2 i ) Y U Y U / 7 4 4 7 4 2 6 p / p < < 8 ( J 0 3 6 ( ] 7 a / ..~ 0 / _ 8 / 9 ( 4 0 ] _ 0 J U 4 { 4 7 | u U 7 U I T 2.E L 3.3.5.;.7.w.OXP . + o X o   . X   o X o $ . < ;.*XsXsXeXaXuX1X$X<X$Xo.a.1X1X>X>X+. .E K +.$X6.6.o.2.{ U ..W 8.6.9 U 8.8.K } 8.| W | } | | L R | T L R | U U 2.5.I 6 i 3 Y | #.Q T u U { 9.9.#.W Q | R Q { 2.9.2.! ! 2.&X+X>XqXeXdX+XQ Q { W o.W 2.2.4. X&X:XyXaXsXsXmXiXyXyXiXiXiXiXiXyXuXuXuXuXyXyXyXyXiXiXiXiXyXyXiXiXiXyXyXyXyXyXyXyXyXyXyXyXyXyXeXuX-X9.2.T I { p @ X $ o o X . . . . . . X + + + + @ @ + @ @ @ @ # 3 3 3 4 u I R R ' +.$X=X=X=X1XvXvX1X1XuXvXuXuXvXvXuX<Xa.i.2X$X$Xa.8.@.9 0 g  . .~ 5 1 y f ^ ~  .@. . . .^ ^ ^ i.i.i. .] ~ ~ ( O.i...[ O.d.i.",
"0 7 J 8 7 4 0 0 + @ @ @ 5 5 @ 3 5 3 8 # @ 8 5 . < Y 6 @ @ 5 p < @ @ u 2 5 I +XXXXX4. X X4..X$X8.W K I T @.+.} r r } +.} 7 7 ..[ p 6 ..J J O.J U ] J ^ O. .9 9 ~ ( ~ J ~ ~ ~ ~ ~ ] ..8 < f / [ [ J 0 ] ] J U ..U { ] 7 u | ` e 4 4 I { I | 7.3.2.Q &.Q 3.5.;.q.XX&.&.&.Q I u e I | { I T { Y u u 2 3 3 4 4 6 6 9 / p 6 4 u u 6 6 5 6 p / 8 0 0 / / 5 < 9 ( U 9 9 ( ] 8 / / 9 8 ( U 4 7 ] _ 9 J p 7 Y 7 U U U U 7 R u | T 4 { 5.2.3.&.7.5.XX7.q + . + + X X X X o o o   @ 9.yXwXwXwX>X:XvXuX$X1X1XO.o.s.=X:XuX#Xa.a.R Q #X$X} J O.| 8 ] o.a.' 8 ..8.6.U ' 6.o.{ 6.W R R R { R 4 { :.R L | 2.R 4 Y p R Q Q Q R 4 4 R 2.9.Q L o.8.| R { 9.8.4.4.2.&.5.&X X;.5.OXeXdXw.r R ' | Q 2.2.Q 2.4.4.;XuXiXyXuXuXuXyXaXaXaXyXuXiXiXyXuXyXyXyXyXyXyXiXiXyXyXyXyXyXyXyXyXyXyXyXyXyXyXyXwXwXwX:X*X5.| I I u R ) 5 @ . o o . X . . . . X X X X + . + + @ @ @ + @ @ @ 3 1 e i E E { { } O.$X$X=X=X1XvXvXvXvXvXvXvXvXuX1X2X=Xa.i.@.@.@.+.@Xi. ./ 9 ~ @.i.^ 0 0 5 3 8 8 ~ ~ ^ .. .f 9 ^ i.i.i.d.i.i. . .u.i.O.@.O.a.",
". @ @ @ 3 5 5 h @ 5 0 @ @ 6 2 < . @ / # + 8 5 . 0 u 2 @ @ 3 / 5 + 1 Y @ + L OXXXXX X X&X8..X.X6.#X#XW { { @.$Xo.u r } i.[ 7 T +. .0 U ] [ [ J 6 X.J ~ @._ 6 8 ^ i. .~ J 9 9 8 h 8 / 9 9 f ~ ( ] J 8 ] _ U U ..U / 7 U ....U 3 I I | | | ,.2.Q L i P ! 3.;.&.q.oX;.;.Q I I i e 4 I I 4 U T T T T E I e 2 2 2 5 5 9 p ) U u u p p p 9 9 p ) / 8 8 ` 8 < 8 ) ] ~ 9 ( ] ~ 9 _ ~ 9 ] U 6 J ] p 9 ( p U U 7 Y u U 7 U U R ` 4 u 2.Q &.5.2.3.5.w.w.>.< X + X X X X o   o   @ 9.sXsXwX-X=X%X=XuXuX#X=X:XO.U _ | #X1X8.O.$X8.L { $X+.K 8.6.f ] 4.O.W | ..' O.} } 8.| { ..4 4 ` | | R T 6.I 4 T 3.Q 4 6 L J o.4.Q R 4 4 E 6.2.! L T 6.| u e Q 8.#.#. X9.>.;.9.XX#.5.*XeXdXrX! u ) | { Q Q Q Q 2.Q 2.2.9.%XwXwXuXyXyXsXaXyXuXuXyXuXyXiXaXiXsXsXsXiXiXyXyXyXyXyXyXyXyXyXyXyXuXuXuXwX-X%X9.4.Q I R R R U Y 6 @ .   o . . X . . . X X X X . . + + @ @ @ @ @ @ 3 3 3 3 2 u i I Q { W [ +.$X=X:X:XaXvXvXMXMXMXvXuX=X$X+.+.} 8 0 5 0 ^ i.@X@Xi.[ 0 ^ @.@.@.^ ~ 8 0 3 9 J J  . ./ 6 9 ~ ^ @.i.i.i. .~ ~ u.d.a. .@.",
"$ 5 5 @ + . + + . 5 h 3 . 5 h u < < 9 @ @ / 5 + 0 7 2 3 @ 5 _ 6 @ @ u 5 @ ;.+XXX5. X9.&X#X.X4.W 4.$X+.' { T } +.[ e r o.a.) 7 O.@.J < ' O.( ( 0 / J ( +.( 0 8  . . .~ K K 0 5 5 3 < 8  .~ ~ / ..J ( / / ] ( ' U U 7 ..) u u | ,.| 2.| { { Y Y E I Q ;.w.3.;.q.oX5.;.! I ` { I e I I I u I I L 4 4 u U U ) h p p 6 6 6 6 7 p 6 0 7 9 9 0 7 / p 7 i 8 0 6 U ] ] 8 J ] ~ 9 _ _ 9 ( U 7 / ( 8 9 ] 8 J ) 4 U Y Y 4 ) U { R R | | :.2.6.:.2.7.f.q.OXI + o   X X . o o   + :.eXsXsXyXwX%Xs.-XuXuX=X#X1X$Xo.Y 7 ' #X8.R 8.=Xo.4 O.a.[ 6.$X~  .8.] } 8.( T 6.' ' o.W ..) 7 ] 6.| R T :.I 3 u { Q 4 4 T e R | 2.I 4 I { 2.6.I 4 I | T u I R 4.8.#.Q 4.Q P L L  XXX;X*XqXdXsX5XP u ) T W | | T Q Q Q L Q :.:.4.%X-XyXyXyXyXuXuXuXuXyXsXsXsXsXsXsXiXiXiXyXyXuXuXuXuXuXuXuXwX:X-X%X7.:.Q L 4 e e R R R R p < .   . .   . o     . . . . . . . + + @ @ @ @ @ @ @ @ < 3 e r r e W | ' [ +.8.=X1XaXaXvXvXmXMXvX=X#Xa.i.+.$Xa.J 0 _ 8 ~ ]  .[ @.i.( J 7  .@. . .@.^ J 8 ~ ~  .i.u.~ 0 6 ~  .i.i.@. .( ~ ( i.a.O.^ ",
"3 3 7 J 4 6 6 < + @ _ 6 @ @ p u 5 5 8 3 2 / 3 + 5 u i 3 @ p / < + @ a 5 4 XX+XXX5.2.#.8. X#X.XW Q 9.+.W W I 7 @.@.| I 7 } ] 9 / O.@.~ 0 J ] } J ^ ~ K ..O.~ 0 ~ ( ( J [  .] J 9 5 5  . .~ ] ~ _ J ] J ( ) ( J J U ) ) 4 7 { 6.` 7 ) ` ) | T | E Q 7.5.w.5.;.q.oXXX;.! E | :.E L r L I r I Q W R R R U 7 7 p U Y ) p u u p p 8 8 9 9 9 7 9 9 9 8 u J 8 3 6 ( ( 8 J ( [ J ~ ( 8 ( J p ] ( 8 8 ( 9 J ) 4 U _ U 7 U / U U { ` Q 7.2.I Q 2.3.9.q.qX3.+ . $ X X o o X . E *XqXeXmXmXmXuX-X1X1XuX1X8.1X:X=Xs.| } $X$X[ Y a.$X[ J O.} O.$X^ ( .X .W  X( ' O.R | o.{ | U ] 6.| 4 7 ` { 4 I { ` 4 4 L | _ u 7 4 2 r &.| W 4 U { { I 4 R 2.4.8.2.T e L L Q | Q 5. X9.5.5.qXdXdXXXL I I I | E T T I T Q | I E I T | 2.9.%X;X X&X-XuXyXyXiXmXaXiXuXyXiXiXyXuX:X-X-X;X;X%XXX9.&.Q I L i i i r a i U 4 R u 2 + o . o . . . .   . . . . . . X X + + + @ @ @ @ @ 3 3 1 2 r I I u ' o.@.@.+.+.$X1XaXvXuXuXvXmX1X#Xa.1XvX=X$Xi.i.,X$Xi.O. .J 0 J O.i. .~ 8 8 8 ~ ^ ^ ^ ^ ~ 8 8 ^  .@.~ h 8 J  .@.O.O.O. .~ ~  .i. .",
"@ @ < 3 2 p / 6 1 @ 5 8 5 . 6 3 @ 5 8 3 5 9 @ + 8 6 u 3 @ 6 6 @ + u h @ r XXXXXXXX9.o.W 4.9.9.o.#.4.9.8.8.6.T 4 T o.@.K J ( 8 5 ( } i.( 4 U ] [  .' 4 9 [  .~ 8 J ( J J [  .~ ~ h f X.~ [  .8 ( ( ( ( ..J / ( U 8 ) 7 U | ) u 4 ) p 6 Y ,.,.s.| Q w.3.;.;.;.;.q.oX3.&.Q Q Q L I I L I I T { { { { { ' ) ) T 7 4 6 p p U 8 9 9 h U 8 7 8 p 8 8 9 7 J / 5 9 8 ( ~ J J [ ( ~ ( ~ ~ ( / ] ~ 8 J ] 8 / 8 6 ) U 6 U 7 / 7 U R T | :.T T 2.9.2.&.OX9Xw.e + o X X $   . 3 -XeXqXqXyXmXNXiX-X&X#X=Xs.O.<X1XaX1XO.o.=X1X$XR T $X$X( | ,.] #Xa.K O.u.R 8.] | } J O.' o.R ' ..U 7 < 4 R | T | | 7 < T Q Q p 3 e a u Q Q L 4 7 | | I 4 R 2.8.#.W I i e L 2.4.6.5.XX;.! 5.XXOXrXdXrX&.L I I L I E { I I I Q I E I I T Q I I Q Q Q 2.9.w.w.%X-X;X;X%X%X%X%X%X9.4.4.2.| Q I L r I I I i u e e i u i Y I ` 6 @ . . o o . . X o . X X . . . . . X + + + @ @ @ @ 3 1 2 4 e i T T R U } i.a.$X+.$X=X1X1X<X=XuXvXuXuX1X1X1Xs...} @.@.i.i.@.@.i.@.[ '  . .^ ^ f 9 5 0 ~  . . .~ 9 9 ( @.@. .~ 5 8 ( [ [ ......~ ~ i.i.",
"1 @ . . + # 5 5 3 @ < 8 9 @ p 2 < 6 < @ p J 3 3 h 4 2 3 @ 2 2 2 @ u 5 @ ;.qXXX X5.XX#Xo.Q W | 8.o.W 2.o.o.a.o.' I K } o.' ' U 4 2 7 ] ..J 0 K J [ ' U 0 0 ^  .J ( ] ( 8 ~ ^ [  .~ 9 8 ~ O. .J ]  .~ ]  .J ( ( ( U ) J ] | U U ` ,.R R 7.s.7.%X:.&.9.5.3.3.;.q.oXoXt.&.Q E L e e e 2 u p Y ` { o.| Q I R T { { T p 7 8 / / p 8 8 7 p 8 8 9 9 8 8 0 8 / / 8 9 8 ~ / ~ ( ( ( ] _ ~ ] / _ J 8 / ( U / 9 8 _ 7 7 U 7 ) U R ) | ..T Q 7.7.7.2.;.%XXX*X3.@ . . X $ . 3 w.sXeXqX*XuXmXuXmXuX:X=X=Xa.| 6.$X1X2X[ R 6.=X2XO.K o.$Xo.6.d.~ 8.#XJ U ..W | ..6.' U ] J ' R 6...4 U ( 7 R | Q R T 3 3 E { e < e Y ` R R I e u { T I 4 L | 6.2.Q 4 4 r I :.9.4.Q Q 5.4.#.&X*X*XeXeXdXOXL e Y r I I I u I r I I I I I I I I E Q Q P L L I I I E L L I I E E I L E E Q I I i u u I r r e e 2 e Y e u R u 6 @ X o . o . . . . . . X X X X . . . . + + + @ @ @ # 3 # 3 2 e I T { | [ [ a.$X2X2X=X=X1X1X$Xa.=X1X1XuX2Xi. .J 5 3 8 8 J 9 9 ~ @.i.i.@.9 9 J  .@. .~ 9 0 9 ~ ^  .X./ 8 / ] i.@. ._ J J J ~  .u.@.[  .@.",
"3 6 5 # 3 @ . < 5 6 < 8 5 < h 3 2 p < 3 _ 9 @ 3 h 6 2 6 5 2 u 5 3 a < 3 ;.eX*XOXXX;.4.#X4.Q T ] o.K K | | O.a.a.+.R e I ' [ [ W 6 6 a U } [ J J R J ( J X.X.J K ~  .~ 8 / ] ( ^ ^ 9 0 ' O.(  . .] [ ] ( ( ] ( ) ( U ) R Y { 6.| { T | %X6.Q s.7.3.9.w.f.7.3.oXq.q.;.&.Q I u 2 < 3 1 p p u T { | | T I 4 4 u T R U U 8 8 8 9 8 8 7 7 8 8 9 8 f / J 8 f X.( h 8 ~ ] ( ~ ( ( _ _ ~ ~ / ( ~ / / ( U J 8 / _ 8 U u R ) 7 R ..| u T 7.2.Q T 2.q.w.w.qX*X3 X + + o @ 2.sXsXsXyX%XiXmXuXuXuXuX1X1X#XQ T T $X2X[ R I L a.=X[ 4 ,.6.O.@.8 +.+.U J ..o.J ..8.{ U ( ] ' } } R J ..] ] | ) 4 J ] 7 4 i a 3 r | I L K 4 p ` E 7 4 I { ` T Q R e 2 r L 2.9.2.o.! 4.9.! ! &X X5.e.5XdXdX&.e i i I I I u I u I E r i I I I I I I E P I I I I I I r I I I I I i r L E E I i e i Y r e e u u 4 7 I L u Y 6 @ . o o . . .   . .   . . . . . . . . . . . + @ @ @ @ @ @ 1 e e L R W W } [ @.+.2X1XuXuXvX1X1X$X6.=X1X=X6.] 8 8 h 9 9 0 9 5 5 5 0 J @.@.~ 9 0 J  .i.@...J J 8 8 ^ @.O.( a 0 ~ @.i.@.] .. .^ ^  .O.} (  .",
"3 < 3 5 5 < < < p p @ < h 6 6 6 3 6 U 9 7 / 2 < 6 < 2 p @ 5 a @ < 4 6 3 5.eXOXXXXX4.#.9.#X4.4.Q o.' R R ' R R | ,.,.{ U 7 J ( @.} R 4 < 7 ( ) ( ' U J 9 ~ ] ] J ~ J ~ ~ 0 9 ] (  .J < ' O. .@. .@.@.~ ] ..] ( [ U U U ) T { | | | | { 6.I 6.7.:.5.9.9.5.3.q.e.e.oXq.;.P I i _ p L W { | ' U U T Q o.6.] J U R L U U U U 8 7 7 8 8 9 9 J ~ ~ ~ / J 8 8 8 ~ ~ / / ~ ~ ~ ( ~ / / / _ ( / / ( / / U J U p / ) 7 R T 7 4 ) T 4 R 6...L | 4.s.XXXXoXOXOXE + + $ . E eXrXiXmXsX-XvXmXuX#X9.=X#X=X1Xs.T / O.1X=XQ { U 8 +.$X( / a.i.J 8 o.8.} 8  .+.J  .2.o.U 8 ] ] } R 4 { } ..] ) { 3 T T u p 4 3 u ` R 4 4 Q L I U 4 7 Q Q Q ` i w r i I Q o.2.Q R I E :.:.P Q 5.;.;.5.OXeXdXqXP r i i e r i i Y i I i i i r i I I i I e I E E r i r i i i r i i i i I I i i r e i i i 2 e e u e e i 4 I p # . . . . . . . . o o o . . . . . . . X + + @ @ @ # 3 3 @ 3 e i i u u 7 R @.[ @.$X$X1X1XuXmXaXvX1X,X,Xa.i. .i.i. .a.+. .^ ^  .~ J ~ J J  . .] ~ J ~ ^  .i. .^ ~ ~ ~ O.i. .[ ~ J ~  .O.@. . . . . .] ]  .[ ",
"5 5 3 @ < 3 5 0 8 9 < < 3 5 6 8 6 6 9 < 4 / 6 a 4 < 2 6 @ 6 6 @ 5 4 < e OXqXOXXX&X X X4.4. X4. X X9.2.W Q | Q E K [ +.O.' u u Y } } } ( 7 7 7 J U ( ( J 9 0 9 J (  .~ [ ..8 0 ~ ~ ~ J } } (  . .@. .( (  .] ( ' ] ) ) ) ' { { ) ..J { T 4 7.s.7.9.%X9.&.5.w.q.oX5XoX&.i 4 e { | | { { | | | T I U [ } | W ) ' _ p p 8 8 7 9 9 6 8 8 8 ~ ~ ~ J ~ ~ 8 8 J ~ ~ ~ / ( ~ ~ ( ( ( / / _ / / / / / / U U J U ) U U ) u 4 ] ) 7 R 6.6.J 2.s.7.2.5.;XOXq.OXw.2 o . r yXsXqXeXmXsX-X&X%X%X2.%X=X$X=XuXuX8.{ U 8.-X#X$Xa.9 W =X+.K O.a.]  .' o.O.~ ( O.J ( W O.J ) ..} U } ' } } ( U U U L | U 2 u u u U 4 4 U T { u 7 7 7 R | { E i 3 3 i o.2.2.Q I 4 4 L L Q L L ! 9.5.9.XX*XqXqXrXq.r i i r r u u e e r i r r e i i i i i e i i i r r r e r r r r r r i i i r e e r e e e 2 e e u r 4 e I 6 3 + . . X .       . . o o . . . . . . . X + + @ @ @ @ @ @ 3 2 2 4 r I U U R [ @.@.$X$X=X2X2X1X1XuXmXuX=Xa.$X$X=X$Xa.a.O.+.i.@.^ ..a.a.i. .^ i.@.] 8 9 9 8 (  .] ~ 8 8 (  . .@...( 8 ~ ~ ~ ] [ [  .O. .]  . .",
"@ < 3 5 5 0 < 3 < < 8 9 < < < < 9 p p < 3 p 6 2 6 2 5 2 @ a 5 < p 4 2 Y wXqX+XXXXXXX>X X2.4.Q Q 4.8..X4.8.4.4.4.@.[ [ o.O.| R J K U ) ) ( ( ( J J J ~ ( ] ] J < 9 ( ~ [ ../ 0 8 ~ ~ ' O.[ J  ...@.} ' ] } ] ] ' ] ' ] ) ' ) { { ) T { R 6.7.{ :.2.%X9.&.w.w.;.q.OXOX&.Q T Q Q Q { U u Y | :.| | ) E Q E I i u p u p p 8 6 8 p p 8 8 J ~ ~ ~ ~ ~ J ~ ~ ~ ~ J ~ ~ ( ~ ~ ( _ _ _ / _ / / / _ / / U U ) U U U U u 7 U ) 7 T | { R | 6.6.W Q %X;X%XXX9X9Xr + @ oXfXsXyXqXsXsXwX&X&X8.6.%X#X#Xs.=XuX1Xs.R L 6.$X$X$X[ 7 $X$X[ O...] i.' ' 8.( J O.[ ~ ' O.J } } } R O.O.| R 0 ) ] J T { 4 7 R R R U 3 I | T 7 4 U U R L T Y u 2 3 r ` W W L 4 2 e I Q #.2.2.#.2.5.&.2.Q ;.5.XXdXeX&.r u i r e e e r r i e e e i i r i r e r r i e e e q e r e e r i i r e r e e e q e e 3 e 2 e 4 4 4 p 3 . . . . .           . . . . . . . . . . . + + + @ @ @ @ # 3 2 2 r I I R ) } ( [ [ a.a.a.$X,X1X=X1XuXuX1X=X=X=X#X+.a.$Xa.+.@.( 0 ~ .... ...( ^ ^ ^ ~ 5 3 3 6 (  .] ~ 9 0 9 / ^ @.] ~ ( ~ 8 [  . .[ [  . . .] ",
"< < < 5 < @ < 3 5 < < 9 5 9 6 < < 6 _ 6 < 6 6 < 6 6 a 3 @ a 2 3 5 3 a r qXqXOXOXXX XXX&X#X#X8.W W W o.o.O.W R { Q | | W } +.@.W U R ' ) J J ( J ~ ( ~ 0 9 _ _ 8 9 9 0 ( ..~ 9 ~ ( / ( @. .[ O...} [ [ } ] ] ' ( ' ] } ' ] ' ' ' 7 ) ) | s.{ L s.5.9.5.2.w.XXXXoXOX5X;.&.4.6.R 4 4 3 4 ) { { } o.o.| Q Q T R 7 7 7 7 7 8 7 8 8 8 8 J 8 8 J ~ ( ~ J ~ ~ / ~ ~ ~ ~ ( ~ ~ ( _ ] _ _ _ / / / / / ~ J U ' ) U U p 7 U U 7 7 T U 7 R | T | 6.%X%X9.9.;X*XOX&.+ E dXdXmXiX9XyXsXyXuXuX:X9.2.} | { o.#XuX1Xa.W K $XO.+.} 8 O.$XW  ...J } ..' 6.[ J 8.} ~ } } U } } W } O.R W K 0 ] } J { Y 3 ) { Q W I 4 T T U u Y Y 7 4 T u 2 3 4 L | | Q o.o.| ` E I ! 4.9.9.4.4.2.! L Q ! ! ;.eXsXOXr I I u e r e i e a e e e i a e i i r r q q q e q e r e e e r r e e 2 r q q e 2 e q 2 e 2 4 4 4 7 1 +   . .     . .         . . . . . . . . . X + + @ @ @ @ # 3 3 3 4 I I I T ] ] ( [ [ i.$X,X2X<X1X=X1XuX=X<Xd. .] ( ~ @.a.+.[ [  .( J 9 9 9 9 9 9 ~ ^ ^ ~ 9 0 5 J ^  . .~ 9 9 8 ~  . . .O. .^ ^ @. .^ ~  .i.i...",
"9 8 9 < < 3 5 5 5 2 @ < 9 0 9 9 < < / 8 < 9 p 3 2 6 a 3 3 a < 3 2 3 5 e 5XqX+XOXOXXX5. X#X#X&X9.6.6.o.' } ' ) R L L R T R R ' o.' ' ] ..] ] [ J J [ .. .~ 0 9 8 / ( 0 7 ] _ 8 ~ _ ~ ~  . . .O.]  .[  . .' ( ( W } ..] } ....U U { | 6.6.| { | :.2.Q Q 2.w.;XoXoX+XqX;.;.2.7.{ J R L T | { { Q Q Q W { ] ] ' ) R U J J R U J J J J J 8 8 8 J J 8 ~ ~ ~ ~ ~ ~ ~ ~ ~ ~ / ( / _ _ _ ~ ~ ~ / / / ~ ~ U U ) ) 8 U ) T U 7 U R T | 6.| ` 6.9.2.Q 2.w.;X5.q.7.3 oXrXqXmXsXeXyXyXyX:X=XuXuX&Xs.{ u u { d.$X=X$X} 6.s.$X+.8 ' #X' @.i.J R } ' O.} ' 6.' ] ' ' [ } } W O.o.R } K R O.] R | 7 4 ) ' | Q I u Q E W Q T u u R T 7 3 u T Q 2.Q E Q o.8.6.2.2.6.4.4.2.! Q #.#.#.2.XXXXOX5XrXeX;.L e u u r e r e e e q e a e 2 r s r r 3 q q 2 q e r e e e i r e e 2 q 2 2 e q e 2 1 2 3 4 u 6 5 X     . .     . . .     . . .   . . . . . . . X + . . + @ # 3 3 2 4 r L R ) ( J [ @.+.$X2X1X1X1X1X=XuXaX1X<Xi.^ 8 ~ 9 K @.[ J J @.i.i. .@. .K 0 9 8 ~ ^ ^  .^ ~ J ~  . . .] ( ~ ~ ~ ~ ^  ... .^ (  .@.@.@.O. .] ",
"< 0 5 9 8 p 6 3 5 p 2 6 8 3 9 6 9 < 5 8 < 3 6 5 4 a 5 3 5 a 3 3 4 6 @ P qXqX*XOXXXXX5.#.4.4.2.8.#X#X8.o.+.o.+.+.} { R R R T R U ' U J '  .O.} J J J ]  .] ( 8 9 8 ] ' J J ] ] f ~ 8 8 ] ]  .O. . .( ]  .' ( ' | ....' ] | ] R T ) | 6.| 6.s.2.Q 9.6.2.9.;X%Xw.oXOXOXXX&.T | 2.! o.{ W W ' | { T e 2 5 5 5 h h u U J J U U U U ' J J J 8 ~ ~ 8 8 ~ ~ ~ ~ ~ ~ ~ / ~ ~ / / / / / ~ ~ ~ ~ / / / / ( / U / U U ( U U ) U ) U T U T I | 2.2.2.2.9.w.7.5.w.w.*XsXeXeXsXsXyXyXwXuX:X#X&X:X1X-Xs.6.{ { U U 6.1X=X' 6.=X2X .K a.o.( +.} u ( [ W ] O.O.W ] J } [ } ' o.O.O.} 6.' } O.] ] o.7 U ' W | Q u Y | | Q L L L Q Q e 2 7 | | E L L a u R #.o.| Q T { T L L ! 2.4.4.5.5.;.OXqXOXeX5X! 4 i i r 2 i i e e q e a q 2 e s r e 1 q q 2 q 2 e e e q e e e e q 2 2 2 q q q 1 # 1 3 5 5 @ .           .     . . . . . . .   . . . . . . . . + + + @ @ # 3 2 e 4 e r 7 7 J (  .@.+.+.$X1X1X1X1X$X-X1XuX1X$X=X8.$X+.^ +.@.~ 0 ~ @.i.@.i.i. .^ ~ ~ ~ ~ ^ ^  .@.^ ^  . .^  . .~ J 9 9 9 9 (  .] J ~  .O.O. .( ( ",
"@ @ @ < 5 5 5 5 5 6 < < 9 9 5 9 8 5 9 p 6 0 2 3 6 u 2 3 5 y 2 5 4 2 @ E eX+X+XOXXX X5.#.4.8.o.Q 2.2.o.o.2.Q Q o.s.O.| o.O.} W R { ' ( K K J [ } J J K ( [ ] ~ 9 8 J ( } J J ] ( ~ f f _ ] ]  . . .[ ] ] [ ....O.} } ' ' ] ) ) ..,...` ` 6.| I 7.9.9.9.5.w.5.3.*X9XqX*X&.L I Q #.Q W R W { | E E i e q 2 5 6 p 7 7 7 7 7 7 U ( ( ( J J / / ~ ~ J / f 8 f 8 8 f f ~ ~ ~ / ~ / / f ~ f f h h h h / / / p 8 ( ( 7 R 7 U U U U U T | 6.| W | 2.| &.3.w.XXoXsXmXrXeXeXwX:XiXuXuXuX:X9. X#X&X=X1X=X$Xa.) 7 6.1X8.J [ $X$XU U ( J ' 6.( J [ K ' 8.} }  .' @.[ } J O.8.} ( 6.O.} ( J ..O.T ' } | { T R ] E T R 4 I Q Q 4 4 4 L | ` 4 4 4 3 u Q | I e 4 2 4 4 r L &.Q 2.&.Q P !  XOX5.9XdXq.r r e e e i a e q q q q q q e i q q 2 a q 2 q 2 2 e e q 2 2 e e e 3 1 1 1 q 2 2 3 2 1 5 # X             . .   .     . . . . . . . . . . . . X + + @ # 3 3 3 2 r I I u 4 4 U o.[ @.O.@.+.$X=X=X1X<X=X#X<X=X=X1X$X1X=Xa.a.@.] ~ 9 ~ ~ J ~ ~ ( ( ^  . . .[ ~ ~  .( ~ ^ ~ ~ ~ ] ^ ] ^ ~ J 8 ~ ] ] ( J ~  . .......",
"5 5 < @ @ < 5 9 3 9 p 9 0 0 0 9 0 9 9 8 / 6 5 5 3 a 2 3 5 2 2 a 4 3 3 Q eX+XOX+XXX X&X&X4.8. X9.6.W W o.s.8.o.' @.o.} W ' O.O.' R ' [ [ [ [ } o.6.' K J ( J 8 ~ J J J  .} J J ( ~ f f / _ (  . .]  . . . .O.} } ] ] { ] 6.| | 6.,.| U I T T 7.6.2.6.7.5.w.q.q.*XqXeXqX&.:.T U ] Q T L R R i s <.>.%.%.%.%.%.E E / / p 6 6 / _ ( ] / 8 ~ f f 8 J 8 8 8 f f 8 8 8 ~ 8 ~ / / _ _ f h h 6 5 y 5 p p _ 6 / / U ( U W ) J 7 T U { | { | { R T 6.6.3.5.%XXX+XsXsXdXeXyX*X:XiX-X-X-XuX:X:X:X:X$X.X8.#X=X$X' 4 } =Xa.( _ 8.$X[ [ | I } O.J } K ( 8.R O.i.[ [  .} J } 8.4 7 O.6.' J ' 6.{ W ' ) { Y R U W Y u R Q 2.E i I | { E L e 5 a p W { { E q q y u r r T :.2.E P r L L 4.XXXX5.5XrXeXP e 1 2 e e 2 e q e q q q e a e 2 2 1 i q 3 w e 2 2 e e 2 2 q e a 3 1 1 # q 1 1 3 q 3 @ .   o     . .               . . . . .   . . . . X + + @ @ @ 3 3 3 3 2 4 I E u p U W ' W +.#X#Xa.a.$X$X1X1Xd. . .u.i.i.@.@. . .~ 0 9 ~ _ ~ 0 0 ~ ~ 0 ~ ~ ~ ^  . .~ 9 5 0 0 0 0 9 J ^  .^  .^ ^ ~ [  . ...( J J ~ ] ..] ",
"8 8 6 6 2 2 5 6 5 6 9 6 9 6 5 5 < 3 6 6 9 6 5 5 3 2 5 2 5 a 5 2 2 2 5 ! eXqX*XOXXXXXXXXXXX9.2.2..X8.o.#.W o.2.2.o.6.6.| T W } 6.W K K K R R U 7 ] ] } ] ' ( J 0 J J J J ( ] ] ~ ~ ~ ~ ( ( ]  . .[ } } ] ....O.| } } | | | ] ] ` { ` p Y 6.s.:.2.s.2.Q 9.5.3.9Xw.9XqX9Xq.5.:.Q L Q | Q t A -.-.U.U.U.U.U.-.-.-.-.s s s s Y Y Y U / f 9 p h p 8 J J J ~ f f f f 8 8 8 f ~ ~ f f ~ / h 6 5 5 1 y y p h U U U R R U J J U ) R R T R 4 I :.2.2.2.5.5.w.OXeXeXiXyXyXiX-X-X-X%X9.9.9.s.=X=X=X:X#Xo.| 6.#X.X8.W o.$Xa./ J O.8.W } } U ' J ' o.J O.} } 6.(  ...O.R o.W 4 U ..{ U J ..a.| ..' ) ) ) ) / 8 U Y { | T L I 2.| L 4 L I I E | :.I I U L I E :.| 2.2.2.| I I I Q 2. X5.;.XX+XeXrXq.r 2 a 2 w a 2 2 2 q q q e e q 3 3 q e w 1 w 3 2 3 3 2 q q 2 q 2 1 1 1 1 1 # 1 3 # + .                     . o . . . . . .   . . . . . . . . @ @ # 3 3 3 3 4 e e r I R U ' } O.8.=X2X$X=X1X$X2X2X=XO.J J / h 0 9 f g 5 < 0 f  .@.^  .i.] J 9 5 5 0 9 ~ 8 0 < 5 < < 9 ^ ^ ^  .^ ^ ^ [ ~ J ( ..O.@.[ J J J ( ' ",
"0 < 0 p / 9 0 9 5 5 9 5 5 5 5 5 3 3 9 6 6 6 5 < 3 3 5 3 5 a 2 2 4 2 3 P rXeX*XOXXX XQ Q 2.o.W R o.9.9.o.L L L L R W | | { W { | } { W W ' T R J 4 J [ } } ' ~ J J J J J ( ] X._ _ ~ ~ / ( _ X.X. . .] ( ] ..,.| | | | | | | { { { ,.| 6.6.| 2.9.:.L 9.9.;.w.*XXX9X5X5X5.3.6.6.R e ` >.-.U.Y.Y.U.m.Z.m.m.Z.m.m.m.U.-.-.-.-.=.%.s i p J J f ~ / / 8 p / 8 8 8 8 ~ 8 8 ~ ~ / ~ f f / f 5 5 1 $ $ 5 a h p J U U U J R U u u 7 u R T | | 6.,.Q 2.6.3.2.XXeXqXsXeXyXyX-X%X9.8.s.} R { | 6.| 8.%X<X=XO.' o.#X8.a.=X#X8.J W O.o.} ....' U ( O.[ [ } } } [ } ] } ' o.} ' U O.o.} ' ..O...) ) { | ..{ / p p U U U T :.:.Q R u 4 I T { ` T Y 4 L W Q T I E Q Q Q L L L Q 2.4.5.5.#.! q.OXOXqXeX;.2 i e e e 3 3 q q q 2 q e w 2 w w w w w w w w 2 3 3 2 2 2 q 1 3 3 2 2 1 1 # @ + .                       . . . . . . o o o . . . . . . X X + @ @ 3 3 2 e e e r u u R W ( [ [ @.#X$X=X1X1X1X:X:X:X=X$X} 0 0 0 < 0 5 < < < 9 ~  . . . . . . .9 0 < < 9 ~ ~ ^ ~ ~ 0 0 ~ ( / p / p 8 / / J ~  . . .} [ [ ] ( J ",
"3 @ @ @ 3 5 5 < 6 9 9 9 9 6 6 6 2 2 2 9 6 6 5 < @ @ 3 1 2 5 2 2 3 2 2 E eXqXOX+XXXXX5.4.#.| 8.o.L Q 2.8.6.2.o.| { { W T R R R R W ' [ [ } o.o.O.W ( [ [ [ ' ( ~ J J J ( ] ] X.X._ / / _ / _ _ _ X._ X.) { ..6...:.| } ..| ` T T { | { | { | 6.2.Q 9.f.5.w.*X*X9XeXrXeX;.2.| :.&.=.U.Y.Y.Y.U.m.m.M.m.m.m.m.U.U.Y.Y.Y.U.U.U.U.-.F =.=.E p f ~ 8 6 p / U 8 8 8 8 ~ 8 f ~ / / / / / h 8 5 5 $ $ $ $ y p p p U U U U U U U U Y T ` | 6.| | 6.:.7.6.:.&.OXdXqXiXyXiXiXwX-X&X%X=X#X8.{ I | ..| { 8.<X1X8.o.o.W } s.%X$XO.R o.6.] J ..6.O.K J } ] ] J } } } ' [ O.} ..] ~ ] { W ..6.| { { ` ` ` ` ` h h / U R T | | W L 4 I Q { T I u u 2 4 R { W L L L L I I ! Q 2.5.4.&.! &.! P ;.;.&.q.rXOXL e e q 3 w w e q w 1 w w 1 q w w w w w 1 1 1 1 1 1 3 1 q 2 1 3 2 2 2 1 # + .                           . .       . . . . . . . . . X + + + + @ # 3 2 e r I E I I T ' [ [ ] @.@.O.#X=X=X&X=X&X&X1X1X=X@.@.8.o.} ] ( ( 8 < 0 9 ~ J 9 ~ ~  .^ ~ J J J ~ ^ ^ ^  .] ~ ~ 8 5 5 5 6 6 7 J ( ( ~ [ ]  .[  .@.} [ ",
"9 8 6 5 < 0 9 9 < < 0 9 6 6 6 6 5 2 2 6 6 6 5 3 @ @ 3 1 1 2 3 2 2 4 5 I qXqXOXOXXXOXOX&X X9.%X Xo.W K o.8.+.o.o.o.6.o.} } } { T R K K K K W ' o.o.} [ [ [ [ ' ( / J J ( _ _ _ X.X._ _ / h / _ _ X._ ` { { { | | :.| ....| ` { { 6.| | R R | | 6.s.%X3.9.w.XX*X*X9XrXeX&.! $.-.R.Y.Y.D.Z.m.M.M.M.v.m.m.m.U.m.m.m.Z.m.m.m.m.m.M.M.U.U.F A a / / _ / ~ J 8 p p 8 ~ f ~ / / _ / / h f 9 5 5 $ $ $ $ y y p p U ) ) ( R T Y Y ) T T ` | R T 2.| Q Q E ;.eXdXeXeXyXyXyXaXaXuX:XuXuXuX&X8.T | ) Y Y { O.#X$X=X6.T R } 8.a.' W 6.a.} ' ' } ' U J ( } ( ) ' } ( ] O.] } ] 8 ( } W { 6.| { ` ` j y y j h h / U ( ] ` I 4 K R Q { T I 4 e u 4 R | | Q :.&.&.| | Q | :.2.Q L I r P P P P P ! ;.OX5X&.< 2 q 3 e e q q w w w w 1 q w w w w w w w q q q q 2 w e 2 2 q q q 1 @ X         . o                   . . .             . . . . X + + + @ @ @ @ 3 3 2 4 i I i u R ) ' '  .O.@.o..X=X&X.X#X$X8.a.=X1X$X=X$X$Xi.+.+.+.@.^ 0 < < < @ < 0 f  . . . .^ J 9 0 J J [  .^ 9 0 J 9 ~ ^ ~ ( ] ( 8 8 J J J J ( ] ..",
"J 9 9 9 9 6 5 6 8 8 p p 6 6 2 3 5 3 3 2 5 5 5 3 @ @ # 1 1 1 3 2 2 4 5 2 XXqXqXXX X5.;.5.XX5.2.5. X8.4.4.8.+.o.W W ' { ' W { } o.| { ' ' W R K K 4 J [ [ ( J U ] ~ 8 9 J / / _ X.X._ _ / h _ _ _ ` ` ` ` ,.` <.:.,.| | :.:.:.:.:.| | :.2.7.7.6.s.7.Q Q w.;X9XoXoXqXeXeXt.-.U.Y.W.S.Z.m.m.n.n.m.M.m.m.Z.Z.Y.m.n.b.v.v.D v.v.v.v.m.m.Z.F.M.F A ) ] / ~ J ~ / h h ~ ~ / / / _ _ / / p 8 5 5 $ $ $ 5 5 6 a p p U U U U R U 7 U U U T Q Q 6.9.2.Q &.:.q.rXdXeXeXyXeXeXqXyX*X%XwX:X:XuX1X#X8.O.| T W K ( } a.s.s.2.W K 8.o.K K } } } ' J } } J ( ] ] J ' ../ ( ..[ o.o.] ( O.O.{ | ) _ h p 1 # y y h h / / / R T T ) T T I L L L I E E Q Q { E Q ` I r e e e e e r I L i r r r r P &.5.OXOX5XOX2 1 y q q e e q q q q 1 q w w w w w q y w q q q q 2 w q 2 q q 3 # + .         o o                     . . . . . . . . . . . . X + + + + + @ @ @ 3 3 2 e u e 4 4 7 U U '  .+.a.$X#X$X=X$Xa.=X$X} o.O.O.8.O.@.@.@.@.@.@.@.] 9 9 9 < 5 0 8 ~ ~ ^ [ ~ 8 8 6 J J J ~ ] ^ ^  . . . . . .~ ~ ' _ _ ]  .[ ( ( [ ",
"7 0 < < 2 5 5 1 9 9 9 6 9 9 6 5 5 3 3 2 3 2 5 3 @ + # # # 1 3 2 3 3 2 q XXeXqXOX5.3.&.Q 2.4.#.#.4.9.9.2.| 2.6.6.o.} o.8.6.} W W W T W } O.o.} } ' R K J ' } ' J / ~ 8 / / / _ ] _ _ / h h _ _ / p / X.X...` | :.` Q :.3.Q ` | | 6.6.6.6.s.6.:.,.2.2.%X%X5.q.q.e.eXrXrXR.Y.W.D.A.Z.n.m.m.n.n.m.m.Z.m.m.m.m.m.v.v.b.v.v.v.v.v.v.v.v.b.Z.m.M.-.E u s U ~ ~ ~ h / ( ~ / / / _ _ / ~ h f 8 5 $ # $ 5 5 5 6 u u Y U U R U R R ) ` ` { Q 6.f.9.5.&.&.&.oXrXdXeXeXeXeXqX*XwX%X2.9.2.2.%X=X:X-X-X%X8.s.| J W W W 8.s.8.[ R ' o.' U U O.8.} J ( ..] 8 ] ( / ] ~ ~ _ ' | o.O.8 ] 6...{ Y p p 5 # # $ y h h _ / U 8 U ` { U I L L I R I I T Q I I i i i e r 2 2 2 e e r r r r r P &.;.;.5.OXqX+X5XqX;.e 5 1 2 r i e e 2 q 2 2 1 w q q w q a q w 2 q q q 2 1 1 1 3 + .     o                               . . .   . . . . . . . . . X X . X @ @ 3 3 3 2 r u L r e 7 u 7 R ' @.+.$X=X$Xa.#X$X$X=X=XO.( 9 9 ~ 7 9 K  .O. .^ ] ^ ^ @. .~ (  . .^ ^ ~ ~ ~ ^ [ ^  . .^ ~ ~ ] ] ]  .( ~ ~ ~ ~ [ @.....] ( ( ( ~ ~ ",
"0 8 ~ J 9 9 9 8 8 8 9 9 9 6 6 5 5 3 3 3 3 3 1 # # + # # # y 1 1 y < 3 e oXdXqX*X%XXX5.4.2. X%Xo.! Q o.Q T I T T } { } o.o.O.6.6.O.} W R R T ' } 6.+.O.[ ( ' ] ] ] ( / / _ / _ _ _ h h h h j _ h h h Y ` 3.&.E &.:.=.T.T.3.{ | 6.:.7.,.{ ` E 7.7.7.%X5.2.w.oX4X4X6X6XR.Y.W.D.B.Z.Z.n.n.n.n.Z.F.Z.m.m.b.b.b.v.v.v.n.b.v.v.v.v.v.v.v.v.v.v.M.F -.=.=.%.R ~ / / / ( ~ ~ ~ / ( _ / ~ / f f 5 5 1 5 5 5 6 p p p Y Y T U U U U i i i i r E <.,.7.2.:.2.5XrXrXeXyXqXqXqX*X;Xs.| W Q Q W o.#X&X=X#X4.s.#X9.&X%X+.' W o.6.O.} 8.O.o.} o.8.6.' U ( ( J ] ( J ( / / _ U ( ] | 8 _ ] ] U / / h 6 5 5 5 5 h h h f 8 8 U Y U U I I E Q T u e u I u 4 2 3 3 3 r I I I E ` ` E r r ! Q 4.5.4.5.5.5.q.OXqXOXI 2 q e i i a q 2 1 1 3 1 q q q q q q w w q 2 q q 2 1 # + + .                                       .         . . . . . . . . . X + + @ # 3 3 3 4 r i I I u u u U U W o.@.8.$X=X#X#X=X$X#X$Xs.] 5 5 9 < 0 0 ~ ..] 8 0 0 J ^  . .[ @.@.^ ^ ^ ^ ^ ^ ~ ~ _  .( 9 0 9 9 9 7 8 J 8 ~ ]  . .( ( J J ( ]  .[ ",
"u 6 6 p 8 0 0 0 9 9 9 9 9 4 2 3 5 < < 3 3 3 @ @ # + # + # y 1 1 # q q 3 q.rXqX9X*X*X+X&X X X&X X8.8.8.o.| | o.o.| 6.6.W R W o.6.6.8.+.O.o.} } } o.O.+. .( J ( J ( / ~ ~ / / / _ h p a j j j j h j d A t.4Xt.-.T.R._.8X8X5X*.*.0.:.E | ` | 7.7.7.7.7.4. X*X9XeX0XR.Y.J.H.N.m.m.n.M.b.b.m.m.m.Z.B.v.v.v.v.v.v.b.b.v.v.v.v.M.v.v.v.v.M.U.M.v.b.m.U.U.=.I U _ _ U J ~ ~ ~ ~ ( _ ( / / h f f y y 6 8 a p p u p I R R R U R T Y E E E s s s ` E I i :.eXrXeXeXyX9XqXqX*X*X&X9.#X-X&X%X7.:.o.#.4..X8.#X X8.6.a.$X8.4.4.a.o.o.[ O.o.' } 6.o.[ J ( ( U ' T U _ / _ J / ] | 8 8 9 ( ] X._ h 6 6 h 5 5 9 h f f 8 p ) ` | | ` ` ) Y R U Y ) 7 6 6 4 u Y I | Q 2.Q E I Q E I Q 4.2.W R Q Q P 2.;.q.qXqX! 2 a s s a q 1 1 1 1 < 3 q w q q q 1 2 2 2 1 3 3 @ + . . .                                         . . . . . . . . . X X X + + @ + + @ @ @ # 3 4 e r I T T U Y ) U U O.@.o..X=X#X#X=X=X#X=X1XO.7 0 4 0  .~ J ~ ~ 9 < 5 8 J ( ( K K 0 9 J ~ J J 9 0 2 5 9 9 5 2 9 9 J ~ ~ ]  ...] ( J ~ J ( ] ] ] ~ ~ ",
"U 8 0 7 U U 4 < 0 0 0 9 9 6 2 3 3 3 3 3 # @ # # X X X + # # 1 2 5 q q 2 &.eX5X9X*XXX%Xs.7.:.2.4.8.8.9. X8.8.8.8.| 2.2.6.o.| W R L R { | } o.o.[ W U W ' ' ) ( ) J / h 8 8 a a h y a y y j j y E I t -.R.7X8X_.8X7X7X7X7X8X8X8XR.T.>.| Q &.,.6.9.9.%X0X%X%XpX6X^.K.D.Z.n.n.m.n.n.n.m.Z.m.n.b.k.k.j.k.b.b.b.v.v.v.b.b.n.m.m.m.m.m.M.v.v.v.D D v.v.M.F -.E 7 T ) ~ / / / / / / _ / ~ ~ / h h h f f u p f J J U Y ) J R U i r t =.-.-.1.>.%.E :.%.3.eXeXrXrXqXwXeXwX*XeXyX:XwXwX&X%X4.T I T ` 6.6.8.6.R ` | | | | T ' ] ] ' W ) ] | } o.} ] J ] U ) ) ( ( ] X._ ~ / ] ] J ] ..6..._ f h h p p 6 6 8 U U / ) ) ' ' ' R R I R I I T T I I E E { | Q E I Q Q P r r I Q 2.2.2.L L ! ! P 2.XX*X9XqXOXe a a a r 2 3 3 1 1 3 1 q q q 2 3 1 1 1 # + @ +     X . . . .                                   . . . . . . o X X X X + + X . X + + @ # 3 3 3 4 e e T 4 I { ) { } ' o.+.8.8.$X<X#X8.#X$X=X$X] ~ U ) [ a.+.@.[ [ [ J [ ] ~ ~ f 9 < < < < 0 5 9 8 h _ h / ~ ~ J / _ X. .~ ~ [ ] ~ J J ^  .@. .[ ~ ( ( ",
"0 8 U 7 7 8 8 U 9 6 9 9 6 6 6 6 5 2 2 3 3 @ @ # + # # # # # 3 3 1 1 1 1 r 5X+XOX*XOX X2.Q Q Q Q o.2.Q Q o.2.| W W R L W o.6.o.W Q W Q R R I R R J J J ( ( ( ( ( ] / h / / p a h a q q y A G =.A -.-.R.8X7X7X_.7X7X7X7X7X7X7X7X8X8XR.&.| 7.s.s.s.9.7.5.r.T.R.Y.Y.A.N.n.n.b.n.m.B.Z.m.n.b.v.v.b.v.b.v.b.k.b.b.n.n.n.n.m.m.n.b.v.v.v.D D D D D D D b.m.M.-.E R W U / ( / J _ ..../ _ _ _ / p p p p p p 8 p Y T E Y I ` ) e A -.R.R.U.U.U.-.*.*.&.w.dXrXrXeXeXeXwXqX9X-X;X%X%X4.W 6.#X8.8.6.T E u I W 6.#X2.W L W O.o.{ W T { } | W o.6.] ] ] ] ] U ] ] ] ]  .X./ / ] ] J ] ..| ) _ 9 8 / _ _ p 8 / _ _ ) ] ] ' ) T T T T T T T T { { Q T I I r 4 e e 4 r E :.:.:.,.:.Q L L E 3.2.&.3.5.5.q.OX5X&.q y 2 1 1 3 # 1 1 y q q 1 1 3 # # + + . . + .   . + . . X + o                                 . . X X . . . o . . . X X . . X + + @ # 1 e 4 4 r E L 4 e I T ) ' ' O.a.#X#X#X=X$X8.8.#X$X#XO.i.+.O.[ @.+.@.K J [  .^  .^ ~ J 9 9 J ~ ~ ~ ~ ~ ^  . . . . .^ ^ ^ ^ ~ J 8 8 J ~ p U ) ) / ( [  . . . .",
"0 p / 8 8 / ( ( 7 7 9 6 9 0 2 2 5 5 2 3 3 # # @ # # # # # # # # 5 1 q y r OX9X+XOX*XOXXX X5.9.o.L Q Q Q Q L L { o.o.| W W ' o.O.8.+.+.o.o.} W W W J J ' ' ) ( ) ] _ _ _ ) i a i p 5 y A F R.R.U.U._._.`.7X7X_.].7X7X7X7X'.].7X7X7X8XR.r.7.:.7.7.2.>.t.R.^.L.A.m.m.n.b.n.n.m.Z.m.n.b.v.j.j.v.v.v.b.b.b.n.n.B.B.B.n.n.b.b.j.j.V V V V D D D D D D j.b.b.U.>.W ] | ' ( U ) ] ] ] ( / _ ) / Y p u u 8 p p i i Y E T E Y s =.U.Y.^.^.Y.Y.U.U.-.-.=.e.dXdXrXeXeXqXOX*X%Xs.2.2.7.7.6.6.&X&X-X9.2.7.6.:.O.#X%X#X8.8.O.8.8.6.o.o.o.| ' ' W o.6.O.] ) ( ' } ..} ]  ...] ( ] J 9 _ ] U U _ J / ~ / _ ) ( _ / / / / ( ) ] ] { | ] ) R U I I T I I u u u e i e 4 4 r I I i r I r e r I :.&.&.:.! L ! q.qXw.3 + + + + + + + # # # + + X . . . . .     . X . . + . . + + o                             .   . . . . . . o X X X . . . . . + + + @ # 2 2 2 4 r I L I L r R R R ' } O.$X=X$X$X=X-X&X&X&X#X#X$Xa.+.@.[ @.O.J K K [ [ @. .^ ~ J ~  .@.@. .^ ^ ^ ^ ^ ^ ^ ~ J J J J K J ~ [ ~ 9 0 9 U J 8 8 ( ) ' ) U ",
"0 7 7 9 9 7 0 < 3 3 4 4 9 2 6 6 5 5 2 3 3 3 # # + # + + + + # # 1 3 q y r OXdXqXOXXXXX&X*XXX X4.o.o.o.8.9.8.2.8.8.8.8.O.o.o.O.6.W W W W { { R W [ W W [ ' ( ( ( ( _ ` T Y _ h i j s d A U._.7X_.Y._.].`.].].`.[.].].7X].).).'.].].7X7X8X6X0.7.7.r.R.{.^.H.N.n.M.n.n.n.n.m.m.n.b.j.j.j.v.v.v.b.k.b.b.n.n.n.n.n.b.k.j.j.V V C V D v.v.v.v.v.D D D D D D M.-._ X...' U / ] X.8 8 _ / _ ] ) Y Y u u J p i i u p Y T i t -.R._.Q.W.W.Y.Y.Y.U.U.U.-.T.dXrXrXrXeXqXXXw.5.3.3.9.XX;X;X2.4.5.9.%X9.9.9.$X#X6.T / U ) R L U J J ) } ..] ( W ' ..] ] } U ( ..O...} ..O. .[ o.~ ~ X._ 8 8 X.] ] ] 8 ~ _ ] ] ( / J 8 8 J ( _ T ) U U U ) ) T | T I E ` E E { I I i e e i L L 2 e r r I E L r r r P &.XX9XoXr .   .   o     .                 .     . X o .   .     X + .                                 . .       . X + + + X X + + X + + @ @ # 3 3 2 r r r E Q I I R R R ' } ' 8.=X$X#X=X-X:X:X:X&X#X#XO.@.O.( ( ] ] [ ^ ^ [ [ ~ J ~ ~ ~ J ~ ( ( 7 0 2 2 3 3 3 3 4 7 J ~ ^ ^  . . .~ ~ ( ] J ~ ( ( J 7 7 7 ",
"7 8 6 0 4 9 7 J T R u 6 6 6 6 6 6 5 5 3 3 3 3 3 # + + + # # # # # 1 2 2 3 ;.rXqX5XXX9.9.%X%XXX X%X&X#X9.9. X4.W R W | 6.6.8.O.o.Q | 2.o.o.O.} } W W J ( ( ( ( ( [ _ _ Y ) X.j A *.=.-.U.Y._.7X`.^.`.].'.].].~.[.].].7X'.).).'.].].].7X7X8X6X}.}.{.Y.D.N.b.v.b.b.b.n.n.n.b.v.v.v.j.j.v.v.v.b.n.n.n.n.n.b.v.j.j.j.V V V V V V V V v.v.v.v.v.v.v.D F D D v.F %./ ' J / / / h f h _ X.] X./ U U U u / u u u U / p i t -.Y.^.E.Y.Y.Y.Y.Y.Y.U.U.U.-.pXdXrXrXrXyXyX*XXXXXOX*X:X*X*X&X#.Y I Q 7.8.8.8.a.4.Q ) 6...6.2.Q T ) R 7 J ] ..} | ..R ' ] ] ] ( ......} O.O.O.@.O.~  .X._ 8 0 ] ....] ~ 8 / _ _ _ ) ) _ _ / / ( R U / / _ ] | { | T T Q | Q I E I T T I i E Q Q I I Q Q &.&.P L r P 4.9.OX+XOX&.+ . o   .               . .           . .         . X X X X                 . .     . . . . . . . . . . . o X X X + + + + + @ + # # 3 5 e r i I L I I I R T { | O.O.6.8.#X=X$X.X#X=X=X8.o.o.}  .O.} 7 0 U ( J K 9 0 < 3 5 0 < < < 5 6 < @ @ 3 1 0 0 J ^ [ [ ^ ^ U U 8 J ( ....} ) ] ] ] ( ^ [  .",
"6 6 p ) _ U 7 7 4 4 4 4 4 4 6 6 5 2 3 3 3 3 3 3 # # # # # # # @ 1 q q 2 3 P qXqX9XOX%X9.9.9. X X5.5.4.Q ! #.4.2.7.6.2.2.o.{ W R Q O.6.o.} [ W K [ ( ( [ ' ' ' ] W ( ) T ) h s 1.R.R.R.R._.`.7X`.~.`.].].].].~.`.'.`.].'./.(.'.].'.`.7X7X7X8XR.R.D.N.n.n.v.v.b.b.n.n.n.b.v.j.V V v.v.b.b.b.n.n.B.n.b.k.j.V V C V V V j.j.v.v.v.v.v.v.v.b.M.M.v.M.M.v.v.v.M.-.E R U ( / 8 8 h h h _ _ _ / / / U p p u u p U i s A -.Y.^.E.D.Y.Y.Y.Z.Z.m.m.m.F -.rXfXrXrXeXeXyXyXwXeXwX%X9.9.9.9.2.6.6.o.| Q 2.2.| W o.4.#X#X#Xs.8.o.6.o.| W R R ' { ..| ..) ) / _ ....} ..O.O.O.+.@.~ X.f 8 8 8 O.i. .( / / / / / U / _ X.] X.] ] ) ' ] ] ) ) ) U T R I I Q I 4 4 7 u I T I r r L I I Q :.:.Q P ! &.;.3.2.XXOX5Xq.3 . $   .                             .     o o   o + o . X .                 . . . . . . . . . . . . . . . . . X X X X + + @ @ # # 3 5 e e i I I L I R U U { ' } +.8.+.8.#X#X&X#X8.O.) J 7 J ] O.i.^ 0 8 9 < < < < @ @ + @ < < < 9 ~ ~ 9 J ~ ~ [  . . . .J 8 9 4 0 0 8 (  .[ J J ( [ } } } O.O.",
"Y u 4 4 4 4 4 4 7 7 7 u u 6 2 3 2 2 3 3 3 3 3 3 3 3 # # # # 3 # 3 1 3 r e i oXqXOXOX*XXX5.5.5.4.2.2.&.! Q 2.4.4.6.o.Q W Q | o.o.o.| | I R | ..} O.@.} } ] ' ( ( T _ X.E E i $.R.8X_.8X_._.[.7X`.~.`.'.'.].'.!.(.`.'.].(./.).].].'.(.].7X7X_.Y.F.Z.b.b.b.b.b.b.n.n.b.j.j.v.v.v.v.b.b.n.n.n.n.v.v.V V V V V j.v.v.v.v.v.v.b.b.n.n.Z.Z.m.m.m.M.M.M.v.v.v.v.m.M.-.E ) U 8 p h h y y y 6 a / _ ) U p e i i i u t =.U.Y.Y.W.D.D.Y.A.N.Z.m.m.m.M.F -.rXrXrXrXeXeXwXeXeXqX*X9.2.9.;X;X;X-X-X;X#X| | 2.7.s.#X8.o.W R | ..W W | 8.a.6.{ W ' ' } } ] ] 8 _ ] ] ..} O.O.O.+.O.( _ 8 / _ ..d.O.[ ( ] ] ] _ / / U / / / ( ) _ ( ( ) ' ' ' ) ) { T T T T I e e R I I E E i e e 3 4 I T L L L &.3.&.! E ;.OX9XOXe . .   .       .           . o .     .     + o   o X . . o .                   . . . . . . . o . . . . . . . X X X X + + @ @ @ # 3 2 2 3 e r L I L I T U U ' ' [ O.a.8.6.O.8.%X=Xo.( / p 4 7 ( [  .@. .@.( 8 J J J 8 6 < < 9 8 ~ ]  . .^ ^ ~ ~ ( ( J J 6 0 3 0 0 J ( [ [ [ ( ( ( [ ' ( ( T R R ",
"4 7 7 u U u u u 7 4 4 4 6 6 2 2 2 2 2 2 5 5 3 3 3 3 1 1 1 1 3 3 y 5 e u 1 3 >.9XqXqX+XOXOXXXXX3.&.5.9.4.#X#X8.o.{ | o.2.2.8.8.8.4.o.' W ' 6.6...} ' J ' ' ] ] ' { X.X.E :.:.-._.8X_._._.~.`.7X~.^.`.`.`.].'.!.).).).'././.).'.'.).`.7X7X_.D.N.C.n.z.n.n.n.n.n.n.v.j.j.v.v.b.b.n.n.n.n.n.n.v.V M V V V j.j.v.v.b.v.b.n.n.Z.Z.Z.Z.N.B.n.b.v.D D S S D B v.v.m.-.G Y u p h h y # # y 1 2 i T ) Y p a a i i i A U.Y.W.J.D.D.D.D.D.N.m.m.M.D v.D F pXrXrXeXeXeXqX9X9X*XOX*X*X;XXX3.;.;.5.9.%X9.#X#X9.:.T u u U p ` p J ' ( U ) O.O.' ' ] ) ] ] / _ / X...} ] ..O.O.O.O.] ~ 8 ] ..d.d.} [ O.O.] ( ] _ J 8 8 8 J J / ( ) U J W ' } ] ] / U U R ) ` ` | { E E I I I I i i E ` I r r i E ! L r s E q.5XOX` + X   X   .                   o     .     o   .   . o X X o .                 . . . . . o o o o o o . . . . o X X + @ + + @ # 2 3 3 2 e e r L r e r R T ) ' ] [ o.#X=X$Xs.6.6.#X| X.X.X.( ' [ 7 9 @.i.i.i.^  .@.@.@.] J J ( [  . .~ J J 7 6 6 3 < < 3 3 4 8 J ' } ..] ( U U R U U J 7 4 7 J R ",
"4 ) U 7 8 U U 0 4 7 4 7 7 6 6 4 2 2 2 2 5 3 3 3 < 3 1 w 1 1 3 w 3 q q y h 6 P eXqX5XOXOXOXXXXX X X9. XXX5.7.6.+.+.a.a.8.O.} ..O.' o.} o.O.} J U ' } O. . . .) | Q Q Q *.t.t.R.7X[.~._._.~.`.].~.!.(.(.).'.).!.(.).].'.).(.'.].[./.'.[.^.D.B.n.b.b.n.n.n.b.b.v.j.V V j.j.k.b.n.n.n.b.j.V V V C V l.l.l.k.k.b.B.B.Z.Z.Z.B.n.n.b.v.V V V B B B B V D D D B v.M.F A Y 2 Y 6 a y y 1 3 5 y 6 I I I U r i h s A U.Y.W.D.D.J.J.S.A.Z.Z.m.n.v.D D v.F pXgXrXrXqXeXeXe.r.%X0X*XXXw.&.E ` :.:.I Q :.6.E T R | 8.| 6.6.8.O.{ { o.o.R R | { | | { ) / h h / _ ..X._ ....O.O..._ ( ..O.O.] ( } a.a...} a.O.( / / ( ] U 9 ~ / / { T ) _ ( ) ) U 7 7 p p U T T I I I I u r L I I I Q E r e i e i i r r &.q.5X5Xq.@ . . o . .               .             . . o .   . o o . . X                 .   . . . X X X X o o . . . . o X X X + + @ @ # 3 3 3 2 e r I Q L L I R ) ) W ' ..] 6.8.#X=X=Xs.s.o.+.8.$X8.+.i.] U } } @.O.@.@.@.[ [  .[ [ [ [ ( ~ K K J J 9 9 0 9 9 7 J ( [ @. .~ K 7 7 7 4 7 u 6 6 7 U ' } } ",
"7 7 4 4 7 7 4 4 u Y u 4 4 6 p u 3 2 3 3 2 2 3 3 3 1 2 2 2 2 3 2 w e w q 2 2 I *XqX5X4XT.e.e.0.3.5.9.9.4.Q Q :.:.2.8.6.| Q | { T o.6.o.' } ' ( }  . .^ ~  .u. .X.<.t.T.T.R.R._.7X`.^._.~.^._.[.~.!.~.(.).[.).~.(.(.'.)././.'.'.)./.~.Q.D.N.B.n.n.n.n.n.n.b.b.v.j.k.k.b.v.b.b.b.b.j.V V V V j.j.j.k.k.b.n.n.B.B.B.n.n.b.k.j.V V C V V V V V V V D D V D D v.v.F A 7 u p p h a p y q e 7 4 I I E _ I I t =.R.^.W.D.D.D.S.S.A.A.Z.Z.v.v.v.D D D F gXfXrXrXrXeX9Xe.q.0.q.3.:.&.&.3.%X;X:.Q s.f.6.Q 6.%X9.9.9.&X9.2.#.K W { { } | W W { | { ) p 6 9 8 _ X._ ( ] ......X. .....] ' ] ..O.a.6.o.a.a...U ] 6.6.6.6.] 8 f _ _ Y U 8 8 / | [ R 7 4 3 2 q q 2 4 u Y E T Q Q ! P E I L E Q E I L r P 3.q.OX+XOX2 X       .     . .     . o .               .   . . . . o X X     . . . .     . . . . X X X X X X X X X X X + X + + + + + + # # 1 2 q e e r I Q I I U U R R ' ' (  .@.a.$X&XXX1X&X&X#X$X8.+.+.a.+.@.@.o.@.[ [ J K J ( ( [ [ [ 0 0 J ~ ^  .^ ^ ~ ^ ^ ^ ^ ~ U R 4 6 u U U [ [ [ [ ( ~ [ @.@.@.@.",
"7 7 J 7 U U 4 U R 4 3 4 7 6 u 4 2 2 3 3 2 3 3 3 : w 1 3 3 2 2 2 3 3 2 i A > A t.8X8XR.R.R.R.R.R.t.0.3.! &.2.6.d.2.| { { | 6.6.d.d.d.d.d.s.,X<X<X<X<XlXlXlXbXzXjXy.R.^.R.^.^.!.~.~.^.^.~.^.^.(.!.^.~.~.(.).(.!.~.).'.)./.(.'.[.(.^.J.N.B.B.B.B.N.m.n.n.b.k.k.k.v.b.b.n.b.b.v.j.j.V C V V j.k.k.b.n.B.n.n.n.v.v.v.V V V V V V V V B V V j.v.D D D D D D D D F A a 4 Y p p / p u a a u I e s s h p E t -.R.^.E.J.J.J.S.S.A.A.Z.n.n.v.v.D D D D U.fXfXrXrXrX0X9X9XoX0.&.&.>.3.%X-X*X7.6.%X;X9.4.s.%X2.Q 2.4.6.9.8.o.| o.{ T o.o.W { ' ] _ / p 9 5 5 h ` h / ] ....] X. ...O.O.O... .] O.....a.6.' J 6.d.} } 6.O.] / f 8 ) ) U 8 8 h ' ' ' R u e q y 2 3 2 u E E E E Q E Q E I Q Q E Q ! Q 2.9.9.XXOXXXi .   o         . .     . .       . o . .     . o X . . X X . . . . . o o .   . . . . X X X X X X X X X X + + + + + + + + # # @ 3 2 2 e e r P I I E R u R T W W [ @. .+.#X>X+X=X&X#X#X6.o.' ' } o.o.[ [ J J J 5 3 3 5 0 8 ~ J < < < 0 9 ~ ~ ~ [ ( ~ J 7 4 4 e 7 U ' [ ( [ [  .@.@. .@.@.@.( K ",
"7 T ) U 7 7 4 u 4 3 2 u 4 3 2 u e 4 2 2 2 3 3 3 1 2 3 3 w y w y a q w d F Y.Y.~._.~.~.~.~.^.^.^.R.R.R.R.T.r.u.,XkX<XvXbXMXCXCXCXPXFXFXHXHXKXKXKXKXKXKXKXKXKXSXxXg.|.^.^.{.{.^./.~.^.^.^.^.^.!.!.^.!.!.~.~.!.!.^.(.(./.!.!.(.(.K.D.A.N.N.Z.Z.N.N.B.n.z.k.z.k.b.b.n.n.b.k.k.j.V V j.j.j.v.b.b.n.n.n.n.v.j.V C C C C B V B B V V v.v.v.v.v.v.v.v.M.F v.v.v.M.-.A 9 p ) U U p u u u ~ U i i s a i L =.U.^.!.E.J.H.K.J.S.S.A.N.B.n.b.v.v.D D D D -.gXfXrXrXrX5X9XeX0Xw.w.*X9X9X*X5.:.7.2.9.2.2.4.7.Q | 8.2.R o.7.{ T o.6.6.6.{ Q | } | { / p h h y y j X.h h X.X.X._ _ ..O.i.i.i.O.......} ] O.} } O.a.} ' 8.a.O....._ f _ ..] / 8 6 e i ) { { R 7 p ` u 4 6 u e e r I E | | E Q Q T Q Q 2.2.5.2.5.oXXXE . . + .               .     . . o o X o .   . o o o X + X . o . . . o o .   . . . . X X . . X X X X X X X X . + + @ # # # # 3 2 3 3 e i I E L L T T R ) ] } } O.a.8.8.#X$X#X9.8.o.6.a.O...' ( ( J 0 0 5 5 @ + X @ @ @ 9 ~ f 0 5 9 9 0 9 J ~ ' J 4 2 6 u R W ^ [ [ ^ ^ [ ] ' } [ ( J J J K K ",
"4 J 9 4 9 7 u 2 2 u u 4 2 4 u u 2 2 3 1 1 1 3 3 3 2 4 2 q y y q y A U.^.).).(.(.(.(.~.~.~.(.(.(.).{.^.{.{.G.g.DXSXKXKXLXLXLXLXLXLXLXLXLXJXJXJXJXKXHXGXGXGXSXSXSXlXy.{.^.{.^.Q.(.!.!.~.!.~.!.!./.!.!.!.!.!.!.!.!.!.Q.Q.Q.Q.Q.K.H.S.S.D.D.D.F.Z.N.B.z.k.z.n.n.n.m.b.b.k.j.j.l.l.l.j.v.b.n.b.b.v.v.V C C C Z C C C V V V D v.v.v.v.M.M.v.b.v.v.v.v.v.v.b.n.Y.-.s 7 { U Y U u p u R / p s h / r $.-.R._.!.K.J.W.D.S.S.S.A.Z.N.n.v.v.v.v.j.v.v.v.D pXfXrXrXpX5X9X9X9X9XqX9XoXw.*.P 7.9.2.2.7.%X7.2.9. X X9.#.9.7.2.2.| R Q | Q { | | | ) / p h h y j j <.j j h _ _ _ ..O.O.O.....O.i... ...} o.o.O.O.O.6.8.8.O.O.8.8.d.] ) } } ( 8 6 5 1 2 u { ) U U | E u u e 2 2 5 4 I ` { { { | | &.Q &.E Q ;.q.OXOX3.@ . o .         .           o . . o X X .   o . . X + X o . X X . . . . . . X X X X X X X X . X X X X X X X . + + + # # # # e e 2 2 r I I E P L I I U U ] ] ..O.#X9.9.a.d.d.| ) 7 ) d...O.} 9 9 U 0 < < @ @ @ 3 9 9 0 ~  . . .^ [ ( J ~ ^ ^ ( J J U ' [ [ [ ) J 7 K ^ [ ~ J J R ( ( ( ' ' } ",
"7 9 < 9 8 p p 2 u u u 4 u p 4 2 4 4 2 2 2 1 1 2 2 4 4 2 2 1 w t M.Y.[.(.(.(.(./.(.(.~.~.~.~.(.(./.(.(.).).{.y.zXSXSXGXHXJXJXJXHXLXHXHXHXJXJXLXJXJXJXKXHXHXGXZXSXDXg.|.{.{.^././.~.~.(.~.(.(.(.(.~.~.~.~.~.~.~.~.!.!.~.!.!.E.J.L.J.J.J.D.D.D.Z.B.N.B.B.B.B.B.B.n.b.k.j.j.j.k.k.b.b.b.b.b.v.j.V V B M M M M B V V V D v.v.v.v.v.v.v.v.v.v.v.v.v.v.b.n.b.B.M.F r Y ` 7 Y p u Y T T i ` ` a i =.U.R.{.W.D.W.L.D.D.D.S.A.N.N.n.b.v.v.V k.v.v.v.j.D pXfXrXrXpX9X9XoX4XqXOXw.3.&.:.3.e.3.3.%Xs.7.2.9.%X9.2.2.7.4.2.4.2.4.| W { o.6.o.| { { ) p a y y j j j j j h h / X.i.....O.O.i.O...] (  .] } O.6.o.O.a.o.W o.s.s.8.d.d.....O.[ J 8 9 5 3 3 u Y U u I u u u u a a a r I I E Q :.2.2.E L I L Q 5.OX9XqXXX3 o o .     . . .     . .   . .   . X X . . .   . X + X . . X X . . . . . . . o X X X + + + . + + + + X X . + + + + @ + # # 3 2 e e e r L I ! L E T I U U ( ] ) O.6.a.s.8.o.| | ] ) ] 0 ] } 0 K 8.8.@.J 0 J K ^ [ [ [ [ [ [  .[ ( ~ 7 8 J ( J ~ ( [ [ J J 7 e 4 4 7 U J J K K R [ [ [ [ [ [ ",
"U 7 p ) U 7 7 4 u u u 7 u 7 3 4 u u e q q 2 2 5 q q q q q d S U.`.).).).).(.(.(.).(.(.~.(.(.(.).`.(.~.~.(.{.|.g.DXSXGXGXHXHXJXLXJXLXLXJXHXHXJXJXJXGXHXGXGXGXGXZXSXzXg.{.{.{.(.!.(.(.).(.(.(.(.(.(.(.(.(.(.(.(.(.(.!./.!.!.!.K.K.E.K.J.J.J.D.A.V.A.A.A.N.N.N.n.b.k.k.k.k.b.b.n.b.v.v.j.j.V V V V M M M B D D v.v.v.v.V V V V V V j.j.j.v.v.b.b.b.n.b.v.v.F t i E I u Y u i Y ` Y a ` ` t -.R.^.^.H.J.D.A.L.L.C.A.V.V.N.n.b.v.v.v.j.j.j.D D v.D pXfXrXrXeXeX9XoX4X9Xq.&.*.:.w.;X5.! &.3.Q Q 7.9.Q { | T | 7.8.6.{ 2.9.9.6.6.| | 6.{ { ) p y y y y k k k j j y h _ ....O.O.i.O.@... . . .~ [ } 6.O.O.} W O.#X#Xa.O.8.s...O.a.+.} } ( 8 6 3 3 5 a 7 7 7 u u a y a i I I I I E Q Q Q i r Q Q 2. XOX+XwXOX2 o $ X     . . .     . .   . . . . . . . X . . . X o . . o X X X o . . . .   . o X X + + + + + + + X X X X + + + @ @ + @ # @ 3 2 e e e r L Q Q Q Q Q { T ) ] (  ...6.s.#X X#X$X$Xs.o.7 ' O.O.O.a.#X#X+.@.[ ( [ [ ( ( J K 9 7 9 9 3 2 3 3 2 6 8 U J 9 4 2 q 4 J ( ( / J U ) [ [ U J J ( [ [ ",
"4 < 7 7 4 U I u u U 7 < 7 U 4 6 u u e q q q 2 y e w w w d S Y.[.'.`.`.(.).).).(.`.~.~.~.(.`.`.`.).).).[.(.).{.y.zXSXKXGXKXKXLXHXJXJXJXHXJXJXJXJXJXJXGXKXJXHXHXGXSXDXhXG.{.{.!.~.~.(.).).(.).(.(.(.`.).(.).(.(.(.).(.(./././.Q.Q.E.E.W.K.J.J.D.D.S.D.D.A.N.N.B.z.z.n.n.n.n.n.n.b.V V V C V j.j.V V C V D D V V V V C C C B C C V l.j.j.j.v.b.k.z.b.D F A w 8 [ ) 4 T Y e ` i ` u Y I P =.Y.^.!.H.L.L.L.D.S.L.L.H.V.N.B.b.k.j.v.v.v.k.j.D D v.D R.fXrXpXrXeXqX5XoX0.*.=.e.0X%X4.! :.w.7.:.w.7.L L 2.s.7.9.4.9.9.Q Q 2.2.W L R | 2.2.| Y a 5 y y y k k k j j 5 6 / .... .}  . ...@. . . .J ] } } } W W O.s.8.a.a.' 4.s.U ( a.a.a.a.6._ a 6 5 6 h / _ / h 6 2 2 2 q 4 u 6 6 u Y I I Q Q 4.6.8.9. X+XyXOXe o + . .   . . .             . X o . . X X o X X . . X + X . X X X X . . .   . X X + + @ @ + + X . . + + + + + @ @ # # # 3 2 2 2 e u I L I I I I L Q | { { @.} ..} O.$X-X:X=X=X=X&X8.| '  .} ] ' W [ [ @.( / / 9 < 0 3 @ 1 < 5 5 5 8 9 3 3 0 9 8 7 9 7 ( ] [ @.@. .[ [ [ [ [ U J J ) ] ' R ",
"4 4 4 U u U 7 4 2 2 < u T 7 4 u 4 y 1 3 e y y 4 4 r q d F _.[.).).).).).`.`.`.(.(.(.(.(.`.`.`.`.[.`.).).(.).{.|.hXDXSXGXKXJXHXLXJXJXJXHXJXJXJXJXJXJXJXKXHXHXGXGXGXSXzXy.^.).^.~.(.(.(.(.(.(.(.(.(.).).).(.(.(.(.(.(.(.(./.~.!.Q.Q.Q.Q.K.K.K.K.K.K.K.L.S.C.V.N.N.C.V.V.N.B.n.l.x.V V j.j.j.v.v.v.v.V B D B Z Z C C C C C B V V V D D D j.v.D D k.D A s 6 a E E R E ` U u s s s i s $.-.Y.!.P.D.Y.L.L.K.H.H.S.C.V.N.B.n.v.j.j.v.v.j.j.j.V D D D R.fXfXrXpXeXqX4X4X0.*.e.;XwXw.w.3.9.f.f.9.9.Q :.7.5.&.4.2.Q 5.4.9.9.9.4.2.6.6.| 6.6.{ U a 2 q y y y j j h h a a f ]  . . .} } .... ... . . .] R R o.a.s.O.O.a.} } $Xs.W { s.s.} @.] ) 6 6 ` | { ' } } ( J 4 2 5 y w q q e ` i e u E 2.6.6.6.Q :.w.:X*XI   $   + . .   . .     . . . o . . . . o . + X . . . X X X X + + . . o .   X X X + + + . + + X + + + + + + + + + + # # # 3 1 3 2 e r I I I L I r u I T { | o.O.8.6.o.s.#Xs.s.8.9.#X X| 4 9 9 9 0 4 J U ~ 0 0 0 8 9 < 0 0 0 J ~ ^ ^ ^ [ ( ~ ^ [ [  . . . . .[ ' W J ( [ [ J u 7 J [ @.^ J R ",
"7 R R R 4 4 2 U T Y U I e 4 u e w e 2 2 r w w w r e w F ^.'.'.`.'.'.'.'.`.`.`.(.`.`.(.(.`.`.`.`.`.`.).).(.(.{.G.g.BXSXHXJXJXJXLXLXJXJXHXJXJXJXJXJXJXJXHXHXGXHXGXSXKXDXhXG.{.{.~.(.(.(.(.(.(.(.(.(.(.(.).(.(.(.(.(.(.(.(.(./.~.!.Q.Q.Q.Q.K.Q.K.K.K.K.H.C.C.S.A.A.S.S.C.N.B.k.k.z.k.k.b.b.b.b.v.j.V B C B B M M B C B B V V D D D D D D v.b.v.v.n.F d 2 4 R T R ' W R u u Y _ _ i <.U.^.!.L.A.J.I.L.J.H.S.S.S.C.N.B.n.b.v.j.v.v.j.j.j.j.j.D D D Y.gXfXrXrX0XoX4X0Xq.oX0X;Xq.&.w.w.5.3.;.3.w.w.w.w.7.T 7.Q Q s.9.2.4.4.3.3.4.4.2.2.| T p u a a a y y y h h h h h 6 / ] O.O.@.} ] ]  .O... . .} } o.O.o.o.} O.a.O.O.s.} O.a.d.d.) U 8 7 2 4 ) O.o.} o.o.o.o.| L 4 q e a a u ,.:.{ Q | I L Q Q r Q 2.wXqXE . + . o . .           .   . o X . . o X X X . . . o X X X + + + X o X X o X X X + + + + + + + + + + + + + + + + + + @ # # # 3 2 2 e r I Q E E I r u R T ) R } 8.s.8.8.6.8.O.| o.9.;Xa.) _ / 9 0 ( .... .^ ~ ~ [ [ [ [ ~ ^ J ~ [ [  . . .[ [  . . .( ~ J J 4 4 4 U ( [ U 7 J [ } ] J J ( [ ",
"R u u u 4 U R u Y Y u 4 2 i E e q e q q e r r w w A M.^.'.'.`.[.`.`.'.'.`.`.`.`.`.`.`.`.`.'.'.'.`.`.'.).(.).{.{.y.hXSXKXHXLXJXJXLXLXJXJXJXLXJXLXJXJXJXHXHXKXGXGXGXGXSXzXy.{.{.{.~.~.(.(.(.(.(.(.(.(.(.(.(.(.(.(.(.(.(.(.(./.~.~.!.!.Q.Q.Q.Q.!.Q.K.K.H.H.H.L.J.H.S.S.V.N.B.B.B.B.B.B.B.n.b.k.j.l.V V V B B B D D D D D v.v.v.D v.D D v.v.b.n.n.M.G w 2 T { i 4 ) { u a U E E s j T.Y.P.I.L.W.K.P.L.J.S.S.S.A.V.N.n.b.k.j.V v.j.j.j.j.j.v.j.v.D M.gXfXrXrX0XoX4X0XwX9X;X0.*.;.XXw.XX3.&.3.w.w.3.Q E E :.Q 2.2.T :.Q Q T T Q o.2.Q { { _ p 2 a a y y y a h h h h h 8 _ ..O.O.] ] ]  ... .] } } O.a.O.' } o.a.s.8.O.] ' #X=X..` a a 9 / { ' W o.O.o.9.6.6.6.2.:.Q I i i 7 u | 2.2.6.} R i E E i 2.%XwXwX:.. + o . . .   . .   . . . . . X o o X X X . . . o X X X X X X X o . . X X . X X X X + + + X + + + + + + + + + @ # # # 3 3 3 1 2 e e e I E E Q Q I T T T T } ' ' 6.s.s.8.8..X#X8.8.#Xa.8.6.+.O.@.O.+.+.+.O.O.@.[ [ [ ^ ^ ~ K J ^ ^ ^ J J J ( ~ J J J 8 8 7 u u U U J J J W [ } ' U J [ @.@.",
"U U 7 4 4 7 7 4 u u 3 3 i E i 2 e e q d q e r w A U.[.].`.`.'.'.`.'.'.'.'.'.'.'.'.'.'.'.'.'.'.'.'.`.'.).).).[.{.G.g.AXLXHXJXJXLXLXLXJXJXLXJXJXLXJXJXJXHXJXHXGXGXKXZXSXSXhX|.{.{.~.~.~.(.(.(.(.(.(.(.(.(.(.(.(.(.(.(./././.~.!.!.!.!.!.Q.!.!.!.Q.K.K.K.K.K.K.L.K.S.S.V.V.C.C.C.V.V.N.N.B.z.k.k.k.k.k.k.v.v.v.v.v.D D D D D D D D v.v.D v.n.n.v.S y 2 u { ` q i | s 4 Y ` _ _ <.|.G.D.H.J.K.K.K.W.H.H.S.S.S.A.N.B.b.b.j.j.V v.j.V j.j.j.j.j.j.j.v.gXfXrXrXpX4X5X9X9X9Xe.0.e.oXw.q.w.>.E E &.:.Q e r Q :.7.2.L L Q { R R | 6.a.8.| T ) ..` p u h p a p p h _ X.X.h h / ( ] } } } } ] ( ( [ ] ' [ } O.8.a.8.a.8.[ K U a.=X=X) 2 3 1 7 ' 6.8.8.a.a.} ..| U 4 R | ,...,.| ' T { Q { o.| { i r :.7.%X>XwXeX2.+ + X   . . . . . . . o .   . . o o o o . . o X X X X X X . . . o .   . o . . . . X + + + X X + + + + + X . @ @ # # # 3 3 1 1 2 e r i I I ! Q Q Q { { ] ] } } } o.6.9.#X&X=X=X#X8.o.{ 6.o.8..XO.} ( W W R ] ' K K K K J K J J J U U J J J 7 0 < 0 7 ( ) ) ' ' [ W J ( [ o.' J 4 K ' } [ [ ",
"U R 4 4 R u 4 U R U 4 u T i e 3 i 2 2 r d y s A Y._.].`.`.[.'.'.'.'.'.'.'.'.'.'.'.'.'.'.'.'.'.'.'.'.`.).[.).[.{.{.y.BXKXLXJXJXLXLXLXJXJXLXLXJXJXJXJXJXJXJXHXGXGXGXGXGXSXzXy.{.^.^.~.~.(.(.(.(.(.(.(.(.(.(.(.(.~././././.~.!.!.Q.!.!.Q.Q.!.!.!.Q.K.Q.Q.Q.Q.K.K.K.J.S.S.S.H.H.S.V.A.V.N.B.B.B.B.n.n.n.n.b.v.v.v.v.B B V V V D D v.v.v.D D M.M.F A 4 U T U p p T { / a j u.p.lX}.|.F.D.K.W.W.J.K.W.H.H.S.S.S.V.B.c.z.k.j.V V j.j.j.l.V j.j.j.v.k.j.pXfXfXgXrX5X5XoXe.e.0.w.*XXX&.&.&.P P E :.:.2.:.7.;X9.2.;.3.9.s.9.9.9.9.2.| o.o.| { | | { T / p p / / / X.X.X.X._ / J U ] | ..O...] ] ..} ' ( ' [ O.o.W [ } ] } s.$X8.6.7 2 6 f | o.8.8.+.8.d.` ) p 9 4 K R ) X.6.6.6.O.| ` E i Q | W Q 8.%X&X>XwXeX3.@ + X   . . . . o . . o .   . . o X . . . X X X X X X X X X . . X X .   . . . . . X X X X + + + + + + + + + @ + + + @ @ # 3 3 3 e i I I E Q &.Q I T { | | } O.8.8.2.8.%X&X;Xs.6.,.Y U | | O.{ p h 6 3 3 3 0 K K W ' W ' U ( ( ( ( ( / J 8 4 < 0 9 J ( ' ' [ [ [ [ [ ' [ J 7 K J [ [ ( W W ",
"R 3 4 U I u R T U 4 I ` e 3 e 4 i q w t 2 1 F Y.`.`.`.`.'.'.`.'.'.'.'.'.'.'.'.'.'.'.'.'.'.'.'.'.'.'.`.`.[.[.[.[.{.|.hXAXLXLXJXLXJXLXJXJXLXLXJXJXJXJXJXJXJXJXHXKXGXKXHXGXDXy.F.{.^.^.~.~.(.(.(.(.(.(.(.(.(.(.(.~.~.~.~.~.~.~.!.!.Q.!.Q.Q.!.!.!.Q.Q.Q.Q.Q.Q.K.K.K.J.J.J.H.H.H.S.S.N.N.N.N.N.V.V.V.N.N.B.n.n.b.k.k.j.v.v.v.v.v.v.v.v.D D F F F %.Y I E i a h ` X.8 g p.lXcXlXf.G.F.D.K.K.L.K.Q.K.H.L.H.H.C.V.N.B.z.k.k.j.V V V V j.l.j.j.j.k.k.v.k.pXfXfXgXrXeX5Xq.0.*.*.w.wX%X&.P $.&.0.3.w.w.%XXXw.9.&.L 4.9.9.s.9.9.7.| T Q 6.d.:.{ { | { Y Y p T ) / / _ X.` X._ _ / / ) ) ] } ..O.O...] ] } [ ] } ] ' } O.a.s.a.[ J 4 4 ` ..O.6.6.o.W K R ) a p T { o.6.6.Q 7 W o.o.} ` ` s e r I 2.8.+.9.&X*XwXeX2.@ + X o X .   . . . . .   . . . X X X . X X X X X X X X X X X X + X .     X . . . . . . . + + + + + # # # # # @ @ @ # 3 1 3 1 2 e r r I I ! Q Q T I T T ) O...6.6.6.8.%X%X&X#X#X6.' 6.#XO.} J 0 ~ / 9 8 J K [ @.@.[ ~ J K J J 8 9 7 J J 8 J J U ( ( J ~ [ } @.[ U R R R 7 R ' } [ W ( W W ",
"7 < I R 3 3 T u 3 4 I Y 3 3 I r i t d r w A Y.`.'.(.'.'.'.'.'.'.'.'.'.'.].'.'.'.'.'.'.'.'.'.'.'.'.'.`.`.).[.[.[.{.{.g.BXJXLXJXLXJXLXJXJXLXLXJXLXJXJXJXJXJXHXHXKXGXGXJXGXSXhXH {.{.^.^./.(.(./.~.~.~.(.(.(.(.~.~.!.!.!.~.~.~.!.!.Q.!.Q.Q.Q.Q.Q.Q.!.Q.Q.Q.Q.Q.Q.K.J.K.K.J.J.J.H.H.V.C.S.S.D.D.S.S.A.N.B.B.n.b.b.n.b.v.v.v.v.v.D D D F F F F <.,.u.X.X.g g u.p.p.p.cXcXzXUX|.B.D.I.P.E.E.L.P.K.K.H.H.H.S.C.V.B.n.z.k.k.j.j.V V j.j.j.j.j.j.v.j.v.v.R.fXfXrXrXeX4Xq.t.0.e.9XwX*Xq.3.3.w.w.3.5.5.5.w.3.! &.5.5.| Q T { E r u ` | | ) R T | 6.| T T p Y ) / / h _ ` X./ _ _ _ ) ) ) ' ) ' ] ] ) ] } ] } ] } O.O.} ] ~ J J ' ] ..6.6.O.) R u u u U u 3 4 T | 6.8.9.:.e T | | { I I i i r r | 6.o.9.&X&XwXyX2.@ @ X $ . .   . . . . .   . . o X X X X X o . . . X X X X X X X X X o     .   . . . X X X + + + + + @ @ # 1 1 1 # 3 1 1 5 2 2 q q e e r I L E Q Q Q T R T O...o.O.6.6.%X=X#X&X:X#X.X=X$X@.+.+.+.+.+.O.+.+.} }  .( 9 0 < 0 7 8 0 0 7 J ' ' ( [ ]  .[ ( ( ' ) ' R J 7 U T ' ' } [ J J [ ' W ",
"3 u Y 4 7 u R 7 2 I E u e r I e d i 4 q F ^.'.`.'.`.`.`.'.'.'.].'.'.'.'.].].'.'.'.'.'.'.'.'.'.'.'.'.'.'.'.[.{.).[.{.|.hXGXLXJXJXLXLXJXJXLXLXLXLXJXJXJXJXJXHXKXKXGXGXKXSXKXzXy.{.^.^.~.(.(.(.(.~.~.~.(.(.(.~.!.!.~.~.!.!.!.!.!.!.Q.!.!.Q.Q.Q.Q.Q.Q.Q.Q.Q.Q.!.Q.E.E.E.K.E.E.Q.L.H.H.H.H.H.S.S.S.S.N.N.B.B.B.B.n.B.m.n.b.v.v.v.D D D F F A G <.i.d.lXlXlXlXlXcXcXxXxXlXy.M.F.C.H.Y.P.J.D.L.P.J.D.H.S.C.C.V.N.n.z.z.k.k.k.j.j.j.j.j.j.j.j.j.v.j.v.v.U.gXfXrX0X5XT.e.9XoXoXq.q.w.w.3.7.w.3.&.2.3.&.Q &.7.7.7.T 4 u I r L E 2.7.6.2.2.6.| | { T T T i u Y ) / p / _ ) _ _ _ _ ] ) ) ' ' ( ] ..} } } [ [ K ( } ] } O.( / O.O.@.O.T W L 6 5 5 a a Y ` ) u Y ) ' W T T p | { | o.T I T :.{ { Q :.4.;X-X*XwXaX5.# @ + $ . .   . o . . o . X . o X X . . X . . . . X + X X X X X X + X           . . X X + + + + + + + + + + @ # # 1 1 1 1 1 1 2 q r i I I ! Q Q Q Q Q Q | } o.....8.9.%X%X;X%X%Xs.9.s.| R | 6.6.6.6.O.O.[ U U U 9 < < 3 a ) ] [ ~ J ( ( U K K J ( ( J 7 7 7 K K K R T ' [ [ ( R U T ' [ W ",
"I I e r I E E e r L L r s e i r s q w -.[.'.).[.`.`.'.'.'.'.'.'.'.].].'.'.'.'.].'.'.'.'.'.'.'.'.'.'.'.'.[.[.[.[.[.(.{.g.AXJXLXJXHXJXLXLXJXJXJXLXLXJXJXJXJXJXHXHXGXGXGXKXSXAXg.G.{.~.~.~.(.(.(.~.(.~.~.~.~.~.~.!.!.~.~.!.!.!.!.!.!.!.!.E.Q.Q.Q.E.Q.Q.Q.Q.Q.Q.Q.E.Q.Q.E.E.K.K.K.K.K.K.K.K.J.H.S.H.A.N.N.Z.Z.Z.Z.Z.n.m.m.v.M.v.D F F A A <.g.hXlXzXxXxXxXxXxXxXxXhXy.H M.B.A.D.J.K.K.L.H.L.L.L.H.L.S.S.C.N.B.n.b.k.z.k.k.j.j.j.l.l.j.j.k.k.k.k.k.k.v.gXfXgXpX4X4X4X9XoX0.*.*.*.=.3.5.;.7.9.7.7.,.E E 3.:.7.Q W 9.s.5.XX9.2.2.5.5.5.6.:.{ T | T Y Y I Y Y / U / ) ) ] ) ) ] ] ) ) ) ( ( ( } O.O.} ] O.....] ' ] ] ] [ @.} W U 7 6 p y 3 6 p 4 ) ....6.O.+.} u 2 e a ) 6.6.8.o.o.8.2.2.8.9.2.8.#X;XwXwXaX3.@ # @ + X . . o o . .     . . o . . X X . . . o X X X X X X X X X + + .             . + + + + + + + + + # @ # 3 3 3 3 3 1 2 1 3 2 e r I I P &.Q ! Q Q { | o.8.8.9.s.#X#X8.9.8.8.6...` ` e a u U U } ] / 9 3 5 6 8 J 8 J ( @.[ [ ( T R u 7 7 J J J J J J J J J ( [ [ [ [ ( W J J ( [ [ W W ",
"u e e E I i I i 6 7 e r r w r t u d U._.[.`.[.`.'.'.'.'.'.'.'.'.].].].'.'.'.].].'.'.'.`.'.'.'.'.'.'.'.'.[.[.[.).`.).{.y.BXLXLXJXHXJXJXJXJXJXJXJXLXJXJXJXJXJXJXJXJXGXGXKXSXSXhXG.{.~.~.(.(.(.(.(.~.~.~.~.~.~.~.!.!.~.~.!.!.!.!.!.Q.Q.Q.E.E.Q.Q.Q.Q.Q.Q.Q.Q.E.E.E.K.K.K.K.E.Q.Q.Q.Q.Q.K.K.J.H.H.H.S.S.D.D.D.Z.Z.Z.Z.n.m.v.M.D F F b G g.g.lXzXzXxXDXxXzXxXxXzXg.H H G.F.A.S.D.W.K.K.K.L.H.H.L.H.S.S.C.V.B.z.z.z.k.z.k.k.j.j.l.j.l.j.j.j.j.k.k.k.k.b.gXfXrXrX0X0X4XoXe.0.*.0.0.*.q.*XXX%Xw.:.:.:.E P &.:.9.XXw.%XOXf.;X3.! 6.7.:.Q Q Q | | T ` ` E T T ) ) / ) _ ) ] ) _ ] | | ] ) ( U J J ' } } ' ] [ } } } ......| ..} } O...] ] ] ' } ' R O.6.Q o.6.8.8.| e 2 0 ` 6.6.4.8.2.7.7.| 2.4.4.9.2.9.iXaXsX5.3 # @ . + + + + X . .     . . . . o X . . X X X X X X X . X . . X + + .               o o + + + + + + @ # 3 3 1 1 1 1 1 2 2 2 2 q r i I I Q &.Q Q Q | | 6.o.6.8.a.#X#X#Xs.s.s.s.s.d...` 6 2 u 3 < ] } J 0 0 0 0 J ' ' ( [ ' ' ( J 7 4 7 7 J J ' ' J J ' }  .[ [ [ W W ( J W [ } } [ W [ @.",
"4 4 u E r 4 I I 5 u E t i I E t t U.`.].'.[.[.`.'.'.'.'.'.'.'.'.].].].].].].'.'.'.'.'.'.'.'.'.'.'.'.'.'.`.).).).(.).{.|.hXJXLXJXJXJXJXJXJXJXJXJXJXJXJXJXJXJXJXJXJXGXGXGXGXSXhXH {.^.~.(.(.~.(.(.~.~.~.~.~.~.!.!.!.!.!.!.!.!.!.Q.E.Q.Q.E.E.E.Q.!.Q.Q.E.E.Q.E.E.K.K.K.K.K.Q.Q.Q.Q.Q.K.K.K.K.K.L.J.J.H.H.S.D.A.N.N.A.B.n.G.M.F G.S y.g.lXzXzXVXVXzXzXBXzXzXhXG F n.Z.F.J.K.J.W.W.K.K.K.J.S.S.H.S.C.C.V.N.c.z.z.k.z.k.k.k.j.j.j.j.l.j.j.j.j.k.k.k.k.k.pXfXrXrXrXeXoXe.r.*.0.0X9XoXoXXXq.w.>.P P %.%.&.2.6.&.;.;.5.;.:.Q r L 2.| L Q 2.| :.| T | { ` T T T ) ) T ) T ) ) ) ) ] | { ) T ' T R ' ..} | J J ' ..O...' ) U ) ) U _ ] } ..o.O.#Xa.+.9.8.o.o.8.+.6.,.u U | +.8.4.| | } 8.6.W 6.8.9.#XQ 2.uXyXyX2.3 1 @ X + . . o . . . . o X o . . X X X . X X X X X o o . . . . X X + o                   X X + + + + # # 3 3 3 1 1 1 2 2 2 q 2 q r r I I L E &.2.Q Q | 6.o.} o.6.7.s.s.%X9.%X%X=X=X%X2.4 { .._ 8 8 J 9 9 [ [ W ( [ [ ^ J p 7 0 < 0 7 / ( ) U J J J ( U J ( ( [ [ W U W ' [ } @.} [ [ [ } ",
"4 u T I 4 r E I r t E r I { P d U._.].`.`.[.`.'.'.'.'.'.].].'.].].].].].].].'.'.'.'.'.'.'.'.`.(.).'.'.'.`.`.).).(.(.{.G.g.CXLXLXHXHXJXJXJXJXJXLXJXJXJXJXJXJXHXHXJXHXGXGXGXKXBXg.{.^.~.~.~.~./.~.~.~.~.~.~.~.!.!.!.!.!.!.!.!.!.Q.Q.Q.Q.Q.E.E.E.Q.E.K.K.K.E.E.E.E.K.K.Q.Q.Q.Q.K.K.K.K.K.K.K.K.K.K.E.K.K.K.L.D.D.D.F.Z.m.G.M.F H y.hXBXDXDXDXDXVXVXzXzXzXBXy.S Z.Z.L.H.H.Q.Q.Q.E.K.E.J.H.H.D.S.S.S.C.N.B.B.z.z.k.z.k.k.k.j.j.j.j.j.j.l.j.k.k.k.k.k.l.R.fXrXrXrX0Xe.r.0.*.0.e.*X*Xq.*.%.%.P t &.q.w.9.9.9.Q e I ` i L L Q 6.Q u Q 9.5.2.Q Q I | T E Q E T T Y T T T R ) ) ) ) { { ) ' | { U U T | o.O.' R J ) } O.6.} O..._ / U u 7 T | s.s.8.8.6.+.6.o.{ ..| T o.s.8.+.2.T I { a.' L 8.9. X%X2.5.wXyXeXQ @ # # @ + . . . . . X X + + X . . . X X X X o o o o o X X X X . o X X .                       X + + + # # 3 3 1 2 2 2 2 2 2 2 q e e e r i P L ! &.Q :.2.| | | 6.2.6.6.2.7.7.4.2.9.&X=X#X} O.6.a.6.7 0 K ' [ [ [ W ( J K K 4 9 7 7 U ] ' ~ 7 J J U U U U U K J W W W W W W [ @.o.[ [ ' [ ' ",
"L L E I e I E r r P Q I P P A U.[.`.`.'.`.`.'.].'.'.'.].].].].].].'.'.'.].].'.'.'.'.'.`.'.).(.(.(.(.).(.).).).).).~.(.{.y.bXKXLXLXJXJXJXLXLXJXLXJXJXJXJXJXJXHXHXJXKXGXKXGXKXAXg.{.{.^.~.~.~.(.~.~.~.~.~.~.~.~.~.!.!.!.!.!.!.!.Q.E.Q.E.Q.Q.Q.Q.Q.E.K.K.K.E.E.E.E.K.K.Q.Q.Q.Q.E.E.K.K.K.K.Q.Q.Q.E.Q.Q.E.E.W.J.J.D.F.Z.Y.M.M.F G hXVXAXAXDXDXDXDXDXDXDXDXhXy.G.D.D.K.K.K.Q.Q.Q.Q.!.E.J.S.S.D.S.V.S.N.N.B.n.n.z.k.k.k.k.k.k.j.j.j.l.j.k.k.k.k.k.k.k.l.R.fXfXrXrX4Xr.4XoXoXoXq.3.3.*.%.A t t E 3.w.w.9.9.%X7.:.<.a h &.3.9.4.Q | 2.3.2.Q Q E Q E I T Q T T T T T T T R ) ) ) ) { { { U { { ) U U U ] O.} } T U ) R R } } ..] ..| ) u e 4 u T ) { ' ' T u 4 u R | 8.#X8.o.| r a ` s.2.L 4.9.9.s.5.;XyXsXaXQ @ # # # + X + + + X X . . o . . . . . o X . . . . . o o X X X o o X X o                       . X + + # # 3 3 1 2 q q q e 2 e e r r r i i T I Q &.Q 2.7.6.2.6.9.8.7.9.9.9.9.9.4.4. X X%Xs.+.O.8.a.] [ o.o.' } ' W ' W R U J ( [ ' ' [ ( K J U ( ' [ ' } [ ' W R R [ ' [ [ [ } o.[ [ [ [ ' ",
"L r I I L P P r r Q Q $.-.U.Y.[.].`.'.[.'.'.].'.'.'.'.].].].'.].].].'.].'.'.'.'.`.`.(.(./.~././.(./.~.!./.(.(.(.(.~.~.{.G.hXKXLXLXLXJXJXJXJXJXJXLXJXJXJXJXJXJXJXJXKXHXGXGXKXAXg.G.{.{.~.~.!.~.(.~.~.~.!.!.~.~.!.!.!.!.!.!.!.!.!.E.E.E.E.E.E.E.E.E.E.E.K.E.E.E.E.K.K.K.Q.Q.Q.Q.E.K.K.K.Q.Q.Q.Q.Q.E.E.E.E.E.W.W.W.W.F.U.M.F y.bXAXAXSXAXAXSXSXDXDXDXDXzXy.|.F.L.J.J.E.Q.Q.Q.Q.Q.Q.K.K.J.S.S.S.A.V.N.B.z.n.n.z.k.k.k.k.k.k.j.j.j.j.l.k.k.k.k.k.k.k.k.U.gXfXrX6Xe.r.9X5X9XoXoX&.$.%.%.t P %.3.5.2.Q &.5.9.9.9.7.E :.3.9.5.2.2.4.2.Q 2.| Q T :.T I E Q T T ` T T { T T T T T { | { ' T ) ] | | ) ) ' } ..O.| ' ' { } R R U U ) ] } } ) p 7 2 2 6 e q 4 u Y 7 U 6.s.8.| { T I { | 6.8.| 4.4.o.2.9.wXyXsXaXQ @ # # @ + + + + + X . . . . . . X o . . o . . . . . . . . X X o . X X X .                         X X + # # # 3 1 2 2 2 e 2 e r r r r i I L E 2.2.&.2.4.8.6.8.9.9.9.%X;X-X%X%X%XXXXX4.2.2.o.o.{ | } o.} ' W T R U U ) ) T [ [ ( J J W [ ( } } ' U W [ [ U ' W R ' [ } [ [ [ ' [ W W [ [ [ ",
"P L P E P ! P P E E $.-.Y.[.[.'.`.[.'.'.].].].'.'.'.'.'.'.'.'.'.].].].].'.'.'.'.).(.(./.!.!.!.!.).(./././.~.!.^.^.!.!.^.^.g.VXKXLXJXJXJXJXJXJXJXLXJXJXJXJXJXJXJXJXJXJXHXKXSXAXhXG.{.{.^.~.!.!.~.~.!.~.!.~.!.~.!.Q.!.!.Q.Q.!.!.!.Q.E.E.E.E.W.E.E.Q.E.K.K.K.K.K.K.K.K.E.E.E.K.K.K.Q.Q.Q.Q.Q.Q.Q.Q.Q.Q.Q.Q.Q.E.W.W.Y.Y.M.F G hXAXDXDXSXSXSXSXSXSXDXxXDXhXH F.^.!.^.E.E.Q.Q.!.!.Q.K.K.K.L.S.S.S.V.V.B.B.z.z.z.k.k.k.k.k.k.k.k.l.l.j.l.j.k.k.k.k.k.k.z.D gXfXpX6XoX4X9XoXoXoX9Xq.3.3.%.&.3.w.%Xw.3.3.! &.3.3.3.5.5.XX5.5.5.5.2.Q Q 2.2.:.I W | T I E Q Q { { ` ` { { T T T ) { { { { { { ) ' ] ' ' | { { | { T ) ) { 6.,.| ' R J U ( } ....T R u u Y | O.s.6.6.8.| T ( o.8.9.#X#Xa..Xo.6.4.o.5.&X:XwXsXeXr @ 1 # + + + + + X X X X X X o o X X . . . X . . . . . . . o o . . o X X .                               o # @ 1 1 q q e e 4 e e e r r i P L L ! &.&.2.2.o.2.6.8.9.#X#X%XXX%X9.%X7.9.| T { Q T L U ) U U U 4 4 0 4 9 J J R W ( ( W W T W U ( [ [ [ R U [ ' ' ' ' [ [ [ ' W ' W R W ' o.} [ ",
"P P E P L P P ! %.$.-._.[.'.'.`.[.[.].].].'.'.].].'.'.'.].'.'.'.'.'.'.'.'.'.'.).(.(././.(.(.(.(.(.(.(.).).(.Q.W.W./.!.{.^.H lXKXLXJXJXJXJXJXJXJXJXJXJXJXJXJXJXJXKXHXJXHXKXSXAXhXG.{.^.!.~.~.!.!.!.!.!.!.!.~.!.!.Q.!.Q.Q.Q.Q.Q.!.E.E.E.E.E.E.E.!.E.K.K.J.J.K.K.K.K.K.K.E.K.K.K.K.E.E.E.E.K.E.Q.Q.Q.Q.Q.Q.Q.Q.E.W.Y.Y.M.H g.AXSXSXSXSXSXSXSXSXSXDXSXzXy.G.Y.^.{.^.!.E.Q.!./.!.Q.W.Q.K.J.J.D.V.V.V.N.B.z.k.k.z.z.z.z.k.k.k.l.l.j.l.l.j.j.k.k.k.k.k.z.D pXfXrXrX5X0X9Xq.oXw.oXoX;Xe.2.5.XXoXXXq.3.w.>.P :.5.2.&.5.9.9.2.;.! L :.6.Q { :.T :.| T | | Q Q | | ` ` { { E T { { { { { { Q { { } } T L u ' R T ) { | ) { [ ' | o.| ` T Y K W 6.O.8.6.8.a.#X8.8.8.#X8.U e Y | 6.4.2.8.9.2.W | 9.s.-X;X&XwXsXqX4 @ 3 + + @ + + + + + + + + + o . . . . . . . . . . . . . . o o o . . . .                                   . X # 1 2 2 2 q e e e e e r r P L L P Q &.&.2.6.6.6.6.9.s.9.%X%X%X X%X6.9.6.| :.:.I T { ) 4 2 3 5 8 / ( ( J J J ' ] } ' U 7 K J ( [ } } } } } } @.[ [ ( W W ' | T W W ' ' } } } ",
"! P E E P $.$.Q P -.^.[.`.'.[.`.].].].].].].].].'.'.'.'.'.'.'.'.'.'.'.'.'.'.).(.~.(.(.(.(.~.~.~.!.~.(.(.).(.(.~.D.Q.E.^.{.|.g.AXKXHXLXJXHXJXJXLXJXJXJXJXJXJXJXHXKXHXHXJXJXSXDXhX|.{.{.!./.~.~./.~.!.!.~.~.~.~.~.E.Q.Q.E.Q.!.!.E.E.E.E.E.E.E.E.E.J.J.J.W.W.W.J.J.J.J.E.J.J.J.J.J.K.E.E.E.E.E.E.E.W.!.Q.E.W.!.E.W.Y.M.F y.BXSXSXSXKXSXKXKXSXSXSXDXDXy.G.Y.L.L.~.!.!.!.!.!.!.Q.K.K.E.H.H.S.S.V.N.N.B.n.k.k.k.z.z.z.z.k.k.k.k.k.k.k.l.l.l.k.k.k.k.k.l.j.R.fXdXpX5X0Xe.*.0.e.0.*.0.w.w.w.w.3.&.&.3.3.:.I E &.! 3.w.3.&.I I u T s.Q Q 7.Q :.2.I Q | { Q Q | | Q | { T { { T { | | R | { Q { | | | { R u T { T } ' ) ` | E u U } O.6.6.{ L 7 T { } 6.8.:.T e u ` E I P #.o.{ ` E E I T E :.9.-X&X XXX*XsXwX3 # @ 3 # @ @ @ @ @ @ @ + + X X X o X X o .   . . . X X X . .                                                     + # 1 q e e e r e r r t t I I P ! &.Q | 6.2.4.4.9. X X%X&X*XOXXX&X&X%X X9.Q Q | | I 4 T U ' W W [ @.@.' W ' ' U K 7 U ) ] [ [ [ W W [ [ [ W W W R W } } W R ' @.[ | } } [ ",
"P P P ! ! $.$.! $.U._.[.`.[.[.[.].].].].].].].].].].].'.'.'.'.'.'.'.'.'.`.(.(.!.~.(.~.!.!.!.Q.K.E.E.J.J.~.).)./.!.Q.E.^.^.G.y.zXKXJXJXJXHXJXKXJXJXJXJXJXJXJXJXJXKXHXHXHXHXSXDXhX|.{.{.!.~.~.!.!.!.!.!.!.!.!.!.!.Q.Q.Q.Q.Q.Q.Q.Q.Q.E.E.E.E.E.E.E.W.W.J.J.J.J.J.J.J.E.E.J.J.J.J.J.J.J.E.E.E.E.E.E.Q.!.!.W.W.W.W.Y.Z.F G vXKXSXSXSXSXSXKXSXSXSXSXDXhXH F.W.!.^.!.!.!.Q.!.!.!.Q.Q.K.K.H.H.H.S.V.N.B.n.z.k.k.k.b.z.z.z.k.l.l.k.k.k.k.l.l.k.k.k.k.k.k.l.Z U.gXfXrXpX9Xr.0.e.r.0.=.*.q.oXoXq.>.&.&.2.3.&.I Q E 3.w.5.&.L E I I | :.! 2.6.Q :.Q T | T { | | | Q T { { { | | { { Q | W { { Q { } 2.| { o.R T | | 6.' 7 6 R o.{ 4 e i T O.a.6.O.| { I R Q ' R u i u 7 ) 6.8.8.T u T 6.6.6.o. X&X X#X8.9.&XsX;X3 1 1 @ @ @ @ @ + + @ @ @ X X . . . . . .   . X X X X X .                                                           X + 1 q q e r r r r r r I I P ! &.2.2.2.6.6.6.9.s.%X%X%X;X%XXXXX9.9.9.9.2.o.{ T R R o.o.| { } O.O.' J K J K K R ' | } [ ' [ W W ' ' ' ' W J R ' o.} W W } @.[ [ ' | ' [ ",
"P P P &.&.&.&.! $.R.[.'.`.].].].].].].].].].].'.].].].'.'.'.'.'.'.'.'.`.(.~.!.Q.Q.E.K.K.P.P.L.W.P.L.F.v.v.n.D.!.).!.~.!.W.F.H hXDXKXJXLXHXHXKXJXJXJXHXJXJXJXJXJXJXKXHXKXHXSXDXhXG.^.{.^.(.!.!.!.!.!.!.!.!.!.Q.!.!.Q.E.Q.!.Q.Q.Q.E.E.E.E.E.E.E.E.J.J.J.J.J.J.J.W.E.E.E.J.J.W.W.J.J.K.E.E.E.E.E.E.E.Q.Q.W.W.W.W.Y.F.H g.AXKXSXSXKXSXKXSXSXKXSXSXxXy.G.^.Q.!.!.Q.!.!.!.!.!.!.Q.Q.K.K.H.H.S.C.C.N.B.z.z.k.k.k.z.z.z.k.k.k.k.l.l.l.l.k.k.k.k.k.l.j.j.j.V F pXfXrXrX4X0.e.r.*.*.=.3.w.w.w.0.*.3.w.5.9.5.9.7.L :.3.E t I 6.:.7.9.Q 2.5.Q Q :.I Q 2.I :.Q 2.2.Q Q | { { | | | { T } 2.Q { | Q { } { W 2.| R { | O.} { U 4 T ..,.E r 4 K ] ..6.d.s.8.O.8.8.8.s.8.{ ) o.O.8.6.W { 8.#X#X%X=X&X8.! 9.-X-X:XaX7.3 5 5 @ @ @ # # @ @ @ @ + + + X X X o o o o X X + X o .                                                                 . + 3 q a r q q r i r P P ! &.2.4.9.6.6.6.6.8.s.s.;X;X%X%X9.Q I T L Q o.o.2.2.4.8.o.2.| Q W R J 7 7 R U ' } o.} } [ ' [ W ' } ' [ ' ' ' ' o.o.' ' o.O.' W W ' W W [ ",
"P ! P $.&.$.&.$.=.Y.].].].].].].].].].].].].].'.].].].'.'.'.'.'.'.'.'.(.!.Q.E.W.P.L.H.H.P.P.H.S.P.L.C.B.j.Z D M.^.Q.~.!.W.^.G.y.zXSXKXLXJXGXHXJXJXJXHXHXJXJXJXHXHXGXGXKXHXAXDXhXG.^.{.^.!.!.!.~.~.!.!.!.!.!.!.!.Q.E.E.Q.Q.Q.Q.Q.E.E.E.E.E.E.E.E.J.J.W.W.E.J.J.J.J.J.J.J.K.W.W.J.E.E.E.E.E.E.E.E.E.K.E.W.W.W.W.F.M.G hXKXKXSXSXKXKXSXSXSXKXSXSXzXH ^.~.Q.!.~.!./.!.!.!.!.!.Q.K.K.K.K.H.S.V.V.N.c.z.z.k.k.k.z.z.z.z.z.k.k.l.l.l.l.k.k.k.k.k.k.j.j.V v.D 6XfXrXrXq.*.oX0.=.0.q.e.q.*.*.*.%.0.;X3.&.3.5.2.L I I r t W 6.7.9.4.&.2.Q E 2.2.L :.2.I 2.2.:.:.Q { | { { { | | | Q | 2.{ W 6.| R W | { T | W { T { } ..6.R 4 I 6.6.} { E E I u Y { | { | :.6.8.8.8.8.s.8.8.6.6.s.=X.X4.9.#X2.Q ! w.wXyXaXaX| 2 5 3 3 # # # # # @ @ + + # # + + X X X X X o X X o .                                                             o         . + 5 a a r e e r P E P ! Q 2.9.9.9.8.6.6.6.7.s.9.%X;X9.Q I T L { 8.9.9.9.6.} ' | { R 4 4 R ' ' W ' } ' ' R U [ ' ' } } } ' ' ' } o.o.} ' ' o.O.o.[ W } o.' ' } ",
"! $.&.$.P ! $.=.-.Y.].].].].].].7X7X].].].].].].].].].'.'.'.'.'.`.'.(.~.E.J.J.S.C.C.C.C.I.I.I.I./.).)./.P.z.C n n.Y.!.!.W.^.F.H hXAXKXHXJXJXJXHXJXJXHXHXJXJXHXHXHXGXGXKXHXAXxXg.G.^.^.^.!.Q.Q.!.~.~.!.!.!.Q.Q.Q.E.Q.E.Q.Q.Q.Q.E.E.E.E.E.E.E.E.E.J.K.K.K.K.J.J.J.J.J.J.J.J.W.J.J.E.E.E.J.E.W.E.W.W.W.E.W.E.W.F.M.H y.AXSXKXSXSXSXKXSXSXSXSXSXDXhXG.^.!.^.!./.!././.!.!.!.!.Q.K.K.K.K.L.S.V.V.B.z.z.z.k.k.k.k.z.z.z.z.k.k.l.l.l.l.k.k.k.k.k.k.v.j.B j.M R.fXrX6XoXe.4Xq.q.oX4XoX;.%.$.$.%.w.w.%.P &.&.&.2.| I I P 5.9.9.2.! 3.:.I Q 9.2.L 2.Q E 6.4.Q Q Q Q | :.{ T | { { | Q { | { o.o.Q T | | { R { } T { T T 6.,.{ u 7 [ O.6.7.2.T u 4 3 w y y 2 e R o.8. X9.9.4.6.a.#X#X8.o.W Q Q 4.%X:XwXyXsXsXT 2 3 3 3 3 # # # # @ @ + + + + + X X X X X X + + X .                         .                                                   . + w a r r t t r P E ! Q 4.9. X%X#X X9.s.%X*X%X*X*X%X%X%X5.6.9.:.{ Y u 4 4 R T ' W W } o.| W W R W W W W [ } | ' W W ' ' ' } } W W W } o.} [ ' ' } } ' } } ",
"&.&.;.&.E %.=.U.R._.`.].].].].].7X7X7X].].].].].].'.'.'.'.'.'.'.'.).~.E.D.S.S.V.C.H.I.I.I.I.L.F.L.{.[.'.).!.C.z.V Z.K.!.Y.W.F.F p.BXKXHXHXJXHXGXJXHXHXHXJXJXHXJXHXHXGXGXGXSXzXy.F.!.^.^.!.Q.!.!.!.!.!.!.!.!.Q.E.Q.Q.Q.Q.Q.!.Q.E.E.E.E.E.E.E.E.E.K.J.J.K.K.K.W.E.J.J.J.J.E.W.W.J.J.J.J.J.J.E.E.E.W.W.W.W.W.W.F.F G bXKXSXSXSXSXKXKXSXSXSXSXDXzXy.G.^.!.^.!.!.!.!./.!.!.!.!.Q.Q.K.K.H.H.S.V.V.B.z.z.z.k.k.z.z.z.z.k.k.l.l.l.l.k.k.k.k.k.k.k.v.v.j.D j.B -.gXrX6X5XeX5XoX9X9XoX0.$.%.$.P %.>.&.P &.>.%.! 9.7.6.7.7.5.9.2.L ! 7.I Y 3.7.Q I 7.E Q 4.6.Q Q :.Q :.2.{ T 2.| W | Q Q | | Q | | Q T | 2.Q R | { E ` | | o...{ u e I { +.8.4.6.o.T R E i _ ` ) Y ` | | | o.6.8.{ } #X=X8.2.9.&X=X=X X-XmXyXL 3 5 5 3 3 # 3 # @ # @ @ + + + X X X X X X + + + o                                                                           o o       + w i s t r P E E Q 2.9.XX%X&X&X-X;X;X*XXXXXXXXX X9.5.;.&.r 6 6 u u R } | } o.o.} W W ' W W ' } } } } | { W W ' o.} ' ' W R W o.o.' W } o.} W W W } { ",
"$.! $.$.P t -.Y._._._.].].].7X].].].7X7X].].].].'.'.'.'.'.'.'.`.'.(.~.Y.A.A.S.C.H.I.I.I.F.N ; = = ; m F.).).K.N.z.n.F.D.Y.Y.L.F.G lXSXKXHXHXHXGXHXHXHXHXJXHXHXHXHXGXGXGXSXDXlXy.^.~.^.^.!.!.!.!.Q.!.!.!.!.!.!.Q.Q.Q.Q.Q.Q.Q.E.E.E.E.E.E.E.E.K.J.E.E.K.K.K.K.K.K.E.W.W.E.E.E.E.W.J.J.J.J.J.E.J.J.W.W.W.Y.Y.Y.M.H g.CXKXSXSXSXSXKXGXSXSXSXSXDXlXH {.^.^.~.!.!.!.!.~.!.!.!.!.Q.Q.K.H.H.S.C.V.N.B.z.z.k.k.k.k.z.z.z.k.k.k.l.l.k.z.z.k.k.k.k.j.v.j.j.D V V F pXrX6XpX0Xe.q.4Xe.*.=.%.3.q.0.3.5.3.3.w.7.Q :.7.:.:.3.3.3.&.! E 2.3.I :.2.2.Q E 2.I :.2.2.! | 2.2.:.:.| L 2.2.I | :.{ | | W W | | T T | 2.L W { Y E :.| | W ' | E r I Q | 2.8..X8.8.a.a.s.s.,.i i T | ' 2.2.2.I R 4.=X:X&X:X-X X4.2.*XmX-X2 2 6 2 3 # 3 1 # @ @ # @ + + + X X + X X + $ + X .                           X o                                                 o o     o $ a i s s L L P :.5.XX&X&X&X-X&X;X&X%XXXXX5.4.4.5.;.2.Q { | | o.o.o.o.| { ' W T W ' W ' } o.| { ' ' ' | } o.o.{ W ' W ' } o.} ' } +.o.| W ' o.o.{ ",
"%.P P $.s t U._._._._.`.].7X7X].].7X7X7X7X].].].].].].'.'.`.`.`.(.(.Q.D.N.A.H.H.I./.L.B =   o o o     ; n./.).P.C.n.b.Z.Y.D.L.F.H p.DXKXLXJXHXKXHXHXHXHXHXHXHXHXHXGXJXJXSXxXhX|.^.!.!.^.!.!.!.Q.!.!.!.!.Q.!.!.!.Q.E.E.Q.Q.E.E.Q.Q.E.E.E.E.E.E.J.J.J.J.K.K.K.K.K.J.E.E.J.J.W.J.J.J.J.E.E.W.W.W.E.W.W.W.Y.Y.F.H G BXSXKXKXKXKXKXKXKXSXSXKXSXDXhXG.{.^.!.E.!./.!.Q.!.!.!.!.!.Q.K.J.H.H.C.V.V.N.B.z.k.k.k.k.z.z.z.z.k.k.k.k.k.k.z.k.z.z.b.v.V V V V D V C S 6XgXrXpX4Xt.t.e.0.=.%.r.*XwX*XXXXXoXXX3.:.I 3.>.E 3.2.;.&.t r 2.9.&.Q 7.;.&.&.Q 2.I 2.2.2.Q 2.2.2.| | :.L | 2.L Q 6.:.{ { | W Q 2.| W W { { } | ` e 4 | o.{ R | 6.{ w t u T | 2.9.9.4.2.;.Q 2.6.6.9.9.4.4.Q :.7.9.Q 2.&X:X%X5.&.3.*XsXsX3.3 2 5 1 1 3 # # # @ @ @ + + # + + + + X X X + X X                             . X .                           o                     o o       . @ q r P P P E Q 9.%X=X&X&X=X;X*X*X%XXX9.9.9.3.9.9.5.5.5.2.o.} W W R R R ' ] | { W W } } { W W ' | } o.| W W W } ' ' | { ' } o.o.} W W o.+.o.R ",
"Q ! P P i A Y._._._._._.[.7X7X].].].].].].].].].].].'.`.`.`.`.`.(.~.Y.Z.N.P.P.P.P.P.Z o o   o o X o o $ l P.).I.L.B.b.M.Z.D.D.F.F y.zXSXLXJXJXKXHXHXHXHXJXHXHXGXHXGXHXJXSXzXg.G.^.^.Q.!.!.!.Q.!.Q.Q.!.!.Q.Q.!.!.Q.E.E.E.Q.E.E.E.E.E.E.E.E.K.K.E.J.J.K.E.E.E.E.E.J.J.J.W.E.E.E.J.W.W.J.J.J.J.J.J.E.W.W.W.F.M.G p.SXSXSXSXSXSXKXSXKXSXKXSXSXxXy.F.{.^.W.E.Q.!.!.!.Q.!.!.!.Q.Q.Q.K.K.H.S.V.V.B.n.z.k.k.k.k.z.z.k.k.k.k.k.k.z.z.z.z.b.b.j.j.j.j.V D B D M S T.fXfXrXoXt.0X0X*.$.5.oXOXOX5.3.f.w.w.2.Q :.2.P &.q.5.&.I r 2.3.&.L :.7.&.Q #.Q :.Q 4.Q :.o.2.:.` Q 2.2.! :.| R L :.:.| { 2.Q T | 2.7.T L Q :.2.6.` 2 T o.:.{ T 6.8.{ r d q a s s i I E { o.9.#X#X X+.8.%X9.#X=X8.I I ,.w.2.8.#XwXsXsXsX` e 2 6 2 1 3 3 # # # @ @ # + + + + X X + + X .                             o o . . .                       o o                                       + q i P P &.3. X&X-X-X-X-X&X;X;X*XXX5.2.5.6.2.Q | 2.| Q Q { W W ' | ' W { W { | { W W W { { | | W W W } } } o.' W ' } | | o.Q W | o.o.W W ",
"&.P $.P r -._._._._._._.`.].7X].].].].].].].].].].].'.`.`.(.`.`.(.!.D.n.B.H.I.I.K.V =   o     o o   o $ l C./.I.S.N.n.n.Z.A.A.F.G.H hXSXKXJXHXGXHXHXHXHXJXHXHXGXGXGXHXGXDXlXy.G.^.^.Q.Q.!.!.!.!.Q.Q.Q.Q.Q.Q.Q.Q.Q.Q.E.E.Q.Q.E.E.Q.E.E.E.E.E.E.E.K.E.E.E.E.E.E.E.W.E.W.E.E.E.E.J.J.J.J.W.E.W.E.J.E.W.W.F.M.H j BXSXSXSXSXSXSXSXSXKXSXSXSXDXhXH Y.^.^.^.Q.Q.Q.Q.Q.Q.Q.Q.Q.Q.E.K.K.K.H.S.V.N.B.b.k.k.k.k.k.z.z.k.k.k.k.k.k.z.z.z.z.k.j.j.j.j.j.j.V S D B S -.rXfXrX5X9X0Xe.*.q.oXw.q.3.&.&.3.&.&.3.5.5.w.3.3.7.3.E r :.5.:.L P 3.2.E Q 2.:.| Q 4.E :.o.2.Q E Q o.6.Q :.| Q T ` | R T | | { Q T 2.7.T 4 Q 2.| :.E i T 6.Q I | 7.s.2.E i i u I { ` ` { :.:.| 7.9.6.2.7.9.=X=X#X6.o.Q 2.&X1XuXaXaXsXyXa 2 3 2 3 1 3 # # # # # # # # # + + + + + @ + . . . .                           X o .                     o o o                                           X w s I 4.4.#X-X-X:X:X-X;X*X*X*X%X5.9.&.L 4 L :.2.| Q | | { W W W { | o.{ W W { o.o.o.| | { Q W W } o.o.' W | o.o.' W { Q } o.| T W o.",
"i r %.P r U._._._._._._._.[.].].].].].].].].].].].'.`.`.`.(.(.).(.E.A.n.n.H.I.I.I.;   O O o   . o       l V./.P.V.B.b.b.Z.A.D.L.F.H jXAXGXGXHXGXGXHXHXHXHXHXGXGXGXHXJXGXDXhX|.^.^.^.!.Q.Q.!.Q.Q.Q.Q.Q.!.!.Q.Q.!.Q.Q.Q.Q.Q.Q.Q.Q.Q.Q.Q.Q.E.E.E.E.E.E.E.E.E.E.E.E.E.E.E.E.E.E.W.E.K.K.K.E.E.E.E.E.K.D.Y.Z.F k g.SXSXSXSXSXSXSXSXSXKXSXSXDXxXy.G.^.^.^.^.!.!.Q.Q.Q.Q.Q.Q.E.E.K.K.H.H.S.S.V.N.B.z.k.k.k.k.k.z.z.k.k.k.k.k.k.z.z.z.k.j.V V j.j.j.j.V S D D m S pXfXrX5X9X9XoXq.4XoX0.*.%.%.3.*.P *.e.w.;.2.:.:.7.E s :.9.3.P P :.9.Q I 2.4.:.E o.4.I :.2.2.Q I Q 2.2.2.:.:.2.Q i :.W Q Q | 2.2.I T 6.2.L I | { :.2.Q i :.| W E :.7.8.2.2.2.6.6.7.7.9.I r e r E ,.7.:.Q T 4.%X-X&X&X&XwXuX-XXXwXyXmX%Xq 1 2 2 1 1 1 3 3 # @ @ @ # # @ # + + + X + X   . .   . X X o o                 . .                                                                         X X 3 R 8. X&X:X-X:XwX:X*X*X*XXX9.%X9.5.2.2.2.Q I I I I T Q Q { | | { W W W } | | | | | { Q { | } ' W ' | o.| W W ' Q o.O.o.Q I Q o.",
"I e r L t Y.`._._._._.Y.Y._.`.].].].].].].].].].].'.`.`.`.(.(.(.~.E.A.b.n.C.P.I.I.z   o O O       X o   l C.I.H.B.n.v.b.Z.D.H.L.F.F h.BXKXGXHXHXGXHXHXHXHXGXGXGXHXKXGXZXzXy.G.^.^.!.Q.Q.Q.Q.Q.E.Q.Q.Q.!.!.Q.Q.!.Q.Q.Q.Q.Q.Q.Q.Q.!.!.!.Q.Q.E.K.K.K.J.K.K.K.K.K.K.W.E.E.W.W.E.E.E.E.E.K.K.K.W.W.E.E.W.Y.Y.H y.BXSXSXSXSXSXSXSXSXSXSXSXSXSXzXy.F.^.^.^.Q.!.Q.Q.Q.Q.Q.K.K.K.K.K.L.H.H.S.A.V.N.B.z.k.k.k.k.z.z.z.k.k.k.k.k.k.z.z.k.k.j.v.V V j.j.V V S M D S S T.fXrXrX5X5XoXOXoXq.=.$.%.>.e.*.*.3.3.Q P E Q &.:.L Q w.3.P r :.7.7.L E 2.4.Q L 2.2.I 2.4.2.Q E &.o.:.Q Q &.2.{ e ,.2.Q E Q | 7.:.I I 2.Q I T | | 2.2.Q Q | :.:.Q T | 2.6.8.8.9.9.8.6.2.Q Q E a r E Q I Q 4.9.%X:X:X>X+XXX;.5.qXsXmX$.q q 2 5 1 1 1 3 1 # @ @ # # # + # # # X X X o   X . .                   . .     . . . .                                                         . .     o o o     . ` 8.#X-X-XwX:X-X;X%X;XXX3.2.5.9.9.9.2.E L I T Q | 2.o.| Q W W W { { W W Q Q Q | { Q Q o.| W W o.o.| W W W o.o.o.o.| T Q o.+.",
"Q E r u P Y.~._._._._._.Y.^._.].].].].].'.].].].].'.`.`.`.(.(.(.~.Q.D.b.j.B.H.P./.B.= o   O o O o o o o S P.I.P.n.M.v.v.Z.D.S.S.F.M.k lXKXHXJXHXGXHXHXHXHXGXGXGXHXGXZXAXhXy.L.W.E.E.E.K.Q.Q.Q.Q.Q.Q.Q.Q.Q.Q.Q.Q.Q.Q.Q.Q.Q.Q.Q.Q.Q.!.!.Q.Q.Q.K.K.J.J.J.J.J.J.J.J.J.K.K.K.J.K.K.K.J.J.K.W.W.W.W.W.W.W.Z.M.b g.KXSXSXSXSXSXSXSXSXSXSXSXSXDXhXH Y.^.W.W.E.Q.Q.Q.Q.Q.Q.E.K.K.K.L.H.S.S.S.A.A.N.B.z.k.k.k.k.k.k.k.k.k.k.k.k.k.k.k.k.k.k.j.j.V D D D D S M M S m -.gXfXrX9X5X5XqX9Xe.$.*.;.0.3.*.0.3.E P 2.7.9.5.;.P ;.7.Q L Q w.9.:.P :.4.2.E L 4.2.P 2.2.2.I E 2.Q ` Q :.3.2.:.i E 4.Q Q Q I :.2.Q I E 2.W I | | | :.7.E E | 6.7.Q I 2.6.2.Q Q 4.4.4.9.#X#X7.6.Q L 4.s.%X&X4.Q 8. X&X.X X%XqXyXNXwXr q q a 5 1 1 1 3 # # # # # # # # # # X X o X o   X o o o o o .                   o o o o                   .     .                               . .             o   + | #X X&X*X>X:X*X;X;X%X5.Q Q 2.2.Q Q Q :.:.2.2.2.2.o.Q W W | { W W } | | | | | Q Q | | Q W } } } ' ' o.o.o.@.o.| E R o.+.o.",
"L T I I E U.~._._._._._._.^._.[.].].].].'.].'.'.].`.`.`.`.(.(.(.~.!.D.b.j.n.C.P.I.I.l.O       . o o O m ^.I.I.c.V D v.n.Z.A.A.S.F.M.b jXSXJXJXHXHXHXHXHXHXHXGXGXHXKXSXVXg.G.L.E.K.Q.Q.Q.Q.Q.Q.Q.Q.Q.Q.Q.Q.Q.Q.!.!.!.Q.Q.Q.Q.E.E.E.E.Q.Q.Q.E.K.J.J.J.J.J.J.J.J.J.J.J.K.J.J.J.K.K.K.K.J.J.W.W.W.W.W.Y.M.v k hXKXSXSXSXSXSXSXSXSXSXSXSXDXlXy.G.^.W.W.W.K.E.Q.Q.Q.E.Q.E.K.K.L.H.S.S.S.A.A.N.N.B.z.k.k.k.k.k.z.z.k.k.k.k.k.k.k.k.k.k.k.j.j.V V D D D S M S S m A pXfXrX5XoX5XoX5XoX;.w.oXq.&.3.w.3.E 5.oX;X%Xw.2.P 2.2.:.7.7.9.2.Q &.:.4.2.P E 9.2.P :.2.2.I Q 5.Q E 2.:.2.#.2.` I 4.2.2.2.I I :.:.T I Q :.R T 6.2.2.o.:.E E | 6.6.:.:.{ :.2.7.5.2.2.4.9.#X#X;X;X%X=X:X&X-X%X4.2.9.wXwXuXaXaXsXsX2.2 q q 5 1 1 # # # # @ + + + + + + X . . .               . o .             . o o X . .       . o o X o X . . .             . X X X O O O O O o o o     X X         X $ . 4 a.#X#X&X-XwXwX-X*X*X%X9.5.5.2.2.2.9.7.2.Q Q Q Q Q Q Q Q Q Q Q | o.o.o.| o.Q Q o.o.Q W ' o.' W } o.o.o.o.o.+.| I W o.+.O.",
"L u e e E U._.~._._._._._._._._.'.].].].].'.'.`.`.`.`.(.(.(.(./.Q.Q.J.m.v.k.c.C.I.I.P.C ; o       l n.P.).I.z.B B D v.m.N.A.A.A.F.M.b h.VXJXJXHXHXHXHXHXHXHXHXHXHXGXSXzXy.G.Q.K.Q.Q.Q.Q.Q.Q.Q.Q.!.Q.Q.Q.!.Q.!.~.Q.Q.Q.Q.Q.E.K.K.K.K.K.K.K.K.L.H.J.J.L.J.J.J.J.J.J.J.J.J.J.J.K.K.E.K.J.J.J.J.Y.W.J.Z.M.b g.AXSXSXSXSXSXSXSXSXSXSXSXDXxXg.G.Y.Y.L.W.W.W.W.E.E.W.K.E.K.K.K.L.S.S.S.S.V.N.N.B.n.z.k.k.k.k.k.z.z.k.k.k.k.k.k.k.k.k.k.j.j.V V j.D D D D M S S v A 1.fXfX5Xr.oXq.t.0.oXoXoXXXw.w.oX3.3.oXoX3.;.3.%.%.>.2.9.w.3.&.&.:.:.:.2.2.i E 9.&.P :.2.2.E &.5.&.` 3.Q E Q 2.:.r 2.3.:.2.{ I Q :.T ` E :.Q I | 7.6.Q | :.:.E I :.6.9.| T Q :.:.&.:.9.4.9.9.9.;X&X&X X4.XX-X:X:X*XwX-X:XyXaXmXeXr 3 # # # # # # O # # # # # # # + # X X X . . . . X X . . . .   . . . . . . . . . . @ + @ @ # # # : $ O O o o o o o O O O O % % * * * % = % % O O O O O o o o o o O . O O X ` &X&X&X&X-X-XwX9XwX*X9.XXw.5.5.9.5.2.Q Q Q | Q Q | Q Q W Q o.o.o.o.| | o.Q | o.o.} o.o.o.o.' o.o.o.Q o.o.2.Q W o.+.O.o.",
"{ u e e i -._.`._.`.`.[.[._._._.`.'.].].].].'.`.`.`.(.(.(.(.(.!.!.K.K.Z.v.j.z.C.P.C.I.I.x.b l * Z F.).I.I.c.C v D v.m.Z.N.V.A.N.F.F.F h.zXGXGXJXHXHXHXHXHXHXHXHXJXFXSXlXH F.^.I.Q.Q.Q.!.Q.Q.Q.!.!.Q.Q.Q.Q.Q.Q.!.Q.Q.E.E.E.E.K.K.K.K.K.K.K.K.K.L.H.J.J.J.J.L.J.H.K.K.K.J.H.J.J.J.J.J.J.J.J.D.D.D.D.Z.F G hXKXSXSXSXSXSXSXSXKXSXSXSXDXzXh.F.W.Y.P.W.W.W.W.W.K.K.K.K.K.K.J.J.S.S.S.V.N.N.B.B.n.k.k.k.k.k.z.z.z.k.k.k.k.k.k.k.k.k.k.j.V D D v.v.V V D m S v A A A rXfX5X4X0X0X*.;.oXXX&.w.*Xq.3.w.oXoX3.P P P P >.3.:.5.3.! ! &.9.:.E 2.2.r Q w.&.E 2.3.3.E &.3.Q :.2.Q E 2.9.:.i Q 2.I :.2.T I 2.:.` E Q 7.Q R 9.7.2.L o.4.:.E r | 4.9.s.2.I i s E :.2.:.! P ! 4.#X4.! &. X:X:X X;.0.OXyXsXfXq.w 1 # # # : : : % : > > > - > > > - & % % O O O O O X O O O # 1 y h h h h a a a h h a p / / _ j s s = % O O O O % = * * * - - - - ; - & & & * & & & % % % % % O O = % % = O # :.&X%X&X&XwXwX*X;X*X%Xw.5.3.2.3.&.! L Q 2.2.2.| :.:.Q | | o.o.o.o.| | Q o.o.Q Q o.o.o.o.o.o.o.o.o.o.o.o.o.W W 4.8.o.@.",
"u Y i e e P U.`._.`.[.`.`._._._.`.`.`.].].].`.`.`.`.~.~.~.~.~.Q.E.Q.L.Z.v.D j.z.V.C.P.P.C.c.z.x.c.c.C.B.V n v v v.n.N.N.N.A.A.S.C.Z.H h.VXGXGXHXHXGXFXHXHXGXHXHXHXKXAXg.|.Q.K.W.K.Q.Q.Q.Q.Q.Q.Q.!.Q.E.Q.Q.Q.Q.E.E.K.K.K.K.K.K.K.L.L.J.J.J.J.J.J.J.J.J.K.J.J.J.H.J.K.J.J.K.K.K.E.K.E.J.J.^.W.D.D.V.M.S G hXSXSXSXSXSXSXSXSXSXSXSXSXDXy.D ^.L.^.W.W.W.J.J.J.J.J.L.J.K.K.L.J.J.D.S.V.N.N.B.b.b.z.k.k.k.k.k.z.z.z.z.k.k.k.k.k.b.b.j.j.v.v.v.v.D D D m S S v A A d }.fXrX6XeX0XoXq.e.q.0.e.e.;.=.w.oX*.$.s ` :.3.w.3.&.7.&.! 3.5.7.:.P 5.&.P >.w.! %.2.2.7.E &.9.:.E ;.%.%.2.5.7.E ! :.L Q 7.2.r E 2.Q W ! :.:.I I :.2.2.Q Q 2.:.E P I 7.9. X9.4.2.! Q Q 9.7.:.2.| 9.%Xw.&.&.&X:X&XOXXX&XaXmXiXA > > > > > x v v v v v v v v v v c z v x x x l l l ; > ; - > > > d s p _ _ ) { ..p h / f ....X.j : % & & & - ; ; ; ; > ; ; ; ; ; ; ; > ; ; ; ; ; ; ; ; ; ; - - * & & , % : % % d 7.%X%X=X&X-X:X-X*XOXXX5.2.2.2.! ! Q &.&.2.:.Q Q | Q | | o.2.2.2.Q Q Q #.#.Q o.o.2.o.Q #.W o.6.o.Q #.2.o.W o.8.o.o.o.",
"3 u i r a t -._._._._.`.`.`._._._.`.`.'.].'.`.`.`.`.~.~.~.~.!.Q.E.E.J.A.n.v.D V v.b.B.B.V.c.z.z.C Z n z l l m D n.B.N.V.N.N.A.A.S.Y.H h.AXKXPXGXHXHXGXGXGXGXGXHXHXSXbXy.G.^.Q.W.Q.Q.Q.Q.K.Q.Q.Q.Q.E.K.K.E.K.K.K.J.J.J.J.K.K.J.J.J.K.L.L.J.J.J.L.H.H.J.J.J.J.L.J.J.J.J.J.J.J.J.K.L.J.J.J.L.W.D.D.F.D G g.BXSXSXSXSXSXSXSXSXSXSXSXDXhXy.G.W.W.^.W.J.E.W.H.S.J.L.J.J.J.J.S.D.J.D.V.N.N.B.n.b.z.z.k.k.k.k.k.z.z.z.z.k.k.k.k.k.k.k.j.j.v.D D D D D D S S m v A A d >.iXrXrX5X9X9X4X4XoXoXe.0.$.&.e.q.$.P &.q.%X%X5.&.;.3.P ! 3.5.3.P %.5.Q %.7.w.P &.2.Q :.P Q 3.:.:.;.E s 2.5.:.i ! 9.Q L :.7.:.E :.4.7.! L 2.2.I r E 2.7.2.:.2.6.2.E L &.9.9.9.%X%X9.4.9.%X;X;X9.4.#X:X-X X&XwXwXeXiXsXsXsXT.x v v N m N M B C B Z Z Z Z n n n n n c z z z z z z z z z z z z l ; ; d ` ..` ` ) ) ] ..X.h y $ O % * - ; ; ; ; > l l ; ; ; ; > > > > > ; ; ; ; ; ; ; ; ; ; ; - & & & ; > - & & : s f.-X&X:X:X:XwX*X*X%XXX5.5.3.2.3.9.2.&.Q Q :.2.2.o.o.o.2.o.Q Q Q Q #.#.Q Q o.2.| Q W #.o.o.+.| W #.o.W #.o.8.Q o.o.",
"@ e r i h a A Y.~._._.`.].].`._._._.`.`.'.'.`.`.`.`.~.~.~.~.!.Q.W.W.J.S.N.b.D S N N B B B N c v > ; & - > v D n.n.B.N.C.V.A.A.D.L.Z.H p.AXHXGXGXGXHXGXGXGXGXHXGXGXVXhXH F.Q.E.K.Q.Q.Q.Q.E.E.E.E.Q.E.E.W.E.E.K.K.J.J.J.J.K.J.J.J.H.H.J.J.J.J.J.J.H.J.L.H.S.S.H.J.J.L.J.J.J.J.L.K.L.J.J.J.L.D.D.Z.M.v y.BXSXSXSXSXSXSXSXSXSXSXSXSXlXy.G.^.W.W.W.Q.J.J.L.J.J.J.J.L.J.J.J.S.S.D.D.V.N.N.B.b.z.z.z.z.k.k.k.z.k.z.z.z.k.k.k.k.k.k.k.j.j.j.V V V V D D D S m A A d d d 0XfXrX5Xq.oX9X0XoXoX3.:.P *.e.&.t %.5.oXOXOX;.P 3.3.P >.3.&.3.E 3.5.! :.w.3.L 3.3.Q 2.P Q 5.:.2.3.:.i 2.4.:.r ! 9.2.Q 2.2.2.2.2.7.9.7.I Q 7.:.I P Q 2.7.2.:.2.2.7.:.E Q 3.9.6.2.XX9. X5.9.%X*XXXXX>X:X X5.;X*X*XwXsXmXeXA x N N C C V V j.j.V V C C Z Z Z Z Z n Z Z n n n n z c l z z z z x x l x <.6.,.,.} O.i.d.u.+ o % & - ; > ; ; ; ; l l l l ; l l ; l ; ; ; ; ; ; ; - - - ; ; ; - & & & & & > & & > % : <.-X-X>X>XwXwX-X*X*X%XXXw.5.5.9.7.3.&.Q Q | 2.2.2.2.2.o.Q Q Q o.2.o.o.o.o.2.o.W R Q o.o.o.o.| o.4.o.W o.4.2.W o.8.",
"6 u 4 r _ p : F _._._._.`.].`.`._._.`.`.'.'.`.`.`.`.~.~.~.E.W.W.E.W.D.D.A.B.v.D M M n v b x > : > > x m F D b.b.n.B.N.C.S.A.A.D.D.N.H hXAXHXHXGXGXHXGXGXGXGXGXSXAXlXy.G.^.K.L.P.Q.Q.Q.Q.E.K.K.K.E.E.J.J.J.J.J.J.J.J.J.K.K.J.J.J.H.S.S.H.H.H.H.H.H.L.L.L.H.H.H.H.J.L.J.J.J.J.J.J.J.J.J.L.H.D.D.Z.D b g.AXSXSXSXSXSXSXSXSXSXSXSXzXy.|.^.^.^.E.J.K.J.J.J.J.J.J.J.L.S.J.J.S.S.A.A.A.N.N.B.b.z.k.k.k.k.k.k.k.z.z.z.z.z.k.k.k.k.k.j.j.j.V D V B B D D S S S A A d d d >.fXfXpXe.oX9X9Xe.t.$.3.3.w.w.*.:.3.XXoXq.3.P P 3.&.&.w.3.%.7.7.5.3.! 3.w.&.P 5.3.&.7.Q ! 5.:.2.5.:.s &.3.7.E L :.7.2.2.Q Q 7.9.Q 2.f.2.I :.7.7.Q I P 2.7.:.:.2.:.7.2.&.7.9.:.Q ! 2.XX X2.2.XX-X%X&X:X%X3.0.3.q.*XsXIXT.m N B M j.j.j.l.k.k.b.k.j.V C C Z Z Z Z Z Z n n n n c c c c c z z c v x v <.O.6.d.6.+.+.i.X.  % - > l l l ; ; ; ; ; l l l l l l l l ; ; ; ; ; ; ; ; ; ; ; ; ; ; ; ; ; ; ; & - ; ; ; > : >.-X&X&XwXwXwX*X%X%XOXXXXX9.3.:.&.&.Q Q Q Q 2.2.2.2.o.Q #.2.4.6.2.o.o.o.o.W W { 2.4.o.#.o.o.2.4.o.W o.8.2.Q o.+.",
"u U 2 3 u R 3 d U.Y._.~.~.`.`.`.`.`.`.`.`.`.`.`.`.(.`.`.~.E.W.W.E.W.Y.D.S.V.n.v.D D B M m S S S S S D v.b.b.b.b.N.N.N.A.C.C.A.A.C.F.k hXKXHXFXGXHXHXGXGXGXHXGXSXxXhXH F.W.J.P.I.Q.Q.Q.E.K.K.K.K.W.J.J.J.J.J.J.J.J.J.J.J.J.J.J.J.L.J.J.J.H.H.S.S.H.H.J.H.J.L.L.L.S.J.J.H.J.J.J.J.J.J.J.L.J.D.F.M.S G lXDXSXSXSXSXSXSXSXSXSXSXxXp.H F.Q.^.^.K.J.D.J.W.J.J.J.J.J.J.S.S.S.S.A.V.A.A.N.B.B.b.b.k.k.k.k.k.k.b.b.z.z.z.z.k.j.l.l.l.l.v.V D D D D D S S S S A A A > , d d e.fXrX5X4X0Xe.3.&.&.q.oX;Xw.3.w.q.q.;.*.$.P *.5.$.3.w.&.&.w.w.3.&.L 9.XXP P 9.3.&.9.2.Q 7.&.2.5.:.P :.6.s.7.L L 7.7.:.2.P E 9.&.&.9.7.:.2.2.7.7.2.| :.7.7.:.3.2.2.9.9.w.%X9.4.&.&.9.&X%X9.XX%X5.5.*XwX0X0X9XwXdXfXgXv.l.x.k.v.k.l.l.k.z.z.z.z.k.k.l.V C C Z Z Z Z n n n n n n n n c c c n c z A %.6.6.6.,.O.i.i.g O > ; ; > l ; ; ; ; ; ; ; ; l l l l l l l l ; ; l > l l ; ; l l l l l l l x x l x l l l b l > >.-X&X>XwXwXwX-X9X9X*XXX9.3.Q ! Q 2.2.2.2.2.2.Q 2.2.2.2.4.2.o.o.2.o.Q W W | 6.o.o.o.o.o.+.4.o.W Q 4.8.o.o.+.o.",
"e U 6 < 3 R e w A U.^.~.~._.`.`.`.`.`.`.`.`.`.`.(.(.`.`.~.Q.W.W.E.J.D.A.A.N.B.n.v.v.v.V D v.v.v.v.j.l.x.l.z.n.n.A.Z.N.V.C.C.C.A.F.H h.lXJXHXGXGXHXGXGXGXGXHXKXSXlXy.G.^.J.K.P.P.K.Q.E.K.K.K.K.K.J.J.W.J.J.W.W.J.L.J.J.J.J.J.H.S.S.S.S.J.J.J.H.H.J.H.S.S.S.H.L.L.S.J.D.D.J.J.J.J.D.J.J.L.L.D.m.M.G g.AXSXSXSXSXSXSXSXSXSXSXDXhXG G.L.Q.W.^.K.J.W.J.J.J.J.J.J.J.J.J.S.A.A.A.A.V.N.N.B.n.b.k.k.k.k.k.k.k.b.b.z.z.z.z.k.j.j.j.j.V D V D D D D D S S S v A d d d : d d t rXrXeX5X9XoX0.0.e.oX4Xe.>.3.oXq.0.&.%.P *.0.&.&.5.7.P *.w.5.5.&.P 5.5.P &.XX5.&.9.3.2.7.%.2. X3.P :.6.7.7.Q r Q w.2.2.2.Q 2.7.Q 2.9.:.2.7.3.9.9.4.2.9.w.3.3.5.3.3.2.9.%X%X%X%X9.5. X%X%X;X%X5.4.XX>XuXaXaXsXsXrXU.V z.k.j.v.V C V V l.x.x.l.j.j.V C C C Z Z C C Z Z Z Z Z Z n z z c n c c v A <.7.s.,.6.d.,Xu.$ O ; ; x > ; ; ; ; > ; ; ; ; l l l l l l l l l l l l l l l l l l l l l l l l l l l x x l l x l x 0.-X:XwXwXwXwXwXeX9XXX5.3.;.2.3.3.2.2.2.Q ! &.2.4.2.2.2.2.o.#.4.o.W W o.6.6.o.o.2.4.+.+.o.o.! Q 2.2.W o.+.8.",
"u 8 p 2 3 4 R 2 w F U.Y.W.~.~.`._._._._.`.`.`.`.(.(.`.`.~.~.E.E.E.W.D.D.A.N.B.n.k.b.k.j.j.V V V l.k.l.k.z.n.B.N.V.V.N.V.C.C.A.Z.G.G hXAXHXHXJXGXHXGXGXHXGXKXAXBXg.H F.^.E.!.K.L.K.K.K.K.K.K.K.K.H.J.J.J.J.J.J.J.J.H.S.S.J.J.S.S.S.S.S.S.H.L.L.L.J.J.H.S.S.S.H.H.D.J.D.S.J.J.J.J.J.W.J.J.D.Z.M.H y.lXSXSXSXSXSXSXSXSXSXSXSXzXy.M.Y.W.^.L.W.K.K.W.K.H.H.J.J.S.S.J.J.S.A.A.A.A.N.N.B.B.n.b.k.k.k.k.k.k.k.k.z.z.z.z.k.k.k.j.j.j.V D D D D D S S S S A A A d d y d , w # 1.fXdXrXeXeX9X9X9XoXq.;.&.*.oXe.;.*.*.*.0.5.&.3.w.3.E *.w.5.w.%.%.5.5.&.3.XX3.;.5.5.2.3.E &. Xw.E | 7.3.9.2.Q P 9.w.2.3.7.2.9.Q 2.9.Q :.7.3.2.2.5.5.5.w.w.5.2.w.w.5.3.2.2.2.3.w.%X%X9.9.%X*X:X*X*X>X:XwXeXaXfXT.S V v.V V C C V V V l.l.V C C M Z N N N N N Z Z Z Z Z n n n Z Z n Z n c c v <.:.7.7.:.O.,Xi.h # - > ; > > l > > > > ; ; > > > > ; l l l l l l l l l l l l l l l ; ; ; ; l l ; ; ; ; x > ; ; b ; x r.-X-XwXwXwXqXwX9X*X%XXXXXXXw.9.5.2.2.:.Q 2.4.4.2.#.2.2.2.2.2.2.Q o.2.4.2.o.o.2.4.+.+.O.o.Q o.o.Q W o.+.8.",
"p 9 p s 2 3 T r 1 s -.Y.W.W.W._._._._._.`.(.(.(.(.(.(.~.~.~.E.E.W.W.J.L.A.Z.m.n.b.b.z.k.k.k.k.l.l.k.b.b.B.N.V.C.C.C.V.V.C.C.N.B.N y.VXKXFXHXJXGXGXGXGXHXGXSXVXhXy.G.D.Q.!./.K.W.K.K.K.K.K.K.K.K.J.J.K.W.J.J.J.J.J.S.S.S.J.J.S.S.D.D.D.D.H.H.H.D.S.H.J.J.H.J.J.J.S.D.S.S.J.J.J.J.J.E.J.L.Y.Y.M.H hXAXSXSXSXSXSXSXSXKXSXDXzXh.H G.Y.D.L.L.D.J.K.H.J.J.J.J.J.J.D.S.S.S.S.A.V.N.N.N.B.B.b.z.k.k.k.k.k.k.k.k.z.z.z.z.k.k.k.l.j.v.D D D D S S S S S S A A A d w w y # : y d pXfXdXrXeXeX5Xw.3.:.$.;.q.q.e.*.3.w.oXq.&.*.w.w.3.&.>.q.5.w.<.:.w.5.3.q.XX3.3.XX5.3.7.&.3.5.w.&.Q 7.;.5.5.7.P &.%X3.Q 7.9.7.2.2.9.9.6.3.3.&.2.w.9.;.4.%X9.&.3.w.XX5.3.5.3.&.2.9.;X%Xw.5.XX-XwXwXeXqX*XeXsXgXF M C V V l.x.x.x.l.l.l.x.C C Z Z Z Z Z Z Z Z n n n n n c n n n c c c c v v A 1.,.:.>.:.O.,Xu.$ O ; ; > > l l > l l l > ; ; ; ; ; ; ; l l l l ; l ; ; ; ; l l l l > > > l l > l l l ; ; > l l ; l l d 7.:X:XwXuXwXwXwXwXwX*X*X%XXXw.5.3.3.9.7.2.5.3.;.2.4.2.Q 4.2.2.2.4.o.Q o.4.2.2.4.+.o.o.#.o.+.o.#.o.8.4.8.",
"7 4 4 u p 5 6 i h 2 t -.Y.Y.Y.^._.~.~.~._._.`.).(.(.~.~.~.~.Q.~.E.W.D.D.A.Z.B.B.b.b.z.z.z.z.k.k.k.b.n.n.B.N.V.V.C.V.N.C.C.N.F.x.h.bXZXGXGXGXHXGXPXGXKXGXKXAXhXy.M.F.L.K.Q.!.Q.E.K.K.K.E.K.K.K.H.J.J.J.J.J.J.J.J.S.D.J.J.J.S.S.S.S.S.D.D.J.L.J.H.S.S.S.S.S.L.L.L.J.D.D.D.J.J.J.J.S.H.J.D.Y.M.H H zXSXSXDXSXSXSXSXSXSXDXDXg.H m.F.J.L.J.L.L.L.K.K.J.K.J.J.J.J.D.J.S.A.A.A.A.V.N.B.B.B.b.b.k.k.j.j.k.k.k.k.k.b.n.z.z.k.j.V V V D D B S S S S S A A A A > > : : w : : d : %.iXfXrXoXOXOXq.3.q.t.e.oXoX0.$.q.oXe.=.;.w.q.;.3.3.;.q.w.3.&.3.w.w.q.5.XX;.3.%X3.2.5.&.2.4.9.&.2.3.5.4.2.5.:.L 9.;X&.! 7.9.XX;.5.XX9.2.9.3.>.0.;X3.&.w.XX5.&.&.5.;X%X-XXX3.:.&.0.-XXX X%X&X>XwXeXeXyXfXgXM.v.j.j.k.l.x.x.l.l.C C Z n z z l l l l l l l l z z z z z z z c c n c v A A <.<.,.,.<.<...$Xd.y = - > > > > l l l l > > ; ; ; ; ; ; ; ; > > > > l ; l l l l l ; ; ; ; ; ; > > > ; ; ; ; ; ; - - > & - * : 7.wX:XwXuXwXwXyXwX*X*Xw.XXXX5.3.5.XXw.4.;.3.2.2.2.#.4.4.4.2.2.2.o.2.4.4.2.4.2.Q Q o.4.8.8.o.o.4.8.+.4.",
") 4 < 6 h a 6 u a 4 s A F U.Y.Y.Y.W.~.~.~.`.(.(.(.(.~.~.~.~.~.~.E.W.D.D.A.A.Z.Z.B.B.b.b.b.n.n.n.n.n.n.B.N.N.V.V.N.V.N.N.C.A.M.H lXCXKXGXGXGXGXGXGXGXGXKXAXlXy.H F.F.L.K.Q.!.~.!.Q.K.E.E.K.K.K.J.J.J.J.J.J.J.J.J.J.J.J.J.S.S.S.S.S.S.S.S.S.H.H.L.J.H.S.S.S.S.J.H.J.J.D.D.J.L.J.W.D.L.J.Y.m.M.H g.VXSXAXAXSXSXSXSXSXDXDXhXG M.^.H.D.J.J.L.K.L.H.J.J.J.J.J.J.J.S.S.A.A.A.A.A.Z.N.B.B.B.b.b.k.k.j.j.k.k.k.k.k.z.z.z.k.l.j.j.v.D D M M S m m S S A A d d d : : : w w w w w d t.fXrXeX9X9X*XoX4X5XoXoXe.0.&.q.0.*.=.w.q.&.&.0.e.w.5.;.&.;.w.w.;.q.q.XX3.3.XX;.2.w.&.3.4.5.2.3.3.3.4.2.XX3.r &.%X9.2.! 2.w.5.9.5.9.5.9.%X&.%.3.XX5.3.XX%Xw.&.*.w.%X&X&X*XXX3.3.*X-X-XwXyXyX:X*XeXfXfXU.D B C C C Z Z Z z z l l l ; ; - & ; & & & & ; ; ; ; l l x x l x x v A A G %.<.<.:.| :.:.6.i.X.o & - ; > > l l l l l > > ; ; ; ; ; ; ; ; ; ; ; ; ; ; ; ; ; ; ; ; ; ; - - - - - - - - & & & & & % % % * % : E XXwXyXuXyXyXwXwXwX9X*X;XXXXXXXXXw.5.;.&.2.2.4.4.2.4.4.9.5.2.Q | 2.8.8.9.4.Q W 2.4.o.8.8.o.o.4.4.+.8.",
"/ U 6 6 a a a a U 2 u e d A U.Y.Y.Y.Y.W.~.`.`.`.(.`.~.~.~.~.~.~.~.E.W.D.A.A.A.A.A.N.N.N.N.N.Z.Z.N.B.B.N.N.N.V.V.V.N.F.N.S.n.b g.zXSXHXGXGXZXZXGXGXFXHXKXlXy.H G.Y.L.L.P.K.Q.!.!.Q.K.K.K.J.J.J.J.K.J.J.J.J.J.J.J.J.J.S.S.S.S.S.S.S.H.S.S.S.S.S.S.H.J.J.H.J.J.S.S.J.D.D.D.J.J.J.D.S.D.Y.m.M.H y.bXDXDXAXSXSXSXSXSXSXSXzXh.D F.L.H.J.J.J.J.K.K.J.J.H.J.J.L.W.L.D.S.S.D.A.A.A.N.N.B.B.n.b.k.k.k.j.j.j.j.k.k.k.k.k.k.z.k.j.j.V B M M M S m S A A A d d d w : y : : y # w d d d 4XrXqXeXoX5X0X4Xq.q.oXe.*.3.e.q.*.*.e.q.&.3.w.0.0.;.&.;.w.oX3.&.w.q.q.0.3.XX&.2.%X&.3.5.w.w.3.:.3.5.5.9.w.E P 9.&XXX&.! 3.w.9.3.9.w.XXXXw.3.&.3.%X3.&.3.;X3.3.3.XXOX+X+X*X*XXXXXXXXX0X9XwXwX*XrXfXpXx z z z z l l ; ; - ; - * * * = * % % % % % % % % = = O % d G d > d A A <.<.<.,.:.,.:.| O.i.X.$ O - - ; ; > l > ; l l ; ; l l l l ; ; ; ; ; - - & * * & & & & & & * * & & & & & & & & % % % % O O O O O % d r ! 9.yXyXyXyXyXeXwXuXwX*X*X*X*XXXXX5.5.5.5.4.4.4.4.5.9.2.2.#.2.8.4.4.8.9.2.Q Q 4.4.Q o.4.4.4.4.4.8.8.",
"7 ) U 7 6 6 a a U u 6 6 i t A U.m.m.Z.Y.W.~.`.~.~.~.~.~.E.E.Q.~.!.Q.W.D.D.A.D.D.D.A.A.A.A.A.A.A.D.A.N.N.N.N.V.V.C.N.Z.A.B.S g.lXDXSXGXGXGXZXZXGXGXGXKXVXg.G G.F.L.L.H.H.H.L.K.K.K.K.K.K.J.J.J.S.J.J.J.L.L.L.J.S.J.J.S.S.S.H.H.D.S.S.H.H.S.S.S.S.S.S.H.J.J.J.J.S.S.D.D.D.S.S.D.D.S.A.Z.v.F b hXSXDXDXSXSXSXSXSXDXDXDXjXH F.D.S.W.J.J.J.J.J.K.L.L.H.H.S.H.J.L.D.D.D.D.A.N.N.N.B.B.n.b.k.k.k.j.j.j.k.k.k.k.b.b.b.k.z.l.j.V B B D S S S A A A A A A d w w : y y # y : w d d d t 0XrX5X5X4XoX5X4XoX9Xq.;.oXoXq.*.3.e.q.3.e.r.*.0.q.0.oXoXe.$.>.e.q.q.3.3.*X&.;.%X&.3.XXXXf.:.E 2.w.q.9.w.%.P 2.%X;X3.P 3.w.w.5.5.w.XXw.%X%X3.*.w.XX3.%.3.XX%XXXXX*X*XOXOXOXOXqX9XXXq.q.qXeXeXrXT.x ; l l l ; ; - - * - - & & & & = % = = = = = = = = O O   1 j s s d s s %.<.:.,.,.:.,.,.{ a.u.$ O * - ; ; ; > > > ; > > > > l ; ; ; - - - - - - - & * * & & & & % % % % % % & & & % & % % % % % O O O O O : A E r L 9.wXyXeXwXyXwXuXwX-X*X*X*XOXXXXXw.9.2.Q Q ;.5.5.9.Q Q 2.9.9.2.4.4.2.Q | 8.8.2.o.4.4.8.8.8.8.8.8.",
"7 p 7 u p 6 6 6 p i a e 7 r d A F M.m.Z.Y.Y.E.!.~.~.~.Q.E.E.E.Q.E.E.W.J.D.D.D.D.D.D.D.A.A.A.S.S.D.A.A.A.N.N.N.N.C.Z.Z.B.C y.bXAXSXGXGXGXGXZXGXGXGXSXAXhXG F F.F.L.H.H.H.H.J.L.K.K.K.K.J.J.J.J.S.S.H.H.H.H.H.S.S.J.D.S.S.S.J.D.D.S.S.S.S.S.S.J.J.S.S.S.S.S.S.S.J.H.J.J.J.D.D.D.D.J.D.m.F b y.BXSXAXAXAXSXSXSXSXDXDXhXk G.W.D.Y.D.J.J.S.S.J.J.J.J.H.H.S.S.D.S.S.D.D.A.V.N.B.B.B.B.b.b.k.k.k.j.j.j.l.j.k.k.k.z.z.b.k.l.V V D D S S S S S A A A A A d w d w y d : d : d d d d d =.rXrX6X5X5XeX0X0Xw.*.0.oX0.*.*.0.oXq.q.oX3.=.e.;Xe.q.XX;.$.0.w.*.q.3.;.oX;.3.;X&.w.XX5.0.%.P 3.XXq.XXw.%.t &.9.&Xw.%.3.w.5.%Xw.5.5.XX%X*Xw.*.3.;X;X0.3.5.%X&X5.XX9X*XOX5.XX9XwX*Xq.q.OXeXsXT.> ; > l l ; ; ; ; - - - - & & & & & & & & & & * = = = O O # j j d s s s s <.<.:.<.<.<.<.....d.f o = ; - - ; ; ; ; ; ; ; ; ; ; > ; ; ; - - - - - - - & * * & % % % % % = % = = = = = = % % % % % % % O = % % w A P t L I 2.:XaXeXeXeXyXyXwXwX9XqXqX*XOXXXw.2.&.2.5.9.5.6.&.2.4.9. X4.9.8.4.o.8. X2.o.4.9.4.4.4.4.8.8.4.",
"6 p 7 7 p 6 6 2 8 e q r 2 7 i w A F M.m.m.m.Y.E.~.~.E.W.W.W.W.W.W.W.W.J.D.D.D.D.A.A.A.S.S.S.S.S.S.S.A.A.A.A.N.N.A.Z.m.D G hXAXKXGXGXZXZXZXZXGXZXGXSXzXh.H F.F.F.H.H.S.S.D.J.L.K.K.J.J.J.L.J.J.S.J.S.S.H.S.S.D.J.J.D.S.S.S.H.H.D.S.S.S.S.S.S.S.S.J.S.S.S.S.S.S.S.S.J.J.D.D.D.D.D.D.F.M.H y.bXAXDXAXAXDXSXSXAXSXDXzXh.H Y.D.D.E.H.J.J.D.D.L.J.H.H.H.L.J.H.J.S.S.D.S.A.V.N.N.B.B.B.b.b.b.k.j.j.V V j.j.j.k.k.z.z.z.b.j.V C B M c v m v v A A d d > d d d d y w : : d : d d d s d 0.rXrXrXrXqX9X4X0.0.oXOX0.q.e.q.0.q.e.e.*.*.oXe.0.q.w.;.;.e.w.&.w.3.;.XX;.q.;X&.w.XX3.q.3.Q 7.XX5.OXXX:.P %.5.*XXX&.5.w.5.XX%Xw.5.q.&X*Xw.*.&.w.*XOXXXq.q.*X5.5.%X9XeX9X*X9XeXeXwXOX5XdXpXA ; b l x l l l l l l ; ; ; ; ; ; ; - - & & & & * % % O = o # j <.s s s <.<.<.<.>.>.,.,.,.O.i.u.+ O % ; - - - - - - - - ; ; ; ; ; ; ; ; - - & - & & & & * * * & = % % % % = = = = = = % = % % % = % % % * % : d t t P E E r &.*XyXyXyXyXyXyXeXwXwXwX9X*X*X%XXX9.XXXX9.2.&.&.5. X9.4.2.5.5.5.4.9. X2.2.9.9.4.4.8.9. X8.o.",
"3 u p u 6 6 6 2 p 2 3 u 2 6 i e d A F F M.m.Z.Y.W.W.Y.Y.Y.Y.D.D.D.D.D.D.D.D.A.N.N.A.A.A.A.S.C.C.V.S.D.D.D.A.A.N.Z.Z.v.G g.BXSXZXGXGXZXZXZXZXGXZXGXCXg.b v.Z.F.F.S.D.S.V.S.L.L.J.K.H.J.J.J.J.J.S.D.S.D.S.S.D.J.J.J.J.D.D.S.S.D.D.S.S.J.J.J.S.S.V.S.S.J.J.J.S.S.S.S.D.D.D.D.D.D.A.Z.n.S k hXGXAXDXDXAXAXAXDXDXDXxXp.G G.D.J.L.K.L.J.J.J.J.J.J.H.H.H.J.J.H.J.D.S.S.A.V.N.N.N.B.B.n.n.b.k.k.j.j.V V j.j.j.k.k.z.z.k.z.j.C M M m v A A A A x > : : : : y y y d : : : d y d d d d A A t.fXfXeXqX5Xq.4X9X9XOXoX9X9X0.&.3.e.0.*.0.oXq.5.q.oX3.w.*Xw.;.oXq.3.XX5.w.oX&.w.OXq.w.w.;.5.XX5.XX%X5.%.$.3.*X%X3.w.XX5.5.;XOXXX3.q.XXOXw.>.3.XXXX*X*XoX9X*Xw.9.OX9XqX9X9XqXeXyXeXrXpX-.x b z v v v x b b x x l l > ; ; ; ; ; ; - - - & & % O O %   y ` <.%.<.` <.<.7.>.7.7.7.,.2.d.u.5 O & & ; - * * * * * * - - - - - - - * * & & & & * & & = * & * = = = % % % = % = = % % = % % % % % % & & * : d P P P E t P E r P w.wXyXyXeXeXeXeX9X9X9X9X9X*X*XOXOXXX3.2.2.4.XXXX2.! ! 4.5. X X9.9.8.4. X9.9.9.9. X#X X4.",
"1 2 2 u p 6 6 u 4 u < 4 9 u u i d w A S F M.m.m.Z.Y.Y.Z.Z.A.A.D.A.A.A.A.A.A.N.B.N.N.N.A.V.V.V.V.C.S.S.S.D.D.D.N.m.b.N h.zXAXZXZXZXGXZXZXGXGXZXGXZXlXj F F.n.Z.F.C.S.S.C.C.L.L.H.K.J.J.J.J.J.J.S.A.S.S.D.J.J.J.J.J.J.J.D.S.S.S.D.S.S.S.S.S.H.H.S.S.S.S.S.S.S.J.J.J.D.D.D.J.L.D.A.m.v.N y.BXSXAXDXDXAXAXAXDXDXDXjXG G.^.L.W.K.L.D.J.J.D.S.D.H.H.L.S.S.S.S.S.S.S.S.A.N.N.N.N.B.n.n.b.b.k.k.j.V V V V j.j.k.z.z.z.k.b.j.V M m v v A A A A d w w $ $ $ y y y w : d w # y y t A A A v m T.gXrX6X5X4X5X5X5XOX4X4Xe.q.q.q.oX3.*.e.oXq.q.oXoXXXoXoXq.q.*Xq.5.OXq.XXw.&.w.*Xq.w.;X3.q.oX5.XX*X9.:.$.>.*X&X9.XX%X5.3.XX*XOX3.;.q.OX*X0XoXOX*XXX5.XX*X9X9X9X9XoXXXXXXX5X5XrXsXpXF v v c S m v v x b b l l x x x l l x l > ; ; ; ; ; - * % % O O X.,.` E <.<.:.:.7.,.7.7.7.,.2.,X .o - & & ; - * * * * * * * = = * * * * * & & & & * * * * & & & & & & % % % O O O O O % % % % % % % & = & & % w t P P P P t t t E r r 2.wXaXyXeXeXeXeXeXeXeXeX9XqX*X*X*X9.7.9.%XXX5.2.4.9.9.5. XXX5.5.9.9.9.XX X9.9.9. X X X",
"6 3 < 5 p 6 4 4 a u 2 2 r u i e e r r d A F v.v.m.Z.Z.Z.Z.Z.Z.A.Z.Z.Z.Z.Z.Z.Z.Z.N.Z.Z.A.V.A.A.V.S.D.V.A.A.A.F.F.G.b h.lXDXZXCXZXZXAXZXZXZXGXGXSXAXg.b M.B.F.F.C.V.V.S.S.C.D.L.L.H.J.J.J.H.H.H.D.A.S.D.D.D.J.J.L.S.S.S.S.D.H.S.S.S.D.S.S.S.H.L.L.D.D.S.S.S.S.S.S.H.S.D.A.J.A.F.M.D H G lXSXAXAXDXDXAXAXDXDXDXhXh.M.m.D.J.L.L.J.D.J.J.H.H.J.L.L.J.L.K.K.J.H.D.D.S.N.N.N.N.B.B.n.b.n.n.k.j.V V V V V V j.j.v.k.k.k.b.b.v.D S l d j s w : : , % : : , : y y : : d q a ` ,.<.A v S S C m t.rXgXrX9X5X5X5XoXoX4XoXoXq.oXoXq.q.oXe.t.q.oXOXoXoX3.3.oXoXq.XXXXw.*Xw.&.0.OXXX3.w.OXXX7.3.OXOXXX7.%.*.e.OX0.XX*X5.*.e.*X*XXX;.*.q.9XOXXXoXoXOXq.XX9X9XOX5XqXqX9X9XOX9XrXrXpX-.v m N N N c v v v v v v x x x b b x x x l l l ; ; - - * % O O o u.6.` <.<.<.:.,.7.7.7.7.7.7.6.i.u.$ * ; * * * * * * & & & % % % = = = % * * & & & & & & & & & & & & & % % % = % % % = = = % % * * = & - & * & d P P P P P t r P t w s w &.%XwXyXeXeXeXeXyXyXqXqXqXqX9X9XOXXXXXXXXX X XXXXX5.5.XX9.9.XXXX5.5.9.XX X4.5. X X X",
"p 6 3 < a u a 4 a a 2 2 i i e e u u r d A A D v.v.m.m.m.Z.Z.Z.Z.Z.Z.Z.Z.Z.Z.Z.Z.Z.Z.Z.Z.A.A.A.A.V.A.A.V.A.Z.m.D b y.hXVXAXZXCXZXCXSXAXZXZXGXKXSXlXy.H F.Z.A.V.V.V.V.S.S.S.D.L.H.H.S.S.H.H.H.H.D.A.A.D.D.D.D.S.S.S.S.J.D.S.S.S.S.S.D.H.S.S.H.H.S.L.J.J.D.S.S.S.S.S.S.S.A.A.Z.Z.v.D H y.BXDXAXAXDXAXAXAXDXDXBXy.H F.F.Y.L.K.L.L.J.J.J.S.S.H.S.S.S.H.J.J.S.S.D.D.S.N.N.N.B.B.B.b.b.b.b.k.j.j.V V V V V V j.j.j.k.k.k.v.D D F v > 7.tX;Xf.,.` i e 3 # w q i ` ,.,.6.<X,.G A S m m m M m m T.fXfXrX9X5X4X4Xe.oXoXoXoXoXoXe.e.oXq.t.q.oXoXOXoX;.*.w.OXXXXXXXq.oXw.*.w.+XOX3.q.*Xw.:.q.OXOX%Xw.>.%.q.*X3.q.*Xq.&.q.oX*XqXw.;.3.XXOXXXq.XXoX*X9X5XOXoXoXOX9XrXdXeXdXfX6XF v c N c N S c v v v x x x x x x b x x x x l l l l ; ; - - * % O k d.6.,.<.<.,.,.7.7.7.7.7.7.7.6.$Xi.$ * ; - - - - - * - & & & % % % = = % & % & & = & & & & & & & & & % % % % & = = = % % = % % * * & & - - - > t P P P P t t r t t r s w r r :.-XyXyXyXyXiXsXeXeXeXqX9X9X9X9X;XXXXXXXXX5.5.XXOXOXXX5.XXXX9.2.9.XXXX XXXXX X X",
"6 p 6 < 6 u a 2 6 a 6 3 u i e e i e e e i d A S D v.b.b.n.n.n.B.n.n.n.n.m.Z.Z.Z.B.B.B.B.N.N.N.N.N.Z.Z.N.N.n.S b y.lXVXAXCXZXAXCXZXAXAXZXZXGXSXBXy.H G.F.F.C.C.A.A.A.D.S.S.H.J.H.H.S.S.S.H.L.H.S.A.D.D.D.D.D.S.S.A.S.D.J.S.S.S.S.S.S.S.S.H.J.H.S.D.S.S.S.S.S.S.S.D.D.J.S.A.Z.M.D H y.hXAXSXAXSXSXAXAXDXDXDXhXH F.F.F.L.L.L.J.J.L.J.J.H.H.S.S.S.S.S.D.D.S.S.A.A.V.N.N.B.B.B.n.b.b.k.k.k.j.V V V V V V j.j.j.j.j.j.j.V D B D S > 7.vXmXmXuXvXuXuX=X<X;X;X<X1X1X1X<Xd.s > c M M M S M D N m T.rXrX9X5X4X4XoX4X5XoXoXoXe.q.e.oXe.q.oXoXOXOXoXq.3.oXoXOXXXXXXXoXoX;.w.+XOX3.q.9Xq.&.q.OXOX*X9Xw.&.5.wXXXq.9XOX;.*.w.*X*XOXe.q.oX9X9X4XOXoXOX5XqXqX9X*X5X5XOXqXrXrXT.F m m S m v v v v x v v x x x x x x x x x x x x l l l > ; ; - * = O j d.6.,.,.,.,.7.d.7.7.7.7.7.7.6.,Xi.$ - - - - - - - - - - & & & & & & & & % = = = = = = * = = & & & & % % % % * = = & % % % & % % % * - - & * d t P P P E s t t s t r d w i e w P 9.wXaXsXdXrXiXyXeXeXeXwX9X-X9X*XXX9.5.5.w.OXXXXXXXXXXX*XXX4. X%XXX XXXXXXXXX",
"< 6 / 5 2 a u 2 5 u p < 2 T u e i e e e u e A A S D v.v.b.b.b.b.b.b.b.n.n.n.n.n.B.B.B.B.B.N.N.N.N.n.Z.B.b.n d g.zXDXAXAXCXZXAXAXZXAXAXZXZXSXVXg.G M.F.F.F.H.C.D.A.A.S.D.S.H.L.L.H.S.S.S.H.H.S.D.D.D.D.D.D.D.D.A.A.S.S.D.D.H.D.S.S.S.S.S.S.H.L.J.S.S.S.S.S.S.S.S.D.S.J.S.Z.M.D S H bXAXVXAXAXAXAXAXDXDXDXlXh.M.H.F.D.H.J.J.D.S.S.D.D.D.S.S.S.S.J.S.D.D.S.A.A.A.N.N.N.B.B.n.n.n.b.b.k.k.l.V V V V j.V j.j.j.j.j.j.D D B B M v > <.vXvXmXvXmXmXmXuXMXvXvXuX1XkXkX<Xy > c B C B D B B Z C M S -.pXiX9X5X9X5X9X5X4X5XoXt.0.e.e.w.oXoX4XOXXXoXoXe.oXOXOXOXoXoX9XoX;.w.*XOXq.w.OXq.3.q.OXOXOX9Xw.&.7.;X>XXXOX*Xq.*.0.*X*XqXqX4XoX5X9X4X*XoXoXoX9XeXrXeXrXeXqXrXpX-.v v m m v v v v x v x x x x v x x l x x x x x x x x l l l > > ; - * O u.f.6.,.,.:.,.7.s.s.s.7.7.7.7.7.$Xu.+ - ; > - - - - - - - - - - & & & & * & = = = = = = = % % = = = = = % * * * = = % % = = % % % % * * * & : t t P L t s t t w s t t r w e e w q e Q %XyXsXsXyXiXyXiXyXeXeXqX9XwXwX*X;X*X*XOXXXw.XX%XOXOXXX5.XXXX X4.5.XXXXXX",
"6 3 p 6 3 5 u e 3 a _ < 2 Y e e I e w e u e r d A S D D v.v.v.v.v.v.b.b.b.b.n.n.n.n.m.n.B.B.B.n.n.n.M.v.N b g.lXDXAXAXAXZXCXCXAXCXAXZXZXSXDXhXk H m.D.Z.F.H.C.A.A.A.A.S.C.S.H.H.S.S.D.S.S.S.S.D.A.A.A.A.A.A.A.A.A.A.A.A.S.D.S.S.D.J.J.H.S.S.J.J.S.S.S.S.S.D.D.D.D.S.H.D.m.D c H }.AXDXVXVXAXAXAXAXDXDXzXh.b F.D.D.D.D.J.D.D.D.D.S.S.S.S.S.S.S.S.S.S.S.A.A.A.A.V.N.N.B.B.n.b.b.b.k.k.j.V V V V V V V V V V V V V B D M D N v : <.vXvXnXvXnXnXmXmXvXuXuXuX1XkX,XX.> v B V B D B C B M M D B n -.pXrXrXqX5X5X4X5X5X4Xq.q.oXoXoXoX4XoXoXoXoXoXe.oX4X5XOXOXOX5XoX0.w.*X*Xw.w.5Xw.3.q.*X*XOX*X*X5.3.;XqXOXOXOX9Xe.0.oX+X9XqX9X4X5X9X9X5XOXoX4X9X5X5X6XdXrXrXpX-.c m v v v x v v x l v v v v v v v v z v v v x x x x x x x x l l > , , % j d.6.7.,.7.7.7.s.s.s.s.7.7.7.s.$Xi.@ - > > ; - - - - - - - - - - - - - & * * = = = = O O = O % % = = % = % & % = = % % = = = = % = * * % % : t t t t t t t r w t w t s d w q q w i e w &.;XyXsXsXsXsXiXeXeXqXwXqXqXqXwXwXqXqXqX-X-X-XOXOX*X*XOXXXXX5. XXX%X*X",
"p < p p 3 < 6 a < 3 p a e i 2 e I e r r r e r r A A S S D D D D v.v.v.v.b.b.b.b.b.b.b.n.n.n.n.b.b.M.S l k g.bXVXAXCXZXAXAXCXCXAXZXCXZXGXAXlXh.b M.Z.A.A.A.C.C.A.D.A.S.S.V.S.S.S.V.V.A.S.S.S.S.A.N.A.A.A.A.A.A.A.A.A.A.A.V.V.C.S.S.S.D.D.S.S.S.J.J.S.S.S.D.D.D.D.J.S.A.Z.m.D b g.bXAXDXAXAXAXAXAXDXDXzXp.b M.A.F.D.D.D.S.D.D.D.D.D.S.S.S.D.D.D.D.S.S.A.A.A.A.Z.N.N.N.B.B.n.b.n.b.k.k.j.j.V V V V V V V V V V V B B M S m v x # f.vXMXMXMXnXnXvXvXvXuXuXkXkX,XX.# n M V D D D V V M D S M C Z m -.6XrXrXrX9X4X5X5X9X4XoX5X5X4X4X4XoXOXOXoXoXoXoX4X4X4XOXOX5XOXq.q.9X9Xw.XXqXoX>.q.*X9XOX9XeXoXq.oX9X9XOXoX9X9Xq.q.qXqXqXqX5X4X5X9XqX5X5X9X9X5X5XrXrXrXT.m v m v v v v v v v v v v v v v v v v v v v z v v x x x x x x x l l > , , % j d.d.s.d.7.7.7.s.s.7.s.7.s.7.s.$Xi.$ * > - > > > ; ; ; ; - - - - - - - - * * * * = = = O O O % % % % = % = % % % % % % % % % % % % = = = : d t t t t t t r r t t w t s d d s a q w d d w r T 9.-XyXsXsXiXsXsXyXeXqXqXeXeXqXqXwXwXqX9X*X9X9X*X*XOXOX*X*X%XXX%X",
"a @ 6 p 6 < < i 2 < u u a i e r i e r r r e r e d A A S S B B D D D D D v.v.v.v.v.v.b.b.n.n.v.v.D F b k g.BXAXAXCXCXZXCXCXZXCXCXCXCXZXVXhXy.b M.Z.N.V.V.V.C.H.D.D.D.D.S.A.S.D.S.V.V.V.V.S.S.D.A.N.A.A.A.A.A.A.A.A.A.A.A.V.V.V.S.A.A.S.D.D.D.D.D.J.S.S.S.S.D.D.A.S.A.m.n.M.H y.vXCXAXDXBXAXVXAXBXxXBXhXk D F.A.F.D.D.D.S.S.S.S.A.S.S.S.S.D.D.D.D.S.S.A.A.N.N.N.N.N.N.B.B.n.n.b.b.k.j.j.V V V V V V V V V V V B B B m S v x & a vXvXvXvXvXvXvXvXvXuXuXvXkXg.j > x V V v.v.D V V V C M M M C Z M c m T.rXfXrX5X5X5X5X5X4X5X5X5X4X4X5X4XoXoX4X9X4XoXoX5XOXOX9X9XoXe.5X9Xw.oXqXoX3.q.oX9XOXOXeXoX0.t.oX5XOXoX9XqXoXq.oX5X5XqXqX5X9XqXeXeXeXqXqXrXrXfX0X-.c c v b v v v v v c v v v v v v v c v v v v v v v v v x x x x x l l l > - * % u.,Xd.s.d.7.9.7.s.9.7.s.7.f.s.d.,Xi.$ - ; & - > > ; ; ; ; ; - ; ; - - - * * * * * * * % = % O O O % % % % = % % % % % % % % % O % % = = O : t t P t t t t r r r r w s s w w d w q s t w d r 3 2 r :.XXwXsXsXsXyXaXyXyXyXyXeXeXeXeXeXeXeXeXeXqXqXqXqXqXqX9XOX9X",
"p @ < 6 p 3 < Y u 2 6 u e i i r i e u u r e i e e d A m M M M B S S D D V D V V v.v.v.v.v.v.v.V m l k hXVXAXZXCXGXAXVXCXCXAXAXZXCXGXVXg.j H G.m.A.N.V.S.S.S.L.H.D.D.D.D.D.D.D.D.C.V.N.A.S.D.A.A.N.A.A.A.A.A.A.A.A.A.V.A.S.S.S.S.D.A.A.D.D.D.D.D.J.J.S.S.D.D.D.A.A.Z.m.v.M.H g.BXBXVXAXAXVXAXAXDXDXhXh.H F.F.L.D.A.D.H.S.S.D.S.S.S.V.V.V.V.S.V.V.S.S.A.A.V.V.V.N.N.N.B.B.n.n.b.k.b.j.V V C C C V B B V V C V B B B M v b > % ,.vXvXvXuXvXuXvXuXvXvXkXkX,Xh , v D V D D D j.j.v.B V C C B M m M N N c -.6XfXrX5X5X5XqX5X4X5X5X5X5X5X5XoXOX4X9X4XoX5X9X4XOX9X9X9X9X5X9XoXoX9X9Xe.3.oXqXoXoX9X9XoXq.0XqX5X4X5XqX*Xe.r.oX5XqXrXeX9X5XeXeXrXrXrXfXrXr.A v c N v b v v v v m m m c c v v c v c c v v v v v v v v x x v x x x l x > ; * % g.,Xd.f.d.9.9.7.s.9.s.f.s.f.s.6.,Xi.+ - > > - ; ; ; ; - - - ; ; ; - - - * * * - * * * & % % O O O O O % % % = % = = % % % % % O % % = O O w %.t t t t t t w t s w w s a w r w d w r r w y s d s w q 2 r &.XXwXaXsXsXsXiXiXiXyXiXyXeXeXyXeXeXeXeXeXeXeXeXeXrXrX",
"h 2 2 a u i 3 4 T 3 u u 4 i i i r i r r r r e e r t d d A m m M B M B B B B B D D D v.D D S n n , k hXVXZXZXCXCXCXAXCXCXAXCXCXCXZXbXg.k b G.n.N.C.S.V.S.L.D.D.S.S.K.E.W.W.Q.S.Z.V.N.N.A.A.A.A.D.A.A.D.D.A.A.A.A.A.A.A.N.V.A.S.S.A.S.A.A.S.D.D.S.D.A.D.D.A.D.D.A.D.Z.v.S H hXBXBXBXBXAXAXDXVXBXxXlXh.F Z.Z.F.N.S.D.A.A.S.S.A.A.A.V.V.V.V.V.A.A.A.S.A.A.A.V.N.N.B.B.B.n.b.b.n.b.b.k.j.j.V V V C C V C C V V C B B D m v x , y f.tXuXvXvXvXvXvXvXvXvXkXd.5 - N D D D D D v.j.v.V B B M M N M M M m N N c S T.gXfX6XeXrX6X5X5X5X9X9X5X9X5X4X9X9X5X5X5X9X9X5X5X9XqX9X5X9X4XOX9X9XoXq.oXqX9Xq.q.oX9X5X5XeXeX5X5XeXqX5XoXoX4XeXrX6X6X6XrXrXdXfX6X-.m v v v c m c c v v v v c c c v m v m v c v v v v v v x z v z z x v x x x x x l ; & % u.,X9.f.d.s.s.f.s.s.9.s.%Xs.s.s.,Xi.# & - ; & ; ; ; ; ; ; ; ; ; ; - - - - * * & & & * * * % % % % O O O O O O % % % O O O O O O O O O O O t P t P t t t t t d s t w s t w q s w w r s r r r d r w w w q q e a ! ;.9.*XeXyXdXsXsXsXsXsXsXdXiXyXdXsXdXyXeXeX9XXX",
"p 2 6 u e 4 2 2 Y 2 4 u 2 i i i i i i r r r r r e r d d > x v m m m m M M B B V B D V B B N l d h.hXVXSXCXCXCXCXAXCXCXCXCXCXAXCXbXg., b F M.F.V.V.S.C.S.S.C.H.H.J.!.!.~.~.~.J.N.N.N.N.N.V.V.A.A.A.A.A.A.A.N.A.A.N.A.A.N.N.V.V.V.A.D.A.A.A.D.A.A.A.A.D.D.A.A.A.Z.Z.v.D v g.BXAXBXBXBXVXBXVXBXDXzXh.H G.Z.Z.F.Z.A.A.A.A.A.A.A.A.N.V.V.V.V.A.A.S.S.V.A.A.A.A.V.B.B.B.B.B.B.n.b.z.k.k.j.V V V V C C V C B C C V B B M m x - O ,.tXtX<XuX1X<XuXvXvXvXkXi.5 > S B C D V D D V V V V B B M M M M M M M N N m c v -.6XgXdXrXrXrXrX6X5X5X5XqX9X5X9X5X5X5X5X5X5X5X5X9X5X5X5X9XqX9XqXeX5XoXq.5X9X5X4XoX4XqX5X9XqX9X6XeXeXeX5X5X9X6X9XrXdXdXfXfXpXT.S v c m v v c m m m c c v v N c c m m m v c c c c v v v v v z v v z x v x x x x x l > * % u.,X9.s.d.s.s.s.s.s.s.s.%Xf.s.s.,Xi.$ & * ; : ; ; ; ; ; ; ; ; ; ; - - - - - - & % & * * * * % % % % % % O O O O % O % O O O O O O O O O : s P t P t t t t t w s d w t r w d s w w w t d w d r a w w q q q e e 3 3 3 w r P Q :.w.w.XX%X*X*X*X*X5.5.3.:.E I e 3 ",
"p 0 6 p u u u 3 u u 4 e 2 i i r i i r r r e r r a e w w d > ; ; l v v m m M B B B M S N z ; k g.lXVXVXCXCXCXCXCXVXCXCXCXCXAXVXzXy., x F M.n.N.F.V.C.C.C.S.C.H.K.Q./.(.`.`.(.W.n.N.B.B.N.N.N.N.N.A.A.N.Z.Z.Z.Z.Z.N.Z.Z.N.N.N.N.N.N.A.A.A.D.D.S.S.A.D.D.A.A.A.Z.Z.M.D v G bXAXVXBXBXAXVXVXBXDXzXp.b M.A.A.A.F.F.A.A.A.A.V.A.A.A.N.N.N.V.V.V.V.V.N.N.N.N.N.N.N.B.n.B.B.n.n.b.b.k.k.j.j.V V V V C C V B B V V V B B M S l * j <XvXtXuXvXuX1X1X1XkX<Xp.5 O v D V V B V D V V B B B B M M N N N M M m n c n N c v A -.6XfXfXrXrX6XrXeX9XqXqXqXqX9X5X5X9XqXqX9X5XqX9X5X5X9XqX9XqXqX5X5XoX4X9XeXeX5X5X9X6X6X5XqXeXeX6XrXeXrXrXrXrXdXfXfXgXT.S v m m m m v v m m N N N m N N N m m m m m m v c c v c v v v v v v v v x x x x x x x x > * * d.<Xs.s.d.s.s.s.s.s.s.s.f.f.s.a.,Xi.$ * - ; > ; ; ; ; ; ; ; ; ; - ; - - - * - * & & * * * * & & & % % % % O O % % % % = % O O O O O O O w A P P P t t t s t w s d w r r w t s i w w q d w w r a w w e e e a r y 1 # 1 q 1 1 w 3 3 3 2 e r e w 3 3 3 1 1 2 5 5 ",
"U 0 < 2 u u Y 2 2 i 4 e 2 i i r i i i r r r r r a w 3 e r d > & & ; l x v v c c c z x ; = y.lXVXCXCXVXVXCXCXCXVXVXCXCXVXCXAXlXh., b F b.B.N.B.B.A.N.V.C.S.H.K.Q.~.(.`.`.`.`.!.B.n.b.n.B.B.B.N.Z.Z.Z.N.N.Z.N.B.B.B.N.N.N.Z.A.N.N.N.A.A.A.D.D.S.S.A.D.D.A.A.A.Z.Z.M.D H g.BXAXAXAXAXAXBXBXDXBXhXG M.F.V.N.Z.Z.Z.N.A.A.N.V.V.V.N.N.V.V.V.A.A.V.N.N.N.N.N.N.N.N.B.B.n.b.b.z.k.k.k.b.j.j.V V C V V V V B B B B C B B c x & : g.tX<X<XtX<XtX1X1XkXkXd.$ % x D V v.v.C V V B B B C M M N N Z n N N N n M n n N N c z z v 1.pXfXfXfXrXqXeXeXrXrXeX5X9XqXqXqX9X9X5X5X9X9X5X9XqX5X6X6X9XqX9X5X5X5XqXeXeX5XrXeXeXeXrXrXrXrXrXrXrXrXfXfXpX-.S v c N S N m m m m m N m N N N N N N N N m m m m v v v v v v v v v v v v v x x x x x x x l > * , p.,Xs.s.s.s.s.s.s.s.s.s.f.s.s.#X@Xp.o * - ; > ; ; ; ; ; ; ; ; ; - - - - - - & * & & & & & & & & & & % % % % % % O % = = = O O O O O O O d A P P P t t w s s r t r w r r w r t s w w d q q e a r w w e e q q q y w 1 # 1 q q w q 2 1 1 q q q 1 w 2 2 q 2 1 2 2 ",
"8 6 < < 4 2 u u 2 Y e u 4 i r i i i i i i r r e w w w e q w s G , & O = - ; ; ; & = = $ j lXVXVXBXVXVXbXbXVXbXVXCXVXVXAXVXhXj k N F v.z.N.V.B.Z.A.N.V.S.H.J.Q.~.(.`.`.`.`.`.(.Z.b.b.n.n.n.n.B.Z.Z.Z.N.N.Z.Z.B.n.n.B.B.B.N.Z.N.A.N.A.A.N.A.A.A.A.A.D.A.A.S.A.Z.m.F F H g.BXVXVXBXBXBXBXxXDXhXy.M.F.V.V.Z.Z.B.N.A.N.N.N.N.N.N.N.N.N.N.N.V.V.N.N.N.N.N.N.N.N.B.B.n.n.n.z.k.k.k.k.l.j.V V V V V V C C B B B C C M M v x * j tXtXtXtX1XtXtX1X<X,Xd.$ & x N V V B B V B C B M B Z M M N N Z N N N N n c n N N N N N n v v m -.6XfXfXdXrXrXrXrXrXpXqXqXeXeXeXqXqXqXeXeX5XqXeXrX6X6XqXqXeXqX6X6X6XrXrXrXqXrXrXrXrXrXrXdXfXfXfXfX6X-.m M m S m c c N S S m m m m m m m m N N N M N m N m m m c c c c v v v v v v v v x x x x x x x x > , * p.,Xs.s.d.s.s.f.s.s.s.s.f.f.s.$X@Xu.o * - ; ; ; ; ; ; ; ; ; ; - - - - - - - & - - - & & & & & * * & & & % % % % % % % % % O O O O O O % s t P P t t t w s t r r r r t d w r r s i w w e a e e a q q r w w w w q w 1 # 3 q a q q 1 1 1 1 1 1 1 w 1 2 q 2 3 3 3 ",
"< 6 6 4 7 2 2 T 2 u u u e i r i i i i i i r e q w w e e w q s <.g.<.G , , O O O O , k u.lXlXkXbXbXbXbXbXbXVXVXCXVXCXVXlXg.k b H v.v.n.B.N.B.N.A.N.N.D.L.J.Q.~.(.'.'.`.`.`.(.(.D.b.b.b.b.n.n.m.Z.Z.B.n.m.B.Z.Z.B.B.B.n.n.B.N.N.A.N.Z.N.N.A.A.N.A.A.A.A.A.D.A.m.v.F H y.hXAXBXBXBXBXBXzXzXhXy.F F.F.B.V.Z.Z.F.V.N.N.N.N.N.N.N.N.N.B.N.N.N.N.N.N.B.B.B.B.B.B.n.b.b.b.k.k.b.b.b.k.j.V V C C C V C C C B B B B B M m x = , g.tXtXtXtX<X<X<XkXlXu.$ = n M M B D B C V B B M M M M M Z N Z Z N N n n n m c c c c c n c m c c c v F T.gXfXdXdXrXrXrXrXeXrXrXrXrXrXrXrXrXeXeXrXrXrXrXeXeXrXeXrXrX6XrXrXrXrXdXrXrXfXfXfXfXfXpXR.F S m N N S c c m S m c v M m N N m m m m N M m m M N N m m m v c c c v v v v v x v v x x x x x x x x > > : u.,Xs.s.s.s.s.s.s.s.s.s.s.s.s.$X@X^ o * - - ; ; ; ; ; ; ; ; - - - - - - - - - - - - - & & & & * * * & & & % % % % % % % % = O O O O O : A t t t t t t r t t t r r r t r w d r i s r d r a e e r w q q w w w w w q q 1 2 q a q w w q q 2 1 1 1 q 2 1 2 2 2 2 2 ",
"# 2 a i U 7 2 T 6 4 u r r I r i r i i r r r e w w q q q e e r E 7.7.>.<.G G G <.y.g.g.hXkXbXvXbXbXbXMXVXVXVXVXCXCXvXg.j , b S v.n.b.n.N.N.V.C.N.V.S.W.Q.K.(.'.`.'.].'.`.`.(.(.W.b.v.v.v.b.b.n.n.n.n.n.n.n.n.n.n.B.B.B.B.B.N.N.N.N.N.N.N.A.A.A.A.A.A.A.A.A.Z.M.D b G hXBXCXBXBXBXBXBXzXzXy.H M.B.Z.N.N.n.B.V.N.B.N.N.N.N.N.N.N.N.N.N.N.N.N.N.N.B.B.B.B.B.B.n.b.b.k.k.z.b.b.b.j.l.V V C C C C C C C B B M B M m c > % G tXtX<X<XtX;X<X<Xg.u.$ = b Z B M M C C C B C M M M M M M M N N Z n n n n n c n N N N n c c c c n c c v x A >.%XyXsXsXdXrXrXrXrXrXrXrXrXrXrXrXrXrXrXrXrXrXrXrXrXrXrXrXrXrXfXfXfXfXfXfXgXpXT.-.F m N N m m S m m m m m m N N m m m m m m m m S m m m N m m N m m m c c c c v c v v v v v v x x x x x x x > > : u.,Xs.s.s.s.s.s.s.s.s.s.s.s.s.$X@Xg O , ; - ; ; ; ; ; ; - - - - - - - - - - - - - & & & & & & - * * * * & & % & = = = % % = O O O = O d %.t t t t t t t t w t t r r s t w d d t s r r a e w e e w w q q q q q q w w w 1 q a a 3 3 3 1 1 1 1 1 q 1 1 1 1 1 2 1 ",
"q # 3 u u u 2 u u 2 u r r I e i i i i i r r e q e e q q i r r P q.0.>.1.1.g.g.g.g.g.f.kXvXnXvXbXbXbXbXbXbXbXbXkXg.j x v S v.k.n.n.B.B.N.N.N.V.C.H.L.!.K.K.).'.'.`.].'.`.[.(.'.~.b.j.j.v.v.b.b.n.b.b.b.n.n.n.n.n.n.B.N.N.N.B.B.B.N.N.N.N.A.A.N.A.Z.Z.Z.Z.m.m.M.F H hXAXBXBXBXVXBXBXxXzXhXG v.F.N.Z.A.N.Z.Z.N.N.Z.N.B.B.B.B.B.B.B.B.B.B.B.B.N.N.N.B.B.n.b.z.z.b.b.k.b.b.b.k.k.j.l.V B C C C C C C C C M M M M m c % y g.<X<XtX<X<XtX<X,Xu.$ = b c B M S M C V V M C M M M M M M C M M M N n n n n N n n n c c c v v v v v c v b G d.,X=X1XyXiXsXfXfXfXfXfXdXrXrXrXrXrXgXgXgXdXdXrXdXfXfXdXrXdXfXfXfXfXgXpXT.F v c c m N N M M M M M M M N N N N N m m m m m m m m S m m m M m m S m m m m v c c v v v v v v v v v x x x x x l > > > u.lXs.s.s.7.s.s.s.s.%X%Xs.%Xs.,X@Xg : > ; - l ; ; ; ; - * & & - - - - - - - - - - - & & & & & * * * * * * & % & & = = = = O O O = = O d %.P r t t t t t t t t t w w t t w d d r r r r r w w r i w w q e q w 1 q 1 w q 1 1 w e q q 1 1 1 1 1 1 2 1 1 1 2 2 2 1 ",
"6 p 2 @ a p 4 6 I I u u r i i i i I i r e e e e a e r e a q w P XXq.0.>.<.1.1.1.g.f.f.tXvXnXbXvXnXnXbXbXbXlXg.k > v N V k.k.b.b.n.n.B.B.B.N.V.C.H.K.K.P.H.(.'.'.'.].].].'.'.'.`.m.V D j.b.b.b.v.b.b.b.b.n.n.n.n.b.n.n.B.N.N.N.N.N.N.N.B.B.N.N.N.Z.Z.Z.Z.m.v.F b y.BXBXBXBXBXBXBXzXzXzXy.M.m.Z.Z.N.N.N.N.N.N.B.n.B.B.n.n.B.B.B.B.B.B.B.B.B.B.B.B.B.n.z.z.z.z.k.k.j.k.b.v.k.l.j.j.C C C C C C C C Z B N N M c v > , <.f.<XtXtXtXf.<Xf.u.$ & v N M M M B B B C C C C C M M M M Z M Z N N n n n n n Z n n n c c v v c v x x b <.f.kXkX<X<X<X=X%X;X0XyXiXsXsXfXfXfXfXfXfXfXfXfXfXfXfXfXfXfXfXfXfXrXpX}.1.S N N M M M m m m m M M M B M m M M M m m m m m m m m m m m S m m M M m m m m m m m m v c v v v v v v v x x x x x x x x > - : u.,Xs.s.s.s.d.s.s.f.s.%X%Xs.$X2Xi.$ = : - - l ; ; ; ; - & & & & & & & & & & & - - - & & & & & * * * * & & & & & = = = = = % O O % = % t $.P t t t t t t t w t t t r t t w r r w w t r w w w q e 3 q w w i y 1 e q 3 w w # q 1 2 q q 3 # # # 1 1 1 1 1 1 3 3 5 ",
"3 6 p 2 < e Y 6 u u i i i i i i i i r r e e e q q e r q y q w P q.3.;.&.A A 1.1.1.f.f.f.f.vXnXnXvXvXvXbXhXj * - v S B j.j.k.b.b.n.n.n.n.B.B.V.V.C.H.L.C.c.K.).'.'.].].].].'.'.'.F.k.j.j.b.b.b.j.v.b.b.b.b.n.n.n.n.n.b.b.n.B.B.N.N.N.N.N.N.N.N.N.Z.n.N.Z.m.M.b G hXBXBXBXBXBXBXBXzXzXhXH M.Z.B.V.N.N.N.N.N.B.B.B.B.B.n.B.B.B.B.B.N.B.B.B.B.B.B.n.n.n.z.z.z.z.z.b.j.k.k.l.j.l.V V C C Z Z M C C C M N N n M v x > j f.f.f.f.f.tX<Xf.u.k * x n N M M M M B B B C C C C M M M Z M M Z N n n n n n n c N c c N z l v b x v G f.<XkX<X1X1X1X<X<X<X;X;Xw.w.oX9XeXrXiXiXsXsXsXsXfXfXsXeXrXpX5Xt.-.-.m v v v c m N M M M M M M M M M B B M M M M M M m m m m m m m m m m S m M S N M m S m m m m m v v c v v v v v v x x x x x x x x > - % X.$Xs.s.s.s.d.s.s.s.s.s.f.s.$X2Xi.$ = > > > l ; ; ; ; - & & & & & - - - - - & - - * & & & & & * * * * * & & & & % = = = % = % O % = % t P t t t t t t t t w t t t t t t w t r w d t t r w w w r w w w w a q 1 2 w w y w 1 w 1 1 1 1 1 q 1 # # 1 1 1 1 1 1 2 e ",
"3 < a u 3 2 i u e u i i i i i i I i r r r r e q q q w q q w w P 5.;.3.3.*.=.A A H H 1.1.f.f.vXvXvXvXg.j , , b N D D j.j.j.j.v.v.k.k.k.z.z.B.B.N.N.V.V.c.c.C.).'.'.].].].].].'.'.W.z.k.k.v.v.b.v.b.b.b.b.b.b.n.n.n.n.n.n.n.B.B.B.B.B.B.N.N.N.N.N.Z.n.m.n.v.S > y.lXBXBXBXBXBXBXBXxXhXy.M.Z.F.B.S.N.B.N.N.N.B.B.N.n.n.n.n.n.n.n.n.B.B.B.n.n.B.B.B.z.z.k.k.k.k.k.j.k.k.j.l.l.V V V C C C Z M Z Z Z N n n n m v & , <.}.f.f.f.f.<Xf.g.k = b v M N M M M M M M C B B C M M M M M Z N N N N N N N N n n N c c c N c z x A 7.<XkXkX1XvX1X1X<X<X<X<X<X-Xf.s.f.%Xw.w.%X%X;X;X;X;X;X<X,Xu.d d x x v v c N c m m m n M M M M M M M D D B B M M M M M M M M m m M M m m m m m M N M M m M S S S m m m m v v v v v v v v v x x x b x x l > - * f $Xs.s.s.s.s.s.s.s.s.s.s.s.$X,X .o % - - > ; - ; ; ; - - & & & - - - - - & - & & & & & & & & * * * * * * & & * % % % % = = = = % = & A P t t t t t t t t t t t t t r t r t r d w w r r r w q e q w q w q q 1 3 q q y y 1 1 # 1 1 1 1 1 1 # # 3 3 3 2 q 2 4 u ",
"6 3 3 u i 2 2 i r i i i i i i i r i r r r r r e q e r q q w w P q.5.;.;.&.=.A A v v A H H H 1.G G , * , b v Z V V V j.j.j.j.k.k.k.l.k.z.z.B.B.B.B.B.c.c.c.C.).'.'.].].].].].].'.~.B.n.v.v.b.b.n.n.n.b.b.b.b.n.b.b.n.n.n.B.B.B.B.n.n.B.B.B.B.B.B.B.m.m.v.B v k hXBXbXBXBXBXBXBXzXzXy.H m.Z.F.B.Z.B.B.B.N.N.N.B.N.N.B.B.B.n.n.n.B.B.B.B.B.n.B.n.B.b.b.k.k.k.k.k.j.k.l.l.l.V V C C C C M Z M M Z Z n c n c v ; * j g.f.f.f.f.f.<Xg.X., ; v N m M Z N M M M M B M C C M M N N N Z Z n n N N M M N N N n c v v v N z H f.1XkXkX1X1X1X1X<X<X<X<X=X-X-Xf.f.f.;X9.7.f.;Xf.7.w.f.$X,X,X,Xd.j > b b A v n S N S m m M M M M M M M B D D D M M M M M M M M m M M M M m m m M M M M m m M N S S S m m m v v v v v v v v v v v x x x x x ; - O f d.s.s.s.%Xs.a.s.s.s.s.s.a.$X,X^ o * ; - - ; - - - - - - - - - - - - - - - & * * * * & & & * * * * * * * * * % % % % % & & % % % = : A $.t t t t t w t t t t t t t r r r s r d w w w r r e q w q 3 q q 1 q 1 3 w 1 # w w 1 # 3 1 1 1 1 # # 3 3 3 3 2 e u u i ",
"u p 4 2 Y u 4 u i i i e i i i i r r r r e r r r e q e q q w w t 3.0.;.&.E P P s A v v v v v v x v v v v N C C B C C C C V V l.l.k.z.n.n.c.B.B.B.c.c.c.z.c.c.).'.'.].'.].].].].].`.A.n.b.b.n.z.n.n.b.b.b.b.n.n.n.b.b.k.k.b.n.n.B.n.n.B.n.n.n.n.m.B.n.m.v.B b y.bXBXBXBXbXbXBXBXzXp.k G.m.Z.N.B.b.N.B.B.B.B.B.B.B.B.B.B.n.n.n.n.B.n.B.n.n.b.b.b.b.b.k.k.k.k.k.k.j.j.j.l.V V V C C Z Z Z Z Z Z N Z n n c v l & G g.f.f.f.f.f.g.g.u.$ , v n n m n M N N N N M M B B M M M N N N N Z n n n n n n n n n n c c N x x 1.;XtXvXkXkXkX1X<X<X1X1X<X<X<X;X;X;X;Xf.f.;Xf.%X%X%Xf.w.f.%X$X,X2X@X@.y > x b v c n c c m m S M N S M M M M S S S M B B M M M M M M M M M M M M m S S M S S S S N S S m m m m c v v v v c v v x x v x x x x x > & $ u.d.s.s.s.s.s.8.s.s.s.s.s.d.@X@Xg $ , ; - - ; - - - - - - - - - - ; - - - * & * * * & & % & * * * * * * * * & % % % & % & & & % % % : $.P t t t t t t t t t t w t s r r r s t e e w w w w e e w q 1 q q # q 1 1 w 1 # 1 y 1 1 # 1 1 1 5 3 # 3 1 1 2 4 u U u Y ",
"u i u 4 2 e u e r u u u i i i i r i i t r r r e e q e q w q w r ;.;.;.;.Q L r s A A A v c m m m n n m M B C B B M C C C V V j.k.k.b.n.B.B.c.z.z.z.z.z.z.z.c.).'.'.'.'.'.].].].].'.W.n.b.n.B.n.n.b.n.n.n.n.b.n.n.b.b.b.k.b.b.b.b.n.n.n.B.n.n.n.n.B.b.v.S N b g.BXbXbXBXbXbXBXzXjXk H M.n.Z.V.N.n.B.B.B.B.B.B.B.n.b.b.n.n.n.n.b.b.b.b.b.b.b.b.b.k.b.k.k.k.k.l.j.j.j.j.V V C C B Z M N Z N N N N N n m x x ; , ,.f.<X<XtXf.f.g.u.$ % x n n N N n M M N N N M M M M M M M N N N N N n n n n n n n c v c c z z b 1.tXkX1XkXvXkX1X1XvX<X<X<X<X<X<X-X;X;X%Xw.f.;X;Xf.w.;X;X;X;X;Xs.a.d.,X,Xu.y , b v v N v N m m m S D S S M M M S S S M B B B M M M M M M M M M M M S D S S S S S M m m S m m m m v c v v v v v v v v v x x x x x > & y d.$X$Xs.s.s.s.s.s.s.s.s.s.d.@Xi.$ O > ; - ; ; - - - & - - - - ; - ; - - - & & * * * & % % & % & & * * * * & & = % % & & & & & % % % : A P t t t t t t t t t t t t s t t r r t e r w w w w e q w q 1 q q # 1 1 3 1 w # # 1 1 q 1 1 1 3 1 1 3 3 2 e 4 4 U R R R ",
"e 4 u u 4 4 u e u u i i i i i i r r t t t r r e r w q q q w q w ;.3.;.&.Q P L I P t A A v v c c N m c c N B M c N Z C C V V j.k.b.b.n.B.B.z.z.k.l.x.z.z.z.c.Q.].'.'.'.'.].'.].].'.~.B.n.n.Z.n.n.n.n.n.n.n.b.b.b.b.n.b.b.n.b.k.b.b.b.n.n.n.n.n.n.B.M.D S b y.vXBXbXbXBXbXbXzXlXy.H M.b.n.B.B.N.B.B.B.n.B.n.n.B.B.B.n.n.n.n.n.n.b.b.b.n.n.n.n.b.b.b.b.v.v.k.k.j.V V V V C C B M M M N N N N N N n M c x ; * G g.f.f.f.f.f.g.g.j * x v n n N N n M M N N N N N N M M m n n n N N N m m n n n n c c c v v v b 1.tXvXkXkXkXkXvXvXvX1XkX<X<X<X<X-X;X;X;X;X%Xf.%Xf.w.9.%X;X;X%X;X;X9.s.,X,X,Xu.y > x A v v m S M N M M S S M B B B B M M M M M M M M M S S M M M M S S M M S S M S M m m M m m m m m c v v v v v v v v v x x x x > - % y d.,X$X$Xs.s.s.s.f.s.s.s.s.,X@X .$ = > ; , ; ; - - - & - - - - - - - - - & & & * * & & % % % % % % & * * & & % % % % % & & % % % % % : t P t t t t t t t t t t t t s t t r d r r r w d w w q w w w 1 w q # # 1 3 3 q 1 # 1 1 1 1 1 # @ # 1 2 2 e e u 7 U Y R R ",
"4 4 4 u I U e 4 u u i i i i i i e e r r r r e q r w e e e e w w $.;.;.&.&.&.&.E P t A A v v v v v v v v N Z N m N C C V V V j.k.b.b.b.n.n.z.z.k.x.x.x.l.z.x.C.'.'.'.'.'.].'.].].'.).N.n.n.n.n.b.n.n.n.n.n.n.n.b.b.b.k.k.b.b.b.n.b.b.b.b.b.b.b.n.n.v.S x b }.BXbXkXzXBXbXzXcXhXy.b.b.Z.B.n.n.n.B.B.n.b.b.z.z.b.n.n.n.z.z.z.b.n.n.b.b.k.k.b.b.k.j.j.j.j.j.l.l.V V V V V C C M N n N n n N N N n n M c x & * <.f.f.f.f.f.f.g.h.$ , v c n c n n n M N N N n n n n N n n n n n n n n c c c n c c c v N c x A f.tXtXvXkXkXkXkXvXvXkXkX<X<X<X<X<X<X;X;X;X;X;Xf.f.;X;Xf.f.;Xf.s.s.%Xs.s.s.i.@X,XX., x b v v m N N M S m M M B B D B B B D M M M S S S S S S M M M M S S M D S S S S S M M M m m m N m v v v v v v v v v v x x x x > , % $ u.,X=X=Xf.s.s.s.s.s.a.s.s.,X@X^ O * > ; , ; ; ; - - & - - - - & & - & - & & & * * * & % % % = % % % % * % % % % % % % % & % % % % % : t P t t t t t t t t t t t t t t s r w r t t w w w w e q 3 w 1 q e 1 # w 1 # 1 # # 1 3 3 # 2 1 # # 1 2 q 2 u 4 4 7 Y U R ",
"4 6 u u e e r r u e e e y y y y w q q q r r r w w w w q q q w 3 ! 3.;.;.! &.! Q E E P t A A v v c c v v n N N n N M B B B V V j.j.j.k.k.k.k.k.l.x.x.l.l.x.x.c.).].'.'.'.'.[.[.].'.'.!.N.n.n.n.z.n.n.b.b.b.n.n.b.n.b.b.b.b.b.b.b.b.b.b.b.b.b.b.b.v.D m x G hXbXbXbXbXvXlXlXjXG N b.b.b.b.b.b.n.b.n.n.b.b.n.n.n.n.n.n.b.b.z.k.k.k.b.k.k.k.k.k.j.j.j.j.j.j.j.V C C C C C Z Z N N n n n n n n m c c n v > * G g.f.f.f.f.f.g.u., l z c c n n n n n n N n n n n m m m m n m n n n n n c n n c v v v v n v G f.uXtXtXvXvXvXkXkXkXvXvX1X1XtX<X1XtX1X<X<X-X;X;Xf.f.;X;X;X;X;X;Xf.f.;X;Xf.f.s.a.,Xi.X.b v m v S m S B m M S S S D D D D D M B B S S S S S M M S D M M M M M M S S S S M M M M m m m m N c v v c v v v v v v v v x x l , , k u.,Xd.s.s.s.s.s.s.s.d.s.a.i.i.k $ % > > ; - ; - - - - - - - - - ; & & - - & & * * & & % % % : % % % % % % % % & % % & & & & * % = % : $.t A A t t t t t s t t %.t t t s s r w r r w w w w w w 3 q q 3 q 1 1 1 # # 1 y 1 1 y q # # 1 2 1 1 1 q 2 u u 7 U U U ( ",
"4 4 4 4 u u u r e q 2 1 # # # # w q q q r r w q q q q e r r r e E ;.&.&.&.&.! ! P ! E P t A x v v c c c c n n n n N M C C C V V V V j.j.j.l.l.l.C l.l.l.l.x.z.Q.].].'.'.'.'.'.].'.'.(.V.n.n.n.n.n.n.n.b.n.n.n.b.b.b.b.b.b.b.b.b.k.k.b.b.b.b.b.b.v.S x G g.lXvXlXlXvXlXlXhXh.b D b.b.b.b.b.b.b.b.b.b.z.z.z.b.b.b.b.b.b.b.b.k.k.b.k.k.j.j.j.j.j.V V V V V C V C C C C C Z Z N n n n n n n n m c c v x - , G g.f.f.f.f.d.X.$ * x m c c n n n n n n n n n n n m M m m m m n n n n n n c c z v v z v l A f.tXvXvXvXvXvXvXvXvXkX1X1X1XtXvX<X<X=X<X<X;X;X;X-X;X;X;X;X;Xf.;X;X;Xf.f.f.7.s.d.d.s.,Xp.j b c v m S N M S M M M B B D D D D M B D D S S S S S M M S M B M M B M S S S S S M M M m m m m m c c c v v v v v v v x x v x x - % j d.,Xd.d.s.f.s.%Xs.d.d.6.O.u.^ $ , : > > > > ; - - - - - - - - & - - - * * & & % % % * * * = = * = = = = = = * = = * * * = = = % % % : A P $.t t t t t t t t t t t t t t t r q e r r w 1 w w r w q q 3 q w q y # 3 1 1 w 1 1 q 2 1 1 2 5 2 2 q 4 6 7 7 U ( ( [ ",
"i u e e u u e 4 a e q 1 # # # : : q e e e r q q e e e r e e w q P &.;.! Q P P P P ! ! E P t A A v v c c v v v n n n n N M C C C C C C C C C C C C C l.l.l.z.z.N.'.].'.'.'.'.'.].'.].'.K.B.n.n.n.n.n.n.n.n.n.n.b.b.b.b.b.b.b.v.k.v.b.b.b.v.v.v.v.S c > g.vXbXvXhXkXhXlXlXh.k N j.k.b.v.v.v.b.k.k.k.k.k.k.k.k.k.b.b.b.b.k.k.k.j.k.j.j.j.j.V V V V V V V B B C C C Z Z Z N M m n c n n n n n c c c x ; % G g.g.f.g.g.g.u.y O x z v c n n n n n n n n n n n N M M M M M m m m n n c n z v v z v v l A f.tXvXvXvXvXvXvXvXvXvXvXvX1X<X<X1X<X<X;X<X<X;Xs.f.;X;X;XtX0X;Xf.f.;Xf.f.f.f.7.7.s.d.7.s.,Xp.k x M m S M S S M M M B B B D D D M M B D D S S M S M M M D D M M M M M S S S S S S S M m m m m v v v c v v v v v x x x v x x * % y d.d.s.d.d.s.d.s.a.d.s.a.i.i.g o % - > ; > ; ; - - - - - - & & - - & & & * * - : % % O % % : > d d d A A d d d > : : % % % * , & & * % d t P P t t t t t t t t t t t r t t r w w r i e w w w w 3 w w 1 q 1 q y 3 w 1 3 q 1 3 q e e 2 2 y e 6 a 5 6 6 p ~ ( ] ( ",
"e e e e e e e e e q q 1 # # : : w q e e r r q q r e r r e q w w r &.;.&.! P P P ! P P P P E P t A A v c c c c n c c n n Z Z N Z Z Z Z Z Z Z Z Z C C C l.l.k.k.z.~.].].'.'.'.'.].].].].(.S.B.n.n.n.n.n.n.n.n.n.b.b.b.b.b.b.k.j.j.b.b.v.k.v.v.v.D v l y.vXbXhXvXvXkXhXhXg.k N l.l.v.j.j.j.j.j.k.j.j.k.k.k.k.k.k.k.j.j.j.j.j.j.j.j.V V V V V B B C C B C C M Z Z Z n n n n n c c c c c c c c v v v > & , G g.7.f.f.g.g.u.$ - v c c c n n n n n n n n n n N N N N N N M m m N m m n c v v v c z x A ;XuXvXvXnXvXvXvXvXvXkXvXvXvXvX1X<X<X<XtX<X<X<X<X;X;X;X;Xf.f.;X;X;Xf.f.f.f.f.f.7.f.s.d.d.s.,XcXp., N S S B S S B B B B B B D D D B M M M M M D D M M M S S D B M M M S M S S S S S S M m m m m v m v v v v v v v x x x x b l * % y d.d.d.d.d.s.6.d.6.6.s.a.,Xi.g O % - > ; ; ; - - - - - - & & & * * & & & - * * = % : , d s P $.! P ! P ! &.&.&.=.=.$.t t d : : O O = % d $.P P t t t t t t t t t t t t t t i r w q r i e e w w 3 3 q 1 q 1 w w 1 q 1 1 q 2 1 2 e u 2 2 u u 6 u 5 5 6 p 8 / ( J ",
"e 4 e e 4 e e e q q q 2 3 # # w w q e e e w q e w q e e e e e e e &.;.&.&.&.! P E P E P L I E E E E A A v c c c c c c n n n N N n n n Z N Z Z Z Z Z C C l.k.l.x.S.[.].'.'.'.'.'.].'.].'.!.V.B.n.n.n.n.n.n.B.n.n.b.b.b.b.k.j.j.v.v.j.j.j.b.v.D M x x g.nXlXhXUXf.hXhXg.k b D C j.j.V V V j.j.j.V V j.j.j.j.V V j.V V V V V V V V C C C C C C Z Z N N N N n n n n n n c c c c c v z z c c v v x l - , G <.g.7.<.g.,.u.$ O ; c n c n n n n n n n n m m m m M N N Z n N n m m m c c v v v c N z A f.vXvXvXnXnXvXvXvXMXvXvXvXvXkXvXvXvX<X<XtX<X<X;X<X<X;X<XtX;Xf.f.;X;Xf.f.;Xf.s.s.s.f.f.s.d.d.,XcXcXh.z S N V S D D B B B B B B B D D B M B D D D D M M D D M M S D M M M M m S S S S S M m m m m m m c v v v v v v x v x x x > - : y i.s.d.d.d.s.a.s.a.6.d.d.@Xg o % & ; ; ; - - ; ; ; ; - > - & & & - - - - * & * : d s %.&.&.$.! P P P P P $.&.&.P P &.&.&.&.&.$.s : : O : A $.$.t t t t P t t t t t t t t r t i r q e i a e q q 3 3 w w e q q q q 1 1 q q e e 2 r i 4 2 u u 6 u e 2 6 6 9 J / J ",
"r r 4 e e e e 2 e e e e q q q e q q e q q w q e w q q e r r r r r P ;.P E P Q E E P P P P I I I I T E A A v v x v c c c c n n n n n n n n n Z Z n Z C C V j.k.x.B.~.].].'.'.'.'.'.'.'.'.).K.N.n.n.n.n.n.n.n.n.n.b.b.b.b.k.j.j.v.j.j.j.j.j.V m x > G g.f.g.f.g.g.g.g.j > S C C C B B C B C C B C C V C C V C C C C C C C C C C M M M Z Z Z Z Z Z n n n n c c c c c c c z z v v v x x v v v x ; - & d <.<.<.<.<.<.<.j o * b c n z n n n n n n n n n m m m m N N N n n N N c c c c v v N c z H f.tXvXvXvXvXvXvXvXvXvXvXvXvXvXkXvXvXvX<X1X<X<X<X<X<X;X;X;X<XtX;Xf.;X;Xf.f.f.f.s.s.f.f.f.f.d.f.,XjXcXjXk S N D D D V B B B B B B D D M M M D D D D D M B D S S S S D B M S S S S M S S S M m m m m m c c c v v v v v v v x x x > > , y i.$Xd.s.s.d.a.s.a.s.a.,Xi.0 O * & & ; ; - - ; ; ; - - - - & & & - * = * & d A %.! %.&.%.P P P P P P %.%.! P P P P P P ! &.&.&.*.&.P w w d t $.P t t t A t t t t t t t t r r t t e e i r e a i q 3 q q e q q q q 1 2 e e e i e e u u 4 6 u 6 u u e 2 2 5 8 U J ",
"e 4 4 4 u u e q 2 q e e e e e e q e q q q w w q q w w q q q w q r L &.P L r P %.E P r P E E I i L I I I P A A A v v v c c c c c c c n n n n n n n n Z Z C V k.z.c.J.[.].'.'.'.'.'.'.'.'.'./.H.c.n.n.n.n.n.n.n.b.b.v.b.b.b.k.v.j.j.j.j.j.V M v > G g.f.g.g.g.g.g.y.G b S B Z C C C C C C C C C Z Z Z Z Z Z Z Z Z Z Z Z Z N n n n n n n n n n n c z z z z z z c c z z z z v x z z x x x x x > * % > G <.<.<.<.<.<.j y % l v c c c n n n n n m m N m m m m m n n N N N n c c c c v v z v v A f.uXuXvXvXvXvXvXvXvXvXkXvXvXvXvXvXvX1X<X<X<XtXtX<X<X<XtX;Xf.f.;X;Xf.f.f.f.s.s.f.f.f.f.d.s.s.d.<XlXlXcXcXh.m m F B D V B B B B D B D D M M M M D D D M D D D S S S D D B B M S S M M M S S S m m m m m v c c c v v v v v v x x x > ; * h d.$Xs.s.s.d.a.s.a.s.d.d.X.  O , - ; ; ; ; ; ; ; - - ; - - * & & & & * , d $.$.! P P P $.P t t $.P P P P P P P P P P ! E E E E $.&.;.&.%.%.%.P P P P t t t t t t t t t t t r r r t r r r r r r r w q q q q r q q q e e e a a a e u u 4 6 u 7 6 u e 2 2 5 a 6 7 ",
"2 4 e e e e 2 2 e e e e e e e e w e q q q w w 3 e w q q e e w q e r $.3.E P P E L L L r P I I I r r r L R I s A v v v v v v c c c c c c n n n n c n Z Z C V k.z.c.N.[.].'.'.).'.'.'.'.).'.'.Q.B.b.b.b.n.n.n.n.b.b.b.v.b.b.v.v.V V V V V C N b d g.g.g.g.g.g.g.h.k x N C Z N n C Z Z Z Z Z M Z Z Z Z Z Z Z Z Z n N n n n n n c c c c c z z c v z z z z z z c c z z z z z v x l z l x x x l ; * O G <.G <.<.<.<.<.j O - v c c z c n n n n m m N N m m N N m n n n n n n c c c v c c v l A f.vXuXuXvXvXvXvXkXnXnXkXkXvXvXvXvXvXvX1X<X<X<X<XtX<Xf.<XtXtX;X;X;Xf.s.f.f.;Xf.f.f.f.s.f.s.f.s.f.<XlXlXcXxXp.x S H B D B D D D D B D D D D M M M D D D B D B M S S S D B B B B S S M M M S S M m m S N m v v c v v v v v v x x x x > - % X.$Xa.d.s.d.s.s.s.s.s.a.i.g . % > > ; ; ; - ; ; ; - - - - - & & * * : d $.=.$.P $.P P P P P P P $.P t P P P P t t t P $.P $.$.&.%.! ! ! &.*.;.&.$.P P P t t t t t t t t t s i r i s r q r i e q r 3 q e e q a q q e e e i e 4 i e e u 4 6 u u 4 6 a 6 5 y y 2 2 ",
"e e 2 2 e e q q e e e q q e e e q r r w w w e w w w w e e r r t a 3 P &.&.&.P P P P ! E P r L P E r r E E s s E A S m v c c v c v c c n n n n n n n n N C l.k.z.z.B.E.].].).'.'.).'.'.'.'.'.).P.b.b.b.b.v.b.b.k.j.v.v.b.b.k.j.j.j.V B B m x G g.g.g.g.7.g.g.h.k l v c n n N Z N N Z Z n n n n n n n n n n n n n z z z z c c c c v v v z z z z z z z z z x z z z z z l l l l l l l ; > > ; & & , G G <.<.<.<.<.j # % > b v z z N c c c c n n N N m m m m m m c c c c v v v v v v x z x f.tXvXvXvXvXvXvXvXvXvXvXvXvXvXvXvXvXvXvXvXvXtX<X<XvX1X<X<X<X;X;Xf.;X;Xf.s.f.f.f.f.f.f.f.f.f.f.<X,X,XlXlXlXcXcXh.b H F D k.D D D D D D D V D B B D B B D D D D B D D D B M M D S S M M M M S S S M m m m m c v c v v v v v v z v x > , * , d.,Xs.a.d.d.;Xs.s.s.a.,Xp.$ O : ; ; ; ; ; ; ; ; ; ; & & > - * * & d A %.$.P P A P P P t t P P t t P t P P P t t E E E E E ! ! P P P P &.&.&.;.;.&.$.P P P P t P t t t t r r t E r r r r q e r q e e q 2 2 e e e e e e a e 2 e u 4 u 7 7 7 6 u 4 2 e a 5 5 5 3 3 ",
"r r 2 2 q 2 2 q 4 4 e e q e e q e r e q w w q w w e r e e e r r i r t &.&.&.&.P P Q Q E P P P r L r i i I I P P A F B S m n v c v v v c m m c c n n n M C l.k.z.c.c.S.`.].'.'.'.).'.).'.'.'.'.).V.b.k.v.v.j.k.v.v.v.v.j.V V V V V V D M c b G g.g.g.<.,.y.y.k - z v m n n n n n n n n n n n n n c c n n n c z c c z z z c z z z v z z z z z z z z z z z z z z z l l l l l l l l ; ; ; > - & , d G A G G G G j j X % l l z z z c c c c c c c n n n n n m c c c c z c v v v v v v v x 1.tXtXvXvXvXvXvXvXvXvXvXvXvXvXvXvXvXvXkXkXkXvX<X<X<XvXvX<X<X<X;X;Xf.f.;Xf.f.f.f.f.s.f.f.f.f.f.f.<XkXlXlXlXlXzXxXjXj N S D D V V D D D D D D D D B D D B D D M M M B B D B S M D D M M M M M S S S M m m m m c c v v v v v v v z v l > > & : d.,Xd.s.s.%X;Xs.s.s.a.i.^ o % > > > > > ; ; ; ; - ; ; ; - - * > A %.&.%.P $.P P P P P t t t t t t t t P t P t t t t t t P E %.! P %.%.%.! ! &.&.&.;.;.$.P P t t P t t t r t t t r r r e q e r e e r a 2 2 e r q e e 4 e i e e e e u u u 7 6 4 2 3 2 2 1 3 3 3 3 ",
"e e q 2 2 2 3 2 2 2 e e e e e e e q q q w w w r r r r r r e e e r t r P &.&.&.! P L P P E P I I L L I r i I i r A S j.D S M m m c c v v v v c v n n N M C l.k.n.c.c.B.!.].'.'.'.).).'.'.'.'.'.)./.N.k.v.V V j.V D D V V V V C C B M N v l b <.g.<.<.<.G j k > z n N N n n c c c n n n n n n n n z z z c c z z z z z z z z z z z z z z z z z z z z z z z z z l l l l l l l l l l ; > ; - - & : : d d d A d j y : O & x z l z z z c c c c c c c c c c c c c c c v c z c v v v b x x 1.tXnXvXvXvXvXvXvXvXvXvXvXvXvXkXkXvXvXvXkXkXkXvXkXkX<X<X<X<X<X<X<X<Xf.f.f.f.f.f.f.f.d.f.f.f.f.<X,XkXkXkXkXlXlXlXxXxXp.v D S S V D D D D D D D D D D D D D B B B B M M B B M M M D D B D D M M M S M m N m m m c c v v v v v v v l x l l > % : d.$Xd.=Xs.s.d.a.a.a.i.i.g o & l > > > > > ; ; ; * > ; ; ; - > A $.=.&.P P P P t t P P P t t t t t t t t t t t t t t E P P P P P P E E E E ! &.&.&.&.&.&.&.$.P t P t t t t t t r r r e w q e e e e i a e q q e q e 2 3 e e e e 2 2 e u u u u e 2 3 3 3 3 1 3 # # ",
"q q 2 3 2 2 3 4 2 2 e e e e e e e w w q e r r r r r r r r r r e e r r P &.&.P $.! L L P P L r L L P I I I I I I t S k.D D B C M c c c c v v v v n n M C V l.z.z.c.B.c.L.].'.'.'.).).'.'.'.'.).).'.Q.n.V B B C M B B B B B B Z N M m v x x G G G G G G G k , z N n c n n n c c c n n n n c c c c c z z z z z z z z z z z z z z z z z z z z z z z z z z z z z l l l l l l l l l ; ; > > > > & & : : : : d d d , % % > x z z v v z v z z c c c c c c c c c c c c v v z v v v v b x 1.tXvXtXvXvXvXvXvXvXvXvXvXvXvXvXvXvXvXvXbXvXvXkXkXvXvXkX<X<X<X<X<X<XtX<Xf.f.<Xf.f.f.f.f.f.<Xf.<XkXkXkXkXkXkXlXlXlXcXxXjXG F D D D D D D v.D D D D D D D D B B D D B B B M M M M M D D D D D S M M M M m m m m m c c v v v v v v v l x l l - % : ..s.s.=Xs.d.d.a.a.a.i.i.$ O * l > > ; ; ; ; - - , > & ; > d A $.$.$.P P P P P P P P P t t t t t t t t t t t t t t t t t r r t P ! E E P E ! ! P &.! ! &.&.&.$.P t t t t t t t t r r r e r e q q r q q e q 2 2 q 2 2 2 q e e e 2 3 2 4 u u a e 2 1 3 # # # # # # ",
"q e q 2 3 1 3 3 q q e e e e e e e r e e r r r e r r r r r r r r r e r t E %.P P L ! P L L P I L r I I i r i I E P S j.j.V j.V B N n n c c c c c n N M V j.l.z.B.c.B.N.C.].'.'.'.).(.).).'.'.'.'.).).J.l.B N n B M M N Z Z N n n n c x x A H A A G b x x x v c n c c c n n n c n z z z c z c z z z z z z z z z z z z z z z z z z z z z z z z z z z z z z z z l l l l x l l l > ; ; l > ; > > > > : : : : d d , * > > x z z v z z z z z v c v c c c c c c v v v z z v v v v x x H tXvX1XtXtXtXvXvXvXvXvXvXvXnXbXbXbXvXvXvXbXvXvXvXvXvXkXkXkXvX<X<Xf.f.<Xf.f.<X<Xf.g.f.<Xf.<XkX<XkXkXkXbXbXkXlXkXlXzXzXcXcXj S F v.D D v.v.v.D D D D D B B B B B D D D B B B B B M M D D D D D D M M S M m m m m m c c v v v v v v x x x l l ; % y d.=X=X#Xs.d.a.a.a.a.i.p.$ O : l ; ; ; ; ; ; - - - - - & d =.&.! P P P $.$.t P P P t t t t t t t t t s t t t t t t r w r t P E %.P P P P E E ! ! %.&.&.&.;.;.;.$.P P t t t t t r e r r r a q q q e w 2 q q 1 1 q q q q q e q e e 2 2 2 2 2 5 1 3 1 # # # # # # 3 ",
"e e e 2 1 3 3 2 2 2 q q q e e e r r r r r t r r t r r r r r r r r e e w i &.P P L ! P L P P E I I I i r e q r i t A D l.V l.l.C C Z Z Z n n n n n N B V l.z.z.B.c.c.B.B.[.].'.'.).).).).).).).'.).'.).S.C n N Z N N N n n n n c z v l x A A v v b b v z c c c z c c c n n c c z c c c c z z z z z z z z z z z z z z z z z z z z z z z z z z z z z z z z z z l l l x x l l l > > l l ; ; l l > > w : : : : , , > x l l x v z x x z z z z z v v v v z z v v v v z x v v x x x H }.nXtXtXtX<XvXvXvXvXvXvXvXvXvXbXbXvXvXbXvXbXvXvXvXvXvXkX<X<XkXtX<X<X<X<X<Xf.f.vXvX<X<XkX<XkXkXkXkXbXbXkXbXbXlXzXlXzXzXcXcXh.v F D D D v.v.v.v.D D D D D D D B B D B B B B B D D D B D D B D D D M M S M m m m m m m c v v v v v v x x x l x ; # j =X<X$Xs.d.d.s.a.a.a.i.^ $ % > l > ; ; ; > ; - - & - * d =.$.! P P P P t t $.P t t t t t t t t t s t t t t t t t r t s %.%.P t r t t P E P t r P E ! &.;.;.4.;.;.&.P P t t s t r r r e r q q q q w q q 1 2 q 1 3 q 2 2 2 q q 2 2 2 2 2 2 2 1 3 # 3 # + + # # # 1 ",
"e r e 2 1 2 2 q q q q e e q e r r r r r t t t t t r r r r r r t r r r w r E &.$.%.P P P E P r r E E E I i i I I s t A V V V V C C C C Z Z Z Z n M M B j.k.z.c.B.c.c.B.B.!.].'.'.'.).).'.).).'.).'.).'.).V.V Z z z c n N v v v v z x x x v x x x z v c c c c c v c c c c c z c c c z z z z z z z z z z z z z z z z z z z z z z z z z z z z z z z z z z z z z z z l x x l l l > > l l ; ; l > > > d : : : : , > > x x x x x x x x z x z z x v v v v z z z v v v z v l x x > <.}.tXtXtXtX<X<XvXkXvXkXkXkXvXvXvXvXvXvXbXbXbXvXvXvXbXvXvXvXvXkXkX<X<X<X<XvXvX<X<XvXvXvXvXbXlXkXkXbXbXbXbXkXbXbXbXzXlXlXzXxXxXjXG F S D D v.v.v.v.D D D D D D D V B V B B B B D D D D B D D D B D D M M S M m m m m m c c c v v v v v v x x x x - # h $X$Xs.a.s.s.s.s.a.a.i.g O & > l ; ; ; > ; > - - ; > d $.&.$.P P $.$.$.t t $.$.P t t t t t t t t s t t t s t t w t s E E t r w r r r t P P P E Q E P P &.3.;.;.4.;.&.P P t t t r r w e r q q q 2 w w q 1 1 w w 3 1 3 3 1 2 2 2 1 2 2 2 1 1 1 # # # # + + + # # 1 ",
"e r e 3 3 1 w q 2 q q e e r r e t r r t t r r t t r r r r r t t r r r t r P 2.;.Q P P P Q E P r 4 e L I P Q Q T E Q =.D V C C M C C C C Z Z Z M M B V j.k.z.c.B.c.B.N.N.L.[.'.'.'.'.).).).).'.'.'.'.).).).B.Z c z z z z z v v v b b A A x x x x n n z c c n c c z n c z z z z c z z z z z z z z z z z z z z z c z z z z z z z z z z z z z z z z z z z z z z z z l l x l l ; > l l l > > l > ; > > > , , , , > > l x x x x z l x z z x z z x v v v v z z x v v v x v x x G f.tX<X<XtXtXtX1X<XvXkXkXkXkXvXvXvXvXvXkXvXvXvXvXvXvXvXvXvXvXvXvXvXvXkXkXkXvXvXvXkXbXbXkXbXbXbXlXbXbXbXbXbXbXbXbXbXVXlXlXzXzXxXcXk A F D D v.v.v.v.D D D D D D D D B B B B B B B D D D B D D V B D D S M S M m m m m m c c v v v v v v v x x l x - # h s.$Xs.s.s.s.d.a.a.i.i.$ O > ; ; ; > ; ; ; - - & & d $.! ! P $.A $.t t P P t t s t t t t t t t t t t s t s t t t r r r r r r t P E E s s I E Q Q Q Q Q &.&.&.&.2.3.;.&.P t t t t r w r t w 2 w 3 1 1 w w 1 1 1 1 # 1 1 1 1 1 1 1 1 1 1 3 # + # # @ + + + + + # # ",
"w q w 3 3 1 2 2 q q q q e e e r r r t t t t t r P r t r r r t r r t t t t P P %.P ! ! P P L P Q I L r i I i r r 7 i A A M C C V Z C C Z Z Z C M B B v.v.k.z.B.B.B.B.C.V.C.`.].'.'.).).).).).).).'.'.).).'.).V.Z x z z z z z z z c n Z Z Z C C x.l.Z z v n n c z c c c z z z z c z c c z z z z z z z z z z z z z z z z z z z z z z z z z z z z z z z l l z z z z x x x l l l l > l l > > > > ; > > > : > d > > > x x x x x x b b x x l x x l z x z v x x z x x x v b > G f.tX<X<X<X<XtXvX<XvXvXkXkXvXvXvXvXvXvXvXbXvXvXvXbXvXbXbXbXbXbXbXvXbXbXbXbXkXbXbXbXbXbXbXbXbXbXbXbXbXbXkXbXbXbXbXbXkXbXbXbXzXzXxXcXh.F M.v.v.v.v.v.v.D D D D D D D D V V D V B V D D B B D B D D D B D M M M M M m N m v v v v v v v v x x v x x x ; $ h d.$Xs.s.d.s.d.d.s.@Xu.$ O > > l ; > & & > > & & w $.=.$.$.$.$.t t A t t t t t t t t t t t t t t t t t t t t r t t t t t t s E E e w w r t t t E E E P L ! &.&.7.5.5.;.&.P r t r r r r r q w w 1 1 3 1 w w 1 # # 3 3 1 1 1 3 # # # # # # + + + + + + + + # # # # ",
"3 w q 2 2 q q w q q q q e e r t r t t t t t t t t t r r r r r r r t t t t r r P P P ! P L r r i E I I I r r r I i i P A A M C C Z C C C Z C C M B V v.b.b.n.B.B.B.V.V.B.V.~.].'.'.'.'.).).'.'.).).'.`.).'.'.~.D.l.Z Z C x.l.l.k.z.z.z.z.z.z.c.c.k.C c z z n n c z z z z z z z z z z z z c c c c z z z z z z z z z z c z z z z z z z z z z z z z z z z z z z z z l x x l l l l l > > > > > > ; > > > > > d d d > x x x x x x x x x x x x x l z l l l l x z z l x b ; A f.tXtX<X<X<X<XvXvXvXvXvXvXvXvXbXbXbXbXbXbXbXbXbXbXMXMXbXVXbXbXMXMXbXbXbXVXbXbXVXVXbXbXbXVXbXbXbXbXbXbXbXbXbXbXbXbXbXbXbXbXbXzXzXxXcXh.H M.v.v.v.v.v.v.D D D D D D D D D V D B B D D D D D B B B V B B M M N M m m m m v c v v v v v v v v x x l x > - $ u.s.s.s.s.s.s.d.d.a.i.u.$ = > ; ; ; > & - ; ; > d %.%.$.$.P P P P P P P P P t t t t t t t t t t t t t t s t s t t r t t s s s i s r L P E &.Q E &.Q Q P P ! &.;.5.;.5.5.;.&.P t t r e q q q w 3 1 1 1 1 q w 1 # # # # # # # # # # # # # + + + + + + + + + + + # # ",
"w q e e q q q q q q q q r r r t t t t P P t t P t t t t t t t t r r r t t r r r P ! &.Q E E E I L I I I I I E Q E I T Q %.A S j.C C C C C C B B V V v.v.b.B.B.B.B.C.V.V.N.J.[.].[.'.'.'.).).'.).).).).).'.'.'.).L.c.z.z.c.c.C.H.H.H.P.P.P.P.C.P.B.l.n z z n n c z z z z z z z z c c c c c c c z n z z z z z z z z z z z z z z z z l l z z z z z z z z z x x l z l x x x l l l l l > ; ; > ; ; > > > > d d A G A > > > x x x x x x x x x x x x x x x l l l x b b x A f.tXtXtXvXtXvXvXvXvXvXvXnXbXbXbXbXMXMXMXMXbXbXbXVXCXCXCXCXCXCXVXCXCXCXVXVXCXVXVXCXVXVXbXbXVXVXVXVXVXbXbXVXVXbXbXbXbXVXbXVXbXzXVXVXxXxXp.H D v.v.v.v.v.v.v.D D D D D D v.D D D B B D D D D D B B B V B B M M N M m m m m v v v v v v v v v v b l l x > > y d.$Xs.s.s.s.s.d.d.+.i.g   % > ; > > > > ; ; > d A &.$.$.P P P P P $.$.$.$.%.$.t t t t t t t t t t t t t t t t t r i r r i t e e r i i s i r r r r 2 r r P &.;.;.&.;.5.5.5.;.P t t t e e e r e q y 1 3 3 1 1 3 # # # # # # + # + @ + + + + + + + + + + + + + + # # ",
"e r r e q q q w q q w r r r r t t t t $.$.P P P P t t t t t t P t t t t t t t P $.! P P P E E P E E E I E E I I L I E L I E A B V C C C V V D D V j.v.b.b.B.N.B.B.C.C.V.N.S.(.7X].'.'.'.).).'.'.'.).).).'.'.'.).).!.D.n.M.m.Z.B.A.A.S.P.I.I.P.P.n.l.Z c c n n c z z z z z z z z n c z c z z z z n z z z z z z z z z z z z z z z z z z z z z z z z z z z x x l z z l x x l l l l ; ; ; ; > ; - > - - : : : y d d , > > l x x x x l x x x x l l l l l > > > x > > A f.tXtX<XvXvXvXnXnXbXbXbXbXMXMXMXbXMXVXCXCXCXVXVXVXCXCXCXCXCXCXZXCXCXCXCXCXCXCXCXVXVXVXVXVXVXVXVXVXVXVXbXbXVXbXbXbXbXbXVXVXVXVXzXVXVXxXxXjXG D v.v.v.v.v.v.v.D D D D D D v.v.D D V B D D B B D D D D V B B B M M m m m m v m v v v v v v v v v v l x x ; & # u.$Xs.d.s.s.s.s.s.i.i.g O ; ; > > > > ; ; ; d A %.$.P P $.%.! P P $.$.$.$.%.$.P t P t t t t E t t E P s s s s s s i i s s s t r e y w w e a s E E E Q E %.&.&.&.Q Q 2.5.5.5.;.P t r r e e r w q w 1 3 3 3 3 # # # # # # + + + + + + + + + + + + + + + + X + + # # ",
"q q e e q w w w e e w r t t t t P t t t P P P P $.P t P t t r t t P P P P P P $.&.P P P P P P P Q E I I I I I L L P P I R T %.A D B C V V D D D v.k.b.b.n.B.N.B.N.N.V.V.B.C.W.].7X].].'.).).'.'.'.).).).).).).).'.).).Y.U.F =.=.-.-.v.b.c.c.z.l.l.Z n c c c n n n n c c c c c c n c z c c n c c z z z z z z z z z z z z z z z l l z z z z z z l z z z z z z l z l l l x l l l l ; ; ; ; > ; > > * % O + + # # # # : : > x l x x x x x x x x x l l > > x x > > d f.tXtX<XvXvXvXbXbXbXMXMXMXMXMXMXMXVXVXCXCXCXCXCXCXCXCXCXCXCXCXCXZXZXZXZXCXCXCXCXCXVXVXCXCXCXCXCXbXbXVXCXVXVXVXbXbXVXVXVXVXbXbXVXVXVXVXxXxXjXG M.M.M.v.v.v.v.v.v.D D D D D D D D D D D D D D B D D D B V B B B M m m m m m v m m v v v v v v v v b l x x > > # u.d.d.s.d.s.s.d.a.i.i.5 = > l l & > > - - > t %.$.$.$.$.%.%.%.$.! $.P P P P P P P P t t t s E t s i t t t r i i i s s s i i s s s E I E ` ` E E Q E E s s P P :.2.Q 2.5.;.5.5.&.L t t r e w w w w 1 3 3 # # # @ @ # + # + + + + + + + + + + + + X + + + X + + # # ",
"3 3 w e e q w w r r w r t t t t %.P t t $.$.$.P P t t P P t r r r t t t P P P t e r P &.%.! ! P P P P P I I I E P P I I I I E E F F B D D D D D b.b.b.n.n.B.N.N.N.N.C.V.N.V.D.`.7X7X].'.'.'.'.'.'.'.'.'.).).).).`.).).).Y.-.=.P &.*.=.S N Z Z z Z n c c c c n n n n n n n n n n n n n n n n n n z z z z z z z z z z z z z z z l z l z z z z l l z z l z z z x l l x l l l l l l l > ; ; > ; > > * % O X + + + + . + : > x x x x x x x x x x l l x > l x l ; A 1.tXtXvXvXvXbXbXbXbXbXMXMXVXVXCXCXCXCXCXCXCXCXCXCXCXCXCXCXCXCXCXCXCXZXZXZXZXCXCXCXCXVXVXCXVXCXCXCXVXbXVXVXVXVXVXVXbXVXVXVXVXVXVXVXVXVXVXzXxXcXk F M.v.v.v.v.v.v.v.v.v.D D D D V V D D D D D D D D D B B B B B M M m m m m v v S v v v v v v v v x x x x x x > y u.d.d.s.d.s.s.a.d.i. .+ % ; l x > > > - > d A $.P $.$.$.$.$.%.%.$.%.$.P P P P P P t t t t t t t t E E E E s s E E s s r e e i s E E i E ` I e e e e e 2 e i E { Q Q 2.5.4.4.9.2.! r e r i e w w 1 1 1 # # # # # # # # # + + + + + + + + + + + + + + + + X + + # # ",
"# 3 w r r w q q r r r r t t t t P $.$.$.$.$.$.P P t t P P t t t t t r t P s q # X X q %.&.! ! P E P ! E E I I E E E Q Q E E Q W =.A F F F F D v.b.b.n.n.n.B.N.N.N.N.C.C.V.N.F.W.[.7X7X].].'.'.'.].'.'.'.).).).).'.`.'.).).^.U.-.=.&.*.=.v c n N Z n Z n n n n n n n n n n n n n n n n n n n n n z z z z z z z z z z z z z z z z z z z z z z z z z z z l z x z z l x l l l l l > l ; ; ; > > > - % O O X o . o + . X O : > x x x x x x x x x x l > ; > ; > G g.vXvXbXMXMXbXMXVXMXVXbXVXVXVXCXCXCXCXCXCXCXCXCXCXCXCXCXCXCXCXCXCXCXCXZXZXZXGXZXGXZXCXCXCXCXVXVXVXCXCXVXVXVXbXVXCXVXVXVXVXbXVXVXVXVXVXVXVXVXxXcXh.F M.v.v.v.v.v.v.v.v.v.v.v.D D V V D D D D D D D D D D B B B B M M m m m m v v v v v v v v v v x x x v x x ; & y i.s.d.s.6.d.s.d.d.d. .+ % ; l l > > ; - > A $.P $.P $.$.$.P %.%.$.%.%.$.$.P P E t t t P P t s t t I I I s s i s s r i s E E E i i ` ` <.,.` ` ,.,.,.| { T { | T I | 2.4.8.4.9.9.&.w # # w w w w # w 1 # # # # # # @ # + + + + + + + + + + X X + X + + + + + + + # ",
"2 w e r r e w r r r r r t t t P P $.$.t t $.$.$.P P P t P $.P P %.$.P P P w + X $   # r P P ! ! Q ! P P E I I E L E E E E Q Q E W E A F F F D v.b.b.n.n.n.B.N.N.B.N.N.C.V.B.F.S.W.7X7X7X].'.'.].[.'.'.'.'.).).).'.'.'.).'.'.{.U.-.=.=.=.A v c n Z n Z Z n n N n Z n n n n n n n n n n n n n n n z z z z z z z z z z z z x x z z z l z z z z z z z z z x z x z l l l l l l l > > l ; ; ; ; > - - : % O X o o o X X . X % > x x b x x x x x x x l > x > > <.kXbXVXVXDXSXSXZXCXCXVXVXbXVXCXCXCXCXCXCXCXCXCXCXZXZXCXCXCXCXCXCXCXCXCXCXZXCXZXZXZXFXZXZXCXZXCXCXVXVXCXCXCXCXCXVXVXCXCXVXCXVXVXVXVXVXCXVXVXVXVXxXxXh.H M.v.v.v.v.v.v.v.v.v.v.v.v.v.D D D D D D D D B D D D B B B B M M M m N m c v c v v v v v v v v x x x l x > & j g.s.d.s.6.8.s.d.d.p.g . * > l l ; > ; > A =.$.! &.%.%.$.$.$.P P P %.%.%.%.%.P P t P E E E E s s E E E I s s s s s E s E ` ` ` | :.2.:.6.2.{ | 6.:.| 2.8.8.6.6.} | 2.2.8.9.9. X%X2.E # X # O # 1 # 1 1 # # # # # # # # + + + + + + + + + X X X X X + + + + + + + # ",
"e r r r r t r t r r t t t t t t t t P t t t P P P P P t P P P P %.P t w # + o o X . X # t P P P P P P E Q Q Q ! E E E E E E E Q E E Q %.=.F D v.v.m.n.B.N.N.B.B.N.B.Z.V.N.N.V.C.A.~.7X7X].].].].'.'.'.'.'.'.'.).`.'.'.'.'.'.'.'.^.U.-.=.*.A m n N Z C N Z Z Z M M n n Z Z Z n c c n n Z n c n n c c c c z z z z z z z z x v z l z z z z x x z l z z l l x x x l l l l l l l ; ; ; ; ; ; ; > - * % O # X X X X X . X X O % > x x x x x x x x x > > ; , <.g.lXg.p.p.jXlXxXDXSXSXZXCXVXVXVXCXCXCXCXCXCXCXCXCXZXZXCXCXCXCXCXCXCXCXFXZXCXCXZXCXCXFXGXFXZXCXCXCXCXVXCXCXVXCXZXCXCXCXVXVXCXCXCXAXCXVXVXVXVXDXVXDXxXp.F M.M.b.b.v.v.v.v.v.v.v.v.v.v.D D D D D v.V V D D D D D D B B B M m m m m m v c v v v v v v v v x x x x ; * O X.,Xs.s.d.d.d.d.d.u.u.$ O & & > ; > l > d =.=.$.$.&.%.%.&.&.&.$.$.&.%.%.E %.%.$.P s P E P s E E E s s r i s E i i s ` E E Y i a i i ` s s w y y y s s q T | ` ` Y T | 6.a.s.9.&X&X.X2.7 + X X X X X # # # # # # # # # # # # # # # # + + + + + X X X X X X X X + + @ ",
"q e e w w e e i r r r t t t t t t t s t t t t t P E P s s s r w 3 # # X X X o o X + o   # E &.! ! P E E E E E P E E E E Q E Q Q Q E Q %.A F D v.m.m.m.B.N.N.B.B.B.B.Z.N.B.N.V.C.A.D.`.7X7X7X].].].'.'.'.'.'.'.).'.'.'.'.'.'.'.'.[.^.Y.-.*.*.A n n C C N n Z Z C C Z n Z Z Z Z n n n Z n n n c c c c z z z z z z z z z z z v z z z z z z z x z z z l l l l x x x l l l l l > > > ; ; ; ; ; - * & : O + X X X X . . . . X O > > > x > > b x x x > > l b G G b > b b , k h.lXDXKXKXGXZXCXCXCXCXCXCXCXCXCXCXCXCXCXCXCXCXCXPXCXCXCXCXFXZXZXZXZXZXZXGXGXGXZXCXZXCXCXCXCXCXCXZXCXCXAXVXVXCXCXCXAXCXVXVXVXCXAXVXDXxXp.v M.M.n.n.v.v.v.v.v.v.v.v.v.v.D D D D D v.D V B B B B B B B B M M N m m m m m c v v v v v v v v x x x l > * $ X.d.d.6.6.d.s.d.O.u.^ $ O - > > > b ; > A $.$.$.P %.%.P &.&.&.%.%.%.%.%.E P %.$.P s t t E E E E s s E E E E E s s ` Y i i a a i Y ` ` ) ) U Y ' ..O.O.' { ,...) Y ,.R ' o.8.#X#X#X&X8.{ 1 X X X X X X X X + + # # # # # # # # + + + + X + + X X X X X X X X X + + + ",
"3 q a # X X X + + + + # # # # # # # 3 1 1 1 1 1 # # # # # + X   X .   . o + X X . X o   X 1 P &.&.&.! ! Q Q Q Q Q Q E E E E P P Q Q Q %.A F v.M.n.m.Z.Z.Z.Z.B.n.B.B.A.N.B.B.V.C.A.V.L.`.7X7X].7X].].'.'.'.'.'.'.'.'.'.'.'.'.'.'.'.[.).Y.-.-.=.A v Z C C M C C j.V C Z Z Z C Z Z n Z Z Z n n c c c c z z z z c c z z z z z z v z z z z z z z z z z z l l x x x x x l l l l l > > ; ; ; ; - , : % : O + X X X o .   . . . O : , , d > x b v z x l l x v S D M.M.M.M.M.S , k p.zXSXKXKXGXSXCXCXCXCXCXCXCXCXCXZXZXZXCXCXPXZXPXPXCXCXCXZXZXFXGXZXCXFXGXFXZXZXZXZXZXZXZXCXCXZXCXAXZXCXAXCXCXVXCXCXVXAXVXAXAXDXDXDXjXb M.M.M.b.v.v.v.v.v.v.v.v.v.v.D D D D D D D B D D B B B B B B M M M m m m m m c v v v v v v v v x x x ; ; * $ ,.d.d.6.6.7.s.d.O.u.^ @ = > > > > l ; d =.$.P &.$.%.$.P %.&.&.%.%.%.%.%.E P $.E P P E E E s s s s E E s i s E s s r r a a i ` ` ` | ` ` ..| 6.d.a.a.a.a.6.6.d.d.a.$X| 6.} ' 8.$X$X$X$X6.u # X + X . X X X X X X X X X + + + # # # + + + + X X X X X X X X X X X + + ",
"# 2 e +     o               o o X . . . X X X X X X X X o .   o X . o o o X o X o . o o o   # P ! ! P ! ! Q Q E E E E E Q Q Q Q E Q E %.=.F M.m.n.m.Z.N.Z.Z.B.n.B.N.A.N.N.N.V.S.C.F.C.W.].7X7X7X].].].'.'.'.'.'.'.'.'.'.'.[.'.'.'.'.'.).^.Y.-.=.A v C l.C Z Z V l.l.C C C C C Z Z Z Z Z n n c c c n z z z z z z z z z z z z v c z z z z z z z z z z z l x x l l x l l l l l ; ; ; ; ; ; , , : % O O # + + X X X   . . . X # # , , > v F D D D M D D M.D v.N.Z.m.F.M.M.F b k h.p.DXKXLXKXKXZXCXZXCXCXZXZXZXZXZXZXPXPXCXZXZXZXZXCXCXPXFXFXGXPXZXFXFXZXZXGXZXZXZXZXZXZXZXAXCXAXZXZXZXAXCXVXCXCXCXAXCXCXAXZXDXDXjXb D v.v.v.v.v.v.v.v.v.v.v.v.v.D D D D D D B B D D D D B B B M M M M m m m m m c v v v v v v v v x x x ; > % y d.d.d.d.d.7.d.d.u.i.^ $ * ; > > l ; > A *.P P &.%.$.$.$.%.&.&.%.%.%.%.%.E P E E E P s s E E E s t t i s s s s s s s <.<.` ` ` T i a u u i e i s i a y s i E :.` d.$Xs.s.6.O.O.a.$X2X$X#X) 3 + O X . X o X X X X .   . X X X X + # # + + + + X X X X X X X X X X + + ",
"q 2 2 . X o o   X X X X X X X X X o       o o o o       .     X . X o o o o o o o . X X o o X # P E Q P P P P P ! ! ! Q Q Q &.&.&.&.Q %.=.-.m.m.n.m.Z.Z.Z.Z.B.n.n.N.A.N.N.V.V.C.C.S.V.V._.7X7X7X7X7X].].].].'.'.'.'.'.'.[.[.'.'.].'.'.'.[.(.Y.-.-.S D v.C N C V k.l.l.C C C C C Z Z N N Z n c c c c c z z z z z z z v z z z v v z z z z z z z x x z l l l l l l x l l l l > ; ; ; ; ; , * : : O O O X X # # O .   X X + + + O = * x D m.Z.F.F.Z.Z.B.n.v.b.N.Z.Y.Z.Z.F.F.M.F b k h.lXSXLXLXLXKXGXZXZXZXZXZXZXZXZXPXZXZXZXZXCXZXPXPXPXFXGXGXFXGXGXFXFXGXGXGXZXZXZXZXZXSXZXAXZXZXZXZXCXAXCXCXCXCXCXAXCXZXCXDXDXcXG M.M.v.b.v.v.v.v.v.v.v.v.v.v.v.v.D D D D M M S S D B B B B M M N m m m m m m v v v v v v v v v x x x l , : j d.d.d.d.d.6.7.d.d.i.h O - ; > l > ; d =.$.! P P $.$.$.$.$.%.%.%.%.%.%.%.P E E E E E E E s s s s E E E E E E E E E s a i e w i a _ ..` ) T Y u e i a i a i ..6.} a.d.s.a.O.8.$X$X$X$X$X$XO.4 + X X . X X X X X X X X X X     X X X + # # + + + X X X X X X X X X X X ",
"e q e + X           . . . . . . o .   . o o o o     . X X .   . . X X o o o o + o X X X X + o o 3 s %.Q &.&.P ! &.&.! %.Q ! E Q %.&.E $.=.-.m.m.m.m.Z.Z.Z.Z.B.n.n.Z.Z.B.N.N.B.C.C.V.V.C.L._.7X7X7X7X7X].].].].].'.'.'.'.'.'.'.'.].'.'.'.'.'.`._.U.m c D D M C x.k.k.l.C C C V V C Z n n Z n c z c c c c v z z z v v z z z z z v v z z z z z x x x x l l x x l l x l l l l l > ; > ; ; - * : O O O + X + # O # X X X X + + O % * b F m.D.K.E.J.S.A.C.N.n.B.A.F.F.A.F.F.F.Y.Y.M.S k k jXAXKXLXLXLXKXSXZXZXZXZXZXZXFXZXGXGXGXFXFXFXFXFXGXHXGXFXHXGXFXGXGXGXGXGXGXGXGXZXSXZXZXSXZXAXZXZXZXAXZXZXCXZXSXCXZXCXDXDXlXG M.M.M.b.b.v.v.v.v.v.v.v.v.v.D D D D D D D M S S B B B B M M M M m m m m m N v v v v v v v v v x v x > * $ X.d.d.d.6.7.d.d.d.d.i.j % ; > > l ; > $.=.! $.%.P &.$.&.%.%.%.%.%.%.%.%.%.E E E E E E E E E E %.E E s s s i i ` ` ` ` s s s i i ` ` ` ` ` ` ,...........a.a.O.O.O.d.O.o.a.a.a.$X$Xa.$X$X2X#XU @ X X . X X X X X o X . o X     . . X X + # + + + X X X X X X X X X X X ",
"3 3 a # X   o X o o o o o o o o . . . . o o o o       X X . . . . . . . . . . X X X o X X . o $   # e P &.&.! &.! P P %.&.! Q &.%.E E $.=.-.U.m.m.m.Z.Z.A.Z.B.n.B.Z.Z.B.N.B.B.N.S.V.V.C.V.D.~.7X7X7X7X7X7X].].].].].'.'.'.'.'.].].].'.'.'.].].].~.v.n C v.V C x.k.k.k.l.C C V V C N n n N Z n c c c c v v x z z v v v z z z z v v v v x l z x x x x l x x x x x l l l l x l l > > ; - * & : O # O + + + # # # # + X O O O : > x M M.D.J.Q.W.J.D.V.L.L.Z.Z.D.C.D.H.A.Y.D.W.W.Y.U.F H k h.zXKXLXLXLXLXKXGXGXGXGXZXZXGXGXHXHXGXGXGXGXGXGXGXGXGXGXFXGXHXGXGXGXGXGXGXGXGXGXSXSXKXSXZXSXSXZXCXZXZXZXZXSXAXZXCXDXDXhXG M.M.M.v.b.v.v.v.v.v.v.v.v.v.D D D D D D D S S S D D B B B B M N m m m M N N c v v v v v v v v x v x ; % $ u.d.d.6.6.d.s.6.d.u.u.y & ; l > l ; A =.&.$.$.$.%.&.$.&.&.%.%.%.%.%.%.$.%.E E E E E E E E E t s s s s E ` ` s i a i a s s ` ) / p p s y a j ,.......] ,.d.u.` a a ` s.s.a.+.i.,X$Xa.a.$X,X$X} 3 X + o X X . . .   .           . .     X X + + + X X X X X X o X X X X ",
"3 3 1 . X . X   . .             . . .       . .     X X .   o   o o o o o X X X X o o o X X X o o X + 3 E &.! &.&.! P &.&.Q ! ! %.E Q $.=.-.U.m.m.m.m.Z.A.Z.n.n.N.Z.Z.B.N.B.B.N.S.A.N.V.D.N.V._.7X7X7X7X7X7X].].].].].].].].].].].].].'.'.].].].'.{.Y.j.k.v.V V k.b.z.l.C C V V B M n n M M n c z c c v v x z x v v v v z z z z v v v z l z x x x l l l x x x x l l l x x x l > > - - & & O O # # + + + # $ # # # O O O % : x b v.Z.J.K.!.W.D.D.D.H.C.A.Y.A.A.L.D.D.Y.D.Y.D.D.Y.F.F G k g hXAXLXLXLXLXLXKXKXKXGXZXZXGXGXHXGXGXGXGXHXGXHXJXHXFXGXGXHXGXGXKXKXGXGXKXKXKXGXGXKXSXZXSXSXSXZXZXZXCXZXZXCXZXSXDXDXjXH M.M.M.b.v.v.v.v.v.v.v.v.v.v.D D D B D D M M D D D D B B B M M M m m M M N m c v v v v v v v v v x l > * h d.d.6.6.6.d.6.6.d.u.~ O & l l > l > A =.$.$.$.%.%.&.! &.&.&.&.%.$.%.%.%.%.E E E E E E E E E E E E E s s i i i s s s s i i ` ` p h _ _ X...d.d._ _ X.X.i..._ _ X._ 8 ..,X,X$Xi.a.<X<X$Xa.$X$Xa.p X . + o           o o                   o + + + + X X X X X X X X X X ",
"r 2 + X .   X .         . . . . . .         . .         . X . . X X X X o o o o X X . . o o o o . X X + # w E &.&.$.$.%.%.&.&.! %.&.P $.=.-.U.m.Y.m.m.Z.Z.Z.Z.n.Z.Z.A.B.N.B.B.N.S.V.N.N.V.V.A.D.~.[.7X7X7X7X7X7X7X7X7X].].].].].].].].].].'.'.].].].].~.A.b.V N l.v.b.k.l.V B B M M N N M M n N z z v v v v v x x x v c v z z c v v x x l l x z x x l l l l x x l l x x x x l l ; > : O O O # # # # O # + + + # # # # = , > x M Z.D.E.Q.W.Y.A.S.L.D.D.D.D.D.D.L.J.J.J.W.W.W.W.W.D.Y.M.F H k p.zXAXKXLXLXLXLXLXKXZXSXSXSXKXGXFXHXKXGXHXHXHXFXFXHXHXHXGXGXGXKXKXKXKXKXGXGXGXGXGXKXGXGXZXSXSXZXAXAXZXAXZXCXSXxXp.H M.M.M.M.b.v.v.v.v.v.v.v.v.v.v.D V D D D B B B D B B B M M M m m M m m m m N m N c v v v v v v x v l - = j d.d.,.6.d.6.6.,...u.g O , ; ; ; > d $.&.$.$.P $.%.&.&.%.%.%.&.%.%.A A A A %.E E E E E E E E E P s r r E E E ` ` ` Y Y s a d y a a ` _ h _ ` ` Y a h j ` i _ ..i.i.....d.d.<X$Xi.2X2X,Xi.@X@X$X{ + X X . X X X               . .           o X # # + X X X X o o o X X ",
"I i @ . o .             . .   . . .         . .         . X . .   X X X . o o o X X . . X o o o X X X X X # 1 q &.&.*.&.&.! &.&.&.&.P P $.-.U.U.Y.m.m.Z.Z.Z.Z.m.N.Z.A.N.N.B.B.B.V.N.N.N.N.V.V.A.D.W._.[.7X7X7X7X7X7X7X7X].].].].7X7X].].].].].].].].].].'.~.n.C k.k.z.c.l.C D v.B B Z n n m m N v v c v v c c v v v c v v v x z c v x x l l z z l l l l l x x x x l l l l l x x > & O O O # # # # # O + # # + # # : , , , > x F Z.D.E.Q.W.W.D.S.L.L.D.D.D.J.J.L.K.K.W.W.W.W.W.W.Y.Y.F.M.G.H j g h.jXlXAXKXLXLXLXLXJXGXKXKXKXKXJXHXGXGXGXHXHXHXGXHXHXGXGXGXGXGXGXKXKXKXGXGXGXGXGXGXGXZXZXSXZXCXZXZXAXZXCXSXxXp.H M.M.M.M.b.v.v.v.v.v.v.v.v.v.v.D D D D D B B B D B B B M M M M M M N m m m N c c c c v v v v v x v ; - * X.d.d.6.6.6.,.6.d.i.u.$ % , > l > > A $.$.$.$.$.&.&.&.&.%.%.%.%.%.A s s s s s s E E E E t t t t E E E E E E E E E a a i Y i ` ` ` ` _ _ / _ ) ] ...._ _ _ X.....,.,...u.i.$X,X$X$X$X$X,X$Xi.@X,X] # +   . X X X               . .           . X X + X X X X X X + o o X ",
"I i @   o o   .                 . .                       X . .     . . X X X X X X X . X X o o . X X . . . X X 3 r P &.;.*.&.&.&.&.P $.=.-.U.Y.U.m.m.m.Z.m.m.m.N.Z.Z.N.N.B.n.B.V.V.N.N.V.V.V.A.Z.N.D.^._.[.7X7X7X7X7X7X7X7X7X7X7X7X].7X7X7X7X7X7X7X].7X7X7X_.Z.C k.n.n.k.x.v.D v.D D M m c S S S v v v c m c c c c v v x v v v c v x x l l l x x x l x x x x x x x x > > > x x : % O X X + # # # O + + + # + O , * : , , : v v.A.J.Q.E.L.D.D.J.J.J.J.W.W.W.W.L.W.W.W.W.W.W.W.Y.Y.Y.Y.Y.Y.G.G.H j k k h.jXzXGXLXLXLXLXLXGXGXLXJXJXGXGXGXGXHXHXGXHXHXHXHXHXKXKXHXKXJXKXGXKXGXGXKXGXGXSXSXSXZXZXZXZXAXAXCXSXxXh.H M.b.M.b.v.v.v.v.v.v.v.v.v.v.D D D D D D D B B D B B B M M M M M M N m m m c c v c c v v v v v x x ; * , ,.d.d.6.6.6.6.6.d.i.^ $ % > ; l ; > A $.$.$.$.&.&.&.&.$.%.%.%.A A A d d s s A E %.%.` E %.E E E E E E E E E E ` E s s ` | ` ` ` h ` ` ` X.` X...d.d.d.d.u.u.d.d..._ / ..i.d.d.s.d.d.,XkX,Xi.i.,XO.3 X o . . X .               . .               X X X X X X X X X o o X ",
"i 2 .   o o   .                                           o . .     . . X X X X X X . . X X X o . X X X X o o o   X 3 r E &.*.*.&.&.P $.=.-.U.U.U.m.m.m.m.m.m.m.N.B.Z.B.N.B.n.m.A.V.N.V.V.V.V.A.A.A.V.V.V.D._.7X7X7X7X7X7X7X7X7X7X7X7X7X7X7X7X7X7X7X7X7X7X7X7X].Y.n.v.v.n.z.v.S F S S A v x A A A x x x A S v v v v v c c c v v v v x x > > ; x x x x x l l l l l x x > > > > > : O . X X X + # # # + + + # O O : * > > , x D N.S.E.!.L.S.D.J.E.J.W.E.E.W.W.W.L.W.E.W.W.W.W.Y.D.W.D.Y.Y.D.Z.F.F.G.F F H k k p.lXAXLXLXLXLXLXGXKXKXGXGXGXGXGXGXHXGXGXHXHXHXHXHXHXGXJXKXGXKXKXGXKXKXGXGXGXSXZXZXSXZXAXCXCXSXxXh.H n.v.b.b.v.v.M.v.v.v.v.v.v.v.D D V D D D B B B B B B M M M M M B M M m m c c v v c c v v v v v x x ; % y d.d.d.d.7.d.6.d.i.i.f * & ; ; > ; d %.$.$.$.$.$.$.&.&.$.$.$.A A A b b d t s A s E E E E E E s s s s i i i i s E ` E ` ` i a q q w a j ` a a p h _ _ h X.h h X.u.d.i.u.d.d.d.d.d.i.i.2XkXkX,X@X@Xa.6 . + . .                   . .                 . X X + X X X X o o o ",
"i @ . . .                                               . o . X X X X X X X X X X X X . X X X X o X X X X X o o o o X X # w s &.&.&.$.$.$.-.-.U.U.U.m.m.Z.m.m.m.Z.Z.Z.n.N.B.n.m.Z.N.N.N.V.V.N.N.N.A.Z.N.V.V.D.Y.D.Y._.7X7X7X7X7X7X7X7X7X7X7X7X7X7X7X7X7X7X7X7X7X7X_.Y.v.b.n.M.A > > > d : : w : w w w d d A A d A v v M B M c v v v v b x > > > l x x x l l > l l x x x > % O O O X   o X X X + + # # + + # % * : x v v c C v.N.E.Q.Q.L.S.H.J.E.E.E.E.E.E.E.E.W.W.W.W.W.W.W.Y.D.D.Y.Y.Y.W.W.Y.Y.F.F.M.M.F F G k p.lXGXLXLXLXLXKXKXGXGXGXKXGXGXHXGXGXHXHXHXHXHXHXGXHXGXGXKXKXGXKXKXGXGXGXZXZXZXZXZXCXCXCXSXzXj F M.b.b.v.v.v.v.v.v.v.v.v.v.v.D D V B B B D D D B B B M M M M M B B N m m c c v v c c v v c v v x l > = y d.d.d.d.7.a.d.6... .5 - > ; ; ; > A =.$.$.$.$.$.$.$.%.%.%.$.A A A b b d s s s s E E E E E E E E E E E E s s s s s i a a a y y y a a p p 6 / _ / X.X.h h ..u. ._ h ` O.@X,X1X1X<X$Xi.,XlXkXlX,Xi.i._ + o                         .                   X X + + X X o o o o ",
"5 . . +     .               .                           . o . X X X X X X X X X X X X X X X X X o o X X X X X X X X X o     X # r t P %.=.=.-.U.U.U.U.U.U.m.m.m.Z.m.m.m.N.B.n.m.Z.N.N.N.N.N.N.N.N.Z.Z.V.C.C.N.n.z.z.Z.^._._.`.[.[._._.[.[._.^._.7X7X_.~.`.~.~.[.7X7X[.Y.v.S b : # + + # # # # # 1 1 3 1 w w w w d > x m F F S A v v v v v x l x l x x x x x > > l x x > : O X . o X . o X o X X X X + X + O * > x N N c Z l.m.D.~.!.K.L.L.W.K.K.K.Q.Q.Q.E.Q.E.W.W.W.W.W.W.W.W.Y.W.^.Y.Y.D.D.D.Y.Y.F.F.Y.M.M.F F G k h.lXAXLXLXLXLXKXGXGXGXGXGXGXGXGXGXHXHXHXHXHXGXHXGXGXKXKXGXGXGXZXGXGXGXGXZXZXZXCXZXSXSXhXb M.M.b.M.M.v.v.v.v.v.v.v.v.v.v.V V V B D D D D D D B B B M M M M M M M m m c c v v v v v v c v v x l > O h d.d.d.7.6.6.6...u.^ # & > ; > ; > A =.$.$.$.$.$.$.$.%.%.%.%.A A A A d d s s s E E E E E E E s s s s s s ` ` ` ` ` ` ` ` ` s ` ` ..` ..] /  .u.d.d.d.u.d.d.,Xd.d.../ / ^ i.d.<XkXkX,X@X,X,X@X,X@Xi.' @ .                                               . X + X X X o X o ",
"@   . o   X . . . .         . .     . .         . .   . . o     . . . . . .   . o o . X . . X o X . . . o o X X X X X o o o o   . + 3 r s A A -.U.U.U.U.Y.U.m.m.Z.m.m.m.Z.N.n.m.Z.m.B.N.N.V.N.N.F.F.Z.V.C.C.N.B.n.b.b.n.n.B.N.Z.Z.n.m.Y.Y.b.l.n.Y.Y.F.l.z.N.N.D.^.~.`.[.Y.v O $ + + X + # # # 1 w 1 1 1 3 1 1 2 w w w d A A A A A v v v v x l > > > > > > > > > > > > : O + . . o X X X X o X X X X X X O % > x Z C c x m b.A.E.~.!.K.J.K.Q.K.K.K.Q.Q.Q.Q.Q.E.W.W.W.W.W.W.^.W.W.W.W.Y.W.^.W.Y.Y.D.Y.Y.F.F.F.Y.U.G.H H k h.lXHXLXLXLXJXHXGXGXGXGXGXFXFXGXGXGXGXHXGXGXGXGXGXKXGXGXGXZXGXGXZXZXGXZXZXZXSXSXDXp.H M.v.b.v.v.v.v.v.v.v.v.v.v.v.D V B D D D D D D B B B D D M M M M M M m m m m v c v c v v v c v x x l > O h d.d.d.,.,.6... .u.g % & > ; > ; A =.$.$.$.$.$.$.$.$.%.%.$.%.%.A A A d d d s s s E E E E E E E E s E E E i a a s s s ` ` p a p h _ X.X.X.X...u.d.d.d.i.d.,Xd.u.d.,Xd.d.g.i.] a.<XkX,X,X,X2X@X,X,Xi.] @ .                                                 X X X X X o o X ",
"X o o     X   . . .         . . . . . .         . .   .   o       . . .         X o o o o o o o . . o o o     o o   . X X X X X o + + @ w d A -.U.U.U.U.Y.U.m.m.Z.m.m.m.F.N.n.m.m.n.n.B.N.V.N.B.N.N.N.V.C.C.V.B.b.n.n.n.n.n.n.k.j.V C j.v.j.j.j.v.D D D V b.N.B.m.n.Z.^._.U.d $ O O + + # # # 1 w 1 1 1 1 w 1 1 w 2 2 w d d d d d d x v v A > > > > > > > > > & : : O O X X . . o X X   . O O O + X X + O : x b Z Z l > S B.S.Q.!.Q.J.J.L.K.K.K.E.Q.!.Q.Q.Q.W.W.W.W.W.W.W.^.W.W.W.W.W.W.J.J.W.Y.Y.D.Y.Y.D.D.D.F.F.Y.M.F G k p.zXLXLXLXLXKXZXGXHXGXGXGXGXGXFXGXGXGXGXGXGXGXKXGXGXGXGXGXZXCXGXGXZXZXZXSXSXDXp.F n.M.v.b.v.v.v.v.v.v.v.v.v.v.v.V V D B B B B B B M B M M M M M M m N m m N m m c v c v v v v z x x ; > O X.d.d.,.,.,.,... . .$ = > - ; > ; A =.$.&.$.$.$.&.&.&.%.$.%.%.%.A A A A s s s s E E E E E E E E E E s E E ` ` ` ` ` i h ` ` a a y y a a a h X.X.X.i.d.i.i.d.i.X. ...i.,X<X,Xi.i.$X1X,X,XkXkXlXlX@Xi.O.3 X                                                   X + X X X X X ",
". .                                       . . .           X . o o . . . . o . . . . X X X o o X     . X X X X X X X X X o . X X   X + # # # d =.-.-.U.U.Y.U.U.m.m.m.m.Z.C.B.m.n.m.m.m.B.N.N.B.B.n.N.N.N.A.C.N.n.n.n.b.z.b.b.n.z.k.j.C V V v.v.D k.k.v.D D v.b.N.Z.m.M.Y.^.~.U.d # O O # @ # # 1 w w q 3 2 q 3 2 2 < 2 2 3 1 1 y w : : : : d : : : : : : : O O O o o o . . . o o . X X X X X X X + O O X : , z n V ; * x D N.D.!.E.E.K.L.J.L.K.E.E.E.E.E.E.E.E.E.E.E.E.W.^.^.^.W.W.W.W.W.W.Y.W.W.W.W.W.W.Y.Y.Y.W.D.Y.Y.Y.G.H G k p.BXLXLXLXJXKXGXGXHXHXFXFXHXGXGXKXKXKXKXHXHXGXGXGXGXGXGXGXGXGXGXSXCXGXSXzXy.M.n.n.M.v.v.b.b.v.v.v.v.v.v.D D D D D B M B D B B D B B B B M M N m N N m N m c v v v v v v v v x x > > y i.d.,.,.,.6.,...u.h O - : ; > - & A =.$.$.$.$.$.$.&.&.%.%.%.$.$.%.s s s s P E E E E E E E ` ` E i s ` ` s u a i E ` ` ) ` ` ` _ X.` _ _ h h h f f / X.u.X.u.i.i.X.j j X.i.,X,X,X,X,X,X,XkXkXkXlX,X@.@.6   X .                                               X X X X X X X ",
". .                     .                     . .               o . . . o o . . . . X X X X X X X X X X X . . X X X X X . . X X X X X + # # w A A -.-.-.U.U.M.M.m.v.M.Z.A.n.v.v.M.m.m.m.N.N.B.B.b.N.N.N.N.C.N.n.n.n.n.b.b.b.b.b.b.j.V C V D D V V j.D v.v.v.v.b.Z.m.v.v.Y.Y.R.<.w : O + @ 1 1 1 1 1 2 3 2 y # y 2 1 2 1 1 1 # 1 # # # # # # O O O O O O O o . . o o o o X X o o   . X X X X X X X + O + , , l C Z % ; N v.V.H.E.K.K.K.L.L.J.K.K.E.E.E.E.E.E.E.E.E.E.E.E.W.^.W.W.W.W.W.W.W.W.W.W.W.W.W.W.W.W.W.W.L.W.Y.D.F.G.F H k k lXKXLXLXLXKXKXGXGXHXHXHXGXGXGXGXHXHXHXHXGXGXGXGXGXZXZXGXGXGXAXZXKXSXlXG G.m.M.M.v.v.b.b.v.v.v.v.j.V D D V B D B M B D B B D M B B B M M N m m m m m m v c v c v v v v v x x > > j i.d.,.6.,.,..... .f O * & - - - > A =.$.$.$.$.$.$.&.&.&.&.=.%.%.$.%.%.%.A P E %.%.E E E E E E E ` E s Y ` T i i i i s y d a a p X.....O.] X...i.d.d.X.h h u.i.i.i.X.u.u.i.,X,X,XkXkXkX,XlXkXkXlXlXi.@.9 + .                                       .         X X X + X X X ",
". .                     . . .   . .             .               . . X X o o .   .   X X X X X X o o o X X X .   X X X X . . . X o . . + # # # w d A A A -.-.F U.U.M.M.m.D.m.F F m.m.m.m.Z.N.B.n.v.m.N.N.Z.N.N.B.n.b.b.b.b.z.b.v.b.k.l.l.V D D V B D D v.v.D D S v.m.U.M.F -.-.%.s d q 3 2 w 1 < 3 3 2 3 1 y : y # 1 1 # 1 1 @ # # # # # # # + + + X X X X   . o o o o o X o o o . . . X X X X X O @ O # , - z x.z O l l.m.S.P.D.J.J.K.K.K.K.K.K.E.E.E.E.E.E.E.E.Q.E.E.E.W.W.W.W.W.W.W.W.W.W.W.W.W.W.W.W.W.W.W.W.J.W.Y.D.D.D.F.m.F G k p.AXLXLXLXKXSXGXFXFXGXGXHXGXGXGXHXHXHXKXGXGXGXGXZXZXZXZXZXZXGXKXDXp.H G.n.n.M.v.v.v.b.v.v.v.v.V V D D D B D B M M D B M B M M M M M M N m m c m m m m v v c v v v v v x > * * h d.d.,.,.,.,...u.^ 5 O - , ; - * > =.=.$.$.$.&.&.&.&.&.&.*.&.%.%.%.%.%.%.%.E E %.E E E E E E E E E ` ` ` a ` :.:.` ` Y _ ) a y 5 6 h _ X.h X. . .d.d.d.X.X.X.X.d.,X,X,X,X,X,Xd.d.kXkXkXkXkXkXlXlXlX@X@.8 +                                       o .           X X + X X X ",
". .                     . . .     .                         X X   . . o o o .       X X X X X X o o X X X X X . X X X o o . X X o . X # 1 # # # # w # : A =.-.-.U.U.m.m.Z.m.F F m.m.m.m.m.N.B.n.v.n.N.N.Z.Z.N.B.n.b.v.b.n.z.b.v.v.z.k.k.V D B V D D V j.v.D S S D v.m.-.A %.%.s ` s s ` :.i t E e 2 2 3 1 w # # # # # # 3 1 # # # # # + @ # + X X X X X X . . o o o o o o o . . X X X X o X X X o + O : & > Z x.- O c n.Z.K.P.D.J.J.K.E.E.E.E.K.E.Q.Q.E.E.E.E.Q.Q.E.W.E.W.W.W.W.W.W.W.W.W.W.W.W.W.W.W.W.W.W.W.W.W.Y.D.D.D.D.D.Z.F.G.H k h.zXLXLXJXGXGXFXGXGXKXHXGXGXGXHXHXHXGXGXGXGXGXGXZXZXZXZXFXZXSXxXy.v.M.M.n.b.v.v.b.b.b.v.v.v.V V D D D B D B B B B M M B M M M M M M N M m c c c m v c v c c c c v x l > * O h d.s.7.7.,.6.O.i.^ @ % - , ; - & d =.$.$.$.$.=.&.&.&.&.&.&.%.%.%.%.%.E E E %.E E E E E E E ` ` E i i ` ` ` T ` ` s ` ` ] ) ` ` h a 6 a j j y h h X.i.d.d.,Xi.X._ u.d.d.,X,X,Xi.i.,XkXkXkXkXbXlXlXlX@Xi./ @                                                     X X + X X X ",
". . .     . . X . .                                           .       . o o .   .   X X X X X . X X X X X X X X X o o o o o o X o o X # 1 # @ + # # X + : d F -.U.U.m.m.Z.m.F F m.m.m.m.m.N.N.n.v.b.B.N.B.m.N.C.N.n.v.v.n.n.b.v.v.b.z.z.j.B B V V V V V D D D D D D F F =.%.` s :.E E :.:.t %.2.<.E i u i e 3 q # # 1 # # 1 # + # # @ + + $ + X X X X     X .   . . . o o . . . o X o o o X X X + X O : O x c.Z = & B n.N.K.K.D.J.J.K.K.E.E.E.K.Q.Q.Q.Q.E.K.E.E.E.W.W.W.W.W.W.W.W.W.W.W.W.W.W.E.W.W.W.W.E.W.W.W.W.Y.D.Y.Y.D.D.D.D.D.M.H k h.VXLXLXLXFXGXGXGXHXKXHXHXHXHXHXGXGXGXGXGXGXGXZXZXZXZXZXSXSXlXH Z.M.b.n.b.b.b.b.b.v.v.v.v.v.V D D D B D B M M B M M B M M M M M M N N m m m m m v c v c c c v v x l > = $ X.d.f.s.d.7.6.O.u.g X = * - & - & A =.$.$.$.$.&.$.&.&.&.%.%.%.%.%.%.E E %.%.%.E E E E ` E E E E ` ` E i s ` | ` s a y i j s U / ) X._ _ h p y a a 8 h / u.d.d.d.X._ u.X.X. .d.d.d.,XkXlXlXlXbXlXlXlX@X ./ 3 .                                           . o   X X X + X X X ",
"  . .       X o . . .                           . .                   . o o .       X X X X     . X . . X X X X X X o o o o X X   o X + # # + + $ + + + o % A -.U.U.U.U.Y.m.D F M.m.m.m.m.N.V.B.m.v.n.Z.B.m.Z.C.V.n.v.v.n.n.b.v.v.b.z.z.k.V B D V V V B D D v.m.F F F =.$.I i s E E s E i w E Q r s ` | ,.,.e 3 1 # 3 1 @ # # + # @ # + X + o X X X X X X X X . . . . . . . . o X X X X o X X + + o O : O b c.v = z b.n.V.K.J.L.K.K.K.K.E.E.E.E.Q.Q.Q.E.E.K.E.E.E.W.E.W.W.W.W.W.W.W.W.W.W.E.E.Q.E.W.W.E.W.W.E.W.E.J.J.W.W.J.D.W.D.K.F.U.F G h.VXLXLXLXGXZXGXGXGXHXHXHXHXHXGXGXGXFXFXZXZXCXZXZXGXZXKXSXg.G.Z.n.b.n.n.b.n.b.b.v.v.v.v.D V V B B B D B B M M B M B M M M M M M N N N m m c m m v v c c v v v x x > O 5 ..d.s.s.d.7... .X.5 O & * * & ; & A =.$.$.%.$.$.$.$.&.&.%.%.%.%.&.&.%.E %.%.Q E Q E E E E ` E s s E ` ` s e ` ` ` ` s i ` ..h p _ _ ..,.X._ ` ` h _ X.h f h u.d.d.i.d.d.u.u.i.d.,XkXkXlXlXlXlXlXlXlX@X@.) 2 + + .                                       o o   X X X X X X X ",
"  o . .     o o . . X X                         . .                       o X X   . X X X       . .   .         . . X X X X     . . o + # # + + + + X X o O d =.-.U.-.-.U.U.F F M.m.m.M.m.A.A.Z.M.v.m.m.B.n.m.Z.V.N.b.v.b.n.b.b.j.v.b.b.z.j.D S B D D v.v.v.v.m.U.-.%.t t i s s u i i Y e a E I 1 s Y e E :.i i I 4 3 3 # # # @ @ @ # + X X X X X X X . . . .   . . . . . o o o . . . . . o X X X O O # O , Z > ; M B.B.A.K.D.L.K.K.K.E.E.E.E.E.Q.Q.E.E.E.E.E.E.E.W.W.W.W.W.W.W.W.W.W.W.W.E.Q.Q.Q.Q.Q.!.!.W.W.W.E.K.K.K.K.J.J.J.Y.F.F.F.U.F G h.bXJXLXKXGXGXGXGXGXHXHXHXHXGXGXGXFXGXZXCXCXZXZXZXSXKXDXy.G.B.n.n.n.n.n.n.b.b.v.j.D D V V B B B B B B M M M B B B M M M M m m N N N N m m c c c v v v v v v x > , $ h d.d.d.7.6.,... .f + * & * * ; ; & A =.$.$.%.$.$.$.$.&.&.%.%.%.&.&.&.&.E %.:.E E E E E E E E :.` i e i ` ` i e e a ` .... . .j y y y a ` _ _ X.X.X.....X.h h u.d.i.,X2XkXkX2Xd.i.i.,XkXlXlXlXlXlXlXlX,Xi.' 4 1 # X X .                                   . o     . X X X X X ",
"o   . .   X o o X X X X .                                               . . X X   . . X X       . .               . . . . . .   . . . o # # + + X + X o O O : t A -.F F U.U.U.-.U.m.m.M.m.Z.A.Z.m.v.v.m.m.n.m.Z.A.N.n.v.v.b.n.b.j.v.b.n.n.b.D S D D v.m.m.v.v.M.U.=.I r r a p e u a a ` a y s 4 q i i u ` i 2 i 6.{ e 3 1 # + # @ @ # + + # + X o .   . .     o . . . . . o X X X . .   . . o o o O O $ O O > % v j.V.N.F.L.S.P.K.K.E.E.E.E.E.Q.Q.Q.Q.Q.Q.Q.Q.E.E.E.E.J.W.W.W.J.D.W.W.W.W.W.Q.Q.Q.!.!.!.!.E.W.W.W.W.E.K.J.J.D.D.D.F.F.Z.F.G.F b h.BXKXLXKXGXGXGXGXGXGXHXHXHXGXGXFXGXGXZXCXZXZXZXSXKXzXG F.n.B.n.m.n.n.n.b.b.v.v.D D D V B B B B B B B M M B B B M M M M m n n N N N m m c c v v v v v v v x > * k u.$Xd.d.d.,.,... .g O - & * * ; ; & A =.$.$.=.$.$.$.$.&.&.%.%.%.%.%.&.%.E E E Q Q E E E E E I E :.:.` i e s :.<.s a a s h _ _ ] _ ` j y y 5 a a p h h X.u.X._ X./ ..d.d.i.,XkXkXi.i.lXbXkXlXlXlXlXlXlX,Xi.T e e 1 # X X                                     . o     X X + + X ",
"            X . .                                                           . .                         .   X X . . . . . . . . X X . X X + + X X X X X X X # # # t A d A U.U.-.-.M.v.M.U.U.Y.A.m.m.M.M.Z.m.n.Z.D.A.Z.v.D v.m.n.b.v.b.B.Z.Z.m.m.F F M.U.Y.U.-.F -.=.P a 1 h e s s i 6 a y 2 Y 1 u ` e i i 2 u T P r I { u @ + $ + X # @ @ + X o X .   . . .     . .     . o o X . . X .   . o o X o = # . O l x B v.B.V.S.L.L.L.K.K.K.Q.Q.Q.E.E.E.E.E.E.E.E.E.E.W.W.W.W.W.Y.D.D.J.W.E.E.Q.Q.Q.Q.Q.Q.!.Q.Q.E.E.E.W.K.J.J.L.L.L.D.F.F.G.M.F.G.G.G.b h.BXKXKXKXGXGXGXGXGXGXGXGXGXGXHXGXGXZXZXZXZXZXSXSXhXM.m.B.Z.F.N.B.n.v.v.v.v.V B V V V V V B B B B B B B B B B B M M M M N N m N m n m m c c c v v v c x x x % g d.s.7.6.,.,.|  .X.$ O , & & ; - & : =.=.$.=.$.=.$.$.=.&.$.%.&.&.&.&.%.%.%.Q E E E E E E E E E s i E ` ` Y s s ..` i a ` s a a p ` ` _ ..X.] .._ _ h h h  . .u.u.f h h h f i.d.lX,X,XlXkXlXlXlXlXlXlXlX,Xi.) i 4 3 3 1 # +                                     X X X X X X + + ",
"              X                                                 . .         . .                           . X X . . . . . . X X X X X X X X X + X X X X X X # # . # w # d F F =.F U.U.U.U.m.Y.Y.Z.m.v.M.U.Y.m.m.A.D.D.m.M.v.n.Z.m.v.b.Z.Y.Y.Y.Y.U.U.U.U.U.U.-.=.=.P r a 5 p 6 i i u a a q a u 3 p p e a e 2 Y U i e I | ` q @ X + + $ + . . + . X X X .   o o   .         . . . . . X . .   . . X O * = X - v c B v.n.V.S.H.L.L.K.K.K.Q.Q.Q.E.W.E.E.E.E.E.E.E.E.E.W.W.W.W.Y.D.D.J.W.E.E.Q.Q.Q.Q.Q.Q.!.Q.Q.E.E.K.W.J.L.K.K.L.L.L.Y.Y.F.F.F.F.F.M.H G h.AXLXKXSXFXHXGXHXGXGXGXGXGXHXGXGXZXZXGXZXZXSXDXg.M.F.F.Z.B.B.n.n.v.v.v.v.V V V V V V V B B B B M M B B B B B M M M M m m n m n n m m c c c v v c c x x l % f d.s.,.,.,.,.|  .h $ O , ; ; ; - * > =.=.$.=.$.&.$.&.&.$.&.&.%.E &.&.%.%.Q Q ` E E E E s E E E ` ` E s E ` i 4 e s ` s a i / / ` ` / _ _ _ X.X.u.i...X.h j _ ^ u.u.i.i.u.i.d.,XlXlXlXlXlXlXlXlXlXlXlXlX@X..Y r 2 3 3 1 # # X                           . . . . X X X X + + # # ",
"            . .                                                 X X X         .     . . . .             . . . . X   . .   X X o . X X X X X X X X X X X X X # X + + # + # : : y F U.U.U.U.M.U.Y.Y.m.v.M.U.Y.m.m.Y.W.E.D.Y.M.M.Y.Z.m.m.m.Y.W.^.Y.Y.U.-.-.-.=.P I s i u a 6 p 6 a a e i q 6 p 2 # p u e e q i ` 6 5 ` E q r ` ) 0 @ . $ # X X + X . X X X   o o                   . . X X     .     O * * % l N B B v.n.N.S.D.J.J.K.K.K.E.E.K.K.K.E.E.W.E.E.E.K.K.W.W.W.W.W.D.D.D.J.W.Q.Q.!.!.!.Q.Q.Q.Q.E.E.E.E.E.E.J.L.K.W.K.K.K.W.^.^.F.F.D.F.Z.M.F k p.SXKXKXHXHXGXGXGXGXGXGXGXGXGXGXZXZXZXZXZXSXVXy.G.F.F.B.N.B.n.n.b.v.j.D V V D V V C V B B B B M B B B B M B M M M M M N n n n n N N m c c m N c c b x l : u.d.d.,.,.,.,.|  .h $ = - ; ; - & & : $.=.$.=.=.$.$.=.&.$.&.&.%.E &.&.&.%.%.E E E E E E E E E i ` E E E s s ` Y i i s ` ` ` _ / ` h _ ` h / p p h  ...u.X.h h h / X.i.i.i.,X,X,X,X,X,XlXlXlXlXlXlXlXlXlX,X@.R r 2 2 3 3 3 1 # +                         . o o o X X X X + # # # ",
". . . . X                                                                     .     . . . .                   .         . . X o   X X X . . X X + X X o X X # X + + # + X X + # A -.-.-.-.F -.U.Y.U.M.M.U.U.Y.Y.Y.^.`.~.Y.U.U.Y.Y.Y.Y.Z.Y.^._._.R.-.=.=.=.P u p a i u y 5 p a 5 6 a a 1 7 U < w u u 3 e i u u 2 6 a a q s ` ` J 2 + + + # X X +   X X X               . . . . . . . X X X . . o   X * * & x Z C V v.n.A.D.D.J.J.K.K.E.K.E.K.K.K.K.K.E.W.E.K.K.K.E.W.W.W.D.D.D.W.W.E.Q.!.!.!.!.!.!.!.Q.K.K.K.E.Q.E.K.L.L.W.K.K.K.W.W.Y.F.F.F.F.F.Z.Y.H k hXSXKXLXHXGXGXGXGXGXGXGXGXGXGXFXZXZXZXZXSXlXG G.F.C.B.B.B.n.b.v.v.j.V V V V V V C C B B B B B B B B B M B M M M M M N N n n n N N c c c m N v c b > x j d.d.d.,.,.,.,... .5 O * ; ; - * & & : $.=.$.=.=.$.$.&.&.&.&.&.%.E &.&.&.%.%.E E E P E E ` s E E s ` E Y T u e ` | i e e a a ` j ) 6 q a j ,._ _ f h 5 X.u.i.i. ._ X.u...u.u.i.i.d.i.i.lXlXlXlXlXlXlXlXlX,Xi.) r u 2 3 3 # 3 1 # @ .                     . o o o X X X + # + + + ",
". . X X X         .         .                                                                                             . . X . X X X X . X X X X o X X X # X X + # + X X + # d t t A =.A A F Y.U.U.U.U.Y.Y.Y.U.Y._.`.~.U.U.Y.Y.Y.Y.Y.Y.Y.R.R.R.=.t s s Y u a 9 p a y q p a 6 9 a w 2 U 9 3 a a 3 3 u _ 3 < 2 6 u a i s e 4 U | e @ . $ X . + . . X o o     .       . o o . .   .   . X . . o   X : ; > x n B j.b.B.A.D.S.J.K.J.K.E.E.E.E.E.E.E.E.E.E.W.E.E.E.E.W.W.D.D.W.W.W.E.E.E.Q.!.!.!.!.!.!.Q.E.K.J.K.K.Q.K.J.K.W.E.Q.Q.L.K.W.D.Z.Z.F.F.A.F.M.H k lXKXLXLXHXGXGXGXGXGXGXGXZXGXGXZXZXZXSXSXhXH m.B.N.B.B.B.n.b.v.v.v.V V V V V V C C B B B B B B B B B M M M N N m N N N N N N N N c c c c N v v b ; > j d.d.d.,.,.,.,.X.h $ O - ; - * * * * : A =.=.$.$.=.$.=.&.&.&.%.&.&.&.&.E E %.E E :.E E s E i E :.E E E ` T Y s e i s ` a 2 y h h / / a y y h p X.u.X.h h X.u.i.i.X./ 6 5 j X.u.i.i.i.i.,XlXlXlXlXlXlXlX,X@Xi.) u e 2 3 3 # @ # 3 # + .                   o o o o   o X + + X X   ",
"                  .                                                                                                       . . X X X   X X X X X X X o X X X # X + + $ X o o o O # # # : d t d d -.U.-.-.U.R.R.U.U.Y._._._._.Y.Y.Y.R.Y.Y.Y.U.-.-.$.t p a y a p y 8 a 5 a a y a 8 6 q # 6 / 3 3 h q 3 5 p 6 2 e e 7 u e 2 1 q i ` ,.T 2 . + $ X + X .   X X .   o       . . o . .         . . .     . O > > x n B k.b.N.A.A.S.J.K.J.J.W.E.E.E.E.E.E.E.E.E.E.E.E.E.W.W.J.D.J.W.W.W.E.E.K.Q.Q.!.!.!.Q.Q.!.Q.Q.E.E.K.K.K.K.Q.Q.Q.Q.^.K.J.D.Z.Z.n.B.B.V.V.M.F b h.DXLXLXHXGXGXGXGXFXFXGXGXGXGXGXZXZXSXSXg.D m.B.N.N.B.B.n.b.k.v.j.V V C V C C C C B B M B B B B M M B M M N n m N N N N N N m m c c c c v x x b ; > j d.d.d.d.,.`  .X.5 X O - - - * & * * : A =.=.$.$.$.=.&.=.&.%.%.&.&.&.E E E %.E E %.E E E E E E ` | i s s s E ` u w i ` ` a p / / q ` ` / h 9 2 p X.u.u. .~ / X.u.u.X.f 9 X.X.u.i.i.i.i.p.lXlXlXlXlXlXlX,Xi. .) u e 2 1 1 # @ @ # # @ + o       X       . o o o o X o o X X       ",
"              .   . .                                   .     .                                                       X X . . . X X X X X X X X X o o X o X $ X X . o O o o o O # + + + # : : # d A A A -.-.-.-.U.U.U.U.R.R.U.U.R.R.U.U.U.-.*.P t u / / a a u i p q 1 a h y a 8 6 1 2 8 9 3 q a 3 e p p 6 u a a a 1 < 4 i i a a u u i < @ + X X X X X o o o . o       . . o . . . .     . . . . o . O ; x c M V k.B.Z.A.A.D.D.J.J.J.W.E.E.E.E.E.E.E.E.E.E.E.E.E.W.W.J.D.W.W.E.E.E.E.K.Q.!.!.!.!.Q.Q.!.!.Q.Q.Q.Q.E.Q.Q.!.!.E.W.Y.Z.m.v.F S D v.n.n.V.M.F F k jXKXKXGXGXZXGXGXFXFXGXGXZXZXGXZXZXKXDXy.v.m.B.B.N.B.n.b.b.v.k.j.V V V C C V V C B B B B M M B B B B B M M M m N N N N m N m m c c c c v x x > - > h d.d.d.6.:.` X.X.$ o % * & * * & = * % A =.=.$.$.$.=.=.&.&.&.%.&.&.&.%.E E %.E E E E E %.E E E E T :.s r E i e ` s i q a i _ _ X.w q 6 8 ......h y h  .u. .u.X.j X. . . .i.u.u.i.,X,X,Xp.lXlXlXlXlXlXlX,Xi.[ R U e 2 1 1 # # # # @ # @ + X     o       . o o . .                 ",
"            . .   .                         . .       . .   . X . .                                                 X X o X . . X X X X X X X X X           + . X X . O X . . + # O # + + O O $ X # + # t A t t -.-.=.t -.U.-.t.-.-.=.*.*.$.&.I s 0 8 / p 4 4 e U e 2 6 h a p 9 y 1 p J < 1 a < 2 p u 6 p u 2 5 w # 2 ) Y 6 2 q u r | Y @ . # + X X X     . o o . . . . . o . . X . . . X o X o O . % x z n V k.b.B.Z.A.A.D.Y.D.J.J.W.E.E.K.K.J.E.E.E.E.E.E.E.E.W.W.J.D.W.W.E.W.Q.E.Q.Q.!.!.!.!.Q.Q.Q.Q.Q.E.E.E.Q.!./.(.~.E.A.Z.D S b b b b S D v.n.M.M.M.G h.VXLXKXGXZXZXGXGXFXGXGXZXZXGXZXZXKXDXy.b.m.n.B.B.B.n.b.b.v.j.j.V V V V C C C C B B B M M M B B B M B M M M m N m n N m m m m c c c c v x x - * > X.d.d.,...:.| _ g o   * * % : & % = * % A =.$.$.$.$.*.=.$.&.&.&.%.%.&.&.%.%.:.:.E E E E E E E E E r E :.` u ` ` w i Y a y a j ` ` ` a 2 2 X...d.X.6 5 h h X.i._ f 8 / X. .u.X.X.u.i.i.,X,XlXlXlXlX,X,XlX,Xi.[ R 4 e 2 1 # # # # # + + @ @ + +             . .                     ",
"      . .                       o         o X                 . .     . . . o o     .           . .     o o . o . . . . X X X o o o o o X .                 .   o o . X X X   X + X + + X + + # # + X + # y # + d <.G w w %.%.:.:.` I u E T Y u h 9 9 p / p 6 p p p p a 6 u u 6 a 5 a 2 2 6 3 2 q a 8 2 3 5 a 6 < 5 p h a 5 e Y / 7 U U 3 @ X O X X X + X     o   . o .   . X X o .     o o o o o   O x N C V j.B.N.A.D.D.D.J.J.W.W.W.K.K.K.E.E.Q.E.E.E.E.E.E.K.E.J.J.E.E.Q.Q.Q.Q.Q.Q.!.!.!.Q.Q.!.Q.E.K.Q.E.K.K././.(./.E.Y.Z.D x b , , , b b S F v.n.m.m.F k jXKXLXKXKXZXFXZXGXZXPXFXZXZXFXZXSXzXy.M.F.B.n.c.n.z.n.z.l.k.j.V D V B B B B B B B B B B M M M M M m m m m m m m m N m c c m N m c c v x > > ; y u.d.,.,.,...X.j 5 o O = * * * * * % % O d =.$.%.$.$.$.=.=.&.&.&.&.&.&.Q E E E Q &.E E E E E E E ` T u i ` ` E i i e ` ` s s y y _  .X.s 5 5 ` ..i. ._ _ h _ u.i.X.p 5 h j h g X.X. .i.@XlXlXlXlXkXlXlX,Xi.+.} T i e 2 1 # # # + + + + + + # # + X                                 ",
".             .       .                 o o X X   o       o o   .           o   o o o             X X X . .   X . . X X X X X X . . . .                         . . . o + o . X + X + + + + + # # + X + # # # + # q 2 q r ` T Q E E E e i Y Y u p p 9 8 U p 7 p U p p U p u u u 6 p 2 @ a _ a a u a q 2 5 6 5 3 6 p p 5 2 6 a u q 2 2 T | 5 . + X X o . X o   o .     X X     o . . X X . . o o X . % v Z V j.b.N.A.A.D.D.D.J.J.J.J.J.K.K.K.E.K.E.E.E.E.E.E.E.K.E.W.J.E.Q.Q.Q.!.Q.Q.Q.Q.!.Q.Q.Q.Q.!.Q.E.E.K.K.K././.(.Q.D.m.D S x b b x x x b S F j.k.n.Z.M.b h.zXKXKXGXZXGXZXGXZXPXFXZXZXZXZXSXzXH M.B.B.n.c.n.n.n.b.k.k.j.V D C B B B B B B M B M M M M M M M m m m m m m m m N m c c m m c c v v x > > , X.u.d.,.:.<.X._ h $ O O % * * * * * % % O d =.$.$.$.$.$.=.$.&.&.&.&.&.&.&.Q &.Q Q Q E E %.I E Q s s :.:.E U Y Y i s E s ` ` p a # a _ _ _ ) a y h  .@.i.u.u.X...i.i... .X./ X.^ X.X.i.i.@XlXlXlXlXkXlXlX,Xi. .' T i 2 2 # # + + + + + + + + # # + X                                 ",
"X .   . X     .                   .     X o   .     o o X @ $ + @ @ @ @ @ + . .     . o X X X X X X . . X + . . X X X X X X X o                                       . o o   o + X + + + # + + # # + + # # + + + # < u I :.R R ` Y Y i Y u p p p p p 8 U U J J / U U ) U u U ) ) / 0 4 p a 2 2 p 5 2 a 6 5 2 5 p 6 5 5 6 6 2 3 3 e u ` ,.` # @ X o o . X + X   X     . o     .   . o X . . o o + X % x C V k.n.V.A.D.D.D.D.J.J.J.J.J.K.W.W.J.J.E.W.E.E.E.W.E.E.E.E.E.E.Q.Q.!.!.!.!.Q.Q.Q.Q.Q.Q.Q.!.!.Q.K.K.K.Q.(./.!.W.Z.D v b b N j.v.B m v c D V k.B.N.n.F k p.DXKXFXZXSXZXZXZXZXGXZXZXGXZXSXlXH M.B.B.n.c.b.n.n.b.k.j.j.V B B B B B B B B M M M M m m M M M m M M m m m m m m m c c c c c v c v x x * j g.d.d.,.:.` _ h $ . O % * * * , * % % = O : =.=.$.$.$.$.$.$.*.%.&.&.&.&.&.Q E Q Q &.` s :.P Q :.s i s :.` T { ` Y s ` s s ` { X.q y d e / ] X.j y 5 _ X._ ..h j X.i.d.d.i.i.d.i.d.d.i.u.@XlXlXlXlXlXlX,X,Xi. .' Y a 2 3 # # + + + X + + + + # # + + X                               ",
"o o X o X                     .         .     . @ @ 3 2 2 i i e u R T T T U 7 7 5 1 # + + . + + X + + + X . . . X X X X X X o o . .                                             X X + X + # + X # $ + + # # + + # 1 2 i E :.) U ` u Y _ _ p p p 7 p p U U W U ( ( U ) ) U U ) ) _ 6 7 ` p 2 4 6 e 6 9 6 5 5 6 p 6 5 5 6 6 2 3 2 7 ) ) i e i q . X X X o o + o   . o X   . o X     . . . . . .   o o % z V j.b.B.A.S.D.D.S.J.J.J.J.K.K.W.E.E.E.W.W.W.E.W.K.K.E.Q.Q.E.E.E.Q.Q.!.!.!.!.!.!.Q.Q.Q.!.Q.Q.Q.E.W.K.E.Q.(./.Q.D.M.S v m V z.H.I.A.v.M F D V l.B.N.B.G.H k lXSXKXZXZXZXZXZXZXGXZXGXGXSXSXhXH M.B.B.n.c.b.n.b.k.j.j.j.V B B B B B B B B M B M M M M M M M M M M m m m m m N c v c c c v v c x x ; O h.g.d.6.<.<.` _ f + o O % * * * * % % % O = O %.*.$.$.=.$.$.$.%.%.&.&.&.&.&.&.E Q E E Q s ,.E E :.E E i E s i s ` Y ) T | i q s ` ,.p : : a / ` ` _ h y y 6 ..i...X.X.X._ ..,X,Xd.i.,Xi.i.,XlXlXlXlXlXlX@Xi.i.} ) u q 2 3 # @ + + + + + + + # # + + # # X                             ",
"X X X X X .     . .         .         . . + 3 2 e r I I I I I L L W Q Q W I L W o.{ Y 7 6 6 3 @ X X X X + + X X X X X X . . .   . . .                   .                       + o X X + # + + # # + X # # # # X 1 r i E E ) ) ) p i u p p / U u p U U ( ( ( [ ' ) ) T U Y ) Y u u ` ) 7 U U 7 e p 8 3 2 a p 6 5 a a 3 < 2 u _ / 6 2 2 3 a h 3 X . X o   o X . . . o X X o o . . .     X o .   . X & c j.b.n.A.S.D.J.J.J.J.J.J.K.K.E.E.E.E.W.E.E.E.W.J.K.E.Q.Q.Q.Q.Q.Q.Q.Q.!.Q.!.!.!.!.Q.Q.Q.Q.!.Q.Q.E.J.J.E.!.(./.J.m.v.B D z.V.I.I.I.I.C.k.C D B v.n.C.V.F.M.b h.zXSXKXZXZXZXZXZXGXZXSXZXSXSXg.F G.B.B.B.B.n.n.k.j.v.v.v.j.V B B M M B B M M B B B M M M M M M M N m m n n c v v v c c c v v v l x & y p.d.7.,.` :.` / 5 X O % * * * % % % % O O O O A *.$.$.$.$.$.%.$.%.%.&.&.&.>.>.%.:.E P E I :.` E ` E ` ` E i i w w a ` ` ..Y 2 w w ` X.s w # 1 a / X.X..._ f X.i.i.u.h a 1 X.i.,X,X,X,X,XlXlXlXlXlXlXlXlX@Xi.@.' Y e 5 2 3 # @ # + + + + + + + + # + + $ @ X o                         ",
"X X X X X X . . X . X o o X .   . . @ 1 1 e Y R T I u I I u 4 4 I T Q Q Y e Y | o.W R R } O.] 8 1 3 @ + + + X + X + + X X       . .                     . .                     o o + X X # + + + # + + # # # # + 1 I I ` U T ' ) u u a u p U U U R U ( ' W U ' ] U U T Y U U U u ` ` 7 7 ) J U p 6 2 5 8 8 6 5 5 5 2 2 5 a a a 2 1 < 3 e ) ) ) # . X o   . o + .     X X     X o .     . o .     O ; N l.b.n.A.S.H.J.L.L.J.K.J.J.K.E.Q.Q.Q.E.E.E.E.E.E.E.Q.Q.Q.Q.Q.Q.Q.Q.!.!.Q.!.!.!.!.!.!.Q.Q.Q.Q.Q.E.H.S.Q././.!.D.n.v.z.B.c.P.{.{.^.P.P.N.v.v.D D n.V.N.Z.F.F k p.DXKXZXZXFXZXZXZXZXGXGXKXDXy.D G.B.N.B.B.B.b.k.j.j.j.j.v.V B B M M M M M M B B M M M M M N M M N N n c c c c c v c c c v v v l l * j g.u.,.,.` ` ` h $ X % % * * * % % % % O O O O d *.=.$.$.=.$.=.$.%.%.&.&.&.*.>.E :.E E &.Q i :.E E E ` E i E ` s w y s ` i { ) i w y ` ../ q : q / _ p / ] _ h ..,X,Xd.../ ..^ i.,X,X,X,XlXlXkXlXlXlXlX,X@Xi.} T Y a 5 3 3 # + + X X X + + + + + + + + + + + + X                       ",
"+ + X X X X X X X X X X X X X + @ 6 u e i i r L Y e 3 e E i 4 u ` E T E e 1 p | O.R 4 I o.+.o.' { ] ) 6 @ . . @ + + + + X X X X X                       . .                         o X X # + + + $ # + + # # $ @ e I T ` / U U _ U p u Y 6 u ) U U ) W ) W R R ) U 7 R Y U U u u U U 7 U ) J ) U 5 2 a / 8 6 a 6 3 3 a h p 5 3 3 e q 2 u Y U ' y + . + o o o + + .   o o     o o .     . o o o   O x V z.n.N.S.H.H.L.J.K.K.J.J.K.K.E.Q.Q.Q.Q.Q.Q.Q.Q.Q.Q.Q.Q.Q.Q.Q.Q.!.Q.!.!.!.!.!.!.Q.!.!.!.Q.Q.Q.Q.E.D.J.!.!.!.Y.Z.n.n.c.C.C.F.C v H F.P.V.k.v.D D n.N.N.F.F.M.b g lXKXKXGXGXZXZXZXZXGXGXKXVXy.v.M.B.N.B.B.B.z.j.j.j.V V j.V B B B M M M B M B M M M M M M N m M m m m c n n N c c c n c v x x l ; , u.d...,.,.` ` _ 5 O O % O = = % % O % % O O O O : =.=.=.$.$.$.=.$.=.%.&.*.&.*.&.t :.:.:.:.:.i :.` I E E s s E ` ` s s s ` u ) ..` s 2 a ] O.,.j y h _ p p ` ,.j a ..i.i.d.i.u./ u.,XlX,X,XlXkXkXlX,X,X,Xi.i.+.} T i a 2 3 # @ + + X X X X X + + + + + + + @ + + + X                     ",
"+ X X X X X X + + X X . X X # 1 2 E I 2 i r 3 L E e < 3 E e < e T L L R 2 3 Y O.) 6 3 Y O.o.W R O.o.' T ) p @ . X + + + X X X + o X                     . .                             o + X X + # # # + # $ # # s i r Y _ _ u U Y Y u u u R ) U ' ' W R T R K U U U u U ) T u U U 7 R U U U U a p / p a a 6 9 5 a u a a a 5 2 9 p a a a i Y ` h + . $ o o   o $ $ X   . o .   . . X . . . o o   & v v.z.B.S.L.H.H.L.K.K.K.K.J.E.K.K.Q.Q.Q.Q.Q.Q.Q.Q.Q.Q.Q.Q.Q.Q.Q.Q.Q.Q.Q.!.!.!.Q.Q.Q.Q.!.Q.K.Q.Q.Q.J.J.^.~.!.W.Z.n.B.B.c.C.c.Z - o $ Z C.L.n.b.D B n.N.F.F.N.G.F k h.AXKXHXGXGXZXZXGXGXSXSXzXH M.M.n.N.n.B.B.b.j.j.v.V V j.V B B B M M M M M M M M m M M M m m m m m m n n N N c c c n c z x x l - k u.d.,...<.` ) h # O * % O % % % O O O O O O O % O $.-.=.$.$.$.$.=.=.&.%.&.%.&.&.P :.%.&.:.:.E ` :.i E E ` ` i r E ` Y Y ) ) i ` i _ h a _  .] a q 6 ] ..i.....] 9 ....d.i.i..._ u.,X,XlXlXlXkXkXlX,X,X@Xi. .( R i y 5 5 3 # @ + + X X X X X X X + + + + + + + + + # + o                 ",
"3 + X X + X o O # X X . # y r r L I r r I e 3 i I 6 # e u 3 # u u a u 7 # 3 T ] h < 4 | } O.' i | O.@.+.8.6.} 0 @ . @ X + @ @ . X   o o       .   o       o       . @ 5 a a a 9 e p 5 @ + .   . O + # + + @ @ # r E I I u / ) U u u u 7 U T U ' ' ' T Y U U U ( T 7 U p U { U 7 R U R U U U ( J Y U U 6 6 u 6 a h a 5 5 5 6 6 6 2 3 3 4 u u i i i # X . # $     . X + o     . . .   X X . X X X X ; V n.n.N.S.J.J.L.J.J.K.K.K.K.K.K.Q.Q.Q.Q.Q.E.Q.Q.Q.Q.Q.Q.Q.Q.Q.Q.Q.Q.Q.Q.Q.Q.Q.Q.E.E.E.Q.Q.Q.E.Q.E.D.D.E.!.Q.J.m.z.C.c.C.P.N O O % O O N P.N.D C l.n.N.V.A.Z.Z.M.b k zXSXGXGXGXFXGXZXGXSXSXg.D M.n.z.c.c.z.B.b.k.j.j.v.j.V V V C M n M B M N M M M M N N N N m N N n n N m c m c c c c c x x > > = 5 u.u.,.,.X._ _ 5 o = * = % % % % % % % O = % O O O d t.=.=.$.=.$.$.=.=.&.%.%.&.3.P :.E Q I ,.%.e :.s i ` T { | E w Y R s a ` ) ` ` h / / a Y _ ` d : s h / ..i.i.....d.d.a.i.i.i.,X,X@X,XlXkXkXkXlXlX,X@Xi. .' R u q 1 # # @ + + + X X o X X X X X X X X X + + + X + + + .               ",
"&X#X9.| K 4 3 + . + # # q ` I e P P r e I i 3 a u 6 3 e Y 5 1 7 u 2 7 7 # 3 R U 3 3 U | ' @.) 4 { 8.8.O.' } 6.@._ < @ + $ . X X . . .     X     o .   + + @ 2 ` W #..X$X.X.X.X.X=X#X8.o.6.2.T 4 @ @ .   # O   # E E I R Y ( T R R U 7 4 U ) U R R R U R U U R ( u 7 U u U ) 8 8 / U U U U ( ' ' U 7 U U U / a a 6 5 2 3 2 5 6 6 4 4 6 a 4 2 e i E 1 . . + + X + o X X X o . .   .   o . . X o X O x k.n.B.V.D.J.J.L.K.J.K.K.K.K.Q.Q.Q.Q.Q.Q.Q.E.E.Q.Q.Q.Q.!.!.!.!.Q.Q.Q.Q.Q.Q.Q.Q.!.E.E.K.K.E.K.E.Q.K.D.D.E.Q.E.A.Z.B.C.C.P.c.l $ O = o O l B.N.v.D V n.N.N.Z.N.m.M.H k lXSXKXGXZXFXCXZXGXKXVXy.v.M.n.n.B.B.c.B.n.k.l.j.j.j.V V C C M m M M M N M M M M N N m N N N N N N N m c n c v c c v v x > - * h u.,.,.` _ _ f + o = = * % % % % % % % % = % O % = > =.=.=.$.$.$.$.=.=.=.%.%.&.3.%.:.&.&.I :.:.i :.:.s E T ` E ` d i { E q q u ` ` p h ` a 7 U / / a _ _ 2 p ` 6.a.i.i.i.d...d.<XkX<X,X,X,X,X,X,X,X,X,X@Xi.O.] R u y 5 1 # # + + X X o o X X X X X X X X X X + X X X + + X o .           ",
"aXaX:X&X&X:X:X#X| 4 3 4 I I e e P P 3 3 p ) < 3 u u 1 q 4 @ # u u @ 4 4 # 5 J 4 + 9 ) u 4 ' ' i ] d.6.T 7 U 6.} | 6.J . + X . $ X . . . X .   o   . < ) { { 6.%X2.4. X.X#.! 4. X.X4.#.o..X&X&X&X$X6.| a @ . + # 4 E E I U Y Y 4 4 u Y U u U U U U U R U U U U U 7 U U 7 U / 7 U / / U p U ) ' } ( U / ) ) p 6 6 5 6 6 a a a p p 6 6 a u u a 2 3 i e @ X + X X . X . . X + X     .   X   o O o O ; C z.B.N.D.H.J.S.J.K.K.K.K.Q.Q.Q.Q.Q.Q.Q.Q.Q.Q.Q.Q.Q.Q.!.!.!.!.Q.Q.Q.Q.Q.Q.Q.Q.Q.Q.E.E.K.E.E.W.E.Q.K.J.W.Q.Q.W.N.N.C.C.I.P.Z = $ $ $ o   O C Z.j.M D n.V.N.N.N.n.m.F b hXSXKXGXZXGXZXGXGXSXzXH M.M.n.n.B.B.B.N.n.z.l.j.k.j.j.V C B M M M M M M M N M M M m m m N m N N N m n c c c v c v v x l > % y X.,.,.,.X.h _ 5   O = = * % % % % % % % % % % % % % % t *.=.=.$.=.=.=.=.=.%.%.&.3.&.&.&.:.P Q :.E E :.E s E :.E ,.E r | | e w 2 u ` p u a s i .... .~ ....a ` _ 8 ] d.d.O.O.i.,X,X,X,X,X,XlX,X,X,X,X@Xi.i.@...' U u 5 5 1 # + + + X X o o X X o o X X X X X X X X X X X X X X X .         ",
"1X&X X X>XaXaX:X>X:X>X X4.Q u < i i 3 < 6 u 3 2 4 4 3 e 7 @ + U u 1 a 4 # 6 4 < 3 8 U 2 4 ( ) ) } } T 4 7 | s.} { a.a.p . X @ .   X +     o   . < 7 O.$X X4.Q Q o.8.8.o.Q Q 2.8.4.2.Q Q +..X X X X4.#X#X4.o.o.W E I I I i e i i 2 2 u U Y ) U U U u J J J U u u U U U 7 U ( J / h / U U U ) W ' ] ) ( U 8 9 9 6 p p p a 6 6 6 5 4 6 6 5 3 # @ 3 2 r # o o X +   o .   o X X     .   X   o X O O z l.B.N.A.L.L.J.J.J.K.K.K.Q.Q.Q.Q.Q.Q.Q.Q.Q.Q.Q.Q.Q.!.!.!.!.Q.Q.Q.Q.Q.Q.Q.Q.Q.Q.Q.Q.E.E.E.Q.E.J.W.K.K.J.W.E.W.D.N.N.C.P.I.B.l o + O o o X o z n.j.N S n.V.F.N.N.Z.F.M.b hXSXKXGXGXZXZXGXKXSXlXH n.n.n.n.B.B.B.N.B.b.k.k.k.k.l.V C B M M M M M M M N N M M n n m m n n N N n c c c c c v v v x ; * # h u.,.<.,.X.h h @ o = * = % * * % % & * & & % % % O % O : >.*.=.$.=.*.=.=.=.%.&.&.3.&.%.&.:.%.E :.%.r { E s E %.I ,.` q E ..Y a w a .._ p a a a ` ` .. .] _ ..d. .9 p ..d.d.d.,X,Xa.$X2XkX,XkXlX,X,X,X@Xi. .] ) U u 6 5 1 # @ + + + X X X o X o o o o X X X X X X X X X X X X X X o .       ",
"#X X X&X:X:X>X+X>XaXaX:XyXaX:X9.Q I < @ 4 p 2 a u 2 @ 2 7 3 # u 6 # 4 4 5 6 < < 5 9 J p ` ( 9 4 0 J Y T | ..a.J W O.$XO.u 3 . . O X o o .   @ { s.O.#.o.4.4.| L #.4.+.W Q 2.| o.6.:.E Q O.#X#X2.4.4.4.8..X#X&X&X%X:.r u I I p a u 4 u u U R U U u 7 7 J U R U u U 7 U J 8 / ( / h / / U U U U U ' ( J 7 7 p h 8 p a 6 5 5 5 5 6 6 2 < @ @ 3 5 a i E q $ o X + o . o o . . o o . . . X   X X O & M k.B.N.J.L.K.K.K.K.K.E.Q.Q.Q.Q.Q.Q.Q.Q.Q.Q.Q.Q.Q.!.!.!.!.!.Q.Q.!.Q.Q.Q.Q.Q.Q.Q.Q.Q.E.K.K.K.L.D.D.L.H.S.D.W.J.A.N.c.C.P.I.C O $ X X o o O o b n.V v S n.V.V.N.F.Z.N.M.b g.SXKXGXKXZXCXGXSXDXg.x.n.n.n.n.B.B.B.B.B.z.k.z.z.z.j.V B M M M M M M n m n N N M m m m m n n N N n c c v v c v v x l ; = y X.d.,.` X./ _ 5 X O * * * % * * & & & & * * % = = O % = : %.*.*.$.$.=.$.=.=.%.%.%.>.&.%.%.%.:.Q Q >.s Y | <.s E r ` :.s i ' } | a w <.....O.) e w y _ .._ 3 _ ..O.X./ h X.d.d.$X$X,X,X,X,X,X,X,X,X@X@Xi.i.i._ U U u 6 1 @ + + + + X X X X X o X o o o o o X X X X X X X X X X X X + + + o . ",
"4..X&X>X>X X.X#X>X>X:X:X>X>XyXaXaXwX%Xo.K 4 3 a 4 2 @ 3 4 3 3 4 2 + 3 4 p 6 < a 3 9 J p / 9 0 7 ] ] ) ) / ) O.] R +.@.' 6.o.< @ o X X . 5 | 2.o.9.4.#.4.o.| Q E o.6.| L I Q E :.2.R L Q O.+.8.4.o.+.8.s.9.6.2.2.9.9.8.O.W K U 9 u u i Y U u 7 U R U U U R Y U u p u ) / 8 / _ / / / / U U U U U ( ( J J / ) ] ~ 6 6 5 5 6 a a a 6 2 3 2 y a a a a a q # $   . + . X X X   o X o   . X   X X O x D b.B.A.W.L.K.K.E.K.K.Q.Q.Q.Q.Q.Q.Q.Q.!.Q.!.!.!.Q.Q.!.!.!.!.!.!.Q.Q.Q.Q.Q.Q.Q.K.Q.Q.E.K.K.K.J.D.D.D.C.N.A.D.D.A.B.C.P.P.C.l O o   X o   O o c n.S b D n.V.V.N.V.Z.N.n.v g.SXKXGXGXZXSXGXSXzXG M.B.B.B.B.B.B.B.B.B.z.k.z.z.z.l.V B M m m M M m n M n N N M N m N N m n N N n c c c v v v v b l - O j u.d.,.` X.h h @ O * * * * % & & & % % % & % % % = = = = O : *.t.=.$.$.$.=.=.%.%.&.&.*.%.%.E :.` E ,.:.i | :.E E e i | <.q i o.d.` q i | O.i. .) i y p ] _ / J / ] .... .] ] O.i.d.,X,Xd.d.,X,X@Xi.i.u.@. .} ] Y 7 6 5 # @ # @ + X X X X X o o X X o o o o o o o X o X X X X X X X X + + o . ",
" X&X&X X.X.X.X2X:X>X&X&X X X>X>XeXeXyXwX&X9.W 3 7 < # e 7 3 3 4 < + 3 u h 5 4 a 3 8 J 3 2 0 7 ) ( / 0 7 8 J [ J ( ..J W 8.$X@.< + + @ 2 6.-X XW 2.W L o.2.{ I E } } ] U T | { | 2.L L o.o.W ' 6.O.} o.| E Q :.2.4.2.8.9.9.o.| U u 4 4 u T T 7 J T T R U U Y U u p U ) / U / _ _ / / / / / / / U U ( J U ( ( ( 8 p 6 6 a a 6 5 3 5 6 a a 2 3 # # # # 3 @ + .   + . X X o X X o o O . X   X X & N b.B.N.A.D.H.H.J.K.K.K.Q.Q.Q.Q.Q.Q.Q.Q.!.!.!.!.!.Q.Q.!.!.!.!.!.!.Q.Q.Q.Q.Q.Q.Q.Q.K.Q.E.E.E.E.J.D.D.A.N.m.Z.D.D.N.B.C.I.P.l.* $ O o o o o o O C v.A b v.B.C.V.N.C.N.N.M.b hXSXKXGXGXZXGXSXSXhXH M.F.B.B.B.B.N.N.N.z.k.b.b.z.z.l.V M m m m M M m m M m N M M N n n N N N n n n m c c c v v v x > & $ X.u.,.,.` X.X.5 X O * - - & & % & & & % % % % % % % = * % O O %.0.*.=.$.$.=.&.=.%.&.%.&.%.%.%.Q :.P :.:.r E | E { s r ) ..i w Y :.:.:.i ` | ] ' ] | / p / _ ..../ _ ..d.i.@.i.d.i.i.d.,X,X,X,X,X,X@Xi.u.....' ` Y 6 2 5 $ # # + + X o X X o o X X X X o o o X . o o o . . X X X X o X o o o X ",
".X=X=X.X&X&X&X&X&X X.X X&X=X:X:X+X+X+X>XeXsXaX:Xs.p # e 7 @ 3 I < + 2 U p 9 7 1 # 8 J < 6 _ ( J ~ J < p ] ]  .~  ...7 6.$X$Xi.U @ 6 T Q #.4.4.o.:.Q I | :.` I { ' T T r I :.Q L E r R | | E E ` Q Q W R o.6.o.2.2.2.6.Q Q 2.7.:.2 e 4 2 u U 7 R R R U u u u p 7 u / p p / / / / ) / ) ) / / / J J U ( ' / 8 8 9 p 8 6 6 6 a a a 6 5 3 3 3 3 1 1 a a a # + $ o X o . . o o     X O X X o O O ; l.n.N.C.D.D.H.H.J.K.K.K.Q.Q.K.Q.Q.!.!.!.!.!.Q.Q.!.!.!.!.!.!.!.Q.Q.Q.Q.Q.Q.Q.Q.Q.Q.Q.Q.E.K.K.E.D.D.A.N.B.n.m.D.A.B.N.C.I.P.Z , $ O O . . o o * l.j.A b v.N.V.C.N.S.A.Z.M.b hXSXGXZXGXZXZXKXDXy.M.M.B.B.B.B.N.V.V.N.z.k.b.b.z.z.l.V N m m M M M m m M M m M M N n n m N N n n n c c c c v v v x ; & k u.d...` _ _ X.$ o * - - - & & & * * * * % & & * % % * = % % O w *.*.=.=.=.*.=.=.%.&.P &.%.%.:.Q >.E Q 2.t t E E { E t R } ` d s r ) d.` Y | 6.| { ..p / 6 6 h _ ..O.( X.d.d.i.a.@.i.,X,X,XkX,X,X@Xi.i. .....' Y i 6 3 3 $ # + @ + X X X X X X o . . o o o o + . o o o . . . X o X o o o o o X ",
"+.&X#X8.#X&X X#X X4..X=X=X=X&X&XXX&X:X:X:XuXeXaXaXwX8.R 6 @ 3 L 5 @ e 7 7 U a # < / 8 9 _ _ ~ 4 ( 8 5 f  .X.a 9  .' ( $X$X$XO.| o.o.4.| Q Q | Q Q | Q I I { T { I T T u T | T I I L E :.E E T R T | { | 6.| { | 6.Q W Q o.4.9.9.Q Q e Y u p T J L R U u p p p p p p h h _ / / / ) _ _ / ) T / / / ( ( 8 6 6 p / 7 2 3 @ 3 # 1 # 3 # # 2 y y 5 a i e i 1 # o o   X   X X o . .   o O O X . O c n.B.N.V.S.S.H.J.J.K.E.Q.Q.Q.!.Q.Q.!.!.!.!.!.!.!.!.Q.!.!.!.!.Q.!.!.Q.Q.Q.Q.Q.Q.Q.Q.Q.Q.E.K.K.J.D.A.V.N.n.n.Z.D.Z.n.B.P.I.L.z * $ O   o O o = Z v.M k m b.V.C.V.V.C.C.Z.b.b hXKXGXGXGXZXZXSXzXG v.B.V.B.n.B.B.V.C.B.z.k.z.z.z.l.V B m m M m N M C C B B C Z M N m v c m m N N n c v c v v x b b , * j u...,.:.` X.h O % * * - & * * & & & * * * & % & & * * * % = = % A *.t.$.&.>.=.*.&.*.%.>.&.%.>.E >.%.P ,.<.r P E I ,.` e E :.I { i Y ] 6.s i ` ] ' { ] ../ 6 j _ _ ] p ` ..i.i.a.$Xa.$X,X,X,X,X$Xd.i. .' ' ` i i e 5 3 # @ # + + X X o o o X X X X X X o o o o . o o o . . o o o o o . . . o o ",
"8.#X4.o..X&X X4.4..X#X&X=X=X&X&XXX&X:X:X:X>X&XwXyXaXmX1X:.3 4 K 5 # a 6 4 p y # 3 U / 8 9 / 8 J  .9 < / ( 0 5 /  .[ @.a.a.+.' { Q Q o.Q Q Q Q W I W Q Y I E u Y Y I I u I T r u I T E I I I T T { Q R { | T E { R R | 2.2.8.4.6. X%Xo.u Y Y U R L R U U p p p p 6 p h h h / / / ) _ _ / ) U / / p U U U U U / / p 6 9 2 6 5 6 6 5 6 a q 1 @ @ 1 @ 1 a # + X o   X . X X o o o o . . o . o ; V N.B.V.S.S.J.L.K.K.K.Q.Q.Q.Q.!.!.Q.!.!.!.!.!.!.!.Q.!.!.!.!.!.!.!.Q.Q.Q.Q.Q.Q.Q.Q.Q.Q.Q.K.K.K.J.S.A.V.N.n.n.Z.Z.Z.B.B.P.I.P.n = $ = O $   O M c.v.b b S B.C.C.V.V.S.F.Z.M.b lXKXGXGXZXZXKXSXhXH m.F.C.B.B.B.V.C.C.B.z.z.z.z.z.k.V C m m m m M M C C C C C M N N m c c m m n N n m v v v v x x > , , u.u.,.,.<.` X.5 % % * * - - * * & & & * * * * * % % % % % % = = % : =.t.*.;.*.*.>.*.%.&.:.&.:.>.:.P &.:.E :.E r :.Q I ` E r ` ` T :.E r 6.| 4 w ` ` { ]  ...` ` u... .p a ` ]  .i.$X$X,X,X,X,X,Xi.i.i.O...] ) i e 2 1 # # + + X + X X o o o X X X X X X o o o X o o o o       . o . . . . . o o ",
"#X8.#.o.#X#X4.+..X#X X.X#X&X#X&X&X>X>X&X&X&X&X>X:XwXyXaXaX9.4 J 5 < 6 9 p 6 @ # 7 U ) 9 < / 9 ( ] 5 < [ ~ 0 _ ..( ] i.+.[ } o.o.Q Q Q T Q T Q W L I Q E E i r I E i I I I I r i I E E I I u I ` T r 4 I T I I E | | 2.6.| | Q o.8.8.9.o.{ 7 u Y R R U U p p p 6 6 p h h h _ _ / ) _ _ / / U U J 6 7 8 U U / U J p 8 6 6 6 p 6 9 p 6 < 3 2 5 1 1 1 2 a 1 + X X X X . X o . o X o X X + o % z z.N.V.V.H.J.K.K.K.Q.K.Q.Q.Q.Q.Q.!.!.!.!.!.~.~.!.!.Q./.!.!.!.!.!.!.Q.Q.Q.!.Q.K.Q.Q.Q.Q.Q.Q.K.K.L.D.A.V.N.m.m.Z.Z.Z.Z.m.C.I.I.l.l O $ O o = N C.c.C G x v.V.C.N.V.C.C.B.n.M.G CXKXZXGXSXGXKXAXy.M.m.B.B.B.B.B.B.N.N.B.b.b.k.k.k.k.V D m m m m m M M M M Z Z N N N n m c m n n n n m c v v x x x ; , j d.u.,.` ` _ h + % & * - - - * * & & & * * * & % % % % % = % = = % O w *.t.*.*.*.>.>.%.>.3.&.:.>.7.t %.>.t :.:.t :.2.T Q %.t s E r ` :.E ` } T s q i | | } a.O.] O.i.d.i.( ..i.u.i.i.i.i.$Xi.i.i.i. . .] ) Y u e 2 3 # # @ + + X + X X X o o X X X X     . . o o . o X .         . . . . . . . . ",
" Xo.o.8.#X4.o..X&X X8.8.#X#X#X&X&X&X#X.X X>X>X:X:X>XyXeXaXmX1Xo.< @ 9 8 8 5 @ 1 J U p 3 0 / 8 ( ~ 3 9 [ J 9  .] ( [ +.[ W o.2.:.Q E I E Q Q Q Q I L I I E r i I i r i I r r i i I I i u I I u E E r I ` { E | :.:.T I T R R R | | { o.8.s.6.U U J U / U p p p a a h h h h _ _ _ _ _ _ _ / / U J Y ) ) / U 7 7 7 9 9 0 9 9 6 5 5 6 5 3 3 5 a y y e q e # + X X + X   . o o o X X   o . o > B B.Z.C.S.H.K.K.K.Q.Q.Q.Q.!.!.!.!.!.!.!.!.!.!.!.!.!.!.!.!.!.!.!./.!.Q.!.!.!.Q.Q.Q.Q.Q.Q.Q.Q.K.K.L.D.A.N.n.b.n.n.m.m.m.n.B.H.I.C.l.z ; ; l C C.c.l.b b v n.H.C.N.V.C.V.B.n.F g.KXKXGXSXSXKXSXbXH B.n.B.B.B.B.B.N.C.N.B.B.z.z.z.z.l.V B S S M m M M M M M N m m m m n n c m n n c m c v v z z v x & y ,.d...,...X.h # O * & * & - - - * & & & * * % % = % % % % % % % % = * O d 0.t.*.*.>.*.*.*.3.%.:.:.>.&.t &.%.t %.:.E :.6.E E %.E ` r 3 ` ` i { 6.:.i a i ` | O.O.i.O...O.d.i.@X@X,Xd.i.i.a.,X,Xd.i.i...] ) Y i u e 1 3 @ @ @ + + + + X X X o o X X X X .   X X o o             . .       . . . . . ",
"o.4.8.8.8.4.8.#X9.4.8.#X#X#X#X X#X X9. X&X&X>X:X:XwXyXwXaXsXsXsX;X4 0 h h 5 3 a K U 5 < 8 ~ J ~ 9 < (  .7 J ^  .] ' } ' { | I ! :.Q P E E I I I E I I I I r I I e i I i e i I i i i r e I E E i e e E E i i Y T T I T T { { | 2.,.{ | o.8.#X| L 7 7 U U p u p a y y y h h h _ _ / / ) / / / / ~ u p 8 8 7 7 7 8 J J 9 6 3 3 @ # @ 3 1 1 1 5 5 6 e q a # X X $ $ X     X X . o o o o   O x k.N.A.D.H.L.K.K.K.E.Q.!.!.!.~././././././.!.!.!.!././././././././.!.!.!.!.!.!.!.!.!.!.!.!.Q.Q.K.K.D.N.N.b.v.v.b.b.b.v.z.c.V.P.I.P.B.n.v.z.P.C.x.b G x D N.P.C.Z.S.S.N.Z.n.H nXLXKXGXZXZXKXSXg.F B.m.F.B.B.B.N.V.V.B.B.c.z.k.z.l.j.C S M M M M M M B B M M m m m m N N c c c c c c v v c z z x ; & j d...,.` X._ y o = - & - - - - - & & & & * & % % = % % % % % % % % % = = % A 0.t.0.0.*.3.&.>.*.>.>.%.>.P %.3.P E >.t t :.E P E I :.E q i ` ` E T } | R i i ` Y ' i.d.` ` d.d.i.@.d.i.i.i.i.i.a.i.i...] { ) Y Y a 2 3 # + + + + + + + X X X o o X X o X X . .   o o .         . . .       . . . . . ",
"8.8.8.o.o.9.8.8.o.o..X#X.X4.4.8.#X X#X&X-X&X-X-X&X&X:X:XwXeXaXsXmX-X' 0 a 5 < u K U 5 3 / J ~ 8 3 < ( ~ 8  . .] R ' } { Q Q L P :.Q I Q I I i I E I I I P I E i r E I r r i E i e e r i E E I 4 u i ` E e i T R i E | I { | | | E I :.2.W 9.8.| U 7 U U u u a y 1 # 5 h h h h / h / / / / / / U u 8 8 U / ) ) ( J 8 8 6 5 3 # # # # + + # # @ @ < 2 i # X o o o X     X o . o X o X % x B B.C.H.L.L.J.E.E.E.Q.Q.~.!.!.!./././././././././././././././././././.!.!.!.!.!.!.!.!.!.!.!.Q.Q.K.L.D.N.N.n.j.v.v.v.v.v.V k.c.C.P.P.I.I.P.P.P.c.N d b v n.V.C.C.C.S.S.Z.n.v.H CXLXKXKXZXSXSXSXg.v.n.Z.n.N.N.B.N.N.N.N.B.n.k.k.j.j.V B S m m M M B M M B M m m m m m N N n n m c c c v v v z x l ; , j d...,.` _ h $ O & - - - - * * * & & & & & % % % % O % % % % = % % % = * O % %.r.0.0.*.3.*.&.>.*.>.&.>.&.P 3.&.E %.*.P &.:.%.P E | | s w E | ` i R O.6.{ E ,.7...O.8.6.6.O.a.a.O... . .i.i.@. . .( U U Y i u u 2 @ 1 @ + + + + + + + X X X o o o . o X . . .   . . o .                   . . . .   ",
"8.8.o.W o.8.4.o.4.8..X#X8.o.4.#X#X&X#X#X#X&X=X&X&X&X:X>X&X&XwXeXyXmX:XT u 3 3 / J p 5 6 / 8 / 6 3 J ( 8 8  .[ J r Q o.| P %.E ! E Q I Q I I I I { T I E I I E I I E i i I i I r e i i I E I 4 4 Y T ` i e E ` R i ` ` I T | { { I { | o.6.#X9.9.| R 7 p u a a 5 # # $ 5 h h h / h / U / / h f J U U J 8 p u 7 7 9 5 6 6 6 6 y a 6 6 5 3 # + @ @ @ @ 1 +     o o o . X o X X X o o > S M.Z.H.P.P.K.K.E.Q.Q.Q.Q.!.!.!.!.!.!./././.!././././././././././././././././.!./././.!.!.!.!.!.Q.K.K.L.A.N.N.n.v.v.v.v.v.D M V z.c.C.H.I.I.I.H.z.N b x v v.B.N.V.C.C.H.S.Z.n.D g.KXKXKXKXGXKXKXSXy.G.m.F.n.c.B.B.Z.Z.Y.Y.m.F.U.M.v.D V B n m m n n M M M N m m m n m N N N N n m c c v c v z x x ; * j ,.d.,.<.` / g O * & - - & * * * & & & & % % % % % % O % % % % = = = O % O = % d 0.q.0.*.*.*.*.*.*.*.>.:.:.%.*.3.%.E >.%.L &.%.t s r 6.` w E :.6.6.{ I 6.a.{ Y { :.6.8.a.+.@.i.,X$Xa.a.i.i.i.i.i.] ) R i r r 4 3 3 # @ # + + + + + + X X X o o o o   X X X X         o .                 . . . .     ",
"o.8.+.o.o.8.8.8.o.8.8.o.o.8.#X&X X X8.8.8. X&X&X&X>X&X X X%XwXwXeXaXmXuXs.< < / U 5 5 f 8 J U 3 w ^  ._ X. .) [ :.Q W | P &.%.I I I I T I I I Q { T L E L I E L E E r I E I I i I | E e i r e I T T T e u ` ` U i Y Y ` | | I T { | o.| o.6.8.8.6.T 7 u u a y 1 + + $ $ 5 f h h h h U p h f f 8 7 8 J 7 6 4 6 p p 6 6 5 6 < < < < 0 5 6 y y 5 5 y @ # + X     X   X X X   X X   x v.D.E.K.L.L.L.K.Q.Q.!.!.!.!.!./.!.!.!./././././././././././.!./././././././././././././.!.!./.!.Q.K.K.K.H.A.N.N.B.b.v.v.v.v.D S M j.z.c.C.P.C.C.N.B b d x B n.C.N.N.C.H.H.A.F.m.F f.KXKXKXSXGXGXKXCXy.G.n.B.Y.R.R.pXpXpXrXrX0XpXpXpXpXT.T.T.1.F m c n m M M M m m m n N N N N N N m c c c c v z l l - * j ,...,.` ) _ $ O - & & - & * * * & & & & & % % % % O % % % % % % = = O % % * , , w *.e.0.t.*.3.=.>.&.3.>.:.>.&.*.%.t >.&.L E >.<.s r E | I r r i | | %.E o.O.} { { :.9.8.a.8.o.+.i.i.$XO.O.i.O.../ / i e e e 2 < @ # + + X + + + X X X X X o o o o X . . . .                   .       . . . . .     ",
"o.8.8.o.8.9.4.Q W 8.8.o.+.#X#X8.8.#X#X.X8.8.#X%X&X&X&X>X>X>X:XwXuXwXeXsXyX8.< K 8 5 0 U U U 5 5 J  .^ ^  .[ T { Q L L I I P E E T I R I T T W Q Q T Q L I Q Q E Q I u I T E T T I E L I I I I E E i 4 4 u I Y i Y E ` ` | T I ` 6.| 6.{ Q | Q | 4.8.W 7 p y 5 5 + X X $ 5 5 g h p h / / / / U J U / / U U ( ) U ~ J 8 6 5 y y 5 3 @ # @ 3 1 5 1 2 a a + . X + . o . o o o   O v m.Y.E.Q.Q.L.P.P.!.Q.Q.Q.!./././././././././.(.(.(.(.(.(.(./././././.(.(./././././././././././.!.Q.Q.K.K.K.H.V.N.B.n.n.b.v.v.v.D S B V l.z.B.V.C.n.V v > > S v.B.V.C.C.C.C.H.S.F.B.H bXLXKXKXGXKXSXKXBXG G.R.pXiXrXeXeX9XeXeXeXeX0X4XqXeXeX9X0XeX0XT.-.F S m n M n m m n M C N N N N v c c c v v x l > * k u...,.,._ X.5 X = - ; - - & & & & % % % % % % * = % = % % % % % % % % % O % * , , > d *.r.3.3.3.&.*.*.;.*.&.$.&.3.>.%.&.>.P P &.7.&.w e :.:.E s e a T Q | 6.8.#X%Xs.s.9.8.8.a.O.o.o.O.a.O.' { } #.o.o.+.+.#X+.a.+.O.@.W 7 < @ @ + + O + . . .   o   o . . o o   . .                 X X . . . . . . . ",
"8.6.6.8.8.o.Q W 8.8.9.#X8.8.4.8.8.#X X4.4.4. X&X&X&X&X>X>X>X:XwXuXyXyXyXsXuXs.J 8 9 9 _ / 9 5 h ~ J ~  .J K T Q Q E E Q Q Q Q I T T I Q Q Q Q Q Q Q Q T W T E E T I I E I I T I r { Q T I u u I r 4 e E ` E Y ` ` ` E I I e u { | E E Y { :.E { 8.#X$XU 2 y y # $ + + $ y h h h p p h / U U J 8 7 7 6 7 8 8 9 4 9 9 6 3 @ 5 5 3 @ @ 5 5 3 1 y 5 < q 5 + .   o o o X X .   O v M.W.W.K.K.Q.W.K.Q.Q.!.!.!.!.!.!./././.(.(./.(.(.(.(.(.(.(.(.(./.(.(.(.(.(./././.(.(.(./././././.!.!.Q.K.K.H.H.S.N.B.B.n.b.b.v.v.D S M M N B V v.v.m v > > b v.N.S.V.C.C.C.C.H.S.Z.n.y.HXLXKXKXGXGXKXKXCX<XiXiXyXwXeXqX9X9X9X9X9X9XT.5XqX9X4X9X0X9XwXyXiXpXT.-.S c M n n m N N n Z n n c c c v v x x l & % j g.,.,.,.X._ $   = - ; - - & & & & % % % % % = % = % O = = % % = = O O % O % : * & * , w >.e.3.;.3.&.3.3.&.&.*.*.*.&.&.P 3.>.P r &.3.%.t %.:.E :.:.` u I E | 2.7.s.9.s.9.4.O.a.#X#Xa.+.@.#X$X#X$X2X2X$X3X3X3X$X$X$X$X3X2X$X$Xi.' 6 < + . . X   o .   . X .     . .                 . X .               ",
"8.o.o.6.8.4.O.6.9.8.8.9.8.+.+..X X8.4.8.#X#X#X#X#X&X&X&X&X&X&X#X>XwXuXaXsXmXmX;X4 < / / h 0 8 / J ~ ( ( 9 R :.Q Q Q I L I T Q T Q | Q Q | Q W W | Q Q Q { T T { T T T R u I { T I { T I T Y E E u u Y { ` u i ` i i I u I U Y | | I r r { 6.6.7.| 2.a.o.7 2 5 5 y 5 1 5 h h h h 8 8 8 8 p 8 8 8 J U / / J 9 7 7 p p p a 5 5 3 3 @ 3 3 # 5 @ # y 1 2 # + X X o X . . X   . l b.L.L.K.K.Q.Q.^.Q.!.K.!././.!.!./.(.(.(.(.(.(.(.(.(.(.(.(.(.(.(.(.(.(.(.(./././.(.(.(./././././.!.!.!.Q.K.J.H.H.S.N.N.B.n.n.b.v.v.D D D M m c v v x > > > v D F.C.H.V.C.C.A.S.H.C.N.G.g.KXLXKXKXKXKXGXNXmXuXuXwXqX6X0X0X9X4X9X9X9X4X4X5X9X0X9X9X4X9XqXqX9X9X4X0XT.1.S m n n c c N M n n c v c v x x x l * $ u.d.,.| ..X.h X O * - - * & & & & * & % % % % = % % = O O = = = = O O O O O O % & & % : , d <.0.0.*.*.3.0.3.*.&.&.>.*.$.&.&.3.&.P &.0.*.%.%.E r E :.2.{ I Q 7.9.9.9.9.s.%X#Xs.8.+.8.#X$X$X$X$X=X$X+..X$X$X$X$X+.$X.X.X$X$X3X3X$X$X$XO.W 0 @     X + . o       . o                                       ",
"} o.6.2.o.o.8.6.o.8.8.6.o.o.8.8.#X9.4.9.#X#X#X#X X%X&X&X&X&X#X X.X#X:XuXyXsXNXmXO.4 / h 9 f 8 ~ J ( J 0 u { Q L T T T T T Q { W o.2.| Q Q | Q W | W Q Q | ' ' | W W W T R T | T T { T R { E Y u u I Y I u u Y E I I E T ` | { { U I T W { | | O.2.7.6.8.' < 5 6 y y 5 6 a h h h 8 8 8 8 8 8 8 8 7 7 7 / _ ( U 6 a 2 < < 3 # 3 h y 5 3 1 a 1 + 1 q 1 # X X + X X o o o   O S Z.J.J.K.E.Q.!./././.!.!.!.!././.(.(.(.(.(.(.(.(.(.(.(.(.(.(.(.(.(.(./.(.(.(.(.(.(.(.(././././.!.!.!.Q.Q.E.J.J.S.V.N.B.B.B.n.z.k.v.v.j.V V M m v v x x x c V n.N.V.V.V.C.S.D.S.H.S.Z.G.vXKXLXKXKXJXCXvXuXqXqXwXwXqX5X9X9X9X4X9X9X9X4X4X4X4X9X0X4Xe.oX4XoXoXOXoX9XeXqX}.-.v n N n c c m n c v v v x x x > % g u.,.,.{ X.X.1 o = - - - & & & & & * & % % % % % % % O O O O O O O O O O O O O % % & % = = : : A r.e.0.=.3.0.0.;.&.&.*.*.*.$.&.;.0.3.0.*.%.&.:.P r E :.2.E | 7.9.5.3.4.4.9.#X9.8.#X$X$X$X$X$X#X#X.X+..X$Xi.$X$X+.$X$Xi.+.8.8.+.+.+.+..X+.a.O.J @   o o o   .     o o   .                           . . . ",
"o.o.o.o.o.8.8.o.O.8.o.W o.8.8.2.8.8.8.9.#X8.9..X#X X#X&X%X X#X=X$X&X&X>X:XyXsXmXiX8.u 8 f / 8 ~ / 8 3 2 { Q L ! T T W Q Q Q { | o.o.| Q | o.Q Q o.Q { W | { ' ' ' ' ' | W W { R R W R R T u U i R ) T u u T ` E Y T E R T | T I u T :.:.| } } o.} 2.8.O.8.4 p a a a 6 5 9 8 p 8 8 8 8 J J 8 8 7 7 9 0 0 7 J 8 6 8 5 5 5 6 3 @ 5 2 @ 3 3 # 1 y # 1 w # X   o X X X O o . > M.D.D.W.W.E.E.!././.)././.!././.(.(.(.(.(.(.(.(.(.(.(.(.(.(.(.(.(.(.(./.(.(.(.(.(.(./././././.!.Q.Q.!.Q.Q.K.J.H.S.V.N.c.B.n.z.z.k.j.v.V V V V B B M N m M j.B.C.C.V.N.V.C.S.D.D.H.D.F.G.nXLXLXKXZXmXtX9X9XeXeX9X*XOX*X5XoX4X4X9X4X5X5X4X9X4X4X4X4X4X9X9XoXoX9XqX9X9X5X9X9Xr.F c n S v c c v v v v x l > & : X.u.,.<.` X.h + O , - & - & & & % & * * % % % % % % O O O O O O O O O O O O O O O % % % O O = % : d >.f.0.;.;.;.3.;.&.=.=.*.&.%.=.;.0.0.3.:.%.&.E r r E :.:.:.9.XXXXXX9.9.4.4.o.#X=X=X#X$X$X$X8.+.8..X8.o.+.a.i.O.a.8.+.@.o.O.8.+.O.+.i.$X.X$X$Xi.8 .     O X       o . .                             . X ",
"6.W } O.8.8.8.6.6.o.W W 6.8.8.o.o.8.8.8.a.8.8..X#X#X#X&X#X X#X=X:X>X>X>X:XuXyXsXNXuXT < 8 U f / p < 2 T | Q W Q Q Q W W T W { o.o.o.| | | o.| Q | { { W { | { ) { ' { ..' R T T { ' R ) { ` { | | ` R U U I R R u R T R T T I u e i i r i Y E T Q | 6.o.s.} 4 2 a 6 6 6 6 9 8 8 8 8 8 8 J J J 7 U / U 9 0 9 U ) ~ 9 0 < 3 5 1 1 3 @ # @ + @ q q w w # X . o X X . . o O v F.L.D.K.E.E.!.~.~.(.(.).).(.(.(.(.(.(.).).).).).(.(.(.(.(.(.(.(.(.(.(.(.(.(./.(.(.(.(./.!.Q.!.!.!.Q.Q.Q.E.J.H.H.H.S.N.B.z.z.z.z.k.l.j.B B V B B V B B B j.n.N.C.H.C.V.V.C.S.D.D.H.F.F.G.nXLXPXMXuX9X5X9X9X9XOX9X0X0X0X4X4X4X4X5X4X5X4X4X4X4Xr.T.T.4X4Xe.oX9X9XoXe.oX4X5X9XqX0Xr.A c v c z z v v v x l > * j u.u.,.` ` X.$ O = - * & - * & % % & * * % % % % % % O O O O O O O O O O O O O O O O % O O % = , O O : A e.w.0.0.;.t.;.=.$.=.*.&.&.*.*.;.;.%.P >.3.>.%.&.:.&.&.6.9.w.XX9.9.9.#X#X$X#X#X.X$Xa.+.+.8.#X8.+.+.o.o.+.O.6.o.o.o.a.O.@.@.@.+.+.+.+.+.+..Xi. .9 .     . o     .                                   ",
"W o.8.a.6.o.o.o.W } O.8.8.6.o.+.8..X8.8.O.o.8.#X.X#X#X&X&X&X&X&X&X&X>X:X:X-XwXsXmXmX-XT 7 U f 9 < < I Q Q Q Q { Q W Q | { Q | Q o.o.o.o.} } } { | Q | W | | { { } ' ' } { R { | ' W U ] ' T R u Y u 7 u U I U R R ` { T ` Y r I Y Y i u I r e e I E E | 8.a.J J a 6 6 6 6 9 8 8 8 8 f 8 J J J J 8 7 U / ( / 8 6 8 8 8 5 5 5 @ . 6 5 5 6 a # + 1 w # X . o o . . . .   O M A.L.D.H.L.K.!.~./.(.(.).).).(.(.(.(.(.(.(.'.'.'.'.'.'.'.'.).).(.(.(.(.(.(.(./.(.(.(.(./.K.P.K././.Q.K.Q.E.J.H.H.H.S.N.B.b.z.z.z.k.l.V B V V V C V V V k.k.b.N.V.C.V.V.V.V.C.A.S.C.V.n.v.tXNXiX0X9X5X5XOXOX*X*XOX9X4X4X5X5X0X4X4X0X0X4X4XT.e.T.4XT.T.T.e.e.e.4X0X9X9XoX0XoXoX9X0XT.F l v v v v v x x l > y ..d.6.,.` ` j O = * * - & - * & & & * * * % % % % % O O O O O O O O O O O O O O O O O O O O O o O O O O % : >.r.e.q.q.q.;.*.;.3.;.3.*.*.*.;.&.&.;.;.3.;.3.5.*.2.3.7.7.7.3.5.9.#X&X.X.X8.8.+.+.8.8.+.+.@.O.O.@.@.+.+.+.@.@.@.@.@.@.O.O.O.O.o.[ 8.a.i.+.@Xi.J @ . X $     .                                   ",
"o.8.8.o.} o.6.O.2.8.8.O.O.+.8.8.4.o.Q o.6.6.8.9.#X#X#X%X&X%X#X&X+X&X#X=X>X+X>XuXsXmXNX%XR U 9 5 < 9 { Q ! E L E W W W W W o.2.o.O.W } o.' } o.o.| { o.| | | { { ] ' ' ....' | } ' ' ' | U U U R u u R ` { T T ) T R U I E I r ` } ..} ....{ { | ' } I I | o.' u p 7 6 7 8 8 7 8 8 f f 8 8 ~ ~ J J 8 U / J 0 < 3 5 3 5 5 3 5 5 3 @ + @ 3 a 5 1 @ # + X X o . . X O o o % D D.H.D.K.K.K.K././.(.).).).).).).).).(.(.(.'.'.'.'.'.'.'.'.'.`.).).).).(.(.(.(.(.(.(./.!.!.Q.!.!.Q.Q.Q.Q.E.K.J.H.H.C.N.B.b.k.k.z.z.j.V V j.j.V V V V j.c.c.B.N.N.N.N.N.V.C.V.N.C.C.N.b.M.}.eXOX5X0X9X9X9X4X5X9X4X0X5X5X6X5X6X4X0XT.0X}.T.T.T.4Xe.T.T.T.e.e.e.T.4Xe.oX*X;Xe.0.q.oX9XT.1.b v v z z x x x , j d.,.6.,.` j y O , - & , * - * & & & * * * % % % % O O O O O O O O O O O O O O O O O O O O O O = O O O O = % = d >.q.oXXX5.5.t.0.q.q.t.t.t.;.0.t.0.;.q.q.w.5.;.>.>.:.2.3.9.&X&X.X.X+.$X+.8.8.4.8.+.+.O.O.O.O.O.+.+.@...[  .O.o.o.O.O.@.O.O.+.d.a.i.+.o.+.$X$X .<   X .   X                                   ",
"8.8.o.} o.6.8.+.O.8.O.o.+.+.o.o.o.+.8..X#X.X8.8.#X.X X X#X#X&X&X&X&X&X&X:XwXwXyXaXsXNXmX2.7 p 5 7 { { o.2.Q ! ! T T Q Q ! W Q o.O.o.} { | | | | | | o.o.} | | | { | } { } } } ' ' ( } o.[ ] ..] ' | ' T T i r I i i i i E i a ` ' ) ) { ` { | | o.O.6...o.} R U u J 7 7 7 8 8 J 8 8 ~ J / 8 8 p e 6 7 J J ( / 6 6 3 @ < 3 # @ 5 5 3 . . @ 1 a y # X               X   % v.C.S.S.L.K.E.Q.!.!./.(.(.`.'.'.'.'.'.'.).(.).'.'.'.'.'.'.'.'.'.'.).).).(.(.(.(.(.(.(./.!.!./.~.!.Q.Q.K.E.K.K.J.H.S.C.V.B.n.z.k.l.V V C Z C C V l.l.z.z.B.B.N.V.A.A.N.N.N.F.Z.B.A.Z.m.U.T.pXpX0X9X9X9X5X5X4X4X0X0X0X0X0X0X5XT.T.T.T.}.}.T.T.T.T.T.T.T.T.e.e.e.e.4X0X9X*XoXe.e.9X9XoXoXqX0XA x z v b x > $ ,.d...,.,.<.j % * - - - - * & * * * * = = % % = * = O O O O O O O O O O O O O O O O O O O O % O O O O % % % = * % & d *.r.e.e.XXXXq.q.q.q.q.r.q.e.e.r.q.q.w.q.0.*.;.2.&.3.%X X.X#X.X#X.X+.8.8.+.8.8.+.+.O.o.o.+.o.O.[ } } O.+.O.} o.O.o.o.O.6.O.+.+.+.+.+.+.i.@X+.@   +   .                                   ",
"o.o.o.o.6.6.O.O.} o.o.o.o.o.o.o.8.8.8.8.+.+.8.8.8.8.8.8. X#X#X&X&X#X#X>X:X:X:XuXyXsXmXNXuX` 0 5 | 6.Q Q | Q Q Q Q Q Q o.o.o.o.o.o.} | o.o.o.o.o.o.} | } o.} | | { ..O.| | ] } ] ) ] } ' U ....U T { ' U u I U u T T R T | { Y ) T u u e 4 i E I T { } o.o.+.6.i 2 7 7 7 7 U 8 8 8 9 8 J / 8 p / _ 7 J ( ( ( U a / 9 < < 8 9 < . @ 5 1 3 # + 1 1 $ X               o   > v.V.A.S.L.L.K.K.Q.!./.(.(.`.'.'.'.'.'.'.'.).).'.'.'.'.'.'.'.'.'.'.'.).).(.(.(.(.(.(.(.(.!.Q.!.!.!.Q.K.K.K.J.J.H.H.C.V.V.N.B.z.k.l.V C C V V l.l.l.z.c.B.V.V.N.V.A.A.Z.Z.N.N.F.N.k.v.U.pX6X6X5X5X5X5X5X4XoX4X5X0X5X4X4X4X0XT.T.T.T.T.T.}.T.T.T.T.T.T.T.e.e.e.e.e.oXoXoXoX4XoXoX4X9XoXe.oXeX0X1.x x l > * j ,.6.,.,.,.X.5 % * * - * * * & & % = = = = % * % % O O = % O O O O O O O = O O O O O O O O = % O % = % * * - , & & - & & > A *.r.e.;X*XXXq.q.q.5.XXq.5.XXq.w.5.0.;.2.4.9. X#X.X8.8.8..X8.8.a.8.8.8.8.+.+.O.O.o.@.O.O.} o.6.O.} } } o.o.} | | ..{ | O.O.O.O.O.O.+.$Xa.< . X   o       . .                       ",
"o.o.o.6.6.O.O.O.O.O.o.o.+.+.6.8.6.6.8.8.8.8.8.a.s.8.8.8.#X#X#X&X X9..X&X:X>X&X*XwXaXsXmXNX%X3 6 2.2.! ! Q Q Q W Q W W Q Q | o.| ' } o.o.o.o.} } o.| | } ..} | { o.O.O.] } } ] ' ] ] ' ) ' } ] R { ` R U T | | T ' U U ) ) ) T ) ` Y i i i i i e e r s I T } a.@.u 7 U 9 7 8 8 7 0 / 9 < J 8 9 8 J J U 7 4 4 6 2 5 8 h 3 < < 9 0 . @ @ 5 y 1 y 1 + X               o O c B.Z.Z.S.H.H.H.K.K.Q.!./.(.'.'.'.'.'.'.'.'.'.`.'.'.'.'.'.'.'.'.'.'.'.'.'.).).).(.).).(.(./.!.Q.!.!.!.Q.K.K.J.J.H.S.V.V.V.B.B.n.z.l.l.l.l.k.l.k.k.z.c.N.V.C.C.V.V.A.N.N.B.m.B.N.B.b.U.6XrX6X6X5X4X5X5X4X4X4X4X4X5X5X6X4XT.T.T.T.T.T.T.T.T.T.T.T.T.T.T.T.e.e.e.r.r.r.e.oX;XoXoXe.q.e.e.e.;X9XyX0X1.x ; - k ,.,.7.:...X.h o % * * - * * * * * & = = = = % % % % O O % O O O O O O O O % O O O O O O O O = = % % & - ; ; ; ; ; & - - - ; ; ; > A <.>.7.3.w.w.q.q.5.5.XX3.5.3.3.2.4..X#X.X8..X.X8.4.8.8.8.8.8.8.8.+.+.O.O.O.} O.o.6.......] U U U W ' } ..{ } ..} o.| ' } } O.o.#X$XO.0 . o o           . .                   ",
"6.O.O.O.o.o.o.O.6.O.o.O.8.8.8.a.6.o.o.o.o.o.O.O.6.6.6.8.9.#X#X#X&X&X&X-X:X:X-X-XwXyXaXsXNXmXQ 7 Q Q ! ! Q Q Q W Q Q Q o.| o.o.o.} } o.o.o.} } } } | | | | | { { O...} { ....} ' ..' ) ] o.] ) ' | U J ' | { T R Y Y Y u u u i ` U U U ) | | { T R Y I E E W +.i.Y 7 u 9 9 7 7 6 u 7 U 7 0 7 ) 4 7 7 U R Y ` u @ @ . # 1 5 @ 3 5 5 1 @ @ 3 1 q y X                 o = D V.Z.Z.H.S.H.H.K.K.K.Q.!.(.(.`.'.'.'.].].].].'.'.'.'.'.'.'.'.'.'.'.'.'.'.'.'.).).).).).(.(././.!./.~.Q.K.K.J.J.H.S.V.V.V.N.N.B.B.z.z.z.z.z.z.z.z.B.N.N.V.V.V.V.V.V.N.N.N.Z.N.B.Z.R.pX6X6X5X5X5X4X5X4X4X4X4X4X5X5X5X4X}.}.T.R.R.R.T.T.T.T.T.T.T.r.T.T.T.r.r.r.e.T.T.e.e.e.e.oXe.e.e.e.e.e.XX*XoX0X1.> % j ,.,.:.| X.h $   % * * - * * * % * & % = * % % % % % O O O O O % O : : O # : : : y : : : : : % % % & & ; > ; ; ; & & * * * * * * % % % % : d A %.<.$.%.*.>.%.<.%.t :.9..X X8.4..X#X8.8.8.8.8.8.8.8.+.+.O.+.O.o.} ' W ] ) ] ( ( ( ] ] ] } 6.6.....O.O.+.+.O.O.O.+.8.@.+.$X .@ .               .                   ",
"o.O.O.O.O.O.O.6.O.o.o.O.6.O.o.} { W W W W W W T W W { O.8.8.8.9.4.9.#X#X9. X=XwXuXyXaXyXmXNX;X{ Q Q &.Q Q E Q Q Q Q o.o.o.o.o.o.o.o.o.o.o...} } ] ] | | | { { { | | } } } ] } ] } ..} ] } ..] } ] ' ' } { U 7 u Y Y ` T Y i i u ( U U U ] } } } } ' | } 6.| 2.6.T 3 4 6 7 7 7 6 6 2 Y ) 7 4 U Y 6 4 4 7 4 6 7 7 6 @ @ @ 1 # 1 + 3 5 2 3 3 # # #                   o = D C.A.F.H.S.H.H.K.K.Q.Q.!.~.(.`.'.'.'.].].].].].].].'.'.'.'.'.'.'.'.'.'.'.'.'.'.).).).).(.(././././.!.Q.K.K.K.H.H.C.V.C.C.V.V.N.N.B.B.n.n.z.z.B.B.N.V.N.N.B.N.V.V.V.C.C.C.C.N.Z.R.pXpX5X4X4X5X4X4X4X4X4X4X4X4X5X4XT.T.T.|.G.G.R.R.T.T.T.T.T.T.T.T.T.T.T.r.T.e.e.r.r.r.e.e.r.e.e.r.e.e.e.r.;X;Xw.9XpX1.w h ,.,.:.` X.g o O * * - - * * * % % % = % = % % % O O O O O : : : w y y : w d w w q w w w w w w d w : & - > ; - ; * * * % O O = = = = = % % O O O O O : : : , % % P 9.%X4..X.X9.8.8.8.8.6.8.8.8.8.8.O.+.+.O.o.o.o.( W ] ( _ ] ] ] ] ] ] ] ..] ) ....} @.@.O.a.6.a.+.O.+.@.i.@.@ .   .         . .         .       ",
"o.6.6.O.O.O.6.O.O.o.o.o.o.} o.o.o.o.6.8.8.8.6.6.O.o.o.O.o.o.o.Q Q W W W W Q 2.9.wXuXsXyXsXmXmX%X{ Q Q Q T L ! Q Q W W Q | o.o.{ o.o.o.} ..| | ] { ......` ` ` | | { ] ] ..] ] ] ] O.} ' ] } } ] } o.} ( U T ) ) Y _ | | { { { ) | ` ` ) Y U R T | T | ,.:.6.O.+.| 3 e 2 6 7 u u 2 u 7 6 ) 6 2 Y p 6 4 6 6 7 8 0 9 8 8 @ @ @ 6 3 . @ 3 2 y a 1 X                   o % S A.S.D.L.J.J.K.K.Q.!.Q.Q.!.~.(.`.'.'.].].].].].].].].].].'.'.'.'.'.'.'.'.'.'.'.).).).).(.(./././.!.!.Q.Q.K.K.H.H.C.V.C.C.V.V.V.V.N.N.B.B.B.B.B.B.N.N.N.N.B.N.V.V.C.C.C.C.C.D.R.6X6X4XT.T.4X4X4X4X4X4X5X4X4XT.T.T.T.T.1.H G.G.G.R.T.T.T.T.T.T.T.T.T.T.T.r.r.r.r.r.r.r.r.r.r.r.0.0.r.r.e.e.e.w.XXoX0X0X:.` ,.<.` _ h $ o & * * - * * * * & & % % % % O O O O O O O w y d w w w w # w w w # # 1 w 1 # # w w w w : : , , & : * * & & & & = = = = = O O O O $ o O O O O O O s 8.#X#X4..X.X8.8.8.8.8.6.6.6.8.a.8.O.O.O.o.} ..O.} ' } ] ..] ] ] ] ] ] ]  .] ] ....) U U U { ) ] @. .[ @.@X@X^ < .       o           . . . .     ",
"O.o.o.} o.o.O.o.o.} o.o.o.O.8.8.6.6.6.6.8.8.8.8.9.#Xs.s.s.#X#X#X#X8.2.2.8.4.2.o.4.-XuXmXmXmXNXuX| R E Q Q T L W o.Q Q { o.O.o.o.o.} } | | | | ` ` ` ` ` ` ` ` X.] _ ) ) ] ] ] ] } } } ] ] ] ' ' ' ] U 9 J ) | ] ) ) ) ] ] ] ] ] ) i Y ) Y U U u u Y i E r R W @.O.3 q 3 3 2 a e u 2 u u u u p 4 6 p / 9 < < 6 6 0 < < 5 5 @ @ 5 3 3 @ @ 1 y 1 X                   o X x m.D.J.W.J.K.K.K.Q.!.!.K.E.!./.).'.'.'.].].].].].].].].].].].'.'.'.'.'.'.'.'.).).).).).).(./././.!.!.Q.K.K.K.K.H.H.C.V.V.V.V.V.V.V.V.N.N.B.B.N.N.V.V.V.V.V.C.C.C.C.C.C.C.B.Y.R.6X5X5X6X4X4X4X4X4X4X5X0X4XT.T.T.T.T.1.F G.G.G.G.R.T.T.T.T.T.T.T.T.T.T.T.r.r.r.r.r.r.e.e.e.r.r.r.r.e.r.0.r.w.e.;X9X9X9XyX;X7.| ` j 1 O O , * * - * * * * * & % % % O O O O : : : w y q w w w : : # w w w # # # w # + # w # # # w w y : : % % & & & ; & ; ; & & * * * = O O O O O O O X ` %X.X4.4.4. X8.8.8.8.8.8.6.6.6.6.6.O.O.O...........] ( ] ] ] ( / _ ] [ ] ] ] ..X._ ` ` ] ] ] ) / (  .~ J i.i.i.i.~ @ .   . o           . . . . . . ",
"o.| | } O.O.O.O.O.} o.o.o.o.o.' W W ' o.6.8.8.4.8.8.8.6.6.8.#X#X#X&X&X&X=X-X%X9.2.9.;XuXmXmXmXmX9.W L T | | Q Q o.} o.o.o.O.o.' o.o.} { { { ` ` ` j j j j j _ _ _ / _ / ) ( ) ] } ....} } } ] ( R Y U U ) U U ' ` u u _ { ) U 7 p 4 7 ) ] ] ' J Y 6.( ' T r e { } < q # # 3 4 3 2 < 4 u 6 2 u u 3 5 / _ 9 < 3 y q 1 # # 5 5 @ @ 1 2 2 # + + X                   . o   % v.A.D.W.E.Q.E.K.Q.~.~.Q.J.E.!.(.).`.'.].].].].].].].].].].].'.'.'.'.'.).).).).).).).).(.(./././.!.!.Q.K.K.K.K.L.L.S.V.V.C.V.V.V.V.V.V.N.N.N.V.V.C.C.C.C.C.C.C.C.C.V.V.V.Y.R.R.5X6X5X4X4X4X4X4X4X4X4XT.T.T.T.T.T.T.G.M.G.G.G.G.R.T.T.T.T.T.T.T.T.T.r.r.1.r.r.r.r.e.e.r.r.0.0.1.r.r.r.r.e.e.e.0X*X*X*XyXiX9X:._ h $ = * - * * * * & * * * % % % O O O % : d y w w w # # w : : : # : : : : # O # : # # w # # # # # # # # : : : % * - ; ; & ; ; ; ; ; ; - - & & - * O y ;XXX4.4.9.5.9.5.9.5.4.O.6.O.O.6.6.6.O.6.O.....O...] ] ] .._ / / / / J / ] _ _ ..X.` ) ] O.O.O.O.@.O.{ [ @.O. .@.i.i.5 @     o     .   . . o . . . . ",
"o.O.O.o.o.o.o.} ] ' { ..O.o.o.o.+.8.8.8.8.+.o.o.8.a.#X8.8..X8.4.4.8.&X&X&X&X&X=X&X-X;X%X;XuXmXmXuX2.Q Q I Q o.#.W o.} ' } } o.o.} } } { ' ) ` ` j j y y j j _ X.h / / / / X.] ] ........O.} } ] @.} ] } ..{ p u a e p p U p y a u u u u Y ` Y u J ..} ..6.' ' @.W R 3 # # 3 3 2 # + @ 3 4 2 5 e 9 < < 2 e a 5 @ 5 6 5 < < u :.:.| 9.s.9.2.6.6.| a 3 1 X         O o   % D Z.D.W.!.!./.!.Q.Q.Q.!.K.H.K.Q.!.(.[.[.].].].].].].].].].].].].].'.'.'.).).(.(.(.(.).(.(././././.Q.Q.Q.K.K.H.H.H.H.C.V.V.V.V.V.V.N.N.N.B.V.C.C.S.S.C.C.H.C.H.H.C.V.N.Y.6X6X6X5X5X5X4X4X4X4X4X5X4X4X4X4X}.T.T.T.T.G.G.G.G.G.T.T.R.T.T.T.T.T.T.1.T.T.r.T.r.r.r.T.e.e.r.}.r.r.r.e.e.r.r.r.r.e.w.;Xe.e.0X9XtX;X6.@ = - - * & ; ; & * * = * = O O : d d w q w w w w w w w 1 # # : # : : : w # # # # w : # O O : # O # y : # # : : : - ; ; - - ; ; ; ; ; ; ; ; & * % s w.&X.X7.4.4.4.4.7.7.2.6.| | ....,.O...........] _ / / ` ` / p / _ _ _ 8 8 / / h _ ....@.O.@.@.@.@. .( [ @.@. . .O.i.a...< o o   o o . . . + o o o X . ",
"} o.O.o.} } } } @.O.O.O.o.+.+.8.+.8.8.O.o.o.6.6.8.8.+.8.8.#X#X#X+.8.#X&X&X&X&X:XwXwXwXwX-X-XmXmXmX7.L I T Q | Q Q o.o.} o.o.} } } } ' ' ' ) ` _ j y y y j j j _ / h h / _ _ X.] ] ] ] ] ' ' ' [ ] ] ] ] ' ) T T 8 U _ p a p 8 J U ) | { u 4 u u i Y ` ` | o.a.O.@.) 3 @ # # # 3 1 1 1 3 3 3 5 4 < 4 6 2 @ 3 6 3 4 | s.%Xw.wXsXiXyXyXsXyXqXwXyXaXyX-X9X;X7.:.i 3       & M B.W.W.^.!.!.~.~.~.~.(.!.K.J.K.K.!.(.).`.'.'.'.].].].].].].].].].].'.'.'.'.).).(.(.(.(.(./././.!.K.K.K.K.K.K.K.P.H.C.V.S.S.C.V.V.V.V.V.V.C.C.C.C.S.H.H.C.H.C.C.C.N.Z.Y.6XR.6X5X5X5X4X4X5X4X4X4X4X4X4X4X}.T.T.T.T.T.G.G.T.T.T.T.R.R.T.T.T.T.1.1.1.1.1.1.1.1.r.T.r.*.r.}.e.0.r.}.}.e.e.0.e.0X;X;X0X0XwX9X0XyXtXG = & & % , - - * O % % : O O O : d : : : $ # : : w : : : # : : # # # # : # # # : : # # # # # O + # y w # # : : : % & * & - & & * & & - - ; - * d 7.XX X9.9.9.8.4.4.7.,.:.| ` ` ..,.,.....6.....] ] ] ) _ ( J J ( ] _ ~ ( 8 / / / _ _ / / ( ( / J 8 / / p 8 / ] [  .@.@. .i.~ . o   o   . .       . . . . ",
"@.} } } o.o.o.} } o.O.O.o.o.o.o.} } } ' [ o.8.a.8.6.| W W o.6.8.a.a.#X#X&X&X.X8.%XuXuXuXuXuXmXmXmX-XI Q T R Q o.o.o.o.o.o.o.} } } [ ' ' ) _ / h y y y y j j j h _ h h _ X.X.X.X.....] ' } } } } [ ( / J U ) { | ( ] ..) ) ) ( ( ] ] | ) u 6 u Y ` i ` Y e T O.O.+.| # @ 3 # # @ 3 @ # 1 3 3 5 2 4 3 5 5 < 4 | 9.*XuXaXsXaXyXyXwXwXOXqX9XXXOXqXwXwX*X*XeXeXyXyXqX;XI + & M n.A.S.W.~.~.~.~.!.!./.~.!.K.K.K.H.K.(.).`.'.].].].].].].].].].].].'.'.'.'.).).).(.(.(././././.!.K.K.K.P.K.K.K.K.L.H.C.S.D.S.C.V.C.C.V.C.C.V.V.V.C.C.C.C.S.V.V.V.Z.R.8X6X6X5X5X5X4X5X5X5X4X4X5X4X4XT.T.T.T.T.T.T.T.T.T.T.T.T.T.R.R.R.R.T.T.T.T.T.r.r.T.r.r.r.T.r.r.e.r.}.f.e.e.f.e.f.r.r.f.f.f.0XwXwX0XwXwXyX0XA > x l l l ; ; & & = o & % O # w w : w : # : : w : : # # : : : # # # : # # # : # O # : # O + O # : : # # # # O # : : % & % % * * % * * & = d >.9.4.4.7.9.4.4.7.,.<.<.<.j ` ` ,.,...........] ......] _ ] ( ~ ( ] / J ~ / ] / 8 / / 8 ~ 8 f h / / ) / h _ h J ~  .i.i.i.i.u.< X o . . o .   . @ . . .   ",
"} } ' ] } o.} } } | | O.o.| W T E E T T { } o.o.| 6.8.6.o.+.o.} O.8.O.o.8.%X X8.4.&XuXwXuXmXmXmXmXuXQ T T Q Q o.o.o.o.} o.} ' } [ ' ' T ) Y Y p j y y y j j j h / _ _ _ _ ] ] ] ( ( ] } O.O.} ' ..] _ ( / U U / _ ) ( ] ..] _ ) ] ( p u p Y ) ' ) U R U u e I | $Xo.@ @ 3 # # @ 3 @ @ 1 3 5 5 4 p 5 9 ) 8.:XaXaXwX-XXX*XwXwX-XwX-Xw.;X9X;X;X-X-X-X*Xw.XXqXeXqX9XeXyX;X*.F v.N.D.W.~.~.~.~.(.(./.[.(.Q.K.K.K.P.P.Q.!.(.`.'.].].'.'.].].].].].].].'.'.'.'.).).(.(.(././././.!.K.P.P.K.K.K.K.K.H.H.S.S.S.C.C.S.S.C.S.C.C.C.C.C.S.C.C.V.V.V.N.Y.8X6X6X5XT.4X4X4X4X5X5X4X4X4X4X4Xe.e.T.T.T.T.T.T.T.T.T.T.T.T.T.T.R.T.T.T.T.T.T.r.1.r.T.T.T.1.1.r.T.r.e.}.}.}.0X}.}.}.f.f.e.0XtXyX0XtXwXwXeXiXiX}.G.F.Y.Y.M.F F S H x x > # # # # # # : O # # # # : : O : : : : : : : : # : : O O : # O + # # # O # # # # # # # w : : % % % % = = = % * > >.%X X4.9.5.9.4.2.,.<.G G j j ` <.,.,.X.X.X...] ] ] ] ] ] _ / / p 8 h _ / / 8 / ~ 8 ~ ~ ~ ] X._ ~ ( ] ] ] ]  .] ^  .@.i.i.i.i.i. .. X   X   . .   . X + . . ",
"o.O.O.O.o.} } o.O.o.@.O.+.O.O.+.O.O.6.6.6.6.| E Q 6.s.#X#X#X#X8.+.8.8.o.o.4.9.%X%X8.-XwX:XuXiXmXmXmX6.R T Q Q W o.o.} ' ' ' ' ' ' ' ' ' ) ) ) ) j h h j h h h _ / _ _ _ ] ] ] ]  . .] ' ( ' ] ] ..] ] ..X./ p J p 6 6 U ) ) ) / / p p ) | } } } ( U 7 U | { T ..$Xo.@ @ # X + @ 2 @ + # 1 5 2 < 3 T %XuXaXaXyXeXwX;X9.9.%X%X-X-X%X9.w.;X;XXX%X*XOX*Xw.q.;X0X0X;XoXqXeXpXgXR.Y.m.H.Q./.(.`.`.(.(.~.[.{.^.W.L.H.H.S.H.K.Q./.).`.'.'.].].'.'.'.'.'.'.'.'.'.'.).).).(.(.(./././.!.K.P.P.K.K.K.P.H.H.S.S.S.S.H.H.S.C.C.S.C.C.C.S.S.S.C.N.A.A.N.Y.R.R.R.R.T.4X5X4X4X4X5X4XoXoXe.T.T.T.T.T.T.T.T.T.T.T.T.T.T.T.T.T.T.T.T.T.1.r.T.r.r.1.-.=.1.1.T.}.T.0XpXT.e.0X0Xe.}.0X0X0Xf.0XtXiX;X;X0X0XeXyXsXgXR.z.B.N.N.n.Z.B.m.M.A d : $ $ $ $ 1 : O # # # # # : # : : # : : : # # # : : O # : # + # # # O O # # O # # # 1 w w : * % O % = * = O = G 5.4.9.9.4.5.4.2.:.<.G G j j j j <.,...X.X.......] ) ) ) ) ) / X._ h / X./ 9 ~ / _ _ _ _ _ _  .X._ ^ ( ~ ~ ~ ^  . . ...[ ^  .i.i.i.< X . @ . . X   . @ . < 7.",
"} } o.o.o.} } } W ' ' ' [ } o.o.+.+.8.8.8.8.6.O.8.8.8.8.O.o.8.#X X X#X#X8.o.Q 9.&X#X%X:XuXuXmXmXmXmX=XW I T Q o.W o.} ' ' ' [ ' ' ' | { { ) ) ) h h h h / / / _ _ _ _ ] ] _ ] ] ] ......} } ] ] [ J 8 ) ..X._ ( J U a e y u U 8 p p p ` | ..} } { ] ' o.O.O.O.O.$Xo.@ # # + + @ 2 @ @ # 3 < 4 Q 4.:XaXwX>XwXwX&XwX-X;X5.&.5.;X9.XXXX5.w.%X2.2.w.XXoXw.0.w.0X0X;Xq.4X5XoX6XpXpXR.Y.W.!.(.[.`.~.`.~.`.[.[.{.^.L.L.H.S.C.S.L.Q.~.(.`.'.'.'.'.'.'.'.'.'.'.'.'.'.).).(.(.(.(./././.Q.K.P.P.K.K.P.H.H.H.S.H.H.H.H.H.H.C.C.C.V.V.C.C.C.C.C.V.n.Y.R.R.R.R.R.5X5X5X5X5X5X4X4XoXoX4X4X4X4XT.T.T.T.T.T.T.T.T.T.T.T.T.T.T.1.T.T.1.1.T.T.T.T.T.r.r.T.pXpXT.r.}.r.r.0XpX0X0X0X0XiX0Xr.r.0X0XtXiXtXiXiXiXiXgXR.b.c.c.c.V.N.N.F.Y.U.M.F A > : O : # # $ $ O % & : : : # : : : O : : : # # : : O # # # # O # # # O O # # w w : # : : : & - * % % d 7. X;.9.9.3.4.2.:.:.G G G j j j j ` ` ` { ....] ....] _ ) ( ( ~ / / / _ ] _ _ / f / _ / / / f h f h X.X./ ~ ~ ( ] ^ ]  .^ ^ i.i.@.@.~ . . . . . . X . . 4 8.aX",
"} } } o.o.o.} } | | | | | | { W ' | } } [ @.+.i.8.8.8.6.o.W o.8..X4. X&X&X9.o.2.4.=X&X-XuXaXmXmXmXmX1XW Q Q Q #.W } } ' ' } } } [ } ' ] ' ) ) ) / ) / _ _ / _ _ _ _ _ ] ] ] ] ] ] ( ( ] ..O.....} ( 8 p ) _ ) U ( ] ) i a a / U p p p p U U Y Y { | O.O.' | } } +.| < @ # $ @ @ 2 5 5 < 3 I 5.wXyX>XXX X&X:X&X9. X-X;X9.5.%X%X2.9.%X9.7.s.6.Q :.%X%Xw.;.&.q.e.q.e.T.e.t.T.6XpXgX8X{.^.~.`.[.`.`.`.~.~.[.[.{.{.^.E.J.H.S.C.H.H.K.~.(.).).'.'.'.'.'.'.'.'.'.'.).).).(.(.).(./././.!.K.P.P.K.P.P.H.H.H.H.H.H.H.H.H.H.S.C.C.C.C.C.S.C.C.N.m.Y.R.6X6X5X5X5X5X4X5X4X5X4X4X4X4X4X4X4XT.T.T.T.T.T.T.T.T.R.T.T.T.T.T.T.T.T.T.r.T.T.1.T.T.}.}.r.r.}.}.T.r.r.T.r.T.0X}.e.}.0XIXiX0Xe.f.0X0XtXyXwXtXiXiXsXsXR.V z.z.n.z.c.N.C.S.W.W.Y.U.F x > % : O # O : : : : : # : : : : : : : # : : : O # # # O # # # # O # # # # # O O X # : & x ; & d >.w.9.2.3.3.3.2.:.` ` G G G j j j j s ` ` _ X.X.X.] ..X.X.X.( / _ / / f ~ f f ~ ~ f 8 8 8 f 9 9 h 9 9 f h ~ / ] / / / ( ^ ^  .u.i.@.i.@.< . . .   X . . 7 =XaX>X",
"} } } } ' ' } } o.} ' O.O.O.O.O...O.O...| | | } O.+.8.a.8.8.#X#X&X#X#X#X#X&X X2.o.&X=X#X-XuXiXmXmXmXuXI I Q Q R W o.' W [ ' [ ' [ ] ] ] ] ] _ ( U ) ) _ _ _ _ _ _ ] ] _ ]  .] (  .] ] } ] ( J J ' } | Y 7 p U U / ) ( ] ) p ) _ / / ) / 7 4 r i J J ] T u E u T @.T # @ # y # @ < 6 3 < 2.-XwXqX>X>X&X&X-X-X%XXX=X-Xo.L o.9.%X&X4. X X2.9.s.Q P 5.XX%X2.2.w.w.w.w.e.-.A T.0X5X6XpX8X8X_.~.`.`.(.(.(.`._.{.{.[.{.~.~.!.Q.E.L.H.H.H.K.!.(.(.(.(.'.'.'.'.'.'.'.'.'.).).(.).(././././.K.P.H.P.P.P.H.S.H.L.H.H.L.L.H.H.C.C.V.V.C.V.V.S.V.N.Y.R.R.6XR.4X5X5X5X5X5X5X4X4X4X4X4XT.T.T.T.T.T.T.T.T.T.T.T.T.T.T.T.R.U.T.T.r.1.1.T.T.1.-.T.r.T.r.}.}.r.T.T.}.}.}.pX0X0Xf.f.}.0X0XT.0X0XyXuXtXyXwXtXuXiXIXNXgXF l.V V j.k.z.b.k.z.V.L.^.Y.U.-.S x > : # # # # # # # # : : : : w : : : : : # # # # O # O + O # # # # O O O O + # O & > ; > <.q.3.3.2.4.4.2.:.:.` s G G G G ` ` ` ` ` ` ` ` X.] X._ _ _ X._ ( _ _ _ h h h h h / _ / / _ / h X./ f f / _ ~ ~ ^ / 8 J U ~  .u. .i.i.@Xi.8 . X o o + . 7 -XaX:X>X",
"} } } } ....} } } | } | } O.O.o.} o.6.6.6...o.O.O.o.o.O.8.8.8.8..X8.#X&X=X&X#X#X#X=X=X-X&XwXmXmXmXmXaX6.E E W R { { R W | | } ' W ' ' ' ' ] ' ( _ / _ _ ( ( _ ( / ] ] ] (  .] ( ) ( [  . .....( ' U ) ] ) u a 6 a a p ~ ] _ 6 / ( ....] U u u i i i e Y R 4 R | @.X.@ @ 3 2 @ @ 0 2 T &XyXaX>X-XOX5.XXuX&Xo.2.9.&X%X&.r ` 7.s. X8.4.9.2.2.s.9.L ! 9.9.5.5.w.3.w.q.w.%.=.T.T.5X6X6X6X8X8X[.`.`.`.`.~.`.`.(.(.(.`.[.[.[.`.(.~.!.Q.K.K.K.K.Q.~.(.).(.).'.'.'.'.'.'.'.).(.(.(./././.!.!.K.P.P.P.P.P.S.S.J.L.H.H.H.H.H.H.C.C.H.H.C.C.V.B.U.R.R.R.R.5X5X4X4X5X5X4X4X5X4X4XoXoX4X4XT.T.T.T.T.T.T.T.T.T.T.1.T.R.R.1.r.1.1.T.U.-.T.1.T.r.e.r.T.T.T.e.}.0XT.1.-.G.T.1.e.0X0X0Xf.f.f.0XiXiXiXmXnXiXmXmXmXmXmXpXD V Z x.l.j.V j.k.k.z.z.B.V.W.Y.Y.F v > : : # O # # # : w : : w : : : : : : : $ # # + + + # # # # # + # # # : # w w , O t 3.5.5.5.3.3.2.:.:.:.E <.j G G <.<.<.` ` ` _ ` ` X.X.X.X.] X._ / _ _ _ _ / _ _ ~ 8 8 8 f / / / X. .X. . .^ ^ ~ ~ ~ ( _ ~ ^  .....@.i.u.i.i.^ . X . o @ J :XaX1X1X&X",
"' } } } } } o.o...} } } } ' ' | | | } } } } } O.o.o.o.@.o.o.8.8.+.+.4. X&X&X#X#X=X:X-X:XuXtXuXmXmXmXmX9.i I W W T W W { { ' ' W ' [ ' ' ) ) ) ) ) ) ) ) ( ( _ ) ( ( ( ] ] [ ] ' ] ] [ [ ] ( ] O.] ] U 7 / ) p 8 5 6 p ~ ( _ p 8 / / / / Y Y i Y ) T Y | O.O.O.O.@.6.@ @ 3 3 1 @ < 2.yXaXeXwX*X-X:X X#X-X&X2.L ,.#X#X4.T e E 6.9.2.4.4.2.E :.s.:.L 2.7.6.5.5.&.>.q.7.$.t.T.r.T.5X6X6XR._.8X8X[.).`.[.`.~.`.`.~.[.`.`.'.'.`.(.(.(.(./.~.Q.Q.!.!.!.(.(.).).'.'.'.'.'.).(.(.(.(.(./././.!.P.P.P.P.P.H.S.S.H.H.H.H.H.H.H.C.C.H.H.C.C.N.N.Y.R.R.R.R.5X4X4XT.4X5X5X4X4X4X4XoXe.4X4Xe.T.T.r.r.T.T.T.r.T.T.1.T.-.T.r.1.-.1.T.1.-.1.T.T.r.T.r.1.1.1.r.e.e.1.-.e.}.0Xr.w.tXiXiXtXiXiXtXtX-X0XtXnXnXNXNXmXiXiXIX}.M j.C C V V V V l.l.k.k.b.n.B.Z.F.Y.M.S x > > > : : , , : : w w # 1 1 # # : : # O O : : O O O O O O # # # # # @ # : d >.0.5.5.3.3.2.2.:.:.` E <.` <.<.<.<.` ` ` ` ` ` _ _ X._ _ ] ] _ _ _ / _ ) / / _ _ _ / h 8 8 f f f f X.X.X.X.X.X.X._ ~ ~ / ~ _ _  .i.i.^  .i.i.5 . @ . 0 =XaX:X:X&X=X",
"} } } } } [ ] o.o.} o.O.O.} | | } o.O.O.o.} O.O.+.+.+.+.+.+.8.8..X X.X.X8.8.9.%X&X=X=X-XuXuXnXMXmXmXmX%Xi E Q 6.{ | o.| W ' ' R ' ' ' ' T ) ) ] ] ) ( ( ( ( ) ( _ ( ( ( ~ ( ' J ' [ [ [ ] / J [ ] ] / 7 J ( / ] 9 5 2 9 8 / / 6 8 9 6 6 7 U Y U } } } O.O.O.O.O..X| # 3 1 1 3 3 2.wXeXqX>XXX%X=X%Xs.&X=X&X XW ) +..X#X.XW I | 8.2.4.2.2.Q I 2.7.r Q 7.7.7.3.P >.w.3.%.0.T.r.r.4XT.R.R.6X6X8X8X[.[.`.`.`.`.`.`.`.`.`.`.`.'.`.`.`.(.(.(.(././.!.!.~./.(.(.).'.'.'.'.'.).).(.(.(./././.!.P.P.P.P.P.L.H.C.H.H.H.C.C.H.C.C.C.C.C.S.V.N.Z.R.R.5X6X6X5XT.4X4X4X4X4X4X4X4XoX4XoXe.T.r.T.e.1.T.T.e.r.r.T.r.T.T.-.1.T.r.-.r.T.-.1.1.T.T.r.1.1.1.T.T.T.r.r.r.0XmXmXnX0X}.tXtX0Xf.0XtXtXtXiXtXtXnXmXIXmXIXIXmXmXIXT.M C v.l.V C V V j.j.j.k.l.z.z.N.A.Y.Y.U.M.F D S m S v v x > > > > > : : O : # O O # # O + # # # : O # # X + + # # %.3.5.5.3.3.3.2.2.2.:.:.` ` ` ,.,.<.<.` | ....` ` _ h _ _ X._ ] X._ / p _ _ / h h / / _ _ / / _ X._ ~ _ X.X._ / ~ ~ f ~ ] _ 8 6 a ~ ^ i.i.i.i.i.8 + + 0 %XaX:X>X:X=X$X",
"o.} } ..} ] ' } } } } } } O.O.} } o.O.O.O.O.O.O.O.O.+.+.+.o.o.+.9.#X#X#X.X4.2.9.#X:X:X-X-XuXmXmXmXmXmX%Xu r R W R W | R R } | W ' ' ) T ) ) ' ] ' ' ( ( ( ( ( ( ( ( ) ( J ( ( J U ' ( ( ( ( J J U 7 J / 9 0 8 / ] 8 3 5 9 8 / 8 6 6 a 6 u T ) J U U U T ) ' O.+.$XK 3 q @ 1 { %XwX*XXXwX&X X%X6.E E | .X#X&Xs.{ | o.$X$X8.2.| ) 7.9.o.| 6.E T 7.:.| ,.7.9.:.P 7.w.>.E 0.e.r.T.5XT.R.6X6X8X8X8X8X8X_.`.`.`.`.`.`.`.`.`.`.`.`.`.(.`.`.`.).(.(.(./.!.!./.(.).).'.'.'.'.).).(.(.(././././.P.K.K.P.P.P.L.C.C.H.H.C.C.C.C.C.C.C.C.C.N.B.Y.R.6X5X6X6X5XT.5X5X4X4X4X4X5Xe.4X4Xr.e.T.0.T.r.1.T.r.r.1.r.T.r.1.T.-.1.T.T.1.T.1.-.T.T.1.r.1.-.1.r.T.T.1.r.}.tXtXtXiXtXr.}.iXtXf.>.1.1.1.}.iXnXtXtXiXnXmXIXmXIXmXNXIXU.B j.l.l.x.l.l.l.l.z.k.k.z.z.z.b.B.A.Y.Y.D.A.N.B.n.m.n.M.v.v.D D D F M v v x > > : : # # # O O O O + X # + $ # r 3.;.5.5.3.3.3.3.3.7.:.:.` { ` ....<.,.` | ....` | ` / / _ X.] ) _ / / u Y ) / / f f f f f f f / / _ _ X.X.X._ _ ~ f f ~ X._ f h h / ^ ^ u.i.i.i. .@ < &XaXwX>X=X&X=X$X",
"[ o.o.} } O.O...} } [ U ) ] o.O.O.} [ } O.+.+.+.+.o.o.o.o.o.o.o.8.8..X.X&X.X2.2.#X-X1XuX-XuXmXmXmXsXmX=XE I R 7 R T W R { o.W W ' W W T ) ) ) ) ( ] ( ( ( ( ( ( U U ( U J U ( ( J J ( ) ( / U U / 0 9 U 8 9 6 5 ~ _ 6 6 h 9 ~ / 8 8 h ` X.] ] J u 4 4 4 e u ] a.+.R 1 5 @ u -XsXsX-X-X:X=X-X-X&X9.} R [ +.#X9.2.` | 8..X8.9.6.U Q 9.2.W 6.:.Y :.s.2.T :.9.2.&.9.w.:.E 0.r.0.T.5XR.R.R.6XR.R.8X8X8X8X_.~.`.[.'.'.'.'.`.`.'.'.`.`.`.`.'.'.`.).(.(.!.!.!.!./.).).'.).).).).(.(.(.(./././.P.K.P.P.H.P.P.H.C.H.H.C.H.H.C.C.C.C.C.C.N.Z.R.R.6X6X6X5X4X5X5X4X4X4X4X4XoX4Xe.e.r.e.4Xe.T.r.r.T.r.r.1.r.1.1.-.r.1.-.T.T.1.1.-.1.e.T.1.r.T.F 1.r.r.-.-.1.e.}.}.1.r.0X0XtX0XtXtXtX}.f.f.f.tXnXtXtXiXnXIXIXnXmXmXmXNXgXD k.j.l.l.k.k.k.z.k.k.b.b.b.b.k.b.n.B.D.D.A.N.B.B.B.F.V.B.B.B.B.N.N.B.Z.n.m.n.v.M.D D S S c v x > % O : O # # %.0.*.3.3.3.3.3.3.7.7.3.7.:.` ` | ,.:.,.` ` | ..| ....` / / ) ) _ / / / / U U / _ _ ~ f f f f f f f f ~ ] X.X.X.X.X._ ~ f f ~  .X.~ / ..^ ~ u.i.i.@.< 7.yX:X>X=X#X X X.X",
"[ } o.} } } o.o.o.o.} } ' ' | 6.O.O.O.@.o.o.+.+.+.6.8.8.6.+.4.8..X8.4..X&X#X X X8.=X-X=XuXuXmXmXmXaXaX=X{ E { T | { T Q } ' L ' ' W W T ) ) U U ( _ ( ( ] ( ( ] [ J J U U J U ] U 7 U ) _ / p 7 ( / 9 9 / / 6 3 0 ] ~ 6 5 9 8 _ 8 5 6 / X.] ' ] T ` { T i e u o.@.T 3 3 u 7.*XqXwXyX:X6.9.&X>X&X=Xs.8.' 8.#Xo.9.,.R ' o.8.8.| U R 2.4.o.6.| u Y 9.7.I I 7.2.3.5.7.E E 0.0.t.e.4XR.R.R.6XR.8X8X8X8X8X8X[.`.`.`.[.].].].].].].].'.`.'.'.'.'.'.'.'.).(.!.!.!./.(.(.).).(.).(.(.(.(././.!.P.K.K.K.H.H.P.L.H.H.H.H.H.H.C.C.S.S.V.B.n.Y.R.R.R.R.5X5X5X4X4X4X4X5X4XoXq.oXoXe.0.e.T.e.T.1.T.T.r.r.1.r.1.T.-.1.r.-.-.T.r.-.F 1.e.1.1.T.-.-.T.0Xr.-.-.1.0.1.=.1.f.iXtX0Xf.r.r.}.f.tXmXuXtXnXnXmXNXNXNXmXmXIXnXmXNXNXR.C V j.l.j.k.k.k.k.k.l.k.z.z.z.B.B.B.Z.Z.F.F.B.z.z.z.z.c.c.c.c.c.N.N.V.B.V.C.C.C.C.C.D.D.F.F.F.M.M.D m x > d 0.t.t.*.3.3.3.3.3.7.7.7.7.,.:.,.,.,.:.:.| | | ` | | | ` ` Y p ) _ _ / / _ / p 8 h / / / X./ f h / h / _ _ _ ^ ^ X.X._ f / ~ ^ ^ ^ ~ ~ /  . .u.i.i.^ o.wXwX*X>X$X$X=X&X&X",
"} } } } } [ [ } [ } o.O...] ] ..} O.O.O.o.@.o.o.o.o.O.6.8.8.8..X8.8.9.#X#X#X#X=X=X=X=X&XuXuXvXmXmXsXaX=XI I W T E I R Q W R R | W W T ) T U W W U ) U J [ ( / ( ] ( J U ( U J ( ../ 9 6 / / 8 p 7 ) 8 0 8 / 8 9 2 ~ ~ 5 3 2 5 h f 5 3 2 6 8 U ] ' O.+.o.| T J O.#XU 3 e 9.>X9.5. X-X&X#.Q o.=X8.Q 6.s.o.a.#X@.8.8.R 4 R 8.#X{ u { 6.o.6.s.` e Y 2.9.T I :.:.7.9.&.e %.w.*.0.T.T.-.R.R.R.6X6X6X8XR.6X8X8X[.~.~.`.`.'.].].].].].].].].].'.'.'.'.'.'.'.(.(./.!././.).(.(.).).(././././.!.K.K.K.K.H.P.P.P.P.H.P.L.H.H.S.C.S.C.N.B.n.U.R.R.R.R.T.5X5X4X4X4X4X4XoXoXoXe.r.e.r.t.e.T.r.-.r.T.r.1.r.1.1.T.-.1.r.1.F 1.T.r.-.-.1.-.1.}.1.T.}.0X1.F 1.r.r.e.}.tX0X0X0XtXtXnX}.r.0XIXIXnXnXiXiXmXNXNXNXmXmXNXNXNXmXNXIXS V V V l.k.k.k.k.k.z.z.z.c.c.B.B.B.n.N.Z.D.D.Z.B.B.z.z.z.z.z.z.z.z.c.c.c.c.c.c.c.c.B.B.B.C.C.C.C.V.F.m.F -.0.;.3.;.3.3.3.0.3.3.3.3.7.,.>.,.,.,.<.` ..| | ` ` ` ` ) ` ` p p / _ / / / h p p p h h 8 / / f f f h _ _ _ X.X. .^ X.~ ~ X. .^ ~ _  .^ f ~ i.i.@X@X$X:XyX>X&X#X#X#X8.8..X",
"..} ] } o.o.} ' [ } o.o.O.O.O...} } } @.O.+.O.o.o.' W | O.8..X#X#X8.9.9.4.o.8.$X-X-X:X:X=XuXvXMXMXmXmX=XI I L I I I T | R K ' ' R R ' ) U R T ' U ) J J ' ( J J ( _ J 7 T ( 8 8 ~ ) p 9 / ] J 8 4 7 U 8 9 ( ] 8 y 9 ~ 8 y 5 3 0 f / a 3 3 2 7 U } +.@.@.+.O.@.@X8.e w w.aXyX*X6.8.=X:X-X X#X=X=X+.O.} R #.o.} 6..Xo.) u o.a.| a | 6.W { s.` e E 2.9.{ Y :.:.3.7.E e %.0.*.0.T.t.r.T.T.R.R.R.R.6X{.8X8X8X8X[.E.W.~.(.[.'.'.'.'.].].].].'.'.'.'.'.'.'.'.).(././././././.(.(.(././././.!.K.K.K.K.H.P.H.H.P.P.P.P.H.H.H.S.H.C.N.n.Z.R.R.R.R.R.T.5X4X4X4X4X4XoXq.e.oXe.e.q.r.t.e.e.-.t.r.e.r.1.T.1.1.r.-.-.T.T.-.-.1.r.T.-.F 1.}.}.f.1.1.1.-.F -.r.r.r.e.}.}.r.}.iXmXmXmXtXuXiXnXiXtXtXnXmXMXnXnXmXNXNXNXNXNXmXNXpXV C V l.l.z.z.k.k.z.z.k.k.b.n.N.C.N.N.N.Z.Y.A.Z.F.D.F.N.N.F.C.N.B.B.N.N.B.B.B.N.N.B.B.N.N.B.N.V.V.V.N.U.R.-.>.3.0.3.3.0.w.0.3.3.>.3.>.<.<.<.,.| ` | { ` ` | ` ` ` i ` _ u p p h p 6 a p h h p a a 9 / / 9 5 f f f f ~ X.X.^ ~ / _ ~ ^ ^ h / ^ ~ ~ ~  .i.i.i.1X1XwX>X&X=X X.X#X$X@.",
"} o.} W ' o.o.} ' } ..} } } O.O.O.O.O...} o.o.O.8.O.o.' | 6.8.4.#X#X.X9.6.T Q 9.=X:X1X1XuXuXuXmXmXmXmX-XI E 7 I I I T T R T ' ' R R W U { R R } R R ( J U ) J J J ) ' K u ) / 5 8 ( ~ 0 h a 8 ( J 4 2 6 9 J ~ 8 i 9 8 / 8 9 < 5 / ^ ~ J 6 y 2 p L R )  .i.+.8.6.X.q ;.qXyXaX:Xo.W 8.$X=X=Xs..X$X$X$X#X{ T T u R 2.8.} p U o.o.p T 8.} L | | R | | | ` I :.:.9.2.E y %.3.0.r.r.*.t.T.R.R.R.R.R.6X8X8X8X8X8X8X[.Y.E.!.~.`.).).`.`.'.'.'.'.'.].'.`.'.'.'.).).).)./././././.(./././././.!.K.K.H.K.P.L.K.K.K.L.L.P.H.H.H.C.V.C.C.k.Y.R.R.R.5XT.4X5X4X4X4X4X4Xe.4XoXt.q.e.0.t.r.T.r.-.0.r.1.0.r.1.1.r.r.-.-.r.r.r.-.F e.T.1.A 1.f.r.T.1.-.1.r.r.f.f.f.r.1.-.-.1.1.f.f.0XIXtX-XtXf.r.f.r.f.tXmXuXf.tXmXmXmXIXmXNXNXIXT.C C C x.x.l.l.x.z.z.z.z.z.z.B.N.N.N.N.A.A.D.D.A.A.D.L.P.P.P.P.H.P.P.P.P.L.L.L.L.S.S.S.S.D.V.V.C.V.Z.-.t.-.*.;.0.0.0.0.>.0.>.>.>.:.:.>.>.:.:.,.` :.` ` ` | ) p ` U _ / U p / / / h p a h h h h 8 9 9 f ~ / _ _ _ h _ _ _ _ h f g f ~ ~ 9 g ^  . .@.^ p.u.2XaXwXqX>X&X&X$X$X=X$X$X",
"' ' } ' ' ' [ o.' [ } o.o.} o.O.o.o.6.6.O.O.} o.+.8.8.8.} ) { o.8.#X#X#X8.o.Q 4.:X:X=XuXuXvXmXMXmXmXmX&XI ` I L r I E R T { ' R J W ' ) U U R ..U R ( J J ) J J J U ( K 7 U ( 6 7 ~ ~ 0 2 a 6 9 ~ 7 6 5 0 9 8 0 p 8 / h 8 f 9 5 9 ~ ( ) 6 2 2 a a 4 W +.+.o.8.@.I I &XeXOX>X:X&X9.2.o.6.} | 9.+.@.8.%X8.o.8.| 9 I 8.8.( 7 o.O.) U 2.o.R ` 6.| T R | I i :.:.7.:.e a 7.3.3.0.=.A t.T.R.R.R.R.6X6X6X8X8X8X8X_.8X[.W.Q.~.!./.(.(.(.(.(.(.(.`.`.`.`.`.).).).).).(.(.(./././././././././.Q.K.K.H.H.P.L.H.H.H.L.H.H.H.C.C.C.V.N.c.b.Y.R.R.R.5XT.T.4X4X4XoXoX4X4XoXe.r.q.t.t.e.r.r.t.1.r.r.1.t.r.-.1.r.1.-.1.r.1.r.r.1.e.T.F F 1.}.r.-.F -.T.}.f.}.}.}.r.A -.r.f.r.r.tXtXf.1.tXIXe.r.f.1.f.;XtXtXtXtXnXnXmXNXNXNXNXNXiXV j.l.z.l.l.l.l.z.z.z.z.z.z.c.B.B.N.V.A.D.D.D.D.A.A.S.L.L.P.P.P.L.H.H.S.C.V.V.N.V.V.V.V.F.B.B.B.B.m.-.*.-.0.q.t.0.0.0.t.0.0.0.0.:.%.:.:.&.` :.` ` T ` Y ) T _ ` _ ) Y p p p p / / / / / / h h h 8 8 f f ~ ~ ^ ^ X.~ ~ ^ ^ _ h h f 9 f f ~ u.i. . .p.i.$XuXuXwXeX:X>X=X=X=X$X$X$X",
"' W ' ' ' ' W } o.' ' } o.O.O.+.O.o.O.O.6.6.O.O.o.o.8..X8.o.' T | 4..X#X#X#X X X=X1X=XuXuXvXmXMXmXmXaX#XI E R r e I T I I W T R R T ' ( J U R ' u R ) J J ) U J ~ U J J 7 ( ( 9 0 7 ( / 0 6 5 1 8 / / 8 5 a p 9 3 9 / p 9 / ~ 5 < < 5 u 9 J ( ( a 4 I | o.+.$X@.! 5.yXaX9.&X>XwXwX X8.$XO.{ a.+.R R 6.8.+.#X8.U u { 8.} U ' O.O.R { ..R R 6.,.e R 6.I I :.:.2.| q s 7.>.:.0.=.1.e.T.t.-.R.R.R.R.R.6X6X8XR.R.8X8X_._.!.!.~.~.~.!.!.!.!./.(.(.(.(.(.(.(.(.(.(.(.(.(.(././././././././.K.K.H.H.H.H.H.H.H.H.H.H.H.S.S.C.V.N.z.z.b.R.R.R.5X4X4X4X4X4X4XoXoX4XoXe.e.q.0.r.r.r.r.r.-.1.r.1.-.1.1.-.r.1.1.1.r.1.A 1.r.1.r.T.-.-.1.}.T.1.F 1.}.e.>.r.}.1.-.A r.0X0X0X0XnXnXf.1.}.tXw.0XuXtXf.uXuX<XuXmXmXnXMXNXNXPXNXNXNXR.V z.z.l.l.l.l.k.k.z.z.z.z.c.B.B.B.N.A.S.J.W.W.D.A.V.C.C.C.H.L.L.L.L.H.S.S.V.V.N.B.B.B.z.k.b.b.n.U.t.*.-.0.q.t.t.t.0.*.>.>.0.>.>.:.:.%.:.E :.` Y E ` i i Y ) _ p i u a p a a u 8 ~ / / f f p 8 f f 8 9 9 f f ~ f f f f ~ ~ ^ ^ _ f ~ ~ f ^  .^ ^  .i.:XyXwX>X:X=X=X&X$X$X$X#X#X",
"o.' ' ' } } ' W } } } ] } ..O.+.a.O.o.....O.O.6.+.+.o.+.8.8.6.| Q { +.#X X X&X=X$X=X1XuXuXuXmXMXmXmXaX%XI r 7 4 I I I I I I R R T R R R U ) R R I U ) U J U J J ( 7 7 U 7 U J 9 0 6 U ) 8 8 2 1 2 8 ~ 8 5 y p 9 3 5 h h 6 ~ / 9 5 3 3 2 8 [  .( ~ Y r 4 ' $X#X4. XXXaXwX5.9. X&X#X X#X=X$X| 6.a.| R W [ } 8.8.8._ 4 #.6.| u W +.| R | ) R 6.| e Q 7.{ | ,.:.:.E a E 3.%.$.0.0.r.0.1.-.-.T.T.R.R.R.6X6XR.R.R.8X8X8X[._.~.!.!.!.!.E.E.Q.!.!.!.!.~.!.!./././.(./.(.(.(.(././.(.(././.!.K.K.K.H.H.H.H.H.H.H.H.H.H.S.A.V.N.B.z.z.m.R.R.R.5X5X5X4X4XoXoXoXoXe.e.e.q.0.r.r.t.t.e.r.=.t.e.1.t.r.1.-.r.1.-.1.e.1.S 1.r.r.}.T.A A 1.}.r.-.1.r.}.r.*.=.=.A A 1.f.f.w.>.r.0Xf.<.tXnXf.:.0XiXtXtXmXmXnXtXmXmXMXNXNXmXNXNXPXNXIXD l.x.k.l.z.z.z.z.z.z.z.z.c.c.z.B.N.N.A.S.D.W.W.D.A.N.N.c.C.C.C.C.C.S.S.D.D.S.S.N.N.N.n.n.n.n.m.-.*.*.-.t.0.t.t.t.0.t.1.0.0.*.>.>.>.%.:.%.:.:.E E ` s i Y _ Y u p i u p a 6 5 5 8 ~ ~ / / h h h h h 9 5 9 f f 9 f / _ ~ ~ ^ ^  .^ ^ ^ ~ f ^ ~ ^ ~ s.yXeXqX&X#X#X#X8.@.@.+.+.@.",
"} } } ' ' } } } J } O.o.} } o.O.O.O.6.6.o.] ] ..6.8.8.+.o.+.8.8.o.W ' o.8. X#X$X6.8.=X1XuXuXmXMXmXmXaX#XI r L L I I I I u L I T Y I R R R { R R Y 7 U U J U J U U 6 7 ) u u J p 7 6 y 2 8 J 6 1 5 9 9 9 5 5 8 ~ 6 < 3 a 2 0 9 5 8 ~ ~ ~ ~ 6 2 e  .) i 6 ] +.4.XX>X5.>X>X2.4..X6.2.! 2.#X#X` T a.8.8.6.] 8 ..#X#X..7 W a.6.6 R o...u ) { ) 6.` u Q 6.| ,.,.` ,.I a 3.:.t &.w.>.%.&.*.-.T.T.T.T.R.R.R.R.R.R.8X8X6X8X8X8X_.Q.Q.Q.Q.E.E.E.!.!.Q.Q.!.!.Q.Q.Q.Q.!.!.!.!././././././.!.!.K.K.K.P.L.H.H.H.H.H.H.H.H.H.S.A.N.B.n.z.k.U.R.R.T.5X5X5X4Xe.q.oXoXq.q.q.q.q.q.e.t.-.r.r.t.-.r.r.*.r.1.-.1.r.1.A 1.e.1.F 1.e.e.1.-.=.=.}.}.1.*.r.r.1.1.1.1.r.}.r.0X0Xe.>.>.f.0X1.r.nXMXMXtXf.nXtXnXmXmXMXmXmXMXMXMXNXmXmXNXNXPXNX}.n Z C l.z.k.z.z.z.z.z.z.z.z.z.c.B.B.N.V.A.D.W.D.A.N.N.c.c.C.C.V.V.V.V.V.V.V.A.N.A.A.Z.N.Z.Z.U.-.*.-.-.-.t.t.t.-.t.*.0.>.>.*.=.>.:.%.%.%.%.<.` s Y Y i i i p u / / u p p a 5 3 5 6 9 f / h f f h h f f f f h f / ^  .^ ~ f f ^ ^ ^ ^  .^ ^ u.i.O.1XyX*X&X&X#X.X#X.X8.$X$X$Xa.",
"} } } } ] ] } ..[ ' ] o.6.O.O...o.o.O.6.6.O.} } ..O.+.8.4.+.8..X8.+.} W Q 8.$X$X#X8.-XuXuXuXvXmXmXmXaX#Xr E T I I I e 4 r E E T i I { T R ) U T E 7 U T U U 8 ( ) 6 4 U u p J 4 6 h p < 9 ~ / / a 9 J ~ 8 3 0 ~ a < < 5 2 < < < 5 9 ~ ^ / 3 3 a U ' } ] / Y ;.>X&X2.XX>X9.#X=X<X=XQ o.#X=X6.R }  .O.#X6.u U 8.8.] U ) 8.8.U T o...U R { ' 6.{ e { | | 6.| T | i ` 7.P E w.3.t t ;.0.r.e.T.t.T.T.R.R.R.R.R.6X6X6X6X8X8X8X_.E.J.W.E.E.E.E.Q.E.E.E.Q.E.E.E.K.Q.Q.Q.Q.!.!././.!.Q.K.K.P.P.P.L.L.H.H.H.S.H.H.H.C.S.V.N.B.z.k.x.b.U.R.U.T.5X5X4X4XoXoXoXoXq.q.e.0.0.r.e.t.*.r.e.t.t.r.1.*.r.1.-.1.1.1.*.*.e.1.S 1.e.1.A r.}.>.r.}.1.*.f.1.=.1.}.1.1.tXtXtXtXr.*.r.f.;X}.0XtXtXnXIXnXtXnXmXnXmXNXmXNXmXnXnXNXNXNXNXNXNXNXIXA z n Z C l.l.z.z.z.z.z.z.z.z.c.B.B.B.N.A.D.W.J.S.V.V.V.C.C.V.V.B.B.B.N.N.N.B.B.B.B.B.n.n.n.U.-.-.-.-.-.t.t.-.-.*.*.>.*.>.>.:.>.:.%.%.E E :.E i i i i i u p p / U p p p p a 5 5 2 2 6 f f f 9 f f ~ ~ ~ _ _ _ f 9 f f f f f ^ ^ g ~  . .u.i.i.=XwXwX-X&X&X=X&X=X=X=X$X$X@.@.",
"' ' } ] ] } ] } O.] ( ] O.a.6.O.o.} o.O.6.a.6.O.O.o.' o.6.8.8..X#X#X#X8.{ } s.=X-X=XuXuXvXvXvXmXmXmXaX8.r ` E I i r e e I E T I r I | R R T u T ` 7 U T U u u U ( u 4 0 6 U J < < u U 2 0 9 7 U 6 9 8 / h < < 9 8 9 0 5 6 9 8 0 @ @ 3 9 / J J ' U O.+.a.| :.XXeXaX-X>X>X%X9.9.%X=Xs.8.+.$X$X8.K 8 K o.8.{ 7 ' 8.[ p p { 8.R R } O.R I { ' O.{ u { ` | ,.) ` ` i :.:.r :.w.E i :.q.0.>.0.r.r.T.T.T.R.R.R.6X6X6X6X6X6X6X8X8X_.Y.J.J.J.J.J.J.W.J.J.J.J.J.J.J.K.K.K.K.K.K.K.K.K.K.K.K.K.P.L.H.H.H.H.S.S.C.C.C.C.V.V.B.n.k.j.l.v.R.R.T.T.4X4X4X4XoXoXoXoXq.e.e.0.t.r.0.0.t.0.r.*.1.1.*.1.r.=.-.0.1.1.=.*.r.=.A 1.e.-.A 1.}.0.r.}.1.=.1.=.A 1.1.<.1.tX0Xf.f.>.G f.f.f.tX;X0.<.<.f.vXvXnXmXuX<XnXtXtXnXnXnXmXNXNXNXNXNXNXNX}.v z Z Z C C l.k.z.z.c.c.c.c.c.B.B.B.N.N.A.D.D.J.S.C.C.V.V.V.N.B.B.B.B.B.B.B.z.z.z.z.k.k.b.-.-.-.-.-.t.t.-.t.1.0.*.*.*.>.>.:.<.:.%.` E E ` E i a i i i a p U U p u p u p u p a a y 6 8 f ~ f 9 0 f ~ ~ ~ ~ _ f 5 5 g f ~ ^ u.u.~ f ^  .u.p.i.:XqX-X-X>X&X&X=X&X$X$X$X.X+.+.",
"U ' } ] ' } } ..O.O.} ] ] O.O...O.O.O.} } 6.8.8.o.+.+.O.O.O.o.@.4..X&X&Xs.6.7.9.-X:X1XuXuXvXmXmXmXuXuX+.r s Y r r r r I Y I e e e i ` 7 T | R R ) 7 U U 7 7 7 7 J ) ' 8 7 ( ] U R ' } ..` T 7 7 U 0 < 8 _ 6 3 5 9 ~ 9 3 3 9 ( f 0 @ # # 8 ]  .( 7 O.#.4.#X%X*XqXyX*X X&X7.2.#.2.8.| L R 8.s.s.8.E L K +.d._ W 8.+.h a T 8.W 4 { 6.R r | W o.| u ` ` ` | T ,.| E :.Q ` 7.&.e ` 7.e.*.%.>.r.t.t.-.T.T.T.R.R.R.R.6X6X6X6X6X8X8X^.J.J.J.J.J.J.W.J.D.J.J.D.J.J.H.H.H.K.H.H.P.P.K.L.L.L.L.L.H.H.S.S.H.A.A.V.V.V.V.N.B.n.z.k.V C v.R.T.T.4X4Xe.T.e.e.oXq.e.q.q.q.0.0.0.0.=.*.r.0.*.r.1.=.0.0.A -.0.1.1.*.1.r.A F 0.e.-.A =.0.e.}.1.A A A >.1.f.f.7.f.;Xr.%.%.A <.f.0Xf.tX;X1.f.tXtXmXmXnXnXnXtXtX;Xf.f.tXnXmXNXNXNXNXPXNXNXIXS N F N Z Z Z C x.z.c.c.c.c.c.c.B.B.B.N.V.A.D.W.W.L.D.F.V.V.V.N.N.B.B.c.c.z.z.z.z.n.v.v.v.-.-.-.-.t.t.1.-.1.1.1.*.1.>.>.*.%.%.<.E <.` ` E E E Y Y i Y a Y _ p 6 u p a a a 8 8 a a y 5 f ~ h 5 3 5 h h f g ~ ~ ~ f 0 5 f h u.u.^ ~ ^ ^ ^ u.$X:XqX>X&X*X&X&X.X.X#X$X$X$X$X#X",
"[ ' ' ] } ( ( ....O.o.} ..O.O.....O.6.6.} o.+.O.+.+.8.8.8.+.+.+.o..X=X&X&X.XW o.=X1X%X=XuXvXmXmXaXuXuXo.e ` i e i r I Q I e e e L I I u { | 7 u ) 4 u e E | Q 2.4.#X=X:X-X=X&X:XuXuXuXuX1X=X#X&X-X%XQ 4 4 0 0 @ < 9 / ~ 9 0 ~ ( J 8 @ @ 5 J 0 U Y { I W  X+XXX9.:X&X4.$X=X$X&X.X:...) a U T o.#X.X| 4 W 8.O.) 6.8.} 6 Y 6.o.4 p o.R u ` R ..| u { T R ,.| | Y | :.` :.3.P e >.w.7.P %.0.1.=.A -.T.r.t.t.-.R.R.R.R.6XR.6X6X8X8XR.D.Y.D.S.J.A.D.L.D.D.J.D.D.S.S.S.C.C.C.H.H.H.L.L.H.H.H.D.D.A.A.A.N.N.N.V.C.V.N.B.c.k.j.C C U.R.R.4XT.T.4X4XoXoXe.q.oXq.q.0.r.t.t.0.-.t.r.*.*.1.-.*.r.*.*.0.0.1.-.=.1.1.A A w.r.-.A =.r.e.r.1.A A 1.w.;X0Xf.f.f.f.1.A <.f.0XuXtXf.f.f.>.tXnXvXMXNXtXf.f.7.uXnXnXnXtXtXmXMXMXMXPXPXPXPXNX}.H H H Z z z Z Z C x.z.c.c.c.c.c.c.B.V.A.S.S.J.E.W.J.H.L.K.L.H.C.C.C.V.B.c.c.c.z.b.z.k.U.t.-.-.-.-.t.t.-.-.-.-.*.1.*.*.%.%.%.:.E E ` E E T T i Y a i i u u _ i 6 / ~ 5 j ~ / 8 9 9 y 5 f h ~ f y h f f 9 h ~ ^ ^ ~ a y y g ~ ~ f f X.g  .*XeXyX>X&X&X#X#X8..X.X.X+.@.@.@.",
"} ' U ] O.[ ( ' o.} } } ....O.O.} ..6.6.O.o.o.} @.O.O.8.8.#Xa.8..X8.#X#X&X=X8.O.=X1X=X<XuXuXmXmXmXuX:XQ r ` E r E i r r r r i r I T T e Y R 4 u W #.8. X&XwXwXwXyXaXaXuXyXeX>X+XyXwX:XwX:X&X&X:XwX1X&X.X&X&X.X#.3 < 0 / / f f ~ ^ [ ~ 8 5 3 < ) 8 / U Q %XqXeXwX&X&X X%X9.#X=X=X&X$X} R } R U ..4.a.| u ..6.W U o.6.u 6 } +.7 p o.Q _ | J ..Q R | ` u ,.,.i u 7.| i :.:.t :.>.>.>.&.>.0.*.A =.r.T.t.t.t.T.T.T.R.R.R.R.R.6XpX8X8X^.Z.D.D.D.D.S.N.S.S.S.S.S.S.S.S.V.C.C.C.H.H.H.H.S.S.S.S.A.V.N.N.N.N.N.V.V.N.B.b.z.k.V C M M.R.T.T.4XT.4X4XoXq.e.oXe.q.0.0.r.t.0.0.=.t.0.*.0.1.=.>.1.*.*.0.>.>.-.=.1.1.A *.w.1.A A 1.f.1.1.f.>.A 1.f.;Xf.1.1.}.0X<.A 1.0XuXiXtX1.G A >.f.7.f.f.<Xf.>.G <.7.tXmXMXmXtXvXnXnXMXPXNXPXNXNXIX1.F S B z z z z Z Z Z C z.z.c.V.V.V.N.N.A.A.S.J.W.J.H.L.H.H.H.H.H.L.L.H.C.V.V.N.B.B.m.U.-.-.-.-.t.t.t.-.-.-.-.-.t.*.>.=.:.:.E E E E E ` ` ` i i i Y i u U Y p 8 / / 6 a 8 / / 8 6 5 5 f ~ ^ ~ h f f ~ f 0 g f _  .^ f 5 g f g ~ ^ u.u.i.wXeXwX>X>X X.X$X#X.X.X+.+.+.+.+.",
"} ' U W } @.[ U | ] ] } ......O.O.o.} o.O.O.} [ } o.} ' o.8.a.a.a.+.8.8.#X=X=X$X=X1X1XuXuXvXmXmXmXuX&X! E ` i r I L I r w r r r Y u 4 3 L 2.2.5.:XwXaXyXwX>X>X>XwX:X>X>X>X>X+X.XXX+X>X>X&X+X*X>X>X+X+X>XeX>X:X>X9.W < 0 5 5 9 6 K J J ( X.Y 4 ' ~ O.' | XX*X*X*X-X=X&X#XL Q 2.s. X$X+.o.a.} Y ] W 8.6.h h o.o.} [ 6.U 9 ] 6.U h } o.{ | J ] Q { | T I 6.,.2 T 7.I E 7.` :.>.E >.>.>.>.*.*.1.r.1.-.t.r.r.r.t.-.-.T.6X6X6XpX6X6X6XR.m.N.N.N.V.A.F.N.Z.V.V.V.V.V.V.V.V.V.C.C.S.S.S.C.C.A.V.V.N.N.N.N.N.N.N.N.B.b.k.l.V B Z n F R.T.T.4XT.T.e.e.q.e.oXq.q.t.q.e.t.0.1.=.0.*.*.r.-.=.>.*.>.*.*.0.1.=.=.1.1.A -.w.>.A G 1.r.>.>.f.>.A <.f.f.1.A A <.>.%.t >.0X0Xf.7.<.G >.;XtX;X<.f.tXf.f.tXtXtXf.tXtXMXnXnXnXnXMXNXPXPXNXNXNX}.S N Z n n n n n Z Z Z C l.k.c.c.C.V.V.N.A.A.W.^.^.W.J.K.L.H.H.H.H.H.H.H.V.V.B.B.N.Z.U.-.-.-.-.t.t.-.-.-.-.-.*.*.*.>.*.>.%.E E E E E E s E i i i s i i u p p p / ( 8 6 8 ~ J 6 5 5 9 f 8 ~ ~ ~ ~ ~ ^ ^ g 9 5 g ^ ^  .^ f 0 g ~ ^ u.i.$XeXeX>X&X>X&X X=X=X$X$X#X#X#X#X#X",
"....) J ( O.o.' ) ] } ] ] ..O.@.O.o.' ] o.O.o.o.o.+.o.W ' O.+.+.O.} 6.a.#X=X=X1X1XuXuXvXvXvXmXmXmXuX#XL { E r r L 4 L e r E r r J 4 4 Q *XuX:X*XwXwXwXwX:X*X*X>X>X&X-X:X-X:X*X X X&X>X&X X%X*X>X>X X5.*X>XXXOX*X:X:X=X9.W 2 3 3 3 4 9 J _ ( J @.[ #X XOX*X*X8.8.a.s.#X%X{ u 7 | 6.#X$X8.8.o.| +.R } a...p K } 6.( o.{ 9 ] 6.R 6 } o.( | T ) { | | 7 ` 6.Y 4 | { i :.:.,.,.:.&.7.7.:.%.&.0.r.>.$.*.r.r.1.=.=.-.T.4XT.T.T.6X6XT.6XR.R.Z.B.F.B.n.B.B.B.N.N.N.N.N.N.N.V.V.V.V.V.V.V.V.V.V.N.N.N.N.N.N.N.B.B.n.b.k.j.C C M M c -.T.T.T.T.r.r.e.oXe.e.q.q.q.t.e.r.*.0.*.*.0.>.0.0.=.=.0.>.>.=.*.1.>.A *.1.-.A 1.r.>.A <.>.>.=.>.f.>.A %.f.f.>.A A <.w.f.>.7.;X;X1.G <.f.tX<XuXnX7.<XNXMXMXNXnXmXnXnXnXMXMXMXnXnXMXNXPXPXPXNXNXiXS n n Z Z Z Z Z Z Z Z Z Z x.x.z.c.N.V.V.V.S.D.W.^.E.W.L.H.H.L.L.H.H.H.C.V.V.B.B.N.Z.U.-.-.-.-.-.-.-.-.-.-.-.*.*.*.*.&.%.%.E E E E E E a E Y i i i i a 7 6 u p p / p 5 a 8 9 3 # 5 9 8 5 9 0 9 / ~ ^ _ f f g 0 g ~  .i. .g g g f f u.1XeXwX*X&X&X&X.X#X$X#X#X#X8.+.@.@.",
"' } } U U } O.@.' } } } ' ] ..O.O.O.} [ } O.O.} } +.a.+.6.8.+.+.o.' } 6.$X=X$X=XuXuXuXuXuXuXvXaXaXuX8.L T r i I I 4 r I E I 4 r Q 4.9.>XyXwX>X&X&X-X*X>X:X:X:X-X&X X&X=X-X-X=X X X&X>X&X9. X&X&X X X X&X&X&X&X>X:X:X:XwXwX-X2.4 < # @ < J [ [ o.o.9.XX+X>XyX=X$X9.#X$X1X-X6.U U ` } a.O.#X+.' +.J U 6.8.o.4 J O.~ W 6.9 / 6.| 9 ) } J O.| 8 | 6.| 7 ,.,.U ) 6.T ` :.| ,.` :.7.7.:.s %.7.7.$.t *.r.t.=.$.*.r.r.T.T.t.t.T.T.pX6X6XpXgXR.n.b.n.n.n.n.n.n.n.n.B.B.N.N.N.N.N.N.N.N.N.N.B.B.B.B.N.N.N.N.B.n.n.b.j.V V B M N m c -.R.T.T.t.r.e.r.e.4Xe.q.q.q.q.e.0.0.0.1.1.*.*.w.>.=.*.0.>.>.*.1.1.=.=.>.1.=.A >.1.*.A <.1.>.A <.f.>.A A r.w.<.A <.f.;XtX0X;X-XtXf.7.<XnXnXuXf.;X7.f.nXvXvXMXMXnXnXnXmXMXNXNXMXMXMXNXNXPXPXNXNXNX1.n n Z Z Z Z Z C C C C C x.x.x.z.c.c.C.C.C.V.S.W.W.W.D.S.S.D.D.D.H.L.H.A.C.V.N.N.Y.U.-.-.-.-.-.-.-.-.-.*.*.*.*.=.*.=.%.%.E E E s E ` E s i e u i i a u u a u 6 p p 6 p ~ 8 3 # 5 8 9 5 5 < 5 / / f f f f ~ ~ g g f ^ ^ u.^ 0 0 g O.1XeX*X&X&X&X.X.X.X.X8.8.+.@.W K K ",
"U U ] ] ( ( ] O...} }  .] ] } O.O.O.O.[ } o.@.} } o.+.+.8.#X.X+.+.+.o.} a.=X=X$X1XuXuXuXvXvXuXaXaXuX8.W E r I E I u I I e 4 I 9.aXeX+X*XwXwXwX&X*X&XXX&X>X>X&X&XOX X X&X*X&X&X5..X&X*XXX9.%X&XXX4.&X>XXX.X X&X>X&X+X+X>XeXaX>X#X6.T 4 < J } ' R Q &.XXXX X&X:X>X-X&X.X&X:X-X9.8.R J } W 8.o.7 O.( _ [ W +.| _ +.] R 6.J 8 o.6.p U | U O.| 6 6.6.) Y | | ` | 6.` ..,.:.` ` ,.7.E r %.7.:.E t &.w.*.$.$.>.e.e.r.0.t.t.T.T.T.pXpX5X6XrXgXR.j.v.v.k.b.b.b.b.b.b.n.n.n.B.B.B.B.B.B.B.B.B.B.B.B.B.n.n.n.b.b.j.j.V C B M N n v x -.5XT.T.t.4X4Xr.q.oXq.e.q.;.0.q.*.0.0.0.*.$.*.0.*.=.*.>.0.0.*.1.*.A *.>.>.A A >.r.*.A >.r.>.A %.7.<.A A >.>.%.<.f.s.3.7.f.f.f.f.,.f.nXnXnXtXf.%.f.tXtX0X7.-XmXuX;XuXvXMXNXmXMXMXMXNXNXPXPXNXNXPXiXc n c Z Z Z Z C C C x.x.x.x.x.x.z.z.c.C.C.C.A.D.W.W.J.D.A.N.N.N.N.V.A.N.N.A.Z.Z.Y.U.-.-.-.-.-.-.-.-.*.*.*.*.*.%.=.%.E %.%.` E s Y ` s i Y i u i Y a i u p p 6 6 p a 5 8 / 6 3 5 f f f 9 5 9 ~ f f g g f ^ ^ ^ f g g g ^  .^ ^ u.#XyXeX*X&X&X&X#X#X.X8.o.} ' [ o.+.+.",
"U J ' ..] U ( ] ..}  ...] ] ] } o.O.O.} ' [ o.O.} [ @.@.o.6.8..X.X#X8.' o.=X1X=X=XuXvXvXmXmXuXuXaX1X4.Q Q i I Y u r u u L Q XXaXyXwXOX X+X>X:X:X>X&X X X&X&X&X X*XXX&X&XXXXX X4. X&X&X4.9.&X&X9.9. X X4.5.%X&X&X&X&X+X+X+X>X>X:XuX>X#XW 4 7 R u L 9.wX:XXX2. X>XwX-X4.#.8.&X8.8.8.o.W K O.6._  .| O.} K } O.o.o.} R ..' 7 | 6.R U | ( } { / 6...U { ) T | | { { ,...` E ,.d.` r ` 7.,.r r >.7.3.$.*.r.w.0.>.0.e.e.r.T.T.T.T.4X4X5X5XrXpXD j.k.v.v.v.v.v.k.k.k.z.k.k.z.z.z.z.z.z.z.n.n.n.n.b.b.z.k.k.j.V B C Z M n n c l ; -.5XT.r.r.T.e.t.r.e.q.e.0.=.t.0.3.0.3.t.=.$.*.3.*.>.*.*.0.>.*.>.*.=.>.3.=.A A >.7.*.A %.1.*.A <.7.>.G A >.7.>.7.f.7.>.7.7.>.<.G ,.f.tXnX<Xf.f.<.tXnX-X>.7.nXmXtX>.tXmXMXnX;XtXnXMXNXNXPXPXNXNXNXNX-.c c n n Z Z C C C C C C l.x.x.x.x.z.c.c.N.C.D.J.W.W.W.D.A.N.B.B.B.B.n.n.n.n.m.U.-.-.=.-.-.-.-.*.-.*.*.*.*.*.%.%.%.E E %.` E E i Y a i ` Y u u ` a u U 8 p p 6 p h 0 9 h h 5 5 f ~ f 9 5 9 9 9 f ^ ^ ^ ~ ~ ^ ^ ^ _ 0 g ^ @.i.i.=XyXwXwX&X&X X=X$X.X+.+.8.#X$X$X#X+.",
") J ( ..] / ( ~ ] }  . .] ] ] ( ( } O.o.U U } O.| o.+.+.W R 4..X.X#X#Xo.' $X1X=X#XuXmXnXmXvXuXuXaX:X#.Q I i E Y r r 4 Q %X>XqX>X>XwXwX&XXX&X&X-X&X&XXX5.XX-X&X X X%X&X#X2.4.9. X#X&X X4.#X=X X#.8.#X X9. X-X%X.X&X&X&X#XXX*X>XqX+X>X:X#X| E ] [ 2.wX>X:XuX9.2.s.%X%X9.| | s.' } 6.$X$Xs.O.o.6.+./ o.8.U 8 ] O.K | | ..{ 4 } 8.L U | ] ' R ..6.] / O.{ { 6.| | | _ / | 7.:.` ,.:.7.:.E t :.7.3.:.>.7.7.*.$.*.0.r.r.r.r.r.r.T.4X4XT.t.5XrXR.l.l.D j.j.j.j.l.l.l.k.j.k.k.k.k.k.k.k.z.z.k.k.k.l.j.j.k.j.V B C C N N n c x ; % -.6XT.r.r.r.r.t.r.r.r.e.*.=.0.0.0.0.3.*.=.*.0.>.*.0.$.*.>.&.*.1.=.A >.3.*.A %.>.>.%.A <.1.=.A >.7.>.A A %.7.7.f.s.%.%.f.7.<.d G f.tX;Xf.<.<.<.f.tXmX;X7.f.vXmXtX<.7.tX<X;X7.f.tXMXNXMXNXPXPXNXNXNX}.c n c Z Z Z Z Z Z C C C C l.x.l.z.l.z.z.z.B.V.S.J.~.~.^.W.Y.A.Z.N.n.n.b.n.v.n.U.-.-.=.-.-.-.-.*.*.*.*.*.=.*.%.%.%.E E E s s s Y T i e Y u 7 U ` i p / 8 h / 6 9 8 f 9 8 h 9 5 9 ~ ~ 5 1 0 0 5 h ^ ^  .^ ~ ~  .u. ._ g 9 ~ p.,X1XqXqX&X X X X$X$X$X#X#X#X#X8.+.@.W ",
"} J J ] } [ ( U ) ' @.@.[ } } } U J } +.[ W | 6.` ( @.+.o.{ [ a.$X#X#X.Xo.a.<X1X1XuXvXMXvXvXaX1X1X&XQ T i e U u L Q  X>XeXqX>X>X>X>X>X>X>X>X*XXX9.&X&X X.X9.%X&X4.9.&X&X2.o.9.#X&X9.4.4.#X&X2.3. X X4.4.&X&X#X#X&XXX XXX*X*XOXOXXX+X>XwX>X>XXX9.XXeX+X*XuX-Xs.} | 9.-X#X8.=Xa.O.{ | 6.#XO.K } a.R K O...9 U 6.' U ..] ..( U 6.W / ] ) ] ] ] ' | | | ) ) { d...Y R | 2.` I :.,.` i Y E :.7.:.s E <.%.P %.;.q.w.q.0.0.r.e.e.e.4XoXT.1.r.6XpXM.C V V V V B B V V j.V j.j.l.j.l.l.j.l.j.V V V V j.j.V C C Z M M n n l x , O a f.0XT.r.T.r.t.t.q.q.t.0.*.0.0.0.0.*.0.t.=.*.3.;.&.*.A <.>.%.*.1.=.%.>.3.=.A %.7.>.A A >.1.<.A <.7.<.d d <.7.7.<.G A A 7.f.<.A <.f.tX;X<.<.7.<XnXMXuX7.6.-Xs.;Xf.g.f.f.>.<.7.nXvXvXNXMXnXPXPXNXNXNXiXA c z N Z Z Z Z Z C C C C C l.z.z.x.x.z.z.z.z.c.c.S.^.{.^.Y.W.^.Y.Y.Z.m.v.v.M.-.t.*.*.-.=.-.-.*.*.*.=.*.=.%.%.:.E E E E E i E i ` Y d Y ( a i ( a a U 8 8 _ a 0 9 J 9 6 f 5 @ f ~ ^ 8 5 # 5 5 9 f f f ~ ^ ~ f f ^ ^ g f g ^ s.uX:X*XXX.X X&X8.8. X.X.X.X+.@.[ [ @.",
"[ ( J J ( } } ] ) ' @.@.[ ' } } ) U [ @.O.O.o.{ U J ' +.#X+.W W 8.$X$X$X<X<X1X1XuXvXvXMXvXuXuX:X>X#X| T E i L ! &XwXqX*X>XwX>X*X*X&XXX%X*X:X:X&X2. X&X&X X9.9. X8.9.#X X4.4.9.%X#X4.o.9.#X9.2.9. X9.4..X&X&X&X X4. X&XXXXXXXXX X*X>X>X>XwXaXyX&X X&X%XXX&X-X1X%Xa.| :.:.o.#X$X#XO.W K ' 6.U 7 ..6.R } 6.) 4 ..} U ' } ] U U } { ) ] ' ] ] ( ] ..} ) ) ) ,.6.p Y 6.d.,.) | ,.` u ` ,.7.,.E E <.<.:.:.:.>.3.3.>.%.&.&.*.*.t.r.r.e.T.e.4X5XrXR.M M C B B M M B B B C V V V V V V V j.V C C C V V V C C M N N n z v b = O j f.tX4XT.r.T.r.0.q.q.e.t.0.0.0.0.0.3.*.0.0.=.>.>.*.&.*.%.>.>.>.>.>.A %.>.>.%.A >.7.>.A <.>.>.A d <.7.<.d A >.s.7.%.d d s <.,.<.%.>.f.;Xf.<.<.f.nXMXnXtX<.:.tXtXf.<.<XMXvXf.<.d.nXMXnXMXMXvXNXPXNXNXNXIX1.z n c Z Z C C C C C l.l.l.l.z.z.k.k.k.l.z.z.z.c.z.b.N.D.Z.Z.Z.Y.Y.Z.Z.v.v.v.F t.*.=.=.=.-.=.*.*.*.=.*.%.%.%.:.E E E E ` E i i ` ) r U ' a i ( 2 5 / ~ 6 y h f 9 8 h 8 / h f f f ~ 9 5 9 f 5 5 5 3 5 f ~ f 5 0 f ~ ^ ^ ^ u.$XwXwX*X+X&X&X&X.X8.8..X+.+.+.+.+.+.#X",
"( ] ( J J ] ] | ( ' } @.[ ' } } ' ( U ' @.O.O.O.^ u r ' +.#X.X#X8.#X$X<X1X=X1X1X1XuXvXMXMXvXuXuXwX8.| ` i L 5.qXeXeXqXOXXXOXOX>XwX*XXX9. X&X&X X9.8.8.8.%X X9.9. X8.#X9.2.9.9.9. Xo.o.#X.Xo.2. X9.9.9. X#X%X X2.4. X X X XXXXXOX*X>XwXwXwXeXyXwX-X-X&XXX-X-X%X-X<X6.{ I R 6.#X6.8.8.o.W O...J 7 } O.O.a.6.7 U 6.) ( ( / _ ( ] } T T ' ..} J ] ] ) ] ) { d.{ p ,.d.d...` | ` ` | ,.s.7.I r <.:.%.%.:.>.>.&.E t t t t t A %.>.*.=.*.e.0X5XrXpXS S N M m m m m M M M M C C B C C C C C M B C C C C Z N N n n c l ; O : ,.;X=X;X5XT.T.T.t.0.0.q.q.*.0.0.0.;.3.3.*.*.*.=.>.>.&.*.*.<.%.>.3.0.*.A %.7.>.A A >.7.%.A >.w.>.s d <.f.>.s s ,.7.<.s d s <.,.s.d.7.f.;X;X7.j ,.;XtXtXf.<.<.s.tXuX0X7.tXMXMXtX7.f.vXnXnXMXCXnXNXNXNXNXNXNXpXc N z n Z Z C C C C C l.l.l.l.l.k.k.k.z.z.z.n.n.n.n.b.b.b.v.v.v.b.b.b.v.j.v.F -.=.=.=.=.*.=.*.*.=.=.=.%.E E &.E I I I E I I I | ` 2 7 ] i u U i y ~ ~ a 1 9 ~ 6 9 / 9 8 X._ f f ~ g 5 9 f 5 5 1 $ 5 f ^ ~ g g h g _  .u.i.,X>XwX*X+X&X&X&X#X#X#X+.+.+..X.X+.+.o.",
"U ' ] ) _ / U ) U U } @.} } } } [ ( J U [ [  .i.@.{ i I @.8.&X=X=X#X=X1X=Xa.=X1X1XvXvXMXMXvXuX1X:X4.2.Q Q XXeXeXeXeXqXwXqXXXXXOX-X>X*X%X X8. X&X&X X4.#. X%X X X X4. X X2.9. X9.9.4.8.#X4.#.8.#X9.9.9.9.4.9. X4..X#X&X&X&X&X&X&X&X*X>X>X>X>X>X>XuXuXwX&XuX-X4.9.-X:X1Xa.R u ` p L 6.s.O.} +.O.[ 9 ' O.| o.O.U ) { } U 8 ] U ] ' ) R T O.] J ] ( ) ../ ..,.u | d...p U ,.6.:.| ` ` { i i :.,.:.:.:.:.E E %.%.%.%.%.%.%.%.%.>.*.=.*.w.;XoXeXiX-.v N n n m m n m m n M M M B C C C B Z M M B B Z N N n c z v x & % y ,.<X=X#XOX0X6X4Xr.t.t.t.q.0.=.0.q.0.&.;.3.*.>.*.=.3.*.*.*.&.>.%.*.>.>.%.A %.>.>.A %.3.7.%.A >.w.<.d d <.s.,.s s 7.7.%.G s s <.f.f.;Xf.;X<X<Xs.s <.;X;X:.` s f.uXtX-Xf.7.f.tXtXf.f.nXMXvXMXNXPXNXNXNXNXNXNXNXiXS c c n n Z Z Z M Z C C C C V V j.k.z.B.B.B.n.n.b.n.b.v.v.v.v.v.D V j.v.v.n.M.U.*.=.=.*.*.=.=.=.%.*.%.%.E E E s E E E ` T i u u ` a U ) i a / _ s u / p 3 0 U / 6 / f 9 h ~ f f ^ h h f f f a 5 3 5 9 f ~ ^ ^ ^ ~ f f ^ i.2X>X9XOXOX X X#X8.o.+.4..X.X+.o.@.o.o.",
"J U ) ] ] / 7 p 7 J ' } ] } } [ @.} ' ( [ ( ( } 8.O.R e U o..X#X=X=X<X<X<Xa.$XuXuXvXMXMXvXuX1X=X=Xo.2.5.qXaXeX+X+X*X*XwXwXwX*XOX&X&X XXX X9.4.9.#X#X#X4.9.8.8.#X X9.8. X4.9.8.9.4.4.9.4.o.4..X8.8.9.8.9.9.9.4.2.9.&X&X X9. XXXXX&X&X&XOX*X>X>X>X:XwXyX&X-X:X-X8.#.#X1X1Xs.) ..X.R R T 8.' U o.6.U 0 W W R | } ( ' ..] 8 ( J ] ( X._ ( ..U / ] ) ....7 { ` ) 6...U ) ,.6.| R ` :.| I I ,.,.,.:.E i i E :.>.7.7.7.w.w.7.3.0.w.w.0.0.e.w.w.9XiX1.z v c c c c c c c n N m N Z M Z M M M M M Z Z N n n c b b ; % # j d.;X%X%X;X*X5X6X5Xt.r.t.t.r.t.*.q.r.3.$.*.3.3.3.=.%.>.*.*.>.*.>.=.=.>.>.A A <.:.%.t %.7.7.%.%.:.>.%.d t <.7.7.<.<.7.7.<.s s G <.f.s.s.f.f.f.f.7.G ` ;X<Xs.,.` tXMXvXs.:.7.<Xf.7.,.f.nXMXMXnXMXNXPXNXPXNXNXNXNXNXT.l c N n n M Z n n Z Z M M M B v.v.b.n.n.n.m.v.M.M.F F A S m m S S S D v.M.m.U.*.=.=.=.*.=.%.%.*.*.%.%.%.%.%.E ` s s ` ) u a i Y ) U 7 u h / / u 6 / _ 9 5 p 8 6 f ~ h f f ~ / ~ f h 9 9 f 6 9 9 < < 0 f ^ ^ ^ ^ g 5 0 ^ =XwX9X*XXX X8.4.o.o.8.#X8.o.@.+.+.+.O.",
"U 7 7 ) ] ] U 8 7 7 U W U ] } [ [ O.} [ [ [ [ } O.O.@.) u J o.#X=X-X<X=X1X<X=X1XvXMXMXvXuXuX1X=X#X#. XqXdXeXqXqX*X*X&X&X-X:X-XwX:X&X X X&X&X9.2.4.9.#X X#X9.8.8. X#X4.4. X9.2.9.4.4.8.2.o..X.X4.#X X2.2.4.9.9.9.9. X8.4.9. XXX&X&X&XXX&X*XOX*X>X*X*XwX>X*X:XuX=X6.o.| d.=X$X$Xa.a.o.K O.O.R R | 6.4 0 } T R ] ..R ) ..8 / ] ' ( X.] X...~ _ ) ' ..( ) ] ) ....U | 6.6.{ { { | ,.:.| | | ` Y i e Q :.7.7.:.%.&.&.2.3.3.3.q.0.3.;.0.e.oXoXoX0X}.x v v v c v v v c c m n N N N N N N N m m n n c c v x > = * j ,.s.#X%Xf.f.;X0X0X5X9Xr.e.t.0.r.*.t.e.q.>.P *.;.3.>.$.=.>.&.>.:.*.>.%.%.>.>.t %.<.>.%.t %.7.<.s %.:.>.%.d s <.7.,.<.<.<.7.<.d s <.,.7.9.9.7.>.<.<.G G <.<X<X;Xf.<.<XnXtX:.,.<XnXtX<XtXnXMXMXMXMXMXMXNXNXPXPXPXNXNXNX}.l v c c c n Z n n Z C C C B B V D v.v.v.v.D F F F A d w w d b x A A v S D F -.*.=.=.=.*.=.%.%.%.%.E E E s I E s e I ` { J U { { W K R { ) U U J 2 p  .~ 5 h / 5 9 / _ f f ~ X.~ 9 5 9 9 5 9 f 9 5 5 f h f f ~ ^ g 9 9 _ -XeX*X-X9.9.8.4.8.$X8.o.W #.+.a.+.[ U ",
") u 7 U ] } ] U u Y ) U J ' } W R } o.[ [ [ o.O.' @.a.a.} J R a.=X$X1X<X1XkX1X1XMXvXvXuXuXuX1X=X4.XXyXsXqXeXeXqXwXwXwX-X-XXX XXX&X X X9. X X#X X4.4.4.8.#X9.9.8.4.8.4.2. X8.4. X8.8.2.4.9.8.8.+. X4.2.4.9.9.#X X9.9.8. X=X&XXX&XXX X XOX*XOXXXOX>X+X>XwXwX-X-X-X=X$X6.{ 2.+..X+.o.6.' ' O...| | 6.' 0 J ' T K W ) J ] J / ..] ) _ ] ] .._ X./ ) ] U ) ] ...._ X.| 6...| ,.,.| { T T I E T i Y :.7.:.` E E :.:.2.2.2.3.3.3.3.3.7.w.oX;X;XoX9X0XA x v v v v v v v z c c c n c c c v v v c v v x x > > O O j f.f.s.s.9.%Xf.f.;X0X6XeX4Xe.q.q.0.*.0.e.0.>.%.;.3.3.&.A *.3.&.>.%.:.>.%.%.>.%.t %.>.>.<.A s <.:.s %.7.:.s s %.,.7.:.<.%.` :.,.<.s <.s.d.s.s.,.s s G j s ,.;Xf.<.7.s.;X<X,.,.f.vXMXuXnXMXNXMXMXnXMXnXvXMXPXPXPXPXNXNXNXIXA x z v c c n c n Z C C C B D D D D D D F F F A A d 1 # 1 1 w : : d > d A A A *.=.*.%.=.%.%.%.` E s E I I Q 2.:.2.#X:X1X:X:XuX1X:X=X1X1X=X=X=X$X8.6.O. .8 5 9 6 5 f _ X.f f X.^ 9 5 f ~ f 9 f 9 5 9 f f f f f f f _ ^ ..:XqX*XXX5. X#X#X.X8.W W o.8.8.o.W ' o.",
"| U u ( ' ( [ ] i ` | ( 7 U [ K U { } [ [ [ o.O.[ W 8.$X+.Y p d.$X8.1X<X<XkXkXvXvXvXuXaXuXuX:X=XXXeXsXyXqXeXqXqX>XwXwXwXwX>X&X&XXX9.9. X X9. X X X9.8.8.8.o.8.#X4.2.#X4.4.4.8.8.9.8.#.4. X2.4.9. X4.4.9.4.4.#X8.2.9. X X&XXX XXX XXX&XOX*X*X*X9X>X>X>X+X>XwXXX4.#X=X$X[ R L 6.} 4 } 6.R R J ' [ o.6.O.4 4 ..J 4 ' U ( ( 8 U ' ( ] ] { _ X.../ ] ] / / ) ..) U ..| ] | ..` { ` ) _ ` 6.2.| :.d.7.2.Q r i ` ,.,.,.:.:.2.3.>.>.>.3.w.5.3.0.oXrXiX1.l x v x v v v x v v v z c v z v v x x x v b l ; O O y <.s.s.7.7.d.s.7.s.f.7.0.rXeX5Xq.e.e.q.0.0.r.0.>.%.3.0.3.%.A >.3.&.:.%.:.3.:.%.>.%.%.*.>.%.<.%.E >.>.%.<.7.:.s s <.7.9.7.,.<.:.:.7.s.<.s 7.7.d.d.,.d s ,.d.f.tX<Xs.,.f.;X<Xs.| ;XvXvXvX<XvXMXmXNXMXvXnXnX<XMXPXPXPXPXNXPXPXNX1.x v x v c c v c c N M B D F v.v.v.F F F F A A A d w y 1 3 < y 1 1 # w w : : &.$.$.$.%.%.%.%.<.` i :.8.&X:XuX-X:X1X1XaXuX1X:X>X>X:X1X:X1XuX1X1XaXaXaXuX1X$X6.X.p f ^  ./ 9 ^ ~ 8 8 ~ ^ f 9 < 0 f f f ~ ^ ~ 5 9 ^ ^ ^ i.uXqX*XXXXX X#X#Xo.W Q o.8.8.o.W #.o.6.",
"~ u i [ ( ) ] [ ) ~ @.J 6 i ] [ ( ) O.@.+.O.' @.+.+.+.+.a.O.W a.$Xa.=X1X<X<X1X1XkXuXuX1XuX1X>X>XeXrXeXeXqX9XOXOXXXXXXX&X*X&X%X%X-X&X&X9.9.8.4.#X.X8.8.8. X4.4.9.8.8.8.8.4.4.4.8.9.2.4.8.8.8.8. X X9. X X9.8.8.o.4.9.#X9.4.4.5.9.XX%X&X&X*X-X>X*X>X>X>X*X+XwX>X4.T o.a.#X$X} } #X| 7 | d.O.' 0 8 ' | } } U 7 } ( 9 ( J ) ' 8 ( _ ) ) X._ _ X.X.] ] / J _ ) / ) ..] ] ..| ) | ,.| 7.,.| Y i ` | ` E ` { | | Q Q 2.:.E ! &.>.7.<.:.:.:.:.&.oXeXiX0.> b x l x v v x x x v x x x x x x x b b - * * * y ` d.s.7.7.7.7.7.7.>.<.s w t 9XrXoX4Xe.r.0.0.;.t.>.>.3.3.;.3.%.A &.3.>.%.P 3.>.:.>.%.%.%.>.E %.>.<.E %.>.%.E 7.<.s s <.6.9.7.*.s s s ` ,.,.` 6.6.6.9.9.9.=X:XuXaXmXsXaXyXyXyXsXyXyXmXmXuXuX;Xs.;Xs.vXMXMXnXnXtXMXPXPXMXNXPXPXNXNX}.A v v v v v v v v m M D D F M.U.U.-.F A A s s w w y : # 1 y 1 1 # 3 5 1 + @ %.&.$.:.%.%.E P Q 2.4.1XaXaX1X:X&X X=X:X1X:X=X#X X&X>X&X&X>X&X:X>X>X:X>X:XaXaXaXaX1X#Xo.J J ~ _ ^ ~ 9 J 7 8 9 < 5 / f f ^ ^ f 0 h h f ~ a.yX9X9X*X X9.#X#X8.4.8..X+.@.W o.+.+.+.",
"0 e i [ @.] | @.] ' @.J 6 u {  .@.' } [ O.O.o.o.+.a.$Xa.#Xa.o.$X<X$X=X1X1X1X<X1X1X1X1X1X1X:XwXeXeXrXdXyXeXqX*X*XOXXX X X9.9.4.2. X X&X X9.9.4.8..X8.8.8.8.8.8.9.8.8.8.9.8.8.4.4.8.4.8.8.8. X X8.9.8.4.8.9.4.o.2.9.9.8.8.9. XXXXXXXXXXXXXXX&X*X*X>X*X>XqXqXwXyXwXa.s.=X8.#X8.o.s.$Xo.J W } 6.{ 4 J R 7 U ..( J } / J U U ) ) ~ / ) ) ) _ _ _ _ _ ( ( ] ) J ) ../ J ..| ) | 6.:.| | I 4 4 Y :.{ I 2 I Q 3.9.9.7.s.7.2.2.4.w.5.3.5.&.3.w.q.oXoXeXe.> x x x b x x x x l l x v v x x x > & = O y ` ,.,.,.7.7.7.7.:.<.%.E q # : : w e.eX5X4X4Xe.*.=.t.0.*.%.3.3.;.0.%.%.3.5.>.%.t &.>.:.<.%.s %.>.%.E <.%.s %.7.%.E :.f.:.s %.7.7.:.s s s s ,.s.s.9.;XyXeXyXaXaXsXaXaXaXaXsXyXyXyXyXaXsXsXmXmXsXmXuXuX;Xs.<XnXvXMXMXnXMXHXPXMXMXNXPXPXNXpXA v v v v v v v v m S D D F F F -.-.F A s w w 1 # 1 $ # # 1 # # + + # 5 5 @ q :.&.E E P &.%XwXuX-X1XuX:X&X>X%X8.&X=X=X&X&X=X&X&X&X#X$X=X&X=X#X=X=X$X=X:X>X>X:XuXaX1X1X=XO.K ~ ] ~ 9 f / f 0 5 f f f ~ _ ~ f g 9 5 ~ a.uXqX9XXX X9..X.X.X X#X9..X+.@.o.6.O.o.",
"7 e e U @.O...@.] ' [ J 7 4 U ] @.@.' J ( @.+.8.' 8.$X$X=X=X6.O.$X=X1X1XvXvXvXkX1X1X1X1X1X:XeXeXrXrXyXeXeXeXeXyX-X&X&X&X%X%X X X4.4. X9.9.9.8.8.9.8.4.8.9.9.9.9.8.8.8.9.9.8.9.9.9.8.8.9.9.8.8.8. X9.2.4.9.4.4. X9.9.9.9. X X9.5.5.9. XXXXX&X*X*X>X*X>XqX>XqXyXaXyX=X&X8.4.W J ] +.8.' K 7 R ..) 7 U ) J J ( J J 8 J ] ( ( ] _ / ) ) _ _ _ / _ _ ~ ] ] ( ) ] ) ) } | Y T 6.6.| | T T | 6.6.6.| T | :.2.2.:.Q | 6.6.2.5.5.4.9.5.XXXX*X0X*XOXoX9Xq.d > > > > > x > > > x x x ; - - O O : y j ` ,.,.>.<.%.%.E E s s w w w : d d : *.eXeX4X4Xe.0.0.q.e.>.%.3.0.3.0.A t &.3.:.%.P &.>.>.%.t E >.>.E %.>.<.i E ,.<.E :.,.:.E %.7.7.<.j s :.3.%XuXsXsXsXaXaXyXeXeXyXyXyXyXeXqXeXeXwXwXeXyXyXyXyXyXsXsXmXmXmXmXNXvXvXvXnXPXPXPXPXPXPXPXPXNXIXF v v v c c v c v S S D D D F F A A t s d w 1 3 3 # 1 @ @ # # # # + + 5 5 + $ E &.I :.%XwXuXwXwX&X&X&X X X=X#X8.#X&X#X X&X=X=X$X#X$X$X=X=X#X#X=X$X=X:X=X&X#X X&X>X>XaXaXuX=X+.[ ~ ~ f f 8 0 8 8 9 9 9 f f f f 9 9 ( #XwX*X*X X X X4.o.4.8.8.2.o.@.@.+.o.W R ",
"` i 4 J } .... .U J ( ' U 4 6 U @.+.O.U 0 K +.8.W @.+.O.a.=Xa.[ ..a.1X1XvXMXMXvXuX1X1X:X:XwXeXrXrXeXeXeXyXyXwXwXwX*X-X-X&X&X&X&X=X X9.2.o.8.8.8.8.4.8.8.8.8.9.9.9.8.8.9.9.9.9.8.#X8.8.9.8.4.4.9. X9.4.4.8.4.4. X9.8.4.4.4.2.4.5. X XXX%X*X*X*X*X*X-X>X>X>X>XqXeXyX:X9.#X=Xs.{ 0 4 W ..6.} J @.+.' J ' } U ( ) J 8 U ' ] ) ] ] ] _ / _ _ _ _ _ ] ( ] / / ] _ U ] ..U U | ,.T u U | | o.| R I { 6.| | ` ) u 7 U U i ` :.Q Q :.2.3.5.XX%XOX*XqXwXoXd : % * , > > > : : : : : : d s a j <.<.<.<.<.A s t t s d : : w w : w : : d : A 5XeX5X9XoX;X0XoXe.0.%.>.q.0.>.A %.3.;.P %.>.>.:.>.%.s %.>.>.E s :.E r E ,.:.E E 6.` a ` 7.,.` ` w.uXsXsXsXaXaXyXyXyXeXwXwXuXuXyXyXeXeXwXeXuXuXyXeXeXeXqXwXeXeXyXaXsXsXmXsXmXmXMXPXPXMXNXPXPXPXPXNXNX1.v v v c N c c c m S D F F F F A w 1 # 1 # 3 1 # @ $ # + # # 1 1 # @ 1 y y @ e &.9.uXaXuXuX&XXX&X=X X4.%X$X$X.X#X#X#X X#X$X$X.X.X$X=X=X=X.X#X=X=X=X=X#X#X&X&X=X=X$X=X1X1XaXaX1X$X~ 8 f 0 8 9 5 5 5 5 9 f ~ ^ f /  .$XwX+XOXXX X9.8.8.8.6.o.W W @.+.+.' K R ",
"} U U ]  .[ ] ( 4 4 ( O.O.U 7 6 u [ +...Y 7 } 8.a.+.6.o.o.$X$Xi.....$X1X1XuXvXuX1X1X1X:X>X>XqXqXeXqXeXqXqX>XXXXX&XXX%X X9.9.#X%X&X X#X X4.4.8.6.8.o.8.8.8.8.9.9.9.9.9.9.9.9.8.8.8.9.9.8.8.8.8.9.4.4.8.9.9.8.9.9.9.8.8.8.9.9.XX%X&X&XXX%X&X&X*X*X&X*X>X>X>X>XqXqXeXyX8.7 | ;X-X X} 7 4 ) ..U J K o.W 0 J ) ( ) _ ] J J ) ) / _ X._ _ / _ X._ _ ] ] ~ / ( ( _ ] ) U U | | T R | | 8.| { { T T T U R R R ) ` | | { ` I I I I i i I 2.2.7.9.&XwXyXeXw O O : = % : , d d d s s E E E ` s s a e d d d w w w w w : : : d : : : O d : w 0.qX9X9XoXe.oXoXw.0.*.>.w.w.%.A >.w.;.%.<.7.>.%.>.>.E E <.:.E d :.E E :.7.,.:.i ` ,.s s :.9.*XuXsXsXeXeXaXyXyXeXwXeXwXwXyXuXwXwXwXeXeXeXuXuXyXyXeXwXwXeXyXeXeXyXeXeXyXaXsXmXmXmXNXNXmXMXPXPXPXPXPXNX}.x v v v M S S v v m S F F F A A w # # # # # 1 @ + # @ + # @ 3 3 # 5 5 1 1 4 2.yXaXwX*X>X:X=X#X&X=X.X2.9..X$X.X8.#X#X.X.X$X$X.X#X$X$X=X#X8.#X$X=X$X+.+.$X=X=X$X#X#X=X=X=X1X:XuXmX1X@.J f ~ f f 9 5 5 f h ~ ~ f /  .#XeXqX*X&XXX9.9..X8.o.W [ O.8.8.o.W [ +.",
"@.U ) ] ] }  .[ 6 4 J ..a. .] / q 7 @.a.,.u U O.a.a.$X$Xa.$X,X$Xd.u.d.1X1X1XuX1X1X2X1X:X>XqXeXeXeXqXqX*X*X*XXX&X&X*X:X%X8.9.9.4.4.o.8. X9.8.8.2.8.o.o.8.8.8.8.8.9.9.9.9.9.9.9.8.8.9.9.8.9.#X8.8.8.8.8..X8.8.9.4.2.2.4.9.%XXXXXXXXX X XXX&X*X*X*X+X*X*X*X>X>X>XqXeXaXuX8.7 | #X&X$X+.' 7 J ] ) 8 U } ( 4 J ( ( ~ ) J ( J / _ / _ _ _ / _ _ X._ _ ] _ ( _ ] ] _ ) _ ] | { | 6.6.6.' T { | | ..| ] { } 2.4.4.7.7.s.6.4.4.2.2.:.Q #.{ E :.:.%X-XsXeXr + X X + # + # O # : y y y y w w w w w 3 1 1 3 # : : # : w w : : # : w : y : O P 9XeX4X9XoXt.e.0.0.0.*.0.w.%.s >.q.3.*.>.7.>.%.>.:.s %.,.:.i s ,.:.| ,.7.7.<.s ` 7.,.:.%XyXsXsXyXyXeXeXeXeXwXyXeXeXqXwXyXwXqXwXwXwXqXqXwXeXwXwXeXwXeXeXeXeXqXeXeXeXeXeXiXiXmXmXmXNXmXNXHXPXPXPXPXNXtXx b x v m S S S S S S A A A d w # # # # + + # # + @ @ + + @ 3 3 3 < @ 2 :.&XaXaX>X:X-X&X-X1X-X=X$X$X2.2.#X$X#X.X$X=X8.+.$X.X8.#X#X#X$X#X.X$X$X$X#X.X$X=X.X#X#X.X.X#X=X&X&X>X>X:X1X1Xa.~ f ~ f f 9 5 9 f f ~ f h / 8.wX>X*XOXXX X2.o.| } W +.+.o.' ' @.O.@.",
"+.[ U U ) } @.@./ 2 4 ' +.O.+...s 7 [ +.a.T 2 U +.a.$X$X$X$X=X1X<X$X,X<X1XuXuX1X1X=X=X&X>XeXdXdXeXeXeXwXwXqX*X&X%X&X-X&X#X&X#X X9.4.o.2.2.4.8.8.8.6.o.o.8.8.8.8.7.7.7.9.8.9.9.8.9.9.9.9.s.9.8.6.8.8.8.8.4.2.2.2.8.8.9.9.9.9.9. X X XXXXX&X*X*X*X*X+X*X*XqX>X>XqXqXqXsXyX6.6 7 R } O.a.O.( ] ..| 7 U ] } ) ( J ( J ) ] / / X.( / / h h h h _ _ _ _ _ / ] .._ / X.] X.( ' 6...U U U ' | :.) p 8 8 7 R { | Q I R T Q 2.8.2.2.9.9.4.2.9.9.5.XX*XaXqX1 X + + # # + # O X X + # # # y # # w w # # @ + # # # # # : : # : # # # # w : # w w.eX5X9X9X0.w.0.q.r.*.3.w.:.t >.q.3.>.<.>.&.%.>.:.r E 7.:.s <.7.7.{ ` :.<.E E Q 3.%XyXiXeXeXeXeXeXqXqXwXyXwXwXqXwXwXyXuX*X*XqXwXwXqXqXeXeXwXqXeXeXeXeXeXeXeXeXeXwXwXeXyXiXsXmXsXmXmXNXPXNXPXPXPXNXmXA b b v n v m S S F S A A : : # + + # # # + $ $ @ + @ @ + X # 5 2 3 U s.uXuXaX>X:X:X-X&X&X=X=X#X#X=X8.o.#X#X.X#X$X$X+.8.#X8.8..X8..X#X#X#X#X.X.X.X$X$X#Xo..X#X.X&X=X:X#X8..X.X&X:X1X1X2X[ ~ ~ 8 8 f 9 8 ~ ^ f 8 8 o.qX*XXXXXXX9.2.o.o.4.8.+.o.W K @.+.@.J ",
"+.@.U 2 u } O.O./ 6 6 { +.+.a.} a 2 W +.$X6.p p 8.=X$Xa.$X=X=X<X1X1X<X1X1X1X1X1X1X=X=X:XeXrXrXeXeXeXqX9X*X%XXXw. X9.4.8. X X9.#X#X9.4.4.4.8.8.8.8.8.2.o.6.8.8.9.7.6.6.6.6.6.6.6.8.8.8.8.8.8.8.a.6.8.2.2.9.9.4.9.4.9.9.9.4.4.4.4.5.5.5.XXXXOXOXOXOXOXOXOX*XqXqX*X-XqXeXyXwX{ 8 K 4 4 { 6.} 7 J ) ] 4 0 7 J ( J [ ) ] 8 / X./ _ / h h h h h / _ _ / 8 _ X./ / _ / X.X.) ' ) T ' } ..] { ` ` { _ / U U p h _ p 7 R W o.6.2.2.7.2.&.;.5.5.%X9.*XaXeX3.w.*X9X9XoXoX0X%X5.2.:.:.s q 1 # # # : : : : # # # O # : : # # # w # # w w # # y $.5X9X9XoXq.f.e.e.q.*.;.w.7.s >.3.3.:.%.>.&.%.3.7.E E 7.7.` ` 2.s.{ Y ,.<.s <.%XwXaXsXeXeXyXwXwX*XqXwXwXwX*XqX9XwX>XwX:X%X&X:X:XwXqXwXwX:XwXwXeXeXeXqXqXqXeXqXqXqXqXyXyXyXyXyXyXyXsXmXmXNXNXPXLXNXIXA b A A m v v m S S A A A # # @ # # # # @ X # $ @ @ # 1 # # # # 4 6.vXmXaX1X:X>X1X:X-X&X&X&X&X$X#X$X8.+.#X8.4..X#X.X4.#X8.8.8.+.+.8.8.8.8.4.o..X$X.X+.o.8.$X$X$X$X$X$X$X$X.X$X$X.X.X=X1X=X .] ( ~ ( 8 9 ~ ^ ~ 8 7 o.qX*XXXXX5.2.4.#X#X8.o.W o.o.@.+.+.} T ",
"+.i.( y a T O.@.( < 5 h ..i.@.o.Y < 8 } a.$X.._ a.$X$X$X2X2X$X,X1X1X1X1X=X=X1X1X=X$X&XqXeXrXeXrXeXqX*X+X*X*X-X>X>X&X&X#X#X#X8.9.8.4.4.4.4.4.4.2.6.6.2.O.+.8.6.,.,.,.,.,.,.,.6.6.6.8.6.8.8.6.8.8.8.8.8.8.8.8.8.8.2.4.4.4.4.4.5.9. XXXXXXX&X&X&XOXOX+X*X*X*X*X*X*X:XwXqXyXyX&Xs.O...) < 7 6...U [ O.} ( U J J / / ) ] _ 8 f h h h h h h h h _ _ / / / / / / / ) ) ' ' ' ] ....| { 8 7 4 R ' ..8.o.6.| U 7 T 2.6.Q | T ) ..| I R | 2.XX>XeXeXrXdXdXdXdXsXdXsXfXfXfXfXsXsXsXsXeXqXOX;.&.I 1 # # # # # + # # # # # # # w # # # # y : 1 w q.9X9X;Xw.oXoX0.q.0.3.w.7.%.3.w.7.%.%.>.:.E 3.:.:.E ,.7.` E 2.7.,._ ,.7.2.-XsXsXaXyXeXqXwXqXwXwXwX*XqXwXqXqXOX*X*X*X*XXX*XqX:X:X*XqXwXwXwXeXeXeXqX9X9XqXeXeXeXeXeXeXeXeXeXeXyXyXyXsXsXmXNXNXLXLXNX*.v v v B S v A A A A A d 1 # # # + + # # + . 3 @ + # # y $ @ e 9.eXaXyXwX>X>X:X>X&X#X=X$X#X#X.X.X#X9.8.#X8.Q 8.8.6.8.9.o.4.+.4.8.8.8.8.8.@.+.a.a.6.o.8.#X#X#X$X#X+.O.8.+.+.#X$X$X#X$X>X:X=Xo.W J _ _ J J ^ ~ f i Q :X&X*XXX;.4.9.9.9.Q R #.8.+.O.O.} R R ",
"@.a.O.p q J @.+.O.U 7 J ( ~ [ O.] 7 5 6 } $Xa.~ } a.a.a.=X2X,X,X1X1X1X2X$X$X2X2X=X#XXX+XeXrXrXrXiXeXqXqXwXwXwX:X&X%X%X#X9.9.9.9.4.8.8.8.6.4.6.8.o.2.2.6.6.6.,.,.<.<.<.<.<.<.| ,.6.6.6.6.8.8.8.8.4.8.8.8.8.8.8.4.8.8.4.4.4.9.9.9. X X XXXXXXXXXXXOXOX*X*X*X*X*X>X*XqXeXeXaX:X8.' o.6.' 4 4 ) ' U R R U ) ] ] ] ] ) ( J 8 8 h h h h h h h j X.h h / / / / / / ( ) U ) ] ] ' ' | 6...O.O...' J W o.o.o.6.2.:.6.6.4.{ T R Q Q 4.OXeXyXdXdXdXdXrXrXrXdXdXdXeXdXdXrXrXrXrXdXeXdXdXsXsXdXrXeX*X3.s 3 @ # + + # # # # 1 O # O # : w w # y 1 %.*XoX9XoX;XoXe.oXw.:.3.3.>.w.w.5.%.*.7.:.%.:.:.:.:.7.:.E :.6.6.` i :.%XyXyXaXyXeXqXqXqXqXqXwXwXwX*XqXwXwXwXOX*XqX*X*XXX*XwX*X*XqXwX9XqXwXeXwXwXqX9XqXqXeXeXwXeXeXeXeXeXeXeXeXyXyXaXsXmXmXNXLXPXNXr.v v v S S m v v A A d : # # # + + + @ # + 1 < 3 # . @ 5 4 6.wXeX:X:X:X%X&X&X&X=X&X.X#X$X9..X X8.8.9.8.8.+.o.+.o.o.+.6.{ o.8.+.+.O.6.6.+.o.+.8.8.8.6.8.8.a.#X#X#X8.8.#X.X.X#X$X.X.X$X&X&X=X=X8.U 7 8 9 9 9 f h 6 R :X>X*XXX5.9.#X9.8.o.o.8.o.+.@.' W K K ",
"[ a.i./ U [ @.@.O.+.@.O. .U U o.a.} a 2 ) a.a. .O.$Xa.a.=X2X2X2X=X2X2X2X=X$X=X=X&X&X>XeXeXrXrXrXeXyXwX*XXXXXXX9.4.4.2.o.o.o.2.o.o.2.4.4.o.o.o.6.o.2.2.2.6.6.,.` G G G G G ` | | ....O.6.8.8.8.8.8.4.8.8.8.9.9.9.8.9.9.9.9.9. X X X XXXXXXXXXXXOXOX*X*X*X+X+X*X>XqXqXwXqXaXaX=X8.W o.6.6.R < 4 7 < < 0 0 J J J J / 8 9 9 9 f h p y 5 5 y h j h h h h h / _ _ ( ( ] ( U ( ) ) ' } ) { R U U R T W T R T ) U R Q Q 2.9.&XeXsXsXdXeXdXdXdXeXeXeXeXeXrXrXeXeXeXrXeXeXeXrXeXqXeXeXrXrXdXdXdXdXsXyX;X3.q + + # # # # # # # # # # # # # w # 1 >.XXoXoXoXoXoXoX3.:.3.3.>.q.w.w.&.>.f.3.<.5.3.Q E 7.,.E ,.s.,.e :.wXeXeXeXeXeXqXqXqX*XqXqX*X*XqX*X*X*X*XwXOXOXwX:X*X*XqXwX&X*X>XqX*XqXwXwXwXqX9XqXqXqXqXqXeXeXeXeXeXeXeXeXeXeXyXaXsXmXmXNXNXNXNX}.c v x S A A S v A d y # + # # # + + # # @ + 2 q 1 # @ @ W :XaXqX:X-X%XXX&X&X=X&X=X#X#X#X4.4. X8.o.8.6.o.o.2.8.' o.8.| { o.6.O.o.o.6.+.6.o.+.6.+.+.6.8.+.8.#Xa.8.#X$X$X#X$X#X#X+..X$X#X.X+.8.9.o.I 4 6 5 5 f f 5 L :X:X*X&X&XXX9.2.o.o.8.o.W o.o.o.} U W ",
"R +.+.~ ] i.} U ( O.+.i.8.' J ] +.a.| 8 / a.$X+.O.a.a.$X=X2X2X2X2X$X$X$X=Xa.$X$X+X*XeXrXrXeXqXeXeXwX*XXXXXXX%X X%X%X X#X#X9.#X9.8.8.8.8.2.o.o.o.o.2.2.6.:.,.<.` G j j G G ` ` ........O.6.8.8.8.8.8.8.8.8.8.8.8.8.9.8.9.9.9.9.9. X XXXXXXXXXOX&X*X*X*XOXXXOXOXOX*XqXqXwXeXaX:X#X6.' W O.6.O.' U ) W U J J J J ~ 8 0 9 8 8 h h 5 5 5 $ $ 5 y h f f f h / _ _ ( ( / J J U W U J J 7 U ) | ,.6...R 0 7 / ) 4 4 Q 4.qXeXdXdXdXrXrXeXqXqXqXqXqXeXeXqXeXeXeXeXeXeXqXeXqXqXqXqXeXeXeXeXeXeXeXeXdXsXfXsXeX7.e # # # # # # # # # # # $ $ w y # r w.OXq.;XoXoXq.3.3.w.7.>.3.3.5.%.>.w.:.:.3.5.Q P 7.,.` ,.7.Q 5.yXsXeXqX9XwXwXwXwXqX*X*X*XOX*X9X*X9X%X%X-XXXOX>X-X:X*X*XqX*X*X*X*XqXwXqX*XqXqXqXqXqXqXqXqXeXeXeXeXeXeXeXeXqXeXyXyXsXmXmXmXmXNXNX0Xv v v v A S S S A : 1 1 # # # # + # # @ $ 3 3 @ y 5 2 8.:XwX>X&X&X:X-X X#X&X$X#X#X#X#X#X2.o.8.8.o.2.6.o.o.6.8.' o.8.{ Q 6.8.O.o.o.8.+.8.+.+.+.o.O.8.8.+.6.8.8.8.#X#X#X+.+.+.+.+.+..X8.+.@.W 4.5.#.4 2 6 5 9 5 2 J :XwX*X*X&X9.Q W o.o.o.Q o.o.} o.} ' } ",
"T 8.O.~  .a...p 5 U [ @.a.O.U ] O.$X+...O.a.$X$XO.i.$X$X$X<X2X2X2X$X$X$X$X#X.X X*X+XqXeXrXrXeXeXqX*X*X-X:X:XwXwXuX:X=X=X&Xs.9.6.2.2.2.2.2.o.o.o.o.O.O.o.o.,.<.` j j j j G ` ` ..........O.6.6.6.6.6.6.8.8.8.4.2.4.2.2.2.2.2.3.4.5.9. XXXXXXXXXOXOX*X*X*X+XOX+X+X+X*X:XeXeXaX:X{ ) U J 4 7 R R U U U U J J U ( ( 8 8 8 8 8 h a 5 $ $ $ $ $ $ 5 5 f f h / _ ( ( ( ] _ ] } ..} } ' ..' | { 8 8 ) | ..T R | 4.XXqXeXdXdXeXeXeXeXqXqXqXqXqXqXqXqXeXqX5X5XqXqXqXqXqXqXqXqXqXqXqXqXqXqXeXeXyXwXqXeXsXsXsXsXiXf.i 3 # # # # # # # y 1 + # y # 1 3.oXq.;XXXXXw.3.3.f.w.w.3.3.3.%.>.9.:.%.:.7.:.:.7.7.<.6.3.*XeXsXsXyXqXOX*XwXqX>X*X*X*X*XOX*X*XqXwX&X&X-XOXOX*X*XwX*XXX*XwXwX*X*XwXwX*X*XqXqXqXqXqXqXqXqXeXeXeXeXeXeXeXeXeXeXyXyXyXiXmXmXmXmXNXsX*.v S S S A S A d # # $ # # + + @ 1 1 @ @ 5 @ @ # 3 2.wXeX>X&X&X%X&X&X#X9.#X#X8.4.o.8.s.4.o.2.9.6.| 8.6.O.o.8.o.o.8.{ { 8.8.O.} O.o.O.8.8.O.o.O.8.a.8.+.+.6.O.8.a.a.+.+.@.+.+.+.8..X.X8.#X.X X X5.Q e 1 1 5 @ 1 7 =XyXqX*X&X2.Q 2.8.o.W W o.o.o.} T ' } ",
"{ 8.@.~  .a.O.u y 6 U [ a.a.] ] O.a.i.$X$Xi.a.$X$X$X$Xi.a.2X1X=X,X,X$X$X$X$X&X&X*XqXeXeXeXiXeXqXqXqX:X:X-X-X-X-X%X#X8.8.4.2.6.o.o.o.o.o.o.o.o.o.O.O.O.O.....` ` ` j j j j ` ` ............O.O.O.6.6.O.6.6.8.6.6.2.2.2.2.2.3.5.5.9.9.w.XXXXXXXXOXXXOX*X*X*X*X*X*X+X*X-X*XyXaXyXo.9 U | ' U J J U 7 J K J J U ) ) J J J 8 8 a 5 1 + $ $ $ $ $ 5 6 h h / / ( ( _ ] ( U J J U ' ' ' 7 4 7 u 6 7 7 7 R R Q %XeXaXeXqXqXqXeXeXqXqXqXqXqXqXqXqXqXqXqX9XqX5XqXqXqXqXqX*XqX9XqXqXqXeXeXeXqXqXqXwXwXeXeXeXrXdXsXsXeX5.I 1 # # # # # 1 w # # w # # r 3.3.XXXXoX;X3.3.w.w.w.3.3.7.>.7.w.2.E 2.7.:.7.s.7.:.7.*XsXeXeXeXeX9XOXOX*X*X*X*X*X*X*XOXOX*X*X*XXX*X*XOX*X*X&XwX%XXX9X-X*X*X*XwX*X*X9XqXqXqXqXqXqXqXqXeXqXqXeXeXeXeXeXeXeXeXwXwXyXyXuXyXIXmXNXyX-.m F F A A A d # # # # + + + @ 1 1 @ # @ # 5 2 2.>X+X&X=X=X=X&X&X&X=X#X#X$X#X8.| o.8.s.8.o.8.2.Q 8.8.8.o.+.O.o.8.2.o.8.6.o.o.+.o.O.8.O.o.O.6.a.8.O.O.6.6.8.a.a.8.8.O.+.8.8.+.O.+.#X$X#X8.8.4. X5.:.3 + # # # 2 #XuXqX-X&X X9. X4.Q R #.o.O.8.' J } } ",
"| 6.@.] O.a.O.u 5 2 R } a.$XO.} @.+.+.i.a.i.i.$X2X,X$Xi.i.$X=X$X$X$X$X#X$X.X&XqX5XeXrXeXeXyXeX*XwX:X&X%X%X&X#X4.o.| o.o.o.6.8.8.8.8.6.O.o.o.o.o.O.O.O.O...| ` ` ` ` ` ` ` ` ` | ..........O.O.O.O.O.o.o.4.6.6.6.8.8.8.9.5.9. XXXXX XXXXXXXXXXXOXXXXXXXXXXX&X*X>X*X&X*XOXwXyXaX:X) ) O.O.] | | ` J U U J J J J / J J J 8 8 9 5 3 @ @ + @ # 5 f h h h / / ( ( _ _ ) ' ' ' W U ' O.O.O.O.6.6.6.{ W |  XwXyXaXeXqXeXeXqXqXqXqXqXqXqXqXqXqXqXqXqXqX9X9XOXOX*X9X9X*X+X*X*X*XOXqXqX9XOX5X*X>XqXqX9X9X9XqXeXeXeXdXsXeX5.w # 3 1 # w 1 # # w # w # E >.w.w.XX;X3.3.5.7.5.7.7.9.7.7.7.6.:.:.7.7.6.| | 7.*XyXqXqXeXqX*XwX*XOXOXOX*XqX*X*X*XOXOX*X-X%X5.OXOXOX*X&X&X*XXX%X-X*X*X*XqX*X*X*XqX9X9XqXqXqXqXqXeXeXqXqXeXeXeXeXeXeXeXeXwXwXwXwXyXyXmXmXmXNXiX1.A F A d d d : # # # # # # # # 1 # # @ @ 6 9.yXwX>X&X%X%X#X8.#X&X X X8.#X#X#X8.o.| 8.8.o.6.8.o.o.8.8.Q @.O.o.8.2.Q 8.8.o.o.O.o.8.6.} o.6.8.6.o.o.6.8.8.8.8.8.8.a.a.+.+.+.@.[ @.+.a.8.W W #.#.4.5.T 3 # # # < o.uXwX*X&X&XXX9.2.W Q 8.+.o.} J R @.[ ",
"o.a.+.O.i.i.i.' 8 u R o.i.$X$Xa.a.O.W O.d.O.[ i.$X$X$X$X$Xa.$X$X.X+.+.#X#X+. X*XqXeXrXeXeXeXeXqX-X&X&X-X=X9.o.o.6.8.#Xs.9.s.6.o.o.o.o.o.o.o.o.o.| O.O.o.........X.` <.<.<.` | | X.......O.O.O.O.8.6.4.4.4.6.4.4.8.8.8.2.2.2.4.5. X X XXXXXXXXXOXOXOX&X&X&X&X*X&X>X>XqXqXwXwXyXaX#XK < 4 4 4 5 2 < 4 4 K K K J ~ J J 7 8 / 6 5 5 # @ # 1 5 h h h / h f ~ ~ ~ / / U U ) ....' U W ' o.Q W | { | &XeXdXeXeXdXeXqXqXqXqXqXqXqX*X9X9X9XqX*X+XqXqX+X*XOXXXOX*X*X9X*X+X*X*X*X*X*XOXXX*X-X-X>X*X*X*X9XqXqXeXwXyXyXdXdXdX0X&.r # # y # # # w # : w 1 E 3.3.5.e.7.3.9.5.5.3.9.9.7.:.{ 2.,.6.7.:.| E 7.wXsXyX9XqXqX*XwXqX*XOXXXXXOX*X*X*X*XOX*X:X:XOX XOXOXXX%X*X*XXX5.;X*X*XOX*XqX*X*XqX9XOX9XqXqXqXqXqXeXeXeXeXeXeXqXqXeXqXqXqXqXqXqXwXyXaXiXmXmXmXNXyX=.A A w # w # # @ + # # # + # 1 1 # # < 6.wX>X>X-X$X:X&X4.4.a.9. X4.+..X8.#X#X8.' o.8.O.O.9.6.#.+.8.o.@.6.+.8.2.Q +.8.o.+.o.o.8.O.O.O.6.6.6.o.O.a.8.8.8.O.o.6.s.a.a.a.a.+.8.a.a.+.o.o.o.o.#.! 2.2.a 3 @ # # R :XqX*XXX&X X X8.o.6.6.8.o.W } 8.+.@."
};
