/* XPM */
static char *_f337c7dae764f09a31878aff1dbb162t0txkuYOrZXkkh6d[] = {
/* columns rows colors chars-per-pixel */
"799 600 256 2 ",
"   c #111A2D",
".  c #111D34",
"X  c #11213C",
"o  c #23323D",
"O  c #112647",
"+  c #0F2D59",
"@  c #0F2C55",
"#  c #163459",
"$  c #112C53",
"%  c #123766",
"&  c #0F3770",
"*  c #243C51",
"=  c #344649",
"-  c #2C495E",
";  c #2C4657",
":  c #364C57",
">  c #2F444C",
",  c #164479",
"<  c #2B4A65",
"1  c #2E5074",
"2  c #3F607F",
"3  c #45504E",
"4  c #495557",
"5  c #424F4F",
"6  c #525D65",
"7  c #49576C",
"8  c #56616B",
"9  c #5B646C",
"0  c #576576",
"q  c #797876",
"w  c #686E72",
"e  c #615F69",
"r  c #847C75",
"t  c #8B8379",
"y  c #93887B",
"u  c #0136A0",
"i  c #013CA5",
"p  c #083990",
"a  c #144A89",
"s  c #175997",
"d  c #124B94",
"f  c #29558A",
"g  c #2F578F",
"h  c #37648C",
"j  c #366696",
"k  c #0142AC",
"l  c #0B47A9",
"z  c #1248A9",
"x  c #1657A7",
"c  c #0145B4",
"v  c #0047BA",
"b  c #004ABC",
"n  c #0B49B8",
"m  c #144AB6",
"M  c #0152BD",
"N  c #0857B8",
"B  c #1755BA",
"V  c #0955A8",
"C  c #2858B6",
"Z  c #2E59AF",
"A  c #1564B5",
"S  c #2B65B9",
"D  c #3269B6",
"F  c #3567BA",
"G  c #3B79B8",
"H  c #3268A9",
"J  c #19609D",
"K  c #59719C",
"L  c #516B91",
"P  c #717891",
"I  c #5073AF",
"U  c #6779AB",
"Y  c #49569D",
"T  c #004BC4",
"R  c #064DCA",
"E  c #0152C5",
"W  c #015AC5",
"Q  c #0155CB",
"!  c #015ACD",
"~  c #0B56C8",
"^  c #1558C7",
"/  c #025BD4",
"(  c #045CDA",
")  c #0A5BDD",
"_  c #0859D3",
"`  c #115AD8",
"'  c #125AD5",
"]  c #144CC4",
"[  c #255EC8",
"{  c #265CC5",
"}  c #345EC7",
"|  c #0463CD",
" . c #0A65C9",
".. c #1B65CB",
"X. c #0363D4",
"o. c #0B65D4",
"O. c #0363DA",
"+. c #0C66DA",
"@. c #0D6ADC",
"#. c #096BD8",
"$. c #1269DB",
"%. c #1567D6",
"&. c #0972DC",
"*. c #1A74DD",
"=. c #1974DB",
"-. c #1A73CB",
";. c #2765CA",
":. c #3868C6",
">. c #2B6CD4",
",. c #256BD4",
"<. c #2976D9",
"1. c #337DDC",
"2. c #3776D7",
"3. c #3471CF",
"4. c #0469E5",
"5. c #0B6AE4",
"6. c #0B6CEC",
"7. c #0569E6",
"8. c #136AE4",
"9. c #146BEA",
"0. c #1A6CE6",
"q. c #0A72EC",
"w. c #1472EC",
"e. c #1A74E6",
"r. c #096BF0",
"t. c #1576F5",
"y. c #1979F6",
"u. c #0D71F3",
"i. c #2779EA",
"p. c #367CE7",
"a. c #2579F2",
"s. c #2879F0",
"d. c #2377F1",
"f. c #2E6AE7",
"g. c #1F5DE5",
"h. c #4569C7",
"j. c #4975CB",
"k. c #4A77D5",
"l. c #567AD4",
"z. c #5374CC",
"x. c #657AD4",
"c. c #6678C9",
"v. c #4A7BEA",
"b. c #477AE7",
"n. c #577BE8",
"m. c #446AE6",
"M. c #647CE8",
"N. c #425FC3",
"B. c #827E93",
"V. c #778392",
"C. c #5182B8",
"Z. c #6B85AA",
"A. c #7788AA",
"S. c #718AB7",
"D. c #3381DD",
"F. c #1983FB",
"G. c #2A83E9",
"H. c #3581E4",
"J. c #3584EC",
"K. c #3B85EB",
"L. c #3A86E8",
"P. c #2686FB",
"I. c #2B86F9",
"U. c #3486F3",
"Y. c #358AFB",
"T. c #3B8BFA",
"R. c #3989F4",
"E. c #3693FD",
"W. c #3B94FD",
"Q. c #3B95F6",
"!. c #3292F6",
"~. c #3EA2FD",
"^. c #5685D8",
"/. c #4E84D1",
"(. c #6987C9",
"). c #6888D6",
"_. c #7591D3",
"`. c #4386EB",
"'. c #458AED",
"]. c #4B8BED",
"[. c #4A84E9",
"{. c #548BEC",
"}. c #5B8BEC",
"|. c #5787E7",
" X c #4992EE",
".X c #5892ED",
"XX c #448AF3",
"oX c #4B8BF3",
"OX c #448BFA",
"+X c #4A89F7",
"@X c #548BF4",
"#X c #578BF6",
"$X c #4B93F3",
"%X c #4594FC",
"&X c #4B95FB",
"*X c #4797F8",
"=X c #5493F4",
"-X c #5B94F3",
";X c #5495FB",
":X c #5899FB",
">X c #648BEB",
",X c #6888E8",
"<X c #7789E9",
"1X c #6794EB",
"2X c #7696EA",
"3X c #668BF4",
"4X c #649AFB",
"5X c #6797F7",
"6X c #7699F7",
"7X c #758CF4",
"8X c #59A3FD",
"9X c #4AA2FB",
"0X c #6AA4FC",
"qX c #72A9FD",
"wX c #77A6FB",
"eX c #77ABEF",
"rX c #79A2D7",
"tX c #3E80B9",
"yX c #958D87",
"uX c #9B928A",
"iX c #989696",
"pX c #8A8890",
"aX c #A7988C",
"sX c #AA9C93",
"dX c #B7A696",
"fX c #AAA29A",
"gX c #8D91AE",
"hX c #A69AAC",
"jX c #93A7B6",
"kX c #B1ABAE",
"lX c #9BA19B",
"zX c #C3AF9D",
"xX c #CAB5A5",
"cX c #D0BBAC",
"vX c #D9C5B4",
"bX c #E4CCB8",
"nX c #8C96D0",
"mX c #92A8D2",
"MX c #ADB0CF",
"NX c #8796F3",
"BX c #8C97EC",
"VX c #87AAFA",
"CX c #92AFF1",
"ZX c #A6B4EF",
"AX c #A39CD5",
"SX c #C6B9CE",
"DX c #B0C9ED",
"FX c #ABC5DC",
"GX c #D2CDD0",
"HX c #E6D8CB",
"JX c #CBD5E9",
"KX c #F2F0EB",
"LX c #EDEAE7",
"PX c #E7E3DF",
"IX c #B6C3BE",
"UX c #7B807D",
/* pixels */
"z z z l z l l z z z z z z z z z z z z z z z z z z z z z z z z z z m m m m x B m C C C C C C C C C B ^ [ ^ B ^ [ { { ^ ^ { { C { ;.[ [ [ [ [ [ ................[ { { ;.;.[ ;...;.{ [ ;.,.;.{ ..........[ ;.[ ....[ [ [ ;.;.[ [ [ ....................;.;.,.,.>.>.[ ..,.>.>.3.j.j.j.z.z.I K K K Z.Z.Z.Z.Z.Z.S.(.(.S.S.Z.Z.Z.Z.U K K K K K K K L P P L L K K K 0 h h g f f f f a f f Z D S ;.;...............{ C Z f Z S S A ;.:.;.S D S :.S :.D S F D D D D D D H h h h h h h h h h h g g g f g h h h h h f 1 - - 1 f f f 1 - : : - - 1 f f f 1 f h h j H G F :.F 3.3.;.>.>.>.:.>.>.>.>.;.,.;.;...;.h.2Xj.;.>.2.j.:.D D F F D D F F F N.F F S F F :.N.N.N.N.N.F F F N.h.I I N.N.N.N.I I K K U P P w q q q q q q P P P q q q q q q P B.P w q q q q P w 8 8 8 8 8 8 8 8 8 8 8 8 8 8 8 8 0 L L P gXgXgXgXnXAXAXAXMXMXAXAXAXAXAXAXAXAXZXAXAXAXZXZXAXBXBXBXBXZXBXBXBXBXBXBXNXNXBXBXBXBXNXNXNXNXNXNX7X7XNX6X6X6XNXNXNXNXNX7X6X6X6X6X6X6XNXNXNX6X6X2X7X7X6X6X6X6X2X2X2X>X>X}.>X}.}.{.{.{.'.'.'.].].'.'.`.'.|.}.].'.`.J.L.[.v.v.|.|.^.^./.j.c.I Z.A.A.gXgXyXyXyXuXyXyXuXhXkXhXhXkXkXxXcXcXcXcXcXzXdXsXaXyXy y y y y yXyXyXyXaXsXkXkXhXhXhXhXhXhXhXkXkXkXhXhXgXgXgXgXgXgXgXgXgXgXgXgXgXgXgXgXgXA.A.A.Z.Z.A.A.Z.Z.Z.Z.j.C.C.I I I I S.S.S.S.(.(.S.(.(.(./.j.z.j.j./.l.x.x.M.l.k.2.>.k.k.l.x.).x.l.j.j.k.k.j.z.k.j.z.j.>.>.3.j.F D D D D D I I I h.h.j.j.z.x.c.Z.Z.c.x.x.x.x.x.x.x.x.x.x.x.z.j.k.n.M.x.M.<X<Xx.<XBXBX<X<X<X<X<X<X<X<X<X<X<X<Xx.x.x.x.x.x.x.x.x.x.x.j.j.j.3.>.m.m.k.j.j.k.x.x.x.x.x.x.x.z.h.>.,.;.,.>.3.:.:.>.3.k.m.k.3.m.:.>.;.;.[ [ [ h.h.j.j.j.k.z.x.x.x.z.z.l.j.z.I c.x.x.x.c.x.z.h.>.>.;.f.f.:.>.:.:.:.N.N.N.h.h.h.h.} :.>.>.>.>.,...,.>.>.>.>.>.>.>.>.",
"z z z z z z z z z z z z z z z z z z z z z z z z z z z z z m m m m m m m m z m z B B C C C C C C C C B { [ { { [ { { [ ^ { { { { { [ [ [ [ [ [ ..............;.[ [ ;...;.[ [ [ [ [ [ ;.;...;.........;.[ ..........;.......;.;.;...................;.[ ;.;.[ ;.;.;.......,.>.:.:.j.j.j.j.h.I I c.U K K K K U Z.S.S.Z.C.(.(.S.S.Z.U U U U U K L L K L 7 h L L L h g g f g g f f s x x C C { { ......A A A ..A x x x Z Z D D D D D D D S D D D D D D D D D D H j h h h h h h h h g g g 1 1 1 1 1 g g g g h g < - < 1 f f 1 < - < < < < f f f f f f g h h h j H D D j.j.:.>.>.>.;.>.>.>.>.;.>.;.;.;.S F z.h.S >.j.k.F D D F :.D D F H F :.D D F F F :.N.N.N.N.N.h.F F F F F I F F F F I N.I I K K L 0 L 0 L L 9 w P P P P P q t q UXpXyXr r t t r q q q w 9 8 8 9 9 8 8 0 L 8 8 8 8 8 8 L K K P gXgXgXnXmXnXnXnXnXAXAXAXnXBXBXBXBXBXBXNXBXBXZXCXBXBXNXNXBXBXNXNXNXNXNXNX6X6XNXNXNXNXNXNXNX6X6X6X6X6X6X6X6X6X7X7X6X6X6X6X6X6X7X7X6X6XNXNXNX6X2X2X2X2X6X6X6X6X2X<X2X>X>X}.>X}.|.{.@X].'.'.'.'.'.'.'.`.`.[.[.`.L.H.1.H.`.v.[.{.|.^.l.c.U Z.A.A.gXgXgXgXyXyXyXyXyXyXdXcXxXdXfXhXhXhXsXfXfXsXfXfXhXhXiXyXpXB.pXpXpXpXyXyXiXiXaXdXkXkXhXhXhXhXhXdXkXxXzXkXkXhXhXhXhXhXhXhXhXhXhXhXgXgXgXgXgXgXgXgXhXgXgXgXgXgXgXjXgXS.S.Z.S.Z.Z.A.A.gXgXgXgXgXgXgXgXS.S.S.x.l.j.l.x.x.x.x.k.j.2.>.>.k.k.l.l.l.l.k.j.j.z.z.j.k.k.k.h.3.:.h.I I I I I I K K K I j.j.z.l.x.x.c.S.S.c.x.x.x.x.x.x.x.x.x.x.x.z.j.k.l.M.x.M.<X<Xx.x.<X<X<X<X<X<X<X<X<X<X<X<X).<Xx.x.x.x.x.x.x.x.x.x.x.j.j.k.2.>.f.m.h.j.j.z.x.x.x.x.z.z.j.z.j.:.>.>.>.>.>.>.:.>.3.j.j.j.j.2.>.>.;.>.;.;.;.h.j.j.j.j.j.k.l.z.j.j.k.j.h.h.z.x.x.x.c.U c.l.j.h.>.>.>.>.>.>.>.>.>.m.3.:.h.j.j.:.;.>.>.>.>.3.2.>.>.>.>.>.>.3.:.3.:.",
"z z z z z z z z z z z z z z z m m z z z z z z z z z z z z z z z m m m B m z z m B B B B B B C C C C B { { { { { [ [ { [ { { { [ [ [ [ [ [ [ [ [ ;.....;.;.[ [ [ [ ;.......;.[ [ [ [ [ ;.;.......;.;.[ ;.;.......................;.[ [ ............;.[ ;...[ ....;.............;.;.:.:.:.F F h.j.j.j.j.I I I I Z._.U I I (.(.(.(.Z.z.l.(.S.S.Z.Z.K K L L L H j g f f f g Z g g Z F F F D S S ;.;.S A S A A A B B C C C C g Z Z C Z S H H j h j h j H H H j g g f f g f 1 f f g f 1 h f 2 2 1 1 1 f g g h g f f f f f g g f 1 f f f f f f g f f f f h h h h H F D G j.F :.>.>.;.,.>.>.1.3.>.,.;.;.F D F F D F :.j.F D D F F F Z Z j Z Z Z F Z Z } } } } } h.F F F D D D D D D G I I z.I I K K K K K K Y L L L L U P 0 L w w w w r t t r r t t t r q q q q q q q q w w w P L 8 0 8 8 0 K L K P P gXgXjXjXnXnX_._._.nX2XBXBXBXBXNXNXNXNXNXNXZXBX2X2X2X2XNXVX2X6XNX6X6X6X6X5X7X7X6X6X6X6X6X6X6X6X6X6X6X2X6X6X7X6X6X6X6X6X6X6X7X7X6X2X2X2XNX2X2X2X1X1X1X1X6X6X2X2X2X>X>X}.|.|.|.|.[.`.`.`.`.`.'.'.[.v.[.b.b.1.p.H.1.1.L.].|.,X_._.(._.gXgXgXhXhXhXhXhXiXyXyXyXyXiXdXxXzXdXdXkXkXkXhXhXhXiXhXhXhXjXAXnXgXgXB.P P B.B.pXpXyXuXsXkXkXhXiXhXhXhXkXzXzXzXdXdXxXkXhXkXhXhXkXkXcXkXhXhXhXkXkXkXhXhXhXhXkXkXhXhXhXkXkXhXgXgXgXgXA.P gXgXhXhXhXhXhXhXhXhXAXAXnXx.z.j.j.x.M.l.l.k.j.>.>.2.2.k.k.n.n.l.k.z.z.j.j.j.k.j.k.j.z.z.l.S.gXnXS.S.c.c.U I z.j.j.j.l.x.x.x.c.x.x.x.x.x.x.x.x.x.x.x.x.x.x.l.k.k.n.M.M.<X<Xx.M.,X<X,X<X<X<X<X<X<X<X<X<Xx.,Xx.x.x.x.x.x.x.x.x.x.z.j.k.j.>.>.>.3.h.k.l.x.x.x.x.z.j.z.z.z.z.j.3.>.>.>.>.>.3.3.j.k.j.j.j.j.>.>.>.f.>.>.>.h.j.k.k.z.z.k.j.j.z.j.z.j.j.j.j.z.l.x.c.c.c.l.z.j.j.h.2.>.>.>.>.>.3.j.j.j.j.j.j.j.:.3.j.j.j.j.j.G :.:.F F F F F F F ",
"z z z z z z z x z z z z z z m m m m z x z z z z m m m m m m m m m m B B x x m B B B B B B B B B B B B C C B C { [ ;.;.{ { { ..;.{ { [ [ [ [ [ [ [ ....[ [ [ [ [ [ [ ......;.[ ;...[ [ { S ....;.D D S ;.;.S S S S S S ;.;.;.,.;.;.{ { { ;.;.;.;.>.,.;...........[ ..................,.,...S F F 3.3.:.j.j.k.j.z.U U K Z.Z.Z.Z.Z.K I G I I Z.S.Z.Z.C./.(.^.l.z.j.F I F F } } h.j.^.).(.(./.j.j.j.j.j.G D S C C C C C C C Z Z Z Z Z Z h h h g f f f g h h g h h h h h f 1 f 1 1 L L K 0 8 8 h f f f g g h f g f f f f h h g g f f f f f g h g f f g g Y Y N.I F F D F D D :.>.>.,.,.>.>.:.>.,.,.;.S D H H H D D D H H D D D F :.} Z Z I z.l.z.h.2.f.2.2.k.l.j.z.z.z.j.I I U S.S.gXgXnXjXgXA.A.A.gXjXgXA.pXA.A.pXgXgXU K L Y Y 0 9 9 9 6 6 e e w w w w w w r t t yXyXyXyXyXV.P P P P K K P K P P P pXpXpXgXgXA.S.(._.nXnXnXnXrXrXrX2XrXnXnXnXBX2X2X2X2X2X2X2X2XNX6X6X6X2X7X7X7X7XNXNX6X6X6X6X6X6X6X6X2X2X1X4X7X7X6X6X7X6X6X6X2X2X2X2X2X2X2X2X2X2X2X2X2X6X6X2X,X>X>X>X}.^.|.|.[.v.`.`.`.K.K.'.[.v.v.v.v.v.b.b.K.H.H.`.|.2XCXMXAXnXnXAXhXgXgXhXhXhXhXhXhXhXhXhXhXiXsXfXsXfXzXcXvXcXcXxXcXcXcXkXSXMXAXnXnXgXgXgXgXgXgXB.gXiXhXkXhXhXhXhXhXhXhXhXhXhXhXkXxXxXcXkXhXhXhXkXcXSXhXhXhXxXkXhXhXhXhXhXkXhXhXhXhXhXhXhXgXgXgXgXgXgXgXgXAXAXAXAXAXAXAXnXnXx.x.z.z.j.k.b.v.v.b.v.b.>.b.b.k.k.n.M.M.x.x.x.x.x.x.l.z.z.l.x.x.c.c.x.x.x.x.x.c.x.x.z.z.j.k.k.l.x.x.x.x.x.x.x.x.x.x.x.x.x.x.x.x.x.x.n.k.b.v.n.M.M.M.M.M.x.M.M.,X<X<X<X<X<X<X<X<X<X,Xx.M.M.x.x.x.x.x.x.x.z.j.k.3.>.>.>.>.k.z.x.x.x.x.x.x.z.j.j.j.j.z.j.>.>.>.>.>.>.N.j.k.z.j.j.k.j.>.f.f.>.>.>.j.j.j.l.x.x.x.z.z.z.j.z.z.j.j.k.j.k.z.z.x.x.x.x.z.z.z.j.3.2.j.j.2.2.z.j.j.j.j.j.j.k.j.j.j.j.j.:.D F F D S S S D D D ",
"z z z z z z x x z z z m m m m m x C m C z m m m m B B B C x x x C m B B x x x x C C C C B B B B B B B B C C { { { { :.S ;.[ { S S { [ [ [ [ [ [ [ [ [ [ ..;.[ [ [ ^ A ....;.[ [ [ [ [ { S S S C C C C ;.C C C C C S S S ;.S S S S S ;.S F S { ;.,.;.;.,...[ ;.,.;.........................;.{ S S S ;.;.3.F h.h.h.j.I U K K K K U U K I L I I K I tXtX/.).(.(.^././.k.j.h.2.1.l.).).(.z.j.j.j.j././././.j.h.} F ;.;.:.:.j.j.j.j.j.F K L L h h h h L L K K P w 8 8 8 7 1 g 7 8 0 0 Y 7 h h h 1 1 f g g h g h h g f f g h h g f f f g g N.N.N.Z Z Z Z N.N.N.N.N.N.} :.:.Z ;.>.>.>.>.>.>.>.>.>.,.;.S H g f g g j H h g g H H l.1X^.l.<XBXCXCXCXZXZXZXZXZXCXCXZXZXmXmXmXmXmXjXjXkXIXMXMXIXIXIXkXfXfXfXdXdXdXdXkXkXkXhXjXjXgXS.U L h h g g 7 7 6 6 4 4 6 8 8 9 9 q t yXyXyXuXuXaXiXiXiXhXiXpXV.P P B.B.P P pXiXiXgXgXgXgXgXgXgXgXjXjXnXnXnXnXnXnXnXnXmXmXmXnXmXmXBXrXrX2X2X2X6X6X6XNXNX6X6X6X6X6X2X6X6X6X6X5X5X6X6X6X6X6X2X2X2X1X1X1X2X2X2X2X2X<X<X<X7X7X2X<X,X>X>X>X>X}.{.[.'.`.b.[.`.`.L.H.L.b.k.b.b.b.[.v.b.b.b.L.[.l.<XZXGXGXMXmXAXAXnXgXgXhXhXAXhXhXhXhXhXhXhXhXhXhXhXhXhXhXhXkXkXkXkXcXvXPXLXGXMXAXAXAXAXAXnXgXgXgXhXhXkXhXhXhXhXhXhXhXhXhXhXhXhXkXcXSXkXhXhXhXkXSXkXhXhXhXkXhXhXhXhXhXAXAXhXjXAXAXAXAXnXnXnXnXnXnXnX_.nXnXnXnXnX<X_.x.x.l.k.k.k.k.b.m.k.v.v.k.v.k.>.>.p.b.l.^.x.M.M.x.x.x.l.z.k.k.k.z.z.z.z.k.k.z.z.k.k.m.k.h.3.3.3.2.b.v.k.x.x.x.M.x.x.x.M.M.M.M.x.M.M.M.x.M.n.n.v.n.M.M.,XM.M.,XM.M.M.M.M.M.,X<X<X<X<X<X<X,XM.M.M.M.M.M.M.l.l.l.k.k.j.3.>.>.>.>.m.k.x.x.).<Xx.x.x.l.l.j.z.x.l.j.3.>.>.>.>.>.3.z.z.z.j.k.j.j.2.>.>.3.j.j.k.l.x.x.x.x.x.l.z.z.z.j.k.z.l.z.k.z.z.x.x.x.x.x.x.l./.k.j.z.z.k.k.k.j.j.h.h.h.h.h.h.h.N.h.h.:.:.F } { [ [ { { { { ",
"z z z z z x x x z z z x m m B C C C C x x x z m m m B C C C C C C x C B x B B C C C C C B B B B B B B B C C C { { { } { [ [ [ ;.{ [ [ [ [ [ [ [ [ [ ..;.[ [ [ [ [ ^ ........[ [ [ ^ B B B B B B B B B B { C C C C C B ^ { ;.{ C C C C S ;.;.{ [ ;.;.;.;...............,.....................[ [ { ;.[ [ ;.;.;.;.:.:.:.I I I I I I Z.C.I K K K K K I I C.S.Z./.C.I 2.1.k.k.1.1.3.j.j.z.j.:.3.3.2.j.j.j.k.k.j.j.j.3.2.2.2.2.3.j.2.j.j.I K K K L K K K K P P w 9 6 4 1 < < g 0 8 8 8 h h h h g f f g g g h L L L h g g Z I I I j j F Z F N.N.h.:.F S :.} } :.:.:.:.:.>.>.>.;.;.>.>.>.>.>.>.>.,.,.3.S s f f f g g H h g g N.N._.JXDXmXmXDXDXJXLXKXKXKXKXKXLXLXPXPXFXMXMXkXkXkXdXkXdXdXdXdXdXfXiXyXt q r yXaXsXdXkXkXkXvXGXGXGXkXgXV.K L h g 7 7 7 4 6 8 8 8 8 8 w q yXyXy yXaXaXaXsXdXdXsXaXaXiXiXuXpXpXyXuXsXdXkXlXiXiXlXiXiXfXkXkXkXkXkXkXhXhXhXkXkXMXMXMXMXMXMXmXmXmXmXBXCX2X2X2X6X6X6X2X2X2X2X2X2X2X5X6X6X6X6X6X6X2X2X2X2X2X2X2X2X2X2X2X<X<X<X,X<X>X>X,X>X}.|.}.}.|.{.{.`.v.v.v.v.v.p.p.1.1.1.b.b.[.`.1.1.1.1.1.[.k.l._.nXAXnX_.nXnXnXnX_.nXnXnXAXAXAXAXAXAXAXAXAXAXAXAXAXAXAXAXAXAXAXAXMXSXGXGXMXMXMXAXAXBXBXBXnXnXAXAXAXAXAXAXAXAXAXAXAXAXAXAXMXMXMXMXAXAXAXAXAXAXAXAXAXAXAXnXnXnXnXnXnXnXnXnXnXnXnX<X).<Xx.x.x.x.l.l.l.M.,Xx.l.k.k.k.k.b.b.k.k.k.v.b.b.|.v.2.f.2.>.>.2.v.}.,Xl.M.n.l.l.k.b.b.>.>.>.>.2.k.k.>.>.m.m.m.m.f.>.<.>.>.>.2.v.b.k.z.x.M.M.M.M.M.M.M.M.M.M.M.M.M.M.,XM.M.M.M.M.<X<X,X,X,XM.<X<XM.,X,X<X<X<X<X<X<X<X<X,XM.M.M.M.M.M.n.b.b.v.b.b.b.2.>.>.2.m.b.l.x.x.M.x.x.x.x.M.n.M.x.x.z.j.2.f.>.>.>.>.j.k.k.k.z.j.z.j.2.>.k.b.k.k.l.x.x.x.x.x.l.j.k.z.j.j.z.x.x.x.x.x.x.x.x.x.x.x.x.l.j.j.h.h.h.h.h.h.h.N.N.N.N.N.N.N.N.N.N.N.:.N.:.{ [ [ [ [ [ [ ",
"l l z z z x z z x x z x x C C C C C C x x C x x x m B C C C x x x C C B B B B C C x C C { B C { { { B B C C C C { { :.;.;.;.{ { { [ { { [ [ { [ [ [ ....;...;.[ [ { ..A A ....;.[ ^ A A B B B B B B B B { C B B C B B B C { { C C B B { [ [ [ { ^ { { { { ..............;.....................[ [ [ ..{ [ [ ;.;.....[ ;.;.:.:.:.h.h.j.I I K K L L K K I Z.Z.I G G G G F G G 3.G G I j.j.D.3.3.D.j.k.k.k.3.2.2.3.2.2.2.3.2.2.>.>.3.G I I K K K K P q w 9 6 7 1 1 f f 1 1 L 7 7 7 7 h g f f f f f j j L L K L L L K I h.j.j.h.I I h.:.:.:.>.3.>.;.;.;.;.;.;.,.>.,.;.;.>.3.;.S F F F S ;.,.>.>.;.S D S Z Z Z N.N.N.F Z } m.b.l.DXLXGXMXJXJXKXKXKXKXKXPXHXvXkXkXiXgXgXA.gXP P w w P P P P U P P P 0 0 0 w q t uXdXkXvXbXPXHXcXxXkXlXiXpXV.K L g 7 4 4 8 8 8 8 w w w q r r t uXuXuXaXaXaXaXaXaXsXdXaXuXy y uXyXy y y y y y yXpXpXiXsXhXhXhXhXhXhXhXhXhXkXkXkXkXkXMXMXSXSXSXMXZXmX2X2X2X2X2X2X2X2X<X2X2X2X2X2XNX6X7X7X2X2X2X2X2X2X<X2X<X<X<X<X<X<X<X<X,X>X>X>X>X}.|.|.{.|.|.|.v.v.v.v.v.v.k.b.b.2.k.k.k.k.k.3.k.k.k.k.k.j.l.^.^.l.^.|.M.n.l.n.n.|.,XM.M.,X<X<X).x.x.x.M.<X<X<X<X<X<X<X<XNXBXBXBX).)._.).).).x.x.M.M.M.M.,X,Xx.<X<X<X<XBXBXnXnXnXnXnXnXnXAXAXnXnXnXnXnXnXBXnXBX<X<X<X,XM.M.M.M.M.M.M.M.n.n.n.M.M.n.v.v.v.b.p.p.p.v.v.n.n.v.v.b.b.v.v.v.v.v.v.v.v.v.v.m.2.>.>.>.p.v.b.l.k.v.v.v.v.v.v.b.f.i.i.i.p.v.b.p.i.i.f.m.f.i.f.s.i.>.f.b.v.v.v.n.M.M.>X>X>X>X,X,XM.,X,X,X,X,X,X>X,XM.<X,X,X7X7X7X7X<X,X,X,X>X>X,X<X7X<X<X<X<X>X<X<X,XM.,XM.M.n.v.v.v.v.v.v.v.b.p.p.v.v.v.n.M.M.M.M.x.x.x.M.n.n.M.x.z.k.b.m.>.>.>.2.b.v.v.b.k.n.n.k.b.k.k.v.k.j.j.z.x.x.).).).).x.l.l.l.x.x.x.c.c.c.c.c.c.c.c.c.U c.z.h.N.N.N.N.N.N.N.N.N.N.N.N.N.N.N.N.N.N.F N.{ [ [ [ [ [ [ { ",
"M V z z z z z z z z z z z x C C C C C C C C C C C B x C C x x x x C C C B B C C C x B B A A C { [ { C C { { C C C C C C D D D S C ;.C S S { { [ [ [ ;.;.;.....[ [ A ....A A A ..^ A A A A A A A A B B B B C C C C B B B B C C C B B B { { { C { { { { C C C { [ ;.;.;.;.[ ^ ..........;...;.............;.[ [ ;.....,.;.[ ;.,.;.;.S S F j.h.I K K K K L L P P Z.Z.C.C.I G G G G /./.I I /.j.C.tX/././.k.3.k.j.j.k.j.j.:.G j.:.3.j.F G G I h L P w q 9 8 0 h h h h 7 7 : 7 g g f f g g f f f f g N.F D D F F I I I j.k.j.h.:.F :.3.>.>.>.>.>.>.>.,.,.,.,...;.;.;.[ ;.;.D D C S C F D S ;.;.;.S S F F Z Z N.m.m.m.m.f.|.VXDXDXDXLXPXGXPXKXKXKXKXKXPXvXiXP K U I I I I I N.N.Z Z I (.nXCXmXMXMXjXhXjXjXhXlXsXdXvXvXbXbXHXcXdXdXdXsXaXaXsXuXpXq 9 9 9 9 w q q q q w w q q q r r B.B.B.B.pXpXiXiXyXyXt r t t yXr w q q P P B.B.pXiXiXgXhXhXAXAXAXAXAXMXMXMXMXkXSXSXSXSXSXMXMXAXAXnXnXnXnXAXAXBXAXnXAXAXZXZXCXNX6X7X7X5X5X2X2X2X2X<XNXNXNXNXNX<X<X7X<X,X>X>X>X>X}.|.|.{.|.|.[.v.[.v.v.v.v.k.l.^.l.c.l.l.l.l.l.l.l.x.x.l.l.n.|.v.[.[.v.v.v.b.b.v.{.{.[.v.v.|.n.M.n.|.M.,X,X>X,X>X,X,X}.,X,X<X<X,X|.[.|.[.|.|.n.v.|.@X|.}.v.n.|.{.3X3X>X>X>X,X,X,X>X<X<X<X<XNX<X<X<X<X<X<X<X<X<X<X<X<X,X,X,X,X,XM.n.n.v.v.v.b.n.|.{.v.v.b.p.s.b.p.`.n.|.{.[.v.v.v.v.v.v.v.v.v.v.v.v.m.b.b.s.s.s.p.v.v.b.b.v.v.v.v.v.m.b.p.s.s.s.p.v.v.p.p.s.s.s.s.s.i.s.s.p.i.p.b.v.v.{.|.>X>X>X>X>X>X>X>X,X<X<X7X7X>X>X>X<X<X<X>X3X3X7X7X7X<X,X>X>X7X7X7X7X7X7X7X7X3X7X3X>X>X>X}.{.@X@X[.v.v.v.[.v.v.b.b.v.v.n.n.M.M.M.,X<XM.M.M.M.M.M.M.n.v.b.b.1.p.b.b.k.v.b.b.n.M.,Xx.l.l.k.k.k.k.j.l.x.(.(.).).).x.x.c.c.c.c.c.U U U U U U c.c.c.c.c.h.N.N.N.N.h.h.N.N.h.h.h.h.N.N.N.} } } F } { { [ [ [ [ [ [ [ ",
"/.tXH f f z z z z z z z z z x C C C C C C C C C C B C C C C C x x x C C C C C C C C C C C C C C C C C C C C C C C C C C Z Z Z C C C C C C C B C C C C B { ^ B C { A B A A A A x x x B A B B x x x x x x C C C C x x x x x x C x x x B x C S C C C B A A B B C { { C C C B B A ....;.;.;.{ ;.:.;.;.S ;.;...A ........;.....;.;.....S S S D F F D I L L 0 8 9 w P P P P U U U C.I C.S.Z.Z.I I I I G I j.I G /./.j.j.j.k.j.I G G F F F D D D j L L 0 w w 8 w P 0 8 8 8 6 7 7 7 1 1 f g g f f Z F F h.h.F F :.h.j.j.j.j.z.z.z.h.>.>.>.>.>.>.;.,.;.;.;.,.;.;.....;.;.[ { ;.{ C { C C Z F F ;.S :.3.:.:.h.h.h.l.VXVXVXCXDXDXLXKXKXKXKXKXPXPXPXHXHXHXPXHXvXkXU I N.N.:.;.{ { } :.{ } h.z.U S.A.gXgXgXiXhXiXyXyXaXdXzXzXxXxXxXfXfXiXaXuXt y uXy r q w w w w q P q w w w q q q w q P P P K P P P iXhXsXyXy y yXyXiXP 0 P P B.gXgXhXhXhXkXMXSXSXSXSXSXSXSXSXMXMXMXMXMXkXMXkXSXSXSXSXMXMXMXMXMXMXMXZXAXZXMXZXMXZXCXNX6X6X6X6X5X1X7X6X6XNXNX<X<X<X7X<X<X<X,X>X3X>X>X>X>X}.^.|.|.|.[.v.v.v.v.v.v.n.^.).).).x.x.x.x.(.).,X,X).x.n.n.n.v.[.|.n.v.v.b.`.v.v.v.v.[.[.}.|.}.}.{.{.}.}.>X>X>X,X,X,X>X,X7X<X,X}.@X[.].].@X{.[.{.{.@X@X{.{.@X#X3X,X>X3X>X>X>X3X3X7X7X<X<X<X<X<X<X<X<X<X<X<X<X7X<X<X<X<X<X7X,X|.|.[.v.[.[.`.v.#X3X|.{.v.b.K.XX'.`.{.|.}.#X@Xv.v.v.v.b.v.v.[.+X+X+Xv.b.b.b.p.s.b.v.v.K.`.`.`.b.b.L.J.i.s.s.s.i.K.b.b.p.s.s.p.J.p.p.K.i.p.J.R.J.p.b.[.{.#X3X}.}.3X3X>X>X,X7X7X7X7X7X7X7X2X1X6X2X>X3X3X3X7X7X7X7X<X<XNX6X2X6X6X7X7X7X1X7X3X>X1X>X>X}.#X@X{.{.{.@XoX`.[.[.[.[.[.|.|.|.,X,X,X,X,X,X,X,X,X,X).^.[.H.1.[.[.b.k.l.k././.l.x.x.x.x.x.j.h.h.h.h.h.z.c.x.x.c.c.c.z.z.z.z.z.z.z.c.c.z.z.c.c.x.x.x.x.h.h.:.:.3.h.N.h.h.h.j.j.h.N.N.N.} ;.h.} } } { [ [ [ { } } C ",
"JXGXkXq Y g z z z z z z z z z C C C C C C x x x C x C C C C C C C x C C C C C C C C C C C C C C C C C C C C C C C C C C C x x C C C C x B B B x C C x x B B B B x x x x x x x x x x x x x x x x V x x x m z x x z z z z x x x z z m z x x C C x x B B B x m B C C B B B B x B B B ^ B B C C S { S F S { ;.A S S S S ............A S D D D D D D D j h h 1 : 7 7 4 4 6 L K K K K K U Z.c.c.c.U U C.Z.Z.C.I I I G j.j.I I G I I G D D D I I L L K L w w 8 8 9 8 8 6 8 6 7 g g f f f f f g Z Z N.h.k./.j.j.:.:.:.j.:.F h.h.j.3.>.>.,.;.>.>.,.>.;.;.......[ ;.....;.[ [ [ [ [ ;.{ S D D D D D F ;.p.^.z.^.(.rXJXKXLXLXLXHXHXHXHXHXGXvXxXdXaXaXyXyXyXt q P K I :.N.h.:.{ [ [ { ;.S F N.} N.I I I I I K K P w w w w e w P P U P K 0 9 7 6 e 6 4 6 4 : : 5 7 Y 7 7 7 7 7 7 7 L L L L q P P P t yXaXyXt r r r B.B.P P gXgXhXhXkXkXkXkXSXGXGXGXGXSXSXSXSXSXMXMXAXAXAXMXMXSXSXSXSXSXMXAXAXBXBXBXBXBXBXBXBXCXAXBX<X7X6X6X6X6X7X7X7X7X7X7X,X,X7X7X7X7X<X,X,X>X}.>X>X>X,X}.|.n.|.[.`.b.b.v.[.b.v.v.}.>X).x.^.^.l.x.x.,X>X|.|.n.v.[.[.`.].}.n.v.v.v.b.b.b.b.v.[.].|.{.{.{.{.{.{.}.>X3X>X>X>X>X>X,X<X,X>X|.[.[.@X@X#X{.@X{.|.|.{.].{.#X3X3X>X3X3X>X>X>X3X>X7X7X7X<X<X<X<X<X<X<X<X<X<X7XNX7X<X<X<X<X7X3X3X#X|.|.[.[.[.[.{.}.|.3X@X`.K.XXXXoX@X@X#X#X@X+X+X+X+XXX+X@X#X+XXX+X+X+X+XXXXXT.XX+X+XOXXX+X+X'.K.R.T.U.U.U.U.U.T.`.K.K.J.K.].@XoXoX+XU.R.XXXXK.XXoX{.}.5X1X}.}.1X3X1X2X7X7XNXNXNXBXNXNX2X2X2X<X7X3X7X7X7X7X7X2X2XNXNXNX2X2X6X6X6X6X6X2X2X1X1X1X1X1X1X}.@X{.}.}.#X{.{.{.{.{.}.>X}.>X,X,X<X,X).).).x.).).).).^.k.k.k.k.k.j.j.j.j.j.k.z.z.z.l.l.h.} } } N.N.N.z.x.x.x.x.x.z.l.l.j.j.j.l.x.x.l.j.z.x.x.x.x.x.z.z.h.3.j.h.N.h.h.h.h.N.N.N.N.N.[ [ } } N.N.{ [ [ [ { [ [ { ",
"HXHXvXsX0 g x z z z z z z z x C C C C C C z x z z z x C C C C x C C C C C C C C C C m m C C B m m m B C B C C B B C C x B x m B m m B B B B B B B m z m m x B x z z x x x z z x z z z z z x x z z z z z z m z x z z z z x x z z z z z z z z z z z z z z z z z z x m m B B x B B B B B B C C C C C C D D D D F F D D S S S S A A A D D D D D D D S j h f f 1 f f < 1 g g h g g H I I I h.h.h.z.I U U A.Z.U U I I G G I L I I L K K L L K K L h h 0 9 8 8 8 8 8 0 7 7 2 f f g g g g g g Z F } h.h.j.j.z.j.j.:.;.3.F :.>.>.>.>.>.>.>.>.>.>.,.>.;.......;.;.;.[ [ [ [ [ ;.[ ;.;.{ S D D D D S C S k.k.z.(.A.gXkXvXcXxXkXyXq q q V.P w w 7 8 L 0 7 7 7 0 L K L L I j.F D { { ;.F F F } S S F F F F F F F Y h 7 7 7 7 g Y N.h.I I Y Y g g Y 7 7 7 7 7 7 g g h g h Y L L K K U Z.pXpXyXr r t B.r r r P P P gXgXgXgXhXhXhXkXkXkXkXkXkXkXGXGXGXSXSXSXSXMXMXMXAXAXAXBXZXAXAXAXAXAXBXBXBX2X<XNXNX7X<X7X7X6X2X7X7X7X6X6X6X6X6X7X7X7X2X7X2X>X>X1X7X3X>X1X>X>X}.}.>X>X,XM.|.|.v.b.[.[.`.`.`.[.H.p.b.v.v.v.b.b.b.[.b.b.v.[./.[.b.v.[.`.v.[.].v.[.`.p.p.J.p.`.oX[.|.{.|.|.{.|.}.}.{.3X3X>X>X>X3X3X>X>X>X2X>X[.].@X{.v.|.{.{.{.].`.'.].@X#X}.#X3X3X>X>X>X>X>X7X7X<X7X7X7X7X7X<X<X<X7X<X7X7X<X,X,X,X7X7X3X3X>X}.{.{.].[.[.].@X@X-X@XoX+X'.oX@X#X@X=X#X#X@X@X#X+X+X;X:X:X@X@X;X;X;X&X+X+X&X;X@X+X+X#X#X#X@X@X;X@XoXOXOXOX+X+X$X;XoX'.XX#X1X1X-X:X;X$X;X@X].@X@X}.>X6X2X1X1X1X2X2X6X2X2XNXNXNXNXNX<X<X2X2X2X<XNXNX6X2X6X2X2X2XNXNXNX2X2X2X2X2X2XNX2X2X1X1X1X1X,X>X}.|.|.>X>X>X|.|.|.|.^.^.,Xl.x.x.x.).).).).x.x.x.x.x.l.j.3.2.j.j.3.h.h.m.h.h.m.m.j.h.h.h.3.>.;.>.h.m.h.j.j.l.x.<X<Xc.l.l.l.l.z.x.x.x.x.j.j.z.x.x.x.z.z.z.z.j.h.N.N.h.j.j.N.N.N.N.} :.{ [ [ [ } } [ [ [ [ [ [ [ [ ",
"r pXyXq Y g Z z z x x x z m x C C x C C C z z z m z m C m m m z m m m C C C C C C C m m m m m m m m B B B B C B B B C B B B B B B m m B B B B B B B m z z m B B z z x x z z z z z m z z z z z z z z z z m m m z z z z z z z z z z z z z z z z z z z z z z z z V V z z m m z z m B B B B B B { B ^ { ;.;.C { [ ;.S D D D D D F S D D D D G G G G G D j h g f f f f f g g Z g g Z Z Z F :.} } ;.:.:.I I I I I h.h.h.j.h.I I F H H j g g g h h L L h L L 0 8 8 0 h h g g f f f g g g g h j H D F j.j.h.:.h.h.3.>.3.3.>.>.>.>.;.>.>.>.>.>.>...,.>.,.....;.>.,.[ ;.,.;.;.;.[ ;.;.;.3.F C Z Z C Z } h.k.h.N.K L L e w P U L 7 1 7 L I N.Y g Y K Y g g g g g L K K K I H S C { S S F D F D D S S S S S F H g g h g g g j N.h.j.^.c.j.j.I K K Y Y L L L L K U U U U P V.pXpXpXpXP r q w w w w w q B.gXgXgXgXhXkXkXkXkXkXkXkXkXMXMXMXMXMXMXMXMXMXMXMXAXAXAXBXnXBXBXNXNXBX<X2X<X<X6X2X6X6X5X6X6X6X6X1X1X1X1X5X5X5X6X7X7X6X6X6X6X6X2X2X2X2X2X1X>X>X>X,X1X1X>X,X,X).).).^.^.^.^.^.^.[.[.k./.k.1.1.k.1.p.H.[.^./.j.2.1.p.b.1.p.v.[.].v.v.v.b.H.H.1.H.K.p.v.].v.[.{.}.|.|.}.,X|.|.#X,X,X}.}.}.>X}.|.}.3X|.[.'.`.|.3X3X{.[.`.`.`.XX`.{.}.#X}.#X3X>X>X3X3X3X7X<X7X7X7X7X7X7X7X7X7X7X6XNX7X7X,X>X7X7X7X3X7X>X>X}.#X#X#X@X#X@X#X{.@X#X;X$X#X@X@X5X4X4X1X5X#X-X-X3X4X5X5X1X1X5X4X-X=X@X#X:X:X-X#X3X5X3X3X1X3X>X}.}.@X@X#X:X@X.X5X}.{.@X}.2X2X1X6X0X{.=X{.|.{.}.>X,X2X2X1X1X1X2X2X2XNX2X2X2XNXBXBX<X<X2X2X2XNXBXBXBXBXBXNX<X<X<XNXNX<X<X2X2X<X<X<X<X<X>X>X,X,X>X,X}.|.|.,X,X|.^.|.[.|.l.k.l.l.z.z.l.z.l.x.z.k.z.x.x.l.j.2.>.>.>.>.>.>.k.m.k.m.f.m.2.3.>.>.>.>.>.>.f.m.m.j.j.z.x.<XnX_.^.M.x.x.x.x.x.x.x.z.z.z.x.x.x.x.x.x.z.j.h.N.N.N.h.h.N.N.:.>.[ [ [ ;.;.;.[ [ [ [ [ [ { { { } ",
"g g g g g g x x x x x x x x x x x x x x x x z z B m m m m m m m B B m m B C m m m B B B m m m B B m B B B B B B B B { B B B B B B B B B m m m B B B B m z m n B m z z n z z z m m m m z z z z z z z z z z m z z z z z z z z z z l z z z z z z z z z m m z z z l V l z z z z z z m m z m B B B B B B ;.3.S C [ ^ B B ;.;.S ;.:.:.F F F F D D D D G H L K h f g h g f f H Z C C C F Z F S ;.;.,.;.;.;.;.{ ;.;.S S :.:.:.} :.:.:.} :.C Z g g g g g g j I Y 7 7 Y K K L L L L L h g g f f g g j H I :.F D D D F :.3.3.>.>.>.,.;.>.,.>.>.>.>.,.,.,.,.......;.>.;.;.>.>.,.;.;.[ ;.>.2.3.{ C C Z Z N.:.m.k.k.z.I Y Y Y N.h.I j f f L j H g h g g g g g H Z g h j j Y I D S D S S B S D S D F S ;.{ { ;.;.Z f f g g g g j I j.z.U S.mXmXjXjXkXiXpXpXiXpXpXpXyXuXyXyXpXt r q w w L P P P V.pXpXgXgXhXkXvXcXkXzXcXcXcXGXSXkXAXnXAXAXnXnXnXnXnXnXnXAXnXnX_.<X<X<X6X2X2X2X2X2X6X1X5X2X2X2X6X6X2X6X6X2X1X1X1X1X1X1X1X1X1X5X6X6X6X6X6X2X2X2X2X2X2X).).).).).).).).(.(.(.).).^.^.^.^.^.^././.c.C././.I G 3.j.I z.z.j.I j.j./.D.p.b.[.[.v.v.v.b.H.H.H.J.b.v.v.b.b.b.[.n.[.|.}.}.|.|.3X,X}.|.|.|.}.[.{.v.v.[.[.`.[.].3X3X{.`.'.'.oX+X@X@X#X#X}.3X3X3X3X3X3X7X6X7XNXNXNX6XNXNXNXNX6X6XNXNX7X2X2X1X7X7X<X,X7X>X}.}.{.@X@X@X@X}.3X.X.XoX@X@X-X-X@X>X1X3X>X>X>X1X1X6X6X6X6X2X<X2X1X1X-X.X3X3X1X1X1X7X7X7X2X2X<X<X,X,X>X>X>X>X}.|.|.].|.{.>X2X2X2X6X2X}.|.{.|.|.|.}.>X,X,X1X1X1X,X2X2X2X<X2X2X<X_.<X<X<X).<X<X<XBXBX<X<XBX<X_.<X<X<X<X<X<X<X<X<X<X,X,X,X>X,X).).>X|.|.v.n.n.|.k.1.b.b.b.3.j.k.k.z.z.j.j.j.k.j.k.k.l.l.z.j.2.2.2.>.3.2.2.j.j.k.k.2.>.>.3.3.3.3.>.>.>.>.2.j.j.j.z.l.).nXnX).l.z.z.l.x.x.x.x.x.x.x.x.x.x.x.x.l.z.j.h.h.h.h.h.h.:.:.;.;.;.>.>.:.;.>.;.[ [ [ [ [ } } F :.",
"z z z d d x x x x x x x x x x x x x x C x x x x x C C B B B B B B B B B C C C C B B B C C B B B B B B B B B B B B B B B C C B B B B B B B m m B B B B B B m n m m m m n z z z z z m z z z z z z z z z z z z z z z z z z z z z z z z z z z z z z z z x z z z z z z z z z z z z z z z z m m z x B B B B F Z C ^ B B ^ ..[ [ ;.;.;.{ { F S F D :.h.:.F H h h f g g g f f f g Z C S S F D D S S ;.[ ;.>.;.[ ......;.......;.>.>.>.:.>.;.;.:.F F F F F F N.N.Y Z Z H g g h j N.I j g g f g f f f j H j Z C D D D D ;.;.:.>.>.>.>.>.>.>.>.3.>.,.,.;.>.>.>.,...>.>.;.>.>.,.[ ..[ ,.>.>.>.,.[ } h.F :.:.j.k.^.l.j.z.z.I Z F F F g 1 g L h h g g g Z Z Z Z g g h h g g Z D H j s J s x g s g Z x S S S S S C Z g g f g g L U U Z.A.gXlXdXdXdXdXaXy t t r r r q r r r q q pXpXpXV.pXiXxXkXdXfXfXkXzXdXxXcXcXxXzXcXbXcXvXkXiXgXjXjXjXnXnXnXgXgXnXnXmXnXmXnX_._._.BXBXBX2XrX2X2X2X1X).).2X2X2X2X2X2X<X).).<X).1X_._.2XBXBXCXCXCXCXBXmXnXnXnX_._._._._._._._._.S.S.A.S.nXnX_._._._.S.S.S.S.A.A.A.U C.U U S.A.Z.Z.S.(.).^./.[.b.[.[.v.v.v.v.v.b.K.K.K.v.v.v.v.K.b.v.v.v.|.{.{.|.}.>X,X}.{.{.|.{.{.{.[.`.'.`.`.`.`.].].'.XXXX'.@X#X#X#X#X@X#X3X3X3X5X5X3X1X2X2XNXNXNXNXNXNXNXNXNXNX7X<X2X2X2X2X,X,X<X<X>X,X|.|.{.|.|.|.}.>X>X}.{.{.{.|.}.{.|.}.}.}.>X}.}.,X1X<X<X<X<X,X<X<X<X,X1X,X2X,X,X<X<X<X<X<X<X<X<X<X<X<X<X,X>X,X|.v.[.v.[.v.|.>X).<X<X,X|.|.{.[.[.|.}.>X>X|.|.|.|.|.>X>X,X,X,X,X).<X<X).).(.).<X<X<X).).<X<X<X).<X<X<X<X).).<X<X<X,X>X>X,X).x.x.M.^.k.b.v.v.b.|.b.1.2.k.p.>.>.2.j.k.z.j.k.j.k.2.j.k.j.j.k.j.j.b.2.3.j.k.z.j.j.j.k.1.>.>.k.j.z.j.j.>.>.>.j.j.j.z.j.z.x.).).x.x.x.l.z.x.x.x.x.x.x.x.x.x.x.x.x.z.j.3.>.:.h.N.h.h.:.:.:.:.N.h.N.N.} >.,.[ { [ [ [ [ { F [ ",
"f a a a a d z z z z z z z z z z z C x z x x x x x x x x B C C C C C C C C C C { { { { C { { B A B B C C B B C C B B B B B B B B B B B B B B m B B B B B B B m m m m m m m z z z z z z z z z z z l z z z z z z z z z z z z z z z z z z z z z z z z z z x z z z z z z z z z z z z z m z z z z B B B B B C x B B B B ^ ..[ [ ;.;.,.;.[ { ....;.:.h.h.j.z.I I I L j H Z g f f g Z Z D F J S D D S ;.{ [ [ [ ................>.>.>.>.>.>.>.>.>.>.:.:.:.h.N.N.N.:.:.:.C Z Z Z C Z C Z g g g g Z Z g Z H Z C D D D D D F F >.>.>.>.3.2.k.j.k.k.:.;.;.>.k.k.3.>.,.>.,.,.;.;.;...;.>.>.>.;.;.;.;.;.F :.3.:.:.>XBXrXmXZXmXK j j H g f 1 1 g f f Z F } :.S g f f g f 1 1 j I h 1 1 1 a a , < 1 f f g Z S S D D D D F Z g f g K L A.kXfXaXaXaXaXy w w w w 9 w w w r pXyXuXsXfXfXsXyXy zXcXdXdXdXdXdXzXdXdXzXcXxXdXzXcXzXdXdXkXkXkXkXxXkXkXkXkXkXkXkXkXMXGXcXMXMXmXmXmXmXmXMXmXMXMXmXnX_.nXnXnXnXnXnXnXnXnXnXnXnXnXmXMXMXSXJXPXJXMXMXMXAXAXAXAXAXAXAXAXAXAXAXjXAXAXgXhXMXMXMXMXAXhXgXhXhXgXgXgXgXgXgXS.S.nXnXgXnXnXnX<X,Xn.[.v.`.K.b.`.`.b.b.b.K.J.K.`.v.`.`.b.v.v.v.v.].{.{.}.}.#X}.|.}.#X{.{.].@X].oXoX@X@X@X`.'.`.'.OXOXoXoX=X=X=X=X=X-X5X5X1X7X1X1X1X7X2X<XNXNXNXNX<X<X<XNXNXCX<X<X2X,X<X>X>X,X>X>X,X}.}.|.}.>X>X}.>X}.}.}.{.[.[.v.v.[.|.v.v.[.}.>X>X>X,X>X,X,X,X,X<X<X<X<X<X2XNX2X<X<X<X<X<X<X<X<X<X).).<X<X<X,X,Xn.^.|.v.v.v.|.).).<X<X).M.n.b.k.l.M.,Xx.l.^./.l.l.^./.l.x.^.^.x.x.,Xx.x.).,Xx.x.x.x.x.).).).x.x.).<Xx.x.x.x.).<X,X,XM.x.x.l.n.n.k.v.v.v.v.v.v.k.>.1.2.3.>.>.>.k.k.k.k.k.b.2.>.j.k.z.k.k.j.j.2.3.j.j.j.j.j.j.j.k.2.>.>.3.j.j.h.h.3.>.3.j.j.z.z.j.z.x.x.x.x.x.x.x.x.x.x.x.z.z.x.x.x.x.x.x.c.z.j.3.>.>.:.N.N.:.N.N.N.N.N.N.N.N.:.>.;.[ [ [ [ [ [ } N.{ ",
"d a a a a a a d z z d a d z z z z x z z x s x x d d x x x C C C C C C C C C C { [ { { { { ^ B B B B { C { { C C B B B ^ ^ B B B B B B B B B B B B B B B B m m m m m m m m m z z m z z z z z z l l z z z z z z z z z z z z z z z l l z z z z z z z z z x z z x z l l z z z z z z z z z z z z m B C C C x z m m B B B B B ^ { [ ;.;.[ ;.....,.;.{ } F :.F h.h.I j.j.j.h.F F F Z g g Z Z g g g Z S S ;.;.;...;.;...........,.>.>.>.>.>.>.>.>.>.>.:.:.3.:.>.>.;.,.>.>.:.:.:.;.;.;.{ :.F Z Z C C Z Z C C C Z D S D D D F :.:.>.>.3.3.j.j.j.l./.j.3.>.k.^.j.>.>.>.>.,.;.;.,.,.,.>.;.;.;.[ [ ;.>.F F F D D j._.S.S.mXjXU 0 h h h g f g g f f Z Z Z F C s d , < < < 1 Y U L < < , a a % < 1 f f f x z x C C Z Z H j g f 1 1 7 0 yXaXyXy y y q 4 4 8 9 w q q q r yXyXaXaXyXy r r r y y yXaXsXdXdXdXaXaXaXaXaXaXaXaXaXaXsXdXdXaXaXsXdXdXkXhXhXkXkXkXkXcXxXMXSXSXSXSXMXMXMXMXSXSXSXMXAXMXAXAXAXMXMXMXMXMXMXMXMXMXSXSXGXHXPXHXSXSXMXAXAXMXAXMXAXMXMXMXAXAXAXAXAXAXAXAXMXSXSXMXkXAXAXAXnXnXnXnX<X<X).).<X<X<Xx.<X,Xx.n.|.v.v.v.v.`.`.'.'.`.`.XXXXK.K.v.v.`.'.`.[.v.`.v.].{.{.}.#X3X@X@X@X#X{.@X'.oX[.@X@X@X@X@X[.`.XX'.'.oX@X{.{.|.|.|.].}.1X2X6X6X,X>X<X7X,X,X<XNX<X<X<X<X<X<XNXCXnX<X<X<X>X>X>X,X>X,X,X,X>X^.|.,X,X^.^.|.,X,X|.b.p.p.v.v.b.b.v.v.n.,X>X,X,X,X,X}.n.,X7X<X<X<XNX<XNXBX<X<X<X<X<X<X<X<X<X).x.<X<X<X<Xx.x.x.n.n.v.n.M.M.x.).<Xx.M.M.l.z.l.M.M.x.x.x.l.k.k.n.l.k.l.v.b.M.x.M.M.M.x.,Xx.x.M.<X).x.x.x.x.x.x.x.x.x.M.x.x.M.,Xx.M.M.M.M.n.b.k.n.n.n.v.v.k.2.2.p.b.2.>.>.f.2.>.2.b.k.2.>.>.j.z.j.j.j.k.k.2.3.j.j.j.j.j.j.z.k.2.>.>.>.>.:.:.:.>.>.>.j.j.z.j.j.z.z.x.x.x.x.x.x.x.x.x.x.z.z.z.x.x.x.x.x.x.l.j.3.>.>.>.:.:.:.h.N.h.h.:.:.:.:.h.3.;.;.;.[ [ [ [ } N.} ",
"d d d z a a a d d d a a a d z z z d d x x J J s s f s x x z C C C C C C C C C C { ;.;.} C B { { [ [ { ^ { { ^ { { { { ^ ^ B B B B B B B B B B B B B B B B B B m m m m m m m m m m m m m z z z z z z l z z z z m z z z z z z z z l l z z z z z z z z z z z z x x z l z z l l z z l l z z z l z B C C C x z m n B B B B B B ^ ^ { ..........;.;.;.,.;.;.F D F F I j.j.j.j.^.^./.I F H g g f f f g H C A S ....;.......,.;.;.,.>.>.:.:.3.>.>.>.>.:.h.h.:.>.>.[ { :.;.:.;.;.;.;.;.,.>.3.:.} :.:.3.:.S C C C C C Z S S D F F F F ;.;.2.k.j.j.l.j.3.>.2.k.3.>.>.>.,.,.>.,.;.,.,.;.F ;.>.>.;.;.;.S F D D D F I I I U I L g g 1 2 g g g g f f g Z C S F F x a 1 1 g g Z I Y g f g z g Y g g g g g Z C z C C Z j g g g h L L P P t aXt q q e 4 4 6 8 w w w w w w w w q w 9 9 w w q r yXuXaXuXuXy t t t t r r t yXyXuXuXyXyXuXyXpXpXpXiXiXiXiXiXhXhXkXkXkXkXcXSXSXSXSXSXSXkXkXSXSXMXMXMXMXMXMXAXAXAXAXAXMXMXMXMXSXMXGXGXGXSXMXMXAXBXBXBXAXAXAXBXnXnXAXBXBXBX<X<X<XnXAXAXAXnXnXnXnX<X).).x.n.n.n.v.n.v.v.v.v.v.v.[.`.'.'.`.v.`.'.`.`.'.oX@XoXXXK.R.`.[.oXoX].'.XXXX].@X@X}.}.#X3X@X@X@X#X@XoX[.].].{.}.|.{.{.].`.'.[.v.].{.{.{.|.{.[.[.}.>X<X2X1X>X>X>X>X>X>X>X<X<X,X,X,X,X<X<X_._.<X<X,Xx.).,X).x.x.l.M.).k.l.l.l.k.k.b.n.M.n.[.p.1.p.b.p.p.b.v.n.M.,X,XM.M.M.n.n.M.M.M.,X<X<X<X<X<X).<X<X<X<XM.M.x.x.M.x.x.x.x.).x.x.x.l.x.M.M.M.M.x.M.).x.M.M.x.M.M.x.x.x.x.x.M.l.l.M.M.n.n.v.b.n.M.l.k.l.l.z.l.M.M.x.c.x.x.M.x.x.x.x.x.x.,XM.x.M.x.x.x.l.l.M.n.b.k.M.M.n.b.b.1.3.b.v.n.b.3.>.m.b.2.2.b.b.>.>.>.3.3.2.>.>.j.j.>.>.>.j.j.z.z.h.j.2.:.;.;.;.;.>.>.>.>.>.>.3.j.j.j.j.j.z.x.x.x.x.x.x.x.x.x.x.z.j.z.z.x.x.x.x.x.z.h.>.>.:.:.} N.h.N.N.h.j.:.3.:.:.N.:.>.>.;.[ [ [ { } :.:.",
"d d d d a a a d a a a a a d l l d a d z z f f a f f d z z z z C x x C C C C x C C C D F C B B C { { [ [ { { { [ [ [ [ [ { B ^ [ ^ ^ ^ B B B B B B B B B B B B B m m m m m m m m m B B m z z z z z m l l l z z z z z z z z z z z z l z l z z z z z z z z z z z z z l z z l l z z z l z z z z l z z z x m z z m B B B B B B B B B ..{ ........;.[ ;.;.;.3.:.j.j.I I G G G G /.^.(.(.(.I I L L j g f f s x x S S S S ;.>.;.;.;.;.;.>.:.:.>.>.>.2.h.h.:.>.>.>.;.[ :.>.;.[ [ [ [ [ ;.;.3.:.;.;.,.;.>.;.{ ;.{ ;.;.F C C C F F F :.D F >.3.j.j.j.F ;.>.>.>.>.>.>.>.>.>.>.,.[ ....;.;.;.;.,.;.;.>.;.S C H j F Z Z h.z.h.H f g g Y g g Z g g Z C C [ [ ;.2.C Z Z z Z Z Z C Z Z Z :.C C z.F g g Z Z Z H H j L L L K U V.pXpXyXyXt r r w 6 6 4 6 6 8 8 6 6 8 6 6 6 7 8 8 8 9 w q q q r r q w 9 9 9 9 w w q q q P B.B.B.B.pXpXiXpXpXpXiXhXhXhXkXkXMXSXSXSXSXSXSXSXSXSXSXSXSXMXMXMXAXnXnXnXnXBXBX<X<X<X<X<X7XNX<XBXnXnXnXnXnXnXBXNXNXNXNX<XNXNX<X<X<X<X<X7X<X>X>X>X,XM.,X<X<XM.,X,X>X>X}.[.b.[.].[.[.`.`.`.`.'.`.`.`.'.'.oX].'.XXXXXXXX=X=X5X.X].+XXX'.].@XoX].'.OXOX@X@XoX@X{.}.#X].].#X@X].[.{.@X]..X1X{.'.'.'.'.'.`.[.{.{.|.[.{.[.`.`.{.>X>X>X>X>X>X>X,X}.M.,X<X,X,X,X<X<X,X,Xx.).NX_.).x.x.x.).x.x.l.l.x.l./.k.k.j.k.k.|.M.n.v.v.p.>.>.i.s.1.v.v.n.,X,XM.M.M.M.M.M.M.M.M.<X<X<X<X<X<X<X<X<X<Xx.<Xx.x.M.M.M.x.x.x.x.x.x.<Xx.M.<X<Xx.x.M.x.x.x.x.M.M.M.x.x.x.x.x.l.j.z.M.,XM.z.k.k.k.k.z.k.v.v.k.k.M.x.x.x.x.x.x.x.x.<X<X<XM.,XM.x.M.M.M.x.x.M.M.v.v.k.l.x.l.k.b.p.>.2.k.l.l.k.j.k.k.k.j.k.>.>.>.>.>.>.m.>.>.>.3.>.>.>.>.3.3.j.h.:.>.>.>.;.[ ;.>.>.:.>.>.>.2.k.j.j.j.j.j.z.x.x.x.x.x.x.x.x.x.x.j.z.z.x.x.c.x.x.z.j.>.>.3.>.>.:.:.:.} } N.N.N.N.N.N.:.>.>.;.[ [ [ [ [ ;.>.",
"a a a a a a a a a a a a p u u i z d z z d a a a a a d d z z z z z x x C C x x x z C C C C C B C C B { { [ [ [ [ [ [ [ [ [ { { [ [ [ ^ ^ ^ ^ ^ ^ ^ B B B B B B B B B m m m m m m B B B m z z m m z m z z l l z z z z z z z z z z z z z l l l l z z z z l z z z z l k l z z z z z z z z z z z C z z z z m z z m B B N x B B B B B ^ B B B ^ ^ ^ { [ { ;.;.S F F h.j.I I Z.C.C.C.Z.Z.Z.Z.Z.Z.Z.U K j h Z Z g g Z g S D F F :.3.>.>.>.>.>.>.>.:.k.j.N.N.>.>.>.>.[ ,.,.[ ;.;.;.[ [ ;.[ ;.;.{ { [ ;.>.>.>.>.>.>.;.;.:.F :.h.F F D D :.>.>.k.3.>.>.>.>.,.>.>.>.>.>.>.>.>.,.;.....;.;.[ ;.;.;.;.;.{ S ;.C Z F N.F N.h.j.h.Z g g Z F 3.>.;.[ [ ;.3.>.<.>.;.3.:.j.h.h.z.j.F F F I I I L U U K K K P Z.gXgXV.V.pXpXP pXr q q w 9 9 8 6 6 7 6 8 0 0 0 0 0 0 0 0 0 K P P L w q P P P 0 w 0 0 0 K K P P P P P P B.gXgXgXgXgXgXhXAXAXAXAXAXMXMXSXSXSXSXSXSXSXGXPXGXSXSXSXMXMXAXnXnX<X<X,X,X3X3X3X3X1X6X6X3X3X3X3X-X1X3X1X6X6X6X6X6X7X7X7X7X3X3X3X3X3X3X>X3X7X6X>X}.}.}.}.}.}.}.{.@X@X@X3X-X].'.oX#X@X@XoXoX'.'.oX@X@X].].@X#X@X{.@X@X@XoX@X@X-X#X@X#X@XoX;X=X@XoX'.XXOX&XoX'.$X@X@X@X@X@X@X@X'.'.@XoX].[.{.[.].'.'.'.'.`.].].[.[.`.].v.v.`.|.,X>X,X<X<X<X7X>XM.M.,XM.,X,X,X<X<X<X<X<X<X<X<X<XnX_.)._._._.).).)._.).x.x.x.x.M.,Xn.b.v.b.2.>.>.i.s.p.v.v.n.,X,X,X,X,X,X,XM.M.M.,X<X<X<X<X<X<X<X<X<X<X<X<X<X,XM.M.M.M.M.M.M.<X<X<X<X<X<X<Xx.M.x.x.x.).<Xx.x.x.x.x.x.x.x.l.j.l.).).x.l.k.k.k.k.k.k.b.v.k.k.l.x.x.M.M.x.x.x.x.<X<X<XM.M.M.n.n.n.k.l.l.n.n.k.k.b.n.x.l.k.k.2.>.>.3.j.j.k.z.z.j.j.j.j.>.>.>.>.>.>.m.f.>.>.f.>.>.>.>.>.>.>.>.>.;.>.>.;.[ >.>.>.>.>.>.f.m.j.j.j.z.k.k.l.x.x.x.x.x.x.x.x.x.x.x.l.z.x.x.c.c.x.z.j.>.>.>.>.>.>.>.>.;.;.>.:.:.:.:.N.:.>.>.>.;.;.[ [ ;.;.>.",
"d d a a a a a a a a a a d d d d d z z d a a a a a a a a z d a a d d d d z z x x z x z x C C x C C B B B { [ [ [ [ [ [ [ [ [ [ [ [ [ [ ..^ ........^ ^ B B ^ ^ B ^ ^ B B m m m B B B B B m m m B m z z m m m z m m z z z l l z m m z z z z l k l l l l k l z z l i l z z z z z z z z z z z z x x z z z z m z z m z V x x B B B B m B B B B B B { { [ ;.,.;.;.S F F I I K Z.Z.Z.A.A.Z.Z.Z.Z.Z.Z.K K I j.I K L j g g Z S D D D :.>.>.>.>.>.>.N.h.:.:.:.>.>.>.k.3.;.;.[ ;.;.[ [ ..,.;...;.;.;...;.;.[ ;.,.>.>.;.,.>.>.3.j.j.h.D D F >.>.2.3.>.>.>.>.;.;.:.F F F F F :.S S S S F F ;.;.;.;.S D S S ;.S F F N.N.N.h.h.j.j.).).).rXeXVXCXCXCXCXCXCXeXeXCXmXZXFXZXMXMXjXgXA.gXgXpXgXpXpXpXpXP q q q q q 9 8 9 9 8 8 8 8 8 8 6 8 w w w L 0 L K P P P B.B.P P P pXpXpXP V.pXP P P P A.gXA.gXAXAXAXAXAXgXnXnXnXnXnXAXAXMXSXMXMXMXMXAXAXnXnXAXAXnXnXnXnXnXAXAXAXnXnXnXnX<X<X<X7X3X3X1X1X1X1X1X3X3X4X1X5X5X1X.X.X1X1X2X6X1X1X1X4X4X6X6X4X4X5X5X5X5X3X3X3X5X1X>X}.3X5X-X@X@X#X@X=X#X@X-X.X{.oX@X#X@X@X@X@X].].=X4X1X|.@X#X5X5X.X@X@X@X@X@X@X@X{.@X#XoX$X=X-X:X@X@XoXXXoX=X=XoXoX'.'.[.{.{.].[.[.`.K.`.'.'.'.].{.{.{.].'.[.[.b.v.v.`.v.v.b.[.,X>X|.M.M.,X3X,Xn.n.,X,X,X>X,XM.<X<X<X<X<X<X<X<XBXnXnXnXnXnXnXnXnXnX<X).<X,X,X,XM.n.v.v.2.p.b.b.p.s.p.b.v.M.,X,X>X>X>X>X,X<X<X<X<X<X<X<X<X<X<X<X<X<Xx.<X<X<XM.M.M.M.M.M.M.<X<X<X<XBX<X<X<Xx.M.x.x.x.).<Xx.x.x.x.x.x.x.x.x.x.x.x.x.l.l.b.b.v.b.b.k.k.k.k.l.M.x.x.x.x.x.x.x.<X<X<X<X<X,Xl.b.b.b.k.k.v.k.k.k.k.k.b.j.j.k.z.2.>.f.f.:.j.z.l.x.z.j.j.j.2.>.>.>.>.f.m.f.>.>.f.f.>.>.>.>.>.>.>.>.>.>.>.,.,.>.>.>.>.>.f.m.m.k.j.j.k.k.z.x.x.x.x.x.x.x.x.x.x.x.x.x.x.x.x.z.l.z.j.j.>.>.>.>.>.>.>.>.>.>.>.>.>.>.>.3.3.>.>.>.>.>.,.>.>.>.>.",
"z z d a z z d a a a a d d a a a a a a a a a a a a a a a a a a a a a a a d d z z z z z x x x x C x x B B B { { { { { { [ { ^ ..[ [ [ { [ { [ ;.....[ [ ....^ ^ ^ ^ ^ ^ ^ ^ ^ ] ] B B ^ C B m m m m m B m m m m m m m m l c m m m m m z m m l l l k k k l k l z z l z z z z z z z z l z z z z z z z l l z m m z z z z m m m m m m z z m B B B B B B ^ ^ ..,.;.A S S F h.I I U Z.Z.S.Z.K U Z.Z.Z.Z.K I I C.S.S.Z.K L g Z D F D D D ;.;.>.>.3.:.D D :.:.>.>.2.^.k.S [ [ [ [ [ ;.,.>.>.;.;.;.;...;.;.[ ;.;.;.;.:.,.>.>.>.>.:.D D S D :.>.j.:.:.F F :.F F :.G D D D H H H H D D D D D F F F F D S C F F F D F F F F S F I U S.nXmXMXGXPXGXvXvXkXkXjXMXjXiXiXiXyXpXpXP w w P K 0 0 7 7 7 1 7 7 0 7 0 L 0 0 8 0 8 0 L 9 8 8 8 9 w q q P pXpXiXiXiXiXiXiXpXpXpXpXpXiXgXgXnXnXnXnXnXAXAXAXAXAXAXAXAXAXAXnXBXBXBX<X_._.BXAXAXAXnXnX_._._.<X<X<X<X2X2X2X2X<X7X7X<X2X6X1X,X1X7X6X5X3X3X1X>X1X1X3X1X1X6X5X6X5X1X-X5X3X2X6X6X1X5X5X1X1X2X1X5X1X1X1X5X3X3X5X3X>X>X5X3X>X>X-X5X1X>X}.#X#X{.{.#X{.{.{.{.'.].@X@X@X}.1X>X}.#X3X3X1X>X}.#X}.{.@X{.oX X$X$X X$X{.{..X}.{.@X].[.{.|.{.'.K.J.`.|.^.[.{.{.`.J.H.L.K.`.[.|.}.|.[.[.b.v.b.b.v.b.v.b.v.|.,Xn.v.v.n.M.n.n.[.|.}.>X>X>X>X,X,X,X,X,X,X<X,X<X<X<Xx.,X,XM.M.M.x.M.M.M.M.n.n.M.,Xn.v.v.v.v.v.p.b.p.i.b.v.,X<X,X>X>X,X,X,X<X<X<X<X<X<X<X<X<X<X<X<X,XM.M.M.M.M.<X<X<Xx.x.<X<X<X<XBXnXBX<Xx.x.M.x.x.x.<Xx.x.M.l.z.l.x.x.x.x.x.x.x.x.l.k.j.k.b.k.b.b.k.k.l.n.M.x.x.x.x.x.x.x.<X<X<X<X<Xx.l.v.v.v.v.k.b.v.k.k.k.v.b.k.j.k.k.h.>.>.f.f.h.z.l.x.l.k.k.m.m.f.m.m.3.3.m.>.>.>.f.f.>.>.>.>.>.>.>.>.>.>.>.>.>.>.>.>.f.f.f.m.m.k.k.k.b.k.l.M.x.x.x.x.x.x.x.x.x.x.x.l.l.x.l.k.k.k.k.3.>.>.>.>.>.>.>.>.>.>.3.2.2.2.>.j.j.3.>.>.>.>.>.>.>.>.>.",
"a a a a a a a a a a a a a d a a a a a a a a a a a a a a a a a a a a a a a z z z a a d d z z z z z x x x B B C S S S C { { { { { [ [ { { { { [ [ [ [ [ ......;.^ [ [ ^ ^ ^ ^ ^ ^ ^ ^ ^ ^ ^ ] m m ] m m m B B m m m m m m m m m B C C z m z z l l k k k l k l z z z m z z z z z z z z z z z z z z z l k l z z z z z z m m m m x m m m B B B N N B B B B B { ;.;.D D D D D D F h.I z.I L L L L L L L L L L K K K U Z.I I I h.h.:.F F F F F F F F D F h.h.j.j.j.h.>.;.[ ;.;.....,.>.>.;.>.>.;.;.;.;...;.;.S F D S ;.>.3.3.F D D D F D D D D F F D D D H I H H j H j h h j H Z D D Z C Z Z Z C C C C F N.F C F S F Z Z F F Y I K L L P L w P L 0 L K L L Y Y Y Y Y Y Y h Y K K L L K K K U Z.Z.A.U P P P P L K L P P w w P P P pXB.pXpXiXhXhXhXgXgXgXpXgXB.pXB.P gXgXgXnXnXnXnXAXAXnXnXnX_._._._.)._.).>X,X>X>X>X>X,X,X,X,X,X>X>X>X>X1X1X1X>X1X1X2X1X1X1X1X1X1X>X>X1X2X2X,X>X>X>X>X>X>X3X2X6X<X7X6X5X>X{.}.>X1X7X3X3X3X>X1X1X1X1X1X>X>X1X.X1X1X5X5X5X}.5X6X1X>X.X1X1X.X{.@X#X@X{.{.{.|.|.{.{.=X=X=X{.}.|.}.{.{.}.1X1X1X1X-X.X=X{.|.{.=X=X.X{.].'.'.[.{..X|.D.`.[.[.^.`.`.D.[.|.^.^.|.|.D.1.1.1.p.1./.^.^.j.k.k.b.b.2.k.k.b.b.1.b.[.^.k.k.b.|.|.[.[.|.>X,X,X>X>X>X,X>X,X,X,X<X<X,X>X>X>X,X,XM.M.M.M.M.M.M.M.n.[.v.n.,X}.v.v.v.v.v.v.v.p.p.b.v.n.,X>X,X2X<X<X<X,X<X<X<X<X<X<X<X<X<X<X<X,X,X,XM.M.x.<X<X<X<Xx.<X<X<X<X<X<XBX).x.M.M.M.M.M.,XM.M.M.l.z.x.x.x.x.x.x.x.M.l.z.j.k.k.k.k.b.m.m.v.v.v.n.M.M.M.M.M.M.M.,X<X<X<Xx.M.M.n.v.n.b.k.k.v.v.b.k.k.b.k.j.k.k.3.>.>.>.2.3.k.j.l.b.v.b.>.f.f.b.k.2.2.2.>.>.>.>.>.>.>.>.>.>.>.>.>.>.>.>.>.>.>.>.p.b.b.k.j.k.b.v.v.v.n.n.x.x.).<X<X).<X<Xx.x.x.x.l.k.l.n.n.b.b.k.2.>.>.<.2.b.3.>.>.>.>.3.k.k.j.>.3.j.j.j.j.>.>.>.;.3.:.:.",
"a d p a d p a a a a a d u u p p d a p p p u u d a a a a p p a a a a a a a a d a a d d d d z z z z x x x B B C C C C C C C B B B C { { C C C C { ;.{ ;...........[ ;.[ ......^ ^ ^ ^ ^ ^ ^ ^ ^ ] ] ] B B B B B B B m m m m B m m m B m B m z z m n l l n n m m m m m m m z z z z z z z l z z z z z z l z z z z z z z m m B B m m m m B B B B B B B B ^ { { ^ B S S F :.:.F D S Z F :.F D D H j h j Z Z H j g j Y I U c.x.x.l.j.j.j.j.h.h.h.h.h.F N.h.h.h.z.3.>.>.,.;.;.;.,...,.>.,...,.,.;.:.3.S A S D D H D D S F F :.F S D Z g j j H S F :.D D Z g j H H H Z F Z Z F F F F F :.F F F F F F F F h.h.h.} F F h.h.:.h.h.h.h.h.h.Y Y Y N.I c.h.N.h.z.z.c.z.z.z.z.c.c.U x._._.S.A.gXhXkXkXhXiXhXhXgXpXgXP P P P P P P P U K P P K K P B.pXB.A.A.A.A.A.Z.A.gXgXnX_.nXnXnXnXnXnXnXnXnXnX_.).).).).^.).).>X}.}.}.}.}.}.}.}..X}.>X>X>X>X>X>X>X>X1X1X2X2X1X6X2X,X>X,X>X>X2X2X,X>X>X>X>X>X>X>X1X6X2X2X2X1X>X}.>X>X>X>X>X>X>X>X>X>X>X>X>X>X>X1X>X>X1X1X2X1X>X2XNX2X>X{.>X}.{.|.{.=X{.].[.[.{.].].{.{.{.{.].[.].{.[.{.|.|.}.1X}.|.|.^.^.^.^.|.^.^././././././.^./.2.3.3.D./././././././.j.j.j.2.2.1.2.D.D.3.3.G G j./.j.j.I /././.k./.k.b.b.v.b.b.v.b.v.b.|.n.M.,X,X>X,X,X,X<X<X<X<X<X<X<X,X>X>X>X>X>X,X,Xn.|.|.}.n.v.v.3X7X>X[.b.v.v.v.v.v.b.1.b.v.n.,X,X,X1X1X>X,X<X<XNXNX<X<X<X<X<X<XNX<X<X<X<X<X<X<X<X<X).<X<X<X<X<X<X<X<X<X<X<X<Xx.M.M.M.x.x.x.l.z.j.z.x.x.x.x.x.x.l.j.j.k.l.n.n.v.v.v.v.v.v.v.n.M.M.M.M.M.M.M.x.).<X<X<XM.M.n.k.b.k.j.b.v.v.b.k.k.b.b.b.b.b.2.2.2.>.p.b.v.n.M.b.v.b.>.f.m.b.k.b.v.v.v.v.b.>.>.>.<.p.p.<.f.b.p.p.i.>.>.>.m.v.v.v.v.v.b.b.n.n.n.n.M.M.M.).<X<X<X<X<X<X<X<Xx.l.^./.^.x.x.l.k.j.k.k.3.2.j.k.j.k.j.>.>.>.2.>.k.>.>.>.>.>.3.3.:.N.:.>.>.>.",
"l i u p u u u p u d d u u u u u u u u u u u u u u p u p u i d d d a a a a a a a d d z z z z z z z z z z z z B B C C B C C C C C B C C C C C C B { B ^ { [ { ;.;.[ [ [ ........^ ;.^ ..^ ^ [ ^ ^ ^ ^ ^ ^ ^ ^ B B B B B B m m m m m B B B B m m m m m m m m m m m m m m m z z z m m m m z z z z z z z z z z z z z z V z z m m m m m m m m m B B B B B ^ B B B B B B ;.;.:.j.j.:.F C C ;.;.S D D Z Z C C C Z Z Z F F I h.z.z.j.k.j.j.j.j.j.j.k.j.h.h.h.h.h.h.j.2.3.>.>.>.>.>.>.,.......;.S D D D H j j j j h j j H D H H I I H h f g h L H I I h.F F F h.h.h.z.h.h.h.h.j.j.k.k.k.l.l.l.l.k.k.k.k.k.l.x.l.l.l.n.|.,X,X|.v.l.l.|.|.|.k.l.l.|.,Xx.n.n.^.^.^.^.^.^.^.^.^.^.x.).).).(.S.gXgXhXhXgXgXgXgXA.A.S.Z.A.A.A.P U K K U U U U U A.gXgXA.Z.Z.Z.S.(._.gXgXgXgXgXnXnXnXgXgXS.(.nXnX_._.).).).).^.^.^.|.}.|.|.|.{.{.>X>X>X>X}.>X>X>X>X>X>X>X>X>X>X>X,X6X6X<X,X,X,X,X2X2X,X>X>X>X>X>X>X>X,X6XNX6X1X>X}.>X>X>X>X>X>X>X>X}.}.}.}.>X>X|.}.>X>X1X1X2X2X1X1X,X<X<X,X|.}.|.^.^.^.^.[.[./.^.^.^./.^.^.^.^.^.^.^.^.^.^.^.^.^.^.^./.^.^.l.k.k.k././././.C.C.I I I I I I I I I Z.U I I I I I I C.I C.C.C.I I I I C.Z.C.Z.Z.Z.Z.A.gXnXrX_.l.j.k.k.b.v.v.v.b.^.|.x.x.^.x.).).<X<XNX<X,X>X,X<X<X,X>X>X>X>X>X>X,XM.|.|.|.n.v.v.,X>X>X|.[.b.v.v.v.v.b.H.].v.v.|.,X2X>X>X>X,X<X<X<XNXNX<X<X<X<XNXNXBXNX<X<X<X<X<X<X<X<X<X<X<X<X<X<X<X<X<X<X<X<XM.M.M.M.M.M.M.l.k.k.j.z.l.M.x.l.l.l.l.n.n.M.M.M.M.M.n.v.v.n.n.n.M.n.M.M.M.M.M.M.M.<X<X<X,Xx.k.z.k.v.b.k.v.v.v.v.v.v.v.v.m.p.2.b.v.v.v.v.v.n.M.v.v.v.p.f.m.m.b.v.v.v.v.v.2.>.f.i.i.s.i.f.p.b.v.b.i.>.f.p.b.b.v.v.v.v.v.v.v.n.M.M.M.M.,X<X<Xx.x.x.x.x.x.x.x.z.k.k.j.l.z.j.j.j.j.j.j.k.j.j.j.j.j.j.>.>.>.>.m.f.>.>.>.>.>.>.>.:.j.j.3.>.",
"z z z z i u i i u l l i i i i i u u u u u u u u u u u u u i i z z d a a a d d z z z z z l i z z z z z z z z z m B C C C { C C C C C B { C C B B B B B ^ ^ { [ [ [ [ [ ;.;.[ [ [ [ ......^ ^ ^ ^ ^ ^ ^ ^ ^ ^ ^ B ^ ^ ^ B B B B ] m B B B B m B B m B B B m m m m n m m m m m m m m m B m m m z m m z m z z z m z V V m m m m m m m m m m B B m B B B ^ B B B ^ ^ ^ ^ [ { F F I I F F F F S F h.:.F C S D F Z Z F F F h.j.j.k.j.h.j.j.k.k.j.h.j.j.j.h.h.j.h.h.h.F S S F ;.>.;.:.-...;.S F F H L L h g g h h h h j K K U K K K L L L L L K K K Z.K K I h.z.j.z.k.k.k.k.k.k.b.b.b.v.v.v.v.v.v.v.b.`.v.n.[.[.[.`.{.|.|.|.{.|.|.|.|.|.[.[.|.}.}.|.[.[.^./.[.v.[.|.[.[.|.^././.^.^.l.^.c.S.S.S.S.(.(.(.(.).(.(.Z.Z.S.Z.U Z.(._._.(.(.S.gXA.A.Z.Z.Z.Z.Z.A.V.A.A.gXgXV.V.gXpXgXA.Z.A.A.A.S.nXnX_._._.).).).^.^./.^.^.|.{.{.}.}.|.|.>X>X,X>X>X>X>X>X>X>X,X2X2X2X<X,X>X>X,X>X>X1X>X>X|.}.>X>X>X>X2X6X2X>X>X}.>X>X>X>X,X}.}.|.|.|.|.|.|.|.|.|.|.|.1X1X2X,X}.>X,X,X).(.^.^.^.^./././././.C././.C.C.S.(.S.Z.C.C.C.C.C./.^./.(.S.(.(.S.(._._.nXnXgXS.S.A.A.A.A.A.A.A.A.A.A.pXgXgXpXA.A.Z.Z.A.A.A.A.A.pXpXpXpXpXpXpXiXiXiXiXyXpXpXhXkXjXnX_._._.nXrX_._.).^.^.^.(.(.(.c.c.(.).<XBX<X,X,X,X<X).).,X,X,X,X,X,X,X,XM.M.M.n.v.v.M.>X>X}.].[.b.v.b.b.b.b.v.k.b.[.,X<X,X,X,X>X,X<X<X<XNX<X<X<X<X<X<XBXBX<X<X<X<XNX<X<X<X<X<X<X<X<X<X<X<X<X<XNXBX<XM.M.M.M.M.M.n.n.l.k.k.k.k.n.M.M.M.M.M.M.x.x.M.,XM.n.n.n.M.M.,XM.M.M.M.M.M.M.M.M.x.M.M.,Xx.n.k.b.v.v.b.k.b.v.v.v.v.v.v.v.b.p.b.v.v.v.v.v.n.M.n.n.v.v.v.m.m.v.n.v.v.v.v.b.f.s.i.p.i.i.i.p.p.v.b.p.p.p.b.v.v.v.v.v.v.v.v.b.n.n.n.M.M.M.,Xx.x.x.x.x.x.x.x.x.M.n.b.k.b.k.k.k.k.j.k.k.j.j.3.j.k.k.k.j.2.3.>.b.m.>.>.>.>.>.>.>.3.j.k.j.3.",
"z z z z z i i i l z i z z z z l u u i z z p u u u i i u u i z z d z z z z z z z d l z z z z z z z z z l z z z z z m x C C C C C C C C { C C C B B B B B B ^ ^ [ [ [ [ [ [ [ [ ;...........^ ....^ ^ ^ ^ ^ ^ B ^ ^ ^ { B B B N W B B B B B B B B M N B B m m B B B m B B B x z m m m m B m z m m m m m m z z m m m m m z m m B m m B B m B B B B m B B B B B ^ ^ ^ ^ { [ { S F F h.h.j.F D F F h.h.:.:.h.j.h.h.j.j.h.j.j.z.k.j.l.j.j.j.j.k.j.j.j.j.h.h.h.h.h.h.h.:.F F F F :.h.j.:.h.h.h.h.I I I Z Z Z N.N.N.N.N.I U U K K K L L K K Y I K K K K K I z.z.j.z.j.k.^.|.k.b.b.b.p.b.v.b.[.`.`.`.`.[.`.`.`.[.`.[.[.[.|.|.|.}.|.|.{.|.[.[.|.{.{.^.^.`.[.|.|.|.}.>X^.^.1X).^.^.>X).^.^.).).).(.(.S.S.(.).)._._.Z.A.S.S.(._.nXrXnXnX(.S.Z.K K K K K K K K K K K K K K K P B.B.P P P A.gXgXnXnXnXnX_._._.).^.^.^.^.^.|.|.|.|.|.|.}.>X>X,X,X|.>X>X>X1X2X,X<X<X<X2X,X,X).2X2X,X>X|.^.|.^.).).).).2X2X<X).1X).).).).).).).^.^.^.^.^.^./.^.^.^.^.^.).)._.).)._._.rX_.S.S.S.S.S.S.A.A.A.A.A.A.A.A.pXpXpXpXpXpXgXP gXA.gXnXmXmXmXhXkXkXkXkXxXxXxXdXsXiXiXiXiXiXiXiXiXiXiXiXaXhXiXiXiXiXiXiXuXuXyXiXiXyXyXt t t t y yXyXyXyXiXpXgXgXhXkXMXMXMXMXSXMXMXSXkXjXgXA.A.A.S.A.A.A.S.nXnXnX_.).).).).x.,XM.M.M.M.M.M.M.M.,X>X}.[.v.M.,X>X,X|.b.v.b.p.i.f.1.<.p.v.n.,X>X}.M.M.3X3X,X<X<XNX<X<X<X<X<X<X<X<X<X<X<XBX<X<X<X<X<X<X<X<X<X<X<X<X<XBXNXBX<XM.M.M.M.M.M.M.x.x.x.M.M.n.M.M.M.M.M.M.M.M.M.M.x.M.n.n.,X3XM.,X<XM.M.n.v.n.M.n.n.M.M.M.M.M.M.n.b.v.v.v.b.v.v.v.v.v.v.v.[.@Xp.p.v.v.b.v.v.3X}.n.|.@Xv.v.v.v.[.v.[.@Xv.v.b.s.p.b.J.H.H.K.K.XX`.K.K.K.v.v.v.v.v.v.v.v.v.v.b.[.v.v.n.M.M.M.M.,X,XM.M.M.M.M.M.n.v.v.b.b.b.v.v.k.j.k.k.j.k.2.k.k.n.n.j.k.k.k.k.k.2.1.2.k.3.2.j.j.z.j.j.j.",
"z z z z l z z z l z z z z z z z i l z z z z i l i l i i i i z z z z z z z z z z z z z z z z z z z z z z z z z z z m z m C C C C C C C C C C C B B B { ^ B { [ [ [ [ [ [ ........................^ ..[ [ [ ^ B ^ ^ ^ ^ B ^ ^ B N N B B B B B B B B ~ B B B m m B B B C C C Z C B m m B B B B z m m m m B B m m m m m m m m B B m B B B B B ..^ m ] ^ B B ^ ^ ^ ^ ^ ^ { [ [ { { { S Z F D D h.h.:.:.h.2.j.j.j.j.j.j.j.j.j.z.l.l.l.k.j.k.k.z.j.l.j.z.j.j.j.z./.z.j.j.j.j.j.z.z./.k.j.k./.k.j.j.j.j.j.:.h.h.h.h.h.h.h.I K K I I F F F F h.h.h.x._._.x.c.x.l.z.l.l.^.>X1Xk.b.b.`.`.b.v.[.[.[.`.'.'.[.[.].].[.'.].{.{.|.|.^.|.^.^.|.|.{.|.}.|.^.^.^./.|.^.|.|.|.>X>X^.).).).).1X).).(.(.(.S.S.Z.Z.S.S.(.(.S.S.Z.Z.Z.Z.S._.nXgXgXnX_.S.U U U U U U U U U U U U U U U U P P B.gXA.Z.Z.A.A.A.gXnX(.(.(.S.C.(.^././.^.^.).).^.>X|.|.>X,X>X>X^.|.,X,X,X,X<X_._._.rX2X_._.nXnX_._._._._._._._.nXnXMXMXZXMXMXmXgX_.S.S._.(.S.S.S.S.Z.S.S.S.S.S.S.nXnXmXjXjXjXkXkXkXkXkXhXkXfXiXiXiXiXiXiXiXyXyXyXyXpXpXpXgXiXgXgXhXkXkXcXSXSXcXkXxXxXxXdXdXdXsXiXaXaXuXuXuXuXyXyXyXuXyXyXyXyXyXyXuXuXyXy t t r t yXyXyXr t r t t y uXiXsXfXkXkXcXHXPXLXLXPXGXGXGXcXxXdXfXfXiXiXhXiXgXhXgXgXgXgXgXS.U (.).).x.M.M.M.M.M.M.M.n.n.M.,X|.v.[.n.n.[.v.v.v.v.b.i.s.s.s.s.p.v.v.}.}.}.|.,X7X3X,X<X<X<X<X<X<X<X<X<X<X<X<X<X<X<X<X<X<X<X<X<X<X<X<X<XNX<X<X<XNXnX<XM.M.M.M.M.M.M.M.M.M.M.M.M.M.n.M.M.M.M.M.M.M.M.M.M.M.M.M.,XM.,X,X,Xn.v.n.n.n.v.n.n.M.M.M.M.M.n.[.[.XX`.`.v.b.`.b.[.[.+X[.].[.[.@X@XoX@X@X-X}.}.}.|.{.@X@X@X].[.@X@X{.[.[.'.XX`.'.XX'.`.].@X@X[.`.`.`.`.[.[.`.[.[.v.{.|.^.}.}.|.>X,X,X,X,X,X>X>X,Xx.M.,X,Xn.b.k.k.[.v.v.^./.k.j.j.j.k.2.k.z.x.l.k.k.j.j.j.j.2.<.>.3.:.:.h.z.k.j.j.j.",
"z z z z l l z z l z z z z z z z z z z z z z z z l l l z z z z z z z z z z z z z z z z z z z z z z z l z z m m z m m m m m m C m m m m B B B B B B B B B B B B ^ { { [ [ [ [ [ [ ....................;.[ [ { ^ ^ ..^ ^ ;.^ ^ ^ ^ ^ ^ ^ ^ ^ B B B ^ ^ B B B B B B B } Z C Z Z C m m m m B B B m m m m m B B m m m m m m B B B m B B ^ ^ ^ { >.^ ^ ^ ^ ^ ^ ^ ^ ^ ^ ^ ^ ^ ;.;.{ { ;.S A S C C C F :.3.k.2.2.k.k.j.j.j.j.j.j.j.j.j.j.z.z.j.j.j.j.k.j.j.j.j.j.j.j.j.j.j.j.z.z.l.z.j.I I I I j.j.j.I j.j.j.j.j.j.j.z.l.z.z.K j.j.j.j.j.j.j.k.k.l.|.).).x.l.^.^./././.k.l.^.k.1.1.`.`.b.b.b.b.b.[.{.{.[.{.}.}.}.{.{.{.|.>X}.^.^.^.^.^.^.|.}.>X|.^.|.|.^.^.^.|.|.|.|.^.^.>X).).).).).(.(.S.Z.Z.Z.Z.Z.Z.Z.Z.Z.Z.Z.Z.Z.Z.K Z.Z.A.Z.Z.A.S.S.S.Z.(.(.(.).).(.(.S.Z.Z.S.(.(.S.Z.A.gXgXA.A.V.P A.gXjXjXgXjXgXA.gXS.S.Z.Z.S.S.(.(.(.(.(.).)._._._._._.rXmXAXmXnXmXmXMXMXMXMXSXGXSXkXMXMXSXMXkXhXjXkXcXHXHXPXHXcXkXhXhXhXlXgXgXgXgXgXgXgXgXgXgXiXkXkXSXGXGXbXvXcXxXzXzXdXsXsXaXuXuXyXyXyXyXyXyXiXyXpXiXiXiXiXhXkXkXkXkXxXxXxXxXxXzXdXdXkXhXhXfXiXuXyXyXyXyXyXyXyXyXyXy y y yXyXyXyXy r r r q P P q r yXy t t yXyXyXuXyXsXdXdXdXxXzXvXLXKXKXPXHXSXAXhXhXfXuXyXyXyXiXhXsXhXhXhXhXkXkXhXgXgX_.).M.M.M.M.M.M.n.n.n.v.v.v.|.n.v.|.v.b.v.v.b.v.v.b.i.a.s.s.d.p.b.v.[.|.n.3X7X<X<X,X<X<X,X<X<X<X<X7X<X<XNXNX<X<X<X<X<XNX<X<X<X<X<X<X<X<X<X<X<XNXBX<X<X<XM.M.M.M.M.M.M.M.M.M.M.n.n.M.M.M.<X<XM.M.M.<X,X,XM.M.3XM.n.}.3X|.v.v.v.v.#X{.v.n.}.3X3X3X#X#X#X+X+X+XoXoXoXoX-X3X5X.X@X@X}.5X5X.X.X.X1X1X}.1X1X>X1X.X}.}.}.}..X.X1X}.[.'.'.].@X{.|.}.|.|.|.}.}.{.{.|.{.|.{.|.^.|.^.^.|.,XM.,X^.^.).n.M.l.^.^.l.x.).x.k.j.j.l.^.k.j.j.j.j.j.j.j.j.3.k.z.x.l.k.k.k.k.k.j.3.>.>.>.h.h.h.j.k.m.m.j.",
"z z z z z z z z z z z z z z z z z z z z z z l z z z z z z z z z z z z z z z z z z z z z z z z z z m l z z z m m m m m m m m m m m m m m m m m B B B B B B B B ^ B B ^ A A A B S ;.....;.;...........;.;.;.;.[ ^ ........^ ^ ^ ^ ^ ^ ^ ^ ^ B B ^ ^ B B B B ^ B B { C Z F } N.Z C B B B B m B m m B m m B B B B B B B m B B B B B ^ ^ ^ ^ B C C B ^ ;.;.[ B A A B { [ { A S S S A A x C x Z Z :.2.k.1.1.1.b.b.k.k.j.j.j.j.j.j.z.c.c.I z.j.k.j.l.l.(.U K K I j.j.h.j.j.j.j.h.I D G I K K I j.h.j.j.I I I I I I K U Z.I K h.h.j.j.j.j.j.j.j.l.l./.l.k.k.k.j.k.l.j.j.k.k.k.D.D.p.[.[.[.[.[.[.|.|.|.^.|.}.}.>X>X>X>X}.,X>X^.^.^.>X,X|.|.>X>X^.^.}.>X}.|.|.|.|.{.|.^.|.}.|.,X).^.^.C.Z.Z.Z.Z.Z.Z.Z.Z.Z.Z.Z.A.Z.Z.Z.Z.U U S.S.Z.K U Z.A.Z.S.Z.S.(._._.S.Z.V.V.V.V.V.V.A.V.P P P P P P P P P pXiXuXfXiXpXiXpXV.P V.A.gXA.A.gXgXjXjXmXmXhXkXSXvXGXPXPXbXkXkXkXcXvXvXvXbXHXHXcXcXvXvXxXxXkXdXdXdXxXbXbXcXxXxXkXkXkXsXaXsXsXaXsXfXfXsXaXaXdXxXxXcXvXcXxXzXdXaXaXaXuXyXyXuXyXyXyXyXyXyXyXiXfXfXhXhXhXkXkXxXxXxXzXdXzXxXxXxXzXdXdXdXkXhXhXhXhXhXiXiXgXiXiXpXpXB.pXpXpXyXyXyXyXyXpXB.B.B.pXyXpXP P B.r t yXpXr yXt t aXdXfXdXzXcXbXPXKXKXKXLXLXSXMXhXhXiXyXyXuXiXhXhXhXhXhXhXhXhXhXgXnX<XM.M.M.M.n.n.M.n.v.v.v.v.v.v.v.v.v.[.[.v.[.p.b.v.K.H.i.s.J.s.J.K.v.v.v.v.3X7X<X<X,X,X,X>X,X,X<X7X7X<X<X<XNX<X<X<X<XNXNXNX<X<X<X<X<X<X<X<X<XNXNXNX<X<X<XM.M.M.M.M.n.M.M.M.M.M.M.n.M.M.,X<X<XM.,X<X7XNX7X3X3X3X#X#X#X#X@X@X+X@X#X3X@XoX#X-X1X1X.X.X{.{.{.|.@X.X.X.X=X5X2X2X1X1X.X}.2X1X1X2X,X1X>X1X1X1X>X>X>X>X>X2X2X,X>X).>X|.{.].[.|.|.}.|.|.[.|.|.|.|.|.|.[.b.b.k.k.k.l.j.k.k.l.l.l.z.z.k.k.j.j.j.j.z.x.l.j.z.x.).).l.j.k.k.k.m.m.j.>.>.k.z.c.z.z.z.j.j.k.h.h.>.>.m.k.j.j.k.m.m.m.m.",
"z z z z z z z z z z z z z z z z z z z z z l l z z z z z z z z z z z z z z m m z z z z z z z z z z m m m m m m m m m B B B m m m B B B B B B B B B B B B B B B B B B B B B B B B B ^ { { [ ;.....,.,.,.,.,.;.,.;.;.;...' ' ^ ^ ^ ^ ^ ^ ^ ^ ^ ^ ^ ^ [ ^ ^ ^ ^ ^ ^ [ F N.N.N.N.F C B B { { B B B B m m B B B B B B B B ^ ^ ^ B B B ^ ^ ^ ^ ^ C ^ ^ >.k.:.F C B A B B C S x x x C x x C C F h.j.k.2.1.1.1.1.2.1.1.2.l.j.j.z.k.j.x.S.c.x.l.z.j.z.I U U K K K K I K I I I K I I K K K K K K K h.:.h.h.I I K K K K K K K K K I j.j.j.j.j.j.j.j.^.^.^.^.^.^././././.l./.k././.k.2./.|.k.k.^././.^.|.}.^.^.^.^.).).,X,X>X,X>X>X^.|.,X,X,X>X^.|.>X}.}.|.|.}.}.|.^.|.}.|.^.|.|.|.|./.I K P P P P P P P P P w w P pXP P P P Z.S.S.Z.K P A.A.gXA.A.V.A.gXjXA.P q w w q w w P q q q q P P P w q q w w q q P q q q q P P pXhXiXiXkXkXxXxXkXkXkXxXcXvXvXbXbXbXzXiXhXxXcXvXbXcXxXzXzXzXdXdXdXdXhXhXiXsXdXbXHXcXxXxXxXxXdXsXhXhXfXsXaXaXaXaXsXaXdXzXcXcXxXxXzXfXaXyXiXiXiXyXyXyXyXyXyXyXyXyXuXaXsXaXiXsXdXfXsXsXfXfXdXsXaXsXdXdXzXzXzXzXkXkXkXkXkXkXhXhXhXhXhXhXiXiXpXpXpXB.pXiXiXpXyXyXyXyXyXpXpXB.P P P pXiXB.P P B.yXsXdXkXfXkXbXHXPXPXPXPXPXHXcXkXhXiXyXpXiXhXhXfXhXhXhXhXhXhXgXgX(.x.x.n.n.,X,Xn.n.n.[.[.v.v.v.v.v.v.v.v.v.v.v.v.b.p.p.v.v.b.b.b.b.b.v.v.v.].[.v.|.>X>X}.,X3X3X,X7X7X,X,X<X7X<XNXNX<X7X<XNX<XNXNXNXNXNX<X<XNXNXNXNXNXNXNX<X7X3XM.M.M.M.M.M.M.M.M.M.3X3X,X3X3X3X7X3X7X7X7XNX6X5X3X5X-X-X@X}..X.X=X#X#X3X>X{.#X>X1X1X>X}..X[.{.|.|.}.>X^.>X2X1X,X^.|.l.,X,X,X,X<X,XM.,XM.,X>X,X,X,XM.n.M.n.|.^.|.,X[.v.b.b.b.v.v.b.v.v.b.k.b.b.b.v.2.2.m.2.m.b.b.k.k.b.b.k.k.j.m.m.k.k.l.j.j.j.k.j.k.z.x.x.x.x.l.k.m.m.m.m.2.3.3.3.h.h.k.j.j.f.2.m.m.m.f.p.v.n.n.b.v.v.m.m.v.",
"m m z z z z z z z z z z z m m z z z z z z z z z z z m m m z z z z m z z m m m m m z m m m m m m m m z m B B m m B B B B B B B B B B B B B B B B B B B B B B B B B B B B B B B B B B B B [ ^ ....;...;.;.>.>.>.>.,.,.,.<.,.;.;.,.................^ [ [ ^ ^ ^ ^ ^ ;.} N.N.N.N.N.:.{ ^ [ [ ^ B B B B ^ ^ B B ^ ^ ^ ^ ^ ^ ^ ^ B B B ^ ^ ^ ....{ ^ ^ ^ F C C C B x x x x C x x C Z Z F :.h.j.j.h.3.2.D.1.1.2.1.1.1.2.G j.j.j.I I I K K I K I I K K K K K K K K K I c.I K I I I I I I I I K K H H F F F F D D H L K K U (.I I :.j.h.j.j.I j.j.j./././././././././././.j.I I 3.D./.^.^./.^.^.^.^.^.^.^.^.^./.^.^.).).).,X,X>X^.^.|.|.^.^.^.^.|.^.^.^.^.).,X^.^.^..X^.^./.^.^.^.C.L L 8 9 8 8 8 8 8 8 8 8 7 8 w 9 9 0 L K Z.Z.U K K P P P q 9 9 w P P q 9 w 8 8 9 8 w w w 9 9 9 q P pXw w q q 9 w q P pXP P P q q B.iXyXyXuXaXdXdXxXvXvXzXzXxXxXxXcXbXcXiXhXkXcXbXbXcXdXkXkXkXkXfXxXSXkXhXhXhXkXvXbXvXcXxXkXfXfXhXhXhXfXsXaXaXaXaXaXaXaXdXzXzXxXxXsXsXhXhXhXhXiXiXpXiXiXyXyXpXyXyXpXyXyXyXyXiXiXiXiXiXiXiXiXiXyXyXiXiXuXuXsXhXkXkXkXkXkXkXkXkXhXhXhXhXhXhXhXgXgXiXhXhXiXiXpXiXhXpXB.B.B.B.gXB.gXgXgXpXB.pXpXiXhXcXcXxXHXPXHXvXxXcXcXxXkXhXgXgXpXpXpXhXhXhXhXhXhXhXhXhXgXgXA.c.x.M.M.n.n.M.M.n.v.v.v.v.v.v.v.v.v.v.v.v.v.v.v.v.p.i.p.p.`.b.b.b.v.v.v.v.@X].[.{.}.v.|.>X3X3X3X7X6X<X<X<X<XNXNXNXNXNXNXNXNXNXNXNXNXNXNXNXNXNXNXNXNXNXNXNXNX7X7X7X3X,X,X3X3X3X3X3X7X7X7X6X7X7X6X6XNXNXNXNXNX6X6X5X5X5X3X>X1X1X>X}.3X3X>X}.>X1X>X,X}.|.[.[.[.[.v.v.v.v.n.n.b.b.b.b.k.n.M.M.M.n.n.v.n.n.M.M.M.n.v.v.v.v.v.v.v.n.n.v.[.`.b.v.v.v.v.v.v.v.v.v.v.v.p.p.i.s.f.f.v.v.v.v.v.v.v.v.m.f.f.m.m.k.k.b.b.2.3.k.n.M.<X<X<X,Xl.k.m.m.m.m.b.m.k.k.k.b.b.b.b.2.m.m.m.v.n.n.M.,X|.v.v.v.v.v.",
"m m z z z z z z z z m m z z m z z m z z z m m m m m m m m z m m m m m m m m m m m m m B B m B m m m B m B B B B B B B B B B ^ ^ ^ ^ B B B B B B B B ^ ^ B B B B B B B ^ ^ ^ ^ ^ { { { { [ [ ;.;.[ [ { { S S S :.3.;.3.[./.j.j.3.,.,.;.;.;.;.;.....;.......,.....;.:.:.:.:.F F F ;.{ [ { B B B A B B B x x B A A A B ;.{ C { A B B B ^ ^ ;...^ ..{ { C C x x x x C C F F :.h.j.h.j.k.k.j.j.z.j.j.3.F G G 3.3.G G I I C.I K K K K I K K K I I I I I I I I I h.h.h.I I N.N.N.N.N.N.:.h.F H h h H D D F D H j j K K I l.j.F D F I I I I G G G C.I I I I I C.C.I I I I I I I I I I /.(.(.(.(././.Z.S.(.(.S.C.(.S.S.(.(.(.(.(.(.(.(./././././././.(./.S.S.(./.C././.I I I C.U K L 0 8 8 0 0 9 0 L w w 9 9 9 9 9 w w 9 L K U Z.U P w 8 8 8 8 8 8 8 9 8 8 8 8 8 8 8 8 8 8 6 6 6 9 w P w 9 q q w P P V.pXB.q q q q pXiXiXuXaXyXsXcXbXbXcXxXdXkXkXvXvXbXHXGXSXkXkXSXGXSXSXSXSXkXkXkXSXSXkXhXhXhXkXxXvXbXbXvXxXhXhXkXkXhXhXhXsXsXiXsXsXsXsXfXdXdXzXzXaXiXhXhXhXgXiXiXgXpXgXgXgXgXgXgXgXgXgXgXgXgXgXgXgXgXhXhXgXgXgXgXgXgXgXgXgXAXAXAXAXhXjXAXAXMXMXMXMXMXSXMXMXMXAXAXAXnXgXnXgXgXnXAXAXAXAXAXAXnXgXgXgXgXgXgXgXgXhXhXhXhXkXxXxXzXxXvXvXbXGXMXMXAXgXAXnXAXgXjXAXhXAXAXAXnXnXnX).x.l.M.M.n.n.7X7X}.v.v.v.v.v.v.v.v.[.{.v.v.v.v.v.v.v.J.s.i.J.p.p.b.v.v.v.v.@X{.v.@X[.v.{.#X3X>X3X3X7X7X7X7XNXNXNXNXBXBXNXBXBXBXBXBXBXNXNXNXNXNXNXNXNXBXBXBXBXNX6X6X6X6X7X7X6XNXVXNXNXNXNXNXNXNXNXNXNXNXNXNXNXNX<X,X>X3X#X[.v.n.}.{.[.[.v.n.}.>Xn.v.v.v.`.`.v.v.v.v.b.b.v.v.[.v.v.v.v.|.,X,X{.v.v.v.[.v.v.n.n.@X@X@Xv.v.#X#X{.}.{.@XoX'.XX`.`.oX@XXXv.v.[.oX@X@X`.K.XXT.J.J.b.v.[.v.v.v.v.v.b.b.b.v.v.v.v.v.v.b.p.v.M.<XNXNX<X<X,Xb.b.v.v.v.v.v.v.v.n.n.n.|.[.v.v.v.[.|.,X,X>X>X>X>X}.{.}.}.",
"z z z z m m m m m m z m z z z z z m m m m m m m m m m m B m m m m m m m m z z m m m m m m m m B B B m m B B B B B B B B B B B ^ { { B { { { { { [ ^ ^ ^ ^ ^ ^ ^ ^ ^ ^ ^ ^ ^ ^ ^ [ [ [ [ [ { { [ [ [ [ { B C { C S C S F j.j.j.k.k.3.F D D S S ;.,.,.;.......;.....;.;.F ;.F D D D S ;.S S C C x x s J s s s J J x x S x s s J s x x C C { ;.{ { C { C F F F F :.h.j.k.j.j.j.j.k.k.3.3.3.2.2.j.:.D D G G G G H I K U Z.Z.K K I I h.h.h.h.N.h.j.z.h.h.h.:.h.h.j.h.h.N.N.N.N.N.h.h.F F D F Z g h I I j Y L L K K K I j.j.j.h.G j.I K K I I I z.I I I K K Z.Z.Z.P L L L L L L K K K P P P P P P P U Z.Z.V.U U U P V.Z.P P K K K U U Z.Z.Z.Z.Z.Z.Z.Z.V.P K K K I I K K K K K K K P P P P P P pXpXpXpXpXpXpXpXt pXyXq P A.Z.Z.A.P P q 9 9 8 8 8 8 8 8 8 8 8 8 8 8 8 0 w w w w 8 0 P 9 w q P pXpXiXpXr r q q P P pXiXhXuXuXyXiXdXxXcXvXvXSXSXMXSXSXSXGXGXSXMXMXMXMXAXMXMXAXnXgXhXhXhXhXhXhXhXkXkXzXcXbXbXxXkXkXkXkXfXfXhXhXhXhXhXiXhXhXhXhXsXzXzXfXkXkXkXMXMXkXkXAXAXAXAXAXAXAXnXnXBXnXnXnXnXnX_._.nXnXnXnX<X<X<X<X<X<X,X<X).,X,X).<X).x.).)._.nXnXnXAXAXMXMXMXnXnX_.<X_._.<XBXnXnXnXnXBXBXnX_._.nXnXnXnXnXAXAXAXnXnXnXAXAXAXAXMXMXSXSXMXMXMXAXnXnXnX_._.<XBX<X).).).M.M.n.|.M.M.M.n.>X7X7X|.v.v.v.v.v.[.[.v.v.[.v.v.v.v.v.+X#X#X+XK.J.s.s.J.b.v.[.#X#X{.v.`.].@X@X3X3X-X5X5X3X7X7XNXNXNXNXBXBXBXBXBXBXBXZXZXZXBXNXBXBXBXNXBXBXBXBXZXBXBXNX6X6XNXNXNXNXBXCXVXNXNXNXNXNXNXNXNXNXNXNXNXNXNX<X7X3X3X{.[.[.[.#X#X].`.`.+X[.|.v.b.`.`.'.L.b.b.v.`.'.[.].@X#X{.@X].'.{.}.}.{.{.{.@X@X@X@X@X#X3X#X#X{.{.#X3X}.3X3X#XoXoXoXoX$X$X@XOXXX'.oX@X@X@X].oX#X@X'.XX].{.@X{.[.[.[.[.[.[.@X@X@X[.|.|.|.|.|.|.>X<XNXNX2X2X1X|.].[.|.{.{.[.{.}.,X,X,X,X|.^.}.>X}.>X,X).).,X,X,X}.n.n.n.",
"m m B B B m m B B m m m m m m m m m m m m m m m m m m m m m B m m m m B m z z z m m m m m C m m B B n B B B B B B B B B B B B B B B B ^ ^ [ { ^ ;.......^ [ ^ ;.^ [ ^ ^ ......[ [ ;.;.;...[ [ [ [ ;...^ ^ { { { A S S C C Z :.F :.F D D G G G :.3.:.D D G :.D :.;.;.;.3.:.F D D S S D D D D H f f f f f f f f f f s s s s f f s x x C C Z C } :.:.h.j.l./.j.j.j.k.k.j.2.2.2.2.2.2.1.1.2.j.3.:.F H j H L I K K K K U U U I I N.N.F F F F F F h.j.F F F F :.N.h.h.:.:.F N.N.h.h.h.F F F h.F Z H K h h h h L K K K I I j.j.h.I I I I I I I j.l.k.l.x.c.U c.S.U P L L h h 7 Y Y Y K K 0 w P L 9 9 L K w 9 0 L 0 0 w q w 9 0 0 L L P q P P P P P q q q q w w P P K P U U A.pXpXpXpXpXpXpXpXpXpXr r r q w w w w q q 9 w P A.U pXpXr pXt w 8 8 8 8 8 8 8 L L 8 8 8 w P q q q P P P P P P P q r yXpXpXB.q r P P pXiXiXiXiXiXiXuXyXpXfXcXHXSXhXhXAXAXAXAXAXAXAXnXnXnXnXnXAXMXMXMXMXjXkXkXkXkXSXkXkXkXfXcXHXvXkXkXkXkXhXhXhXiXhXhXhXhXhXhXhXhXhXhXhXhXAXhXMXMXMXAXAXnXnXnX_._.).,X,X|.,XM.,X}.n.n.n.n.,X|.,X|.|.n.n.n.v.}.#X{.[.[.[.{.|.|.|.3X,X|.n.n.n.n.n.,X<X).l.n.n.n.[.|.|.,X<XNX<X<XNX<X,Xn.n.n.,X,X,X<X<X).<X<XM.<X<X<X<X<X<X<XBX_._.<X<XM.M.n.n.|.,Xn.n.v.b.v.[.v.v.v.v.>XM.n.n.M.,X3X{.v.v.v.v.v.oX[.v.v.v.v.K.`.XX+X#X3X5X@XXXR.XXR.T.XX+X+X#X3X3X@XXX+X#X3X7X5X5XVXNX6X6XVXBXVXCXVXCXZXCXCXBXBXBXBXZXZXBXBXBXBXBXBXBXBXZXBXZXZXBXNX6X6X6XNXNXNXBXBXNXNXNXNXNXNXNXNX7X7X<X<X<X<X7X<X,X1X1X3X#X@X|.|.{.@X`.XXXX[.[.[.[.].'.`.`.`.`.[.{.@XoX{.{.}.|.{.[.[.|.}.>X}.}.}.}.}.3X-X-X3X3X>X>X>X>X>X>X>X>X1X}..X=X#X-X=X{..XoX'.XXoX@X@X@X{.@XoX{.{.#X>X>X3X>X}.{.[.|.^.}.3X>Xn.|.}.>X}.}.}.>X>X<X2X2X<X2X<X,X>X}.|.|.M.M.,X>X}.>X>X,X^.^.>X>X}.,X,X).).,X,X,Xn.n.n.n.",
"m m B B B C B B B B m m B B m m B B B B m m m B C C B m m B B m m B B m m m m m m B B B m B B B m B B B B B B C C C B B B B B B B B B ^ ^ [ { ^ ........;.[ [ { [ [ [ ........;...........,.;.;.,.,.;...S S S :.j.C.G :.F D D D D D D D G I I j.j.G G G tXI I j./.j.3.k././.j.:.G j.j.I I I H h h j Z Z Z Z Z Z Z Z Z C Z Z Z Z F F F F h.h.j.j.j.I :.j.j.j.j.3.3.3.>.<.<.2.>.>.1.D.D.:.j.I j j h h I I I I I I z.I z.z.N.N.N.} F D Z Z S F F h.F F :.:.3.h.h.h.3.j.G F :.} :.:.} :.j.h.F :.C Z Z H K K I K K L L I I I I I I I I K I j.j.j.j.l./.^.^.l.x.x.c.I I F Z Y N.Y Y N.I L L K L L 0 L K L L L K L 6 0 0 8 8 8 6 8 0 0 0 0 0 w 0 0 0 w L 0 L L L P P gXgXgXgXhXiXyXyXpXpXpXpXiXpXpXpXpXP L L L L L 0 8 0 L L L P P w w w 9 9 8 8 0 L L K K L 0 0 0 0 P P L P P P P P P P P B.B.B.B.B.P P B.P B.iXkXhXhXhXhXhXhXiXkXcXcXbXSXkXMXPXPXPXPXPXPXGXGXGXSXMXMXSXSXGXGXSXSXkXSXSXxXSXkXkXhXcXPXLXHXkXkXMXAXAXAXAXAXAXAXAXAXAXnXnXnXnX_._.nXnX_._._._.).,X,X,Xn.n.v.n.v.v.[.@Xv.[.`.[.v.b.[.@X{.{.{.{.{.{.[.`..X5X@X`.].@X@X].v.v.{.}.}.].`.v.[.v.[.[.[.[.v.v.b.v.b.K.b.}.7X7X7X7X,X[.v.v.@X}.3X3X3X,XM.n.v.|.v.v.v.v.n.n.}.3X,X,X3X3Xn.v.v.[.v.].[.b.`.`.v.R.b.b.v.v.#X3X+X+X#X#X#X+XXXOX'.+X@X@XoX[.@X#X@XR.R.T.+X:X5X3X@X'.OXOXXX+X$X@X;X#X#X:X;X$X;X:X6X6X5X6XVXNX6XVXVXZXZXZXZXZXZXZXBXBXZXBXZXJXZXZXZXZXZXZXCXVXBXBXBXZXBXBXNXNX6X7X7XNXNXNXNX<XNXNXNXNXNXNXNXNXNXNXNXNX<X7X<X,X>X>X,X>X3X3X[.[.@X`.`.K.v.v.v.].{.[.b.K.b.K.`.[.[.b.v.[.b.v.`.L.`.[.}.}.{.|.|.|.{.#X}.}.}.}.|.>X>X>X>X}.>X>X}.{.[.{.{.}.|.}.#X{.].].{..X.X}.@X@X{.{.}.>X}.|.n.n.v.v.v.v.|.}.|.M.M.|.}.>X>X}.|.>X>X,X,X,X,X<X,X>X}.}.|.}.,X,X>X>X>X>X>X>X|.|.,X>X^.,X>X,X,X>X,XM.^.M.M.M.",
"B B B B C C C B B B B B B B B B B B B B B B B C C B B C B B B B B B B B B B B B B B B B B ^ B B B ] ] m m B B C { C B B ;.;.^ B B ^ ^ ^ ^ [ ;.........>.;.[ { { [ [ [ ..................,.>.;.;.;.:.F S D D D D H G D F D D D F D D G G I K K I I G D G G I K K K C.C.I U U I I I I S.S.Z.U (.U K I G :.h.j.j.j.j.j.G G G G G F j.j.j.G G F G G G G G D G G G G F :.:.3.3.2.3.3.tXtXtXG I I L L K I h.h.h.j.j.j.j.h.:.2.:.:.;.:.F F C C Z N.F F ;.:.;.>.3.k.h.h.j.:.j.3.h.2.[.|.j.H I h.j.^./.I H I I I I I I L L L j I h.m.} h.h.I L K I I I j.I j./.j.j././.k.b.b.k.k.k.k.k.k.z.c.U I I I K U U I I I K I K K K K K L L K K K K K K K K K K I U K K K K P P gXgXgXiXiXiXiXpXpXpXgXgXgXgXpXP U U U U U U K K K K K K K K K L L L L K L K K P P P P K K K K L K P K K K K U U U U U U U U U P P P P P P B.gXgXgXhXhXgXgXhXMXMXcXSXSXMXMXGXGXHXHXHXHXHXGXGXGXSXMXSXGXPXHXGXMXhXMXMXnXnXnXnXnXAXMXMXMXAXnXnXnX_._._._._._._.<X<X,X,X,X,Xn.|.}.n.[.v.n.n.v.].'.`.`.`.XXXXXX`.oX@X`.`.`.`.'.'.OXXX@X@X@X@X@X@X].oX1X6X}.].#X#X].[.oX@X@X{.{.#XoXoX#X@X@X@X@X@XoX`.'.`.XXXXXX].#X5X7X7X#X[.oX#X#X#X#X3X#X3X3Xv.XXOXXXXX`.+X+X+X@X#X3X3X#X#X#X#X#X#X+XXXXXXXXXOX+X+XOXT.OXOX+X#X+X+X#X:X#X$X+X;X$X@X#X#X#X#X#X3X#X+XOXOX@X:X-X3X4X#X$X&X=X;X:X:X;X:X;X;X;X;X;X4X6X6X5X5X6X6X6X6XVXZXBXZXBXZXZXZXZXZXZXBXZXSXZXZXZXZXZXZXCXVXNXBXBXBXBXNXNXNXNX7X7X6XNXNXNXNXNXBXBXNXNXBXBXNXNXNXNXNXNXNX<X,X>X3X3X3X3X3X[.`.`.`.b.v.@Xv.v.@XoXv.`.`.XXK.K.v.[.v.b.L.K.K.J.J.p.v.@X@X[.{.@X@X{.}.{.|.{.].v.|.|.[.[.{.|.|.|.{.#X#X|.|.|.|.|.}.}.>X>X1X1X1X}.{.{.3X>X>X|.b.b.v.v.v.[.{.|.v.v.|.|.|.}.>X>X>X}.}.}.>X>X}.>X>X>X}.|.|.|.|.}.>X>X>X>X}.>X>X|.}.}.|.k.^.,X^.|.l.n.n.l.M.M.M.",
"B B B B C C C B B B B B B B B B B B B B B B B B B B C B ^ { B B B B { ^ ^ ] B B ^ ^ B B { ^ ^ ^ ^ ^ ^ ^ ^ ^ ^ ^ [ [ [ { [ :.} { [ ^ ^ [ { ;.......^ ..;.[ { ..;.[ ;.;.....;.[ ;...,.,.,.>.:.D D D D D D D D D F H F :.:.F G G j.I G G I C.Z.U I j.G G G I I K K K U Z.K K K K K K I I I K K U K L I I I j.j.j.I I I I L H H H H H H H D D H H H G G G G G G G j.j.:.h.j.j.j.G G G G G G H h g g j F F F ;.3.:.F F :.3.>.>.>.>.:.F F C Z N.N.:.F :.D F ;.:.j.h.F F :.j.rXZXDXJXJXJXSXMXMXMXMXMXmXgX_._.(.(.(.I K K I g C l.NXI H H F H j L K K I I tXtXG j.j.k.k.b.p.b.[.b.p.L.[.|.2X<Xc.x.(.(.c.c.c.c.c.c.c.c.c.c.c.c.c.c.c.c.c.c.c.c.c.c.c.c.x._.).c.U U S.A.gXgXgXP V.pXV.P P P P P gXgXA.P P P V.A.A.P P P P P P P P P P U U P P P P P P pXgXgXgXgXP U U U P A.U Z.A.Z.c.c.(.x.).).x.c.x.).x.(.(.).).)._._.nXnX_.(._._._.nXAXAXAXnXnXnXnXnXnXnXnXnXnXAXAXAXnXnXnXmXnXnX_.).).,X,X,X,X,X|.|.l.^.^.|.|.|.n.n.[.^.^.|.k.|.1X|.[.[.b.v.[.`.oX@XoX[.-X.X[.'.XX'.XX`.[.`.'.'.oX+X`.`.XXXX+XoX+X'.'.`.'.'.XX].}.5X1X3X@X@X#XoX`.oX&X=X@X@X@X#X@X#X;X@X].].+XXXXX+XOXoX-X4X:X=X4X6X6X7X3X=X@X4X5X5X0X5X4X5X4X-X@XoXoXXXoX:X@X;X;X:X5X#X#X@X@X-X;X;X;X@X&X&X@X=X:X4X:X;X&X&X;X4X:X:X4X5X4X:X#X:X:X#X;X;X4X4X=X5X-X;X:X:X:X4X4X5X6X6X4X4X4X4X4XwX4X4X:X:X:X:X4X4X4X5XwX5X5X6X6XVXVXZXBXBXBXCXCXZXZXZXZXZXZXZXZXZXZXZXZXZXZXZXZXBXBXZXBXCXNXNXNX6X6X6XNXNXNXNXNXBXNXNXNXBXNXNXNXNXNXNXNXNX<X<X1X3X3X3X3X5X#XoXoX@X@XoX[.`.oX@X].[.{.=XoXK.K.oXoXK.`.'.'.`.K.XX`.[.@X#X@X{.@X@X{.}.|.{.{.[.`.|.|.[.`.].{.|.|.|.}.}.}.}.|.|.|.>X>X,X<X<X<X,X}.|.|.}.,X|.[.`.[.].[.[.{.{.|.{.|.|.|.}.>X>X>X>X>X}.}.|.{.{.>X,X>X|.|.|.|.|.|.}.>X>X>X>X>X|.v.v.v.v.v.^.).l.[.b.b.v.|.,X,XM.",
"C B B B B B B C C { { B B B B B B B B B B C C C C C { B B { { ^ { { [ ^ ^ ^ ^ ^ ^ ^ ^ { ;.;.[ ;.,.;.;.;.;...,.;.;.;.,.;.} :.:.;.[ [ g.g.[ ;.;.,...;.;.;.;.;.,.;.;.;.;.;.;.;.;.;.,.>.>.;.;.D D D D D D F I j.z.)./.l.l.^.I I I G I G I K K K K I I I C.Z.Z.K Z.Z.U K K K I K K I I F F F I K K K L L j L j j j j h h j j j h H H H j H H H G I G G j.z.z.l.j.j.j.j.j.j.:././.C.L j H F F F Z g g g j H C ;.;.F F S ;.3.3.>.;.:.:.>.>.;.F :.:.:.F F D D G D F h.F H H C.A.V.pXyXpXB.pXP P P L L L Y I I I I H H H Z F Z Z ).JXJXMXL f F D j h L L L I I j.j.j.j.l././.b.v.`.L.H.[.[.}.1X,X,X,X,X,X,X,X<X,X<X<X<X<X<X,X).).).,X,X,X<X<X,X,X,X,X,X)._.).).(.(.S.Z.A.pXpXpXP P P P U K K P P U V.P P P w P P P q q q pXpXpXpXpXpXpXiXpXpXB.P q q pXgXhXiXpXiXhXpXpXpXgXgXgXgXS.S.S.S.(._.2X_.).).).).).)._.).).).1X>X).^.>X>X,X,X>X,X).).).,X1X1X,X2X2X,X,X2XNX2X2X2X<X,X,X^.|.>X}.|.|.|.|.|.|.[.`.`.'.K.XX[.`.`.oXoX[.[.].[.`.oX'.`.[.[.[.[.`.[.@X{.{.5X1X}.{.].oXoXoX`.[.'.'.'.oXoX+X+XoXoX@X-X@XoXoX].'.XX+X3X6X}.|.[.oX[.`.`.'.oXoX[.@X#X#X].oX;X@X@X].+XXXoX&XOX'.=X5X-X@X-X3X3X5X5X5X5X5X5XwXVX6X6X6X6X6X5X=X$X=X-X-X-X4X4X5X5X6X6X5X5X-X-X4X4X5X4X4X4X5X6X0XwX0X:X4X0XwXwX6X5X6XwXwX5XwX6X5X4X:X5X5X5X5X5X4X4X4X4X5X:X5X6XVXwX6X5X5X5X6X6X4X4X5X4X4X4X4X5XqXwXqX6X6X6XVXVXCXCXCXBXCXCXZXZXZXZXZXZXZXZXZXBXBXZXZXZXZXZXZXZXZXBXNXNXNXNX6X6X2XNXNXNXNXNXNXNXNXNXNXNXNXNXNXNXBXNXNXNXNX6X1X1X5X3X5X1X-X@X@X@X@X=X-X.X{.].|.1X1X{.'.'.@X].[.].].[.'.].=X=XoX{.|.].{.{.}.|.|.|.|.|.[.[.|.^.^.[.}.}.}.^.|.|.^.).,X|.|.|.,X,X).,X<X<XM.|.|.}.,X|.|.[.[.[.[.|.|.|.{.].{.|.[.[.|.>X>X>X>X}.|.|.|.{.|.|.>X>X}.|.|.|.}.}.>X>X>X>X>X}.|.v.v.v.v.[.|.^.|.[.[.[.|.>X>X).,X",
"m B m ] B B B C B C { { C { { { B B ^ { { C C C { C C B B B ^ [ [ { { [ [ ;.;.[ [ [ [ [ ;.;.;.>.>.>.>.;.[ ;.>.;.,.;.;.[ ;.>.>.>.>.>.f.f.2.>.;.3.>.>.>.>.>.<.2.3.G /./.j.F :.j.j.3.3.3.3.3.F G F :.j.j.z.x.).).).).).).mXjXU U I I j.I I I K K I I K K U U K K K K K K K K I I h.h.:.:.j.I I K I U K L L L L K K K I I K L L L H D H j H H G C.(.(.(.(._.)./.j.I G G D G (._.jXZ.L I h.F 3.3.D S g f f Z Z Z F F ;.>.3.j.3.>.>.:.>.>.:.D ;.;.F F D D j j g j H H h h 7 7 7 7 7 g g g g g Z C C C C C C C C C B C C { ;.:.(.FXPXGXpX2 H D h g 1 2 h L K z.j.j.h.j.j.k.k.b.b.`.`.{.|.}.>X,X>X>X}.>X>X>X,X,X,X<X<X<X<X>X>X>X>X>X>X>X<X<X,X,X).).).).(.(.S.Z.U K K P pXpXpXB.w P pXpXpXpXpXiXhXlXiXyXyXpXpXpXpXpXyXyXyXuXuXyXyXyXaXdXiXyXr w 9 P P pXfXuXy yXuXt q pXpXpXpXpXgXgXgXgXgXnXnXnX_.S.(.(._._._.(.(.(.(.(.(.^.^.).).).).).).).).).1X2X).<X1X,X>X1X1X,X1X,X>X}.|.|.{..X{.{.{.].{.{.{.'.'.'.L.`.[.[.`.[.|.|.|.[.[.[.'.].@XoX`.[.].{.{.{.-X.X{.|.}.}.|.@X@X].XX+X@X@X-X-X#X#XoX'.'.`.@X=X|.@X5X-X].+X+X{.}.|.{.].`.`.'.`.'.XXOX+X@X@X#X.X{.oXXXoX'.oXoX+X+XR.U.OXOXXXoXXXXX+X+XXXoX#X#X3X1X6X2X>X>X3X}.{.].XX@X@X-X:X4X-X}.#X4X5X.X-X=X-X4X4X-X5X6X0X5X4X6X5X5X4XwXwXVXVXVXwX6X6X6X6XwX1X1X5X4X5X4X-X:X-X;X-X=X=X;X;X4X1X1X6X5X:X:X4X4X4X4X4X4X4X5X4X6X0X6X6XwXwX6X6XwXwXVXVXNXBXZXZXZXBXZXZXZXZXBXBXBXBXZXZXBXBXBXBXBXBXBXBXNXNXNXNX2XNXNXNXNXNXNXNXNXNXBXBXBXBXBXBXBXBXBXBXBXNXNXNX2X2X2X6X5X>X}.{.{.|.|.|.}.}.|.|.|.}.>X|.[.{.{.|.[.[.^./.^.|.|.^.^.|.^.^.|.|.^.^.^.^.l.l.k.l.k.l.l.^.).).x.l.^.k.j.z.).l.l.l.x.).).x.,X,Xn.v.v.n.n.v.v.v.v.v.|.|.}.#X{.].{.{.|.|.,X,X,X>X>X|.|.|.[.|.^.^.^.|.|.^.^.>X>X>X,X,X).^.|.}.|.[.b.b.^.^.|.^.^.[.|.}.>X|.,X).,X",
"m ] ] ^ [ { C C C B B C C { [ { C { { { S ;.[ [ [ { { { { { { [ [ C { [ [ [ { [ [ [ [ ;.....,.>.>.>.>.>.>.>.<.1.:.F ;.>.>.>.>.>.>.>.s.OX.X/.I k.j.j.3.3.3.3.j./.I j.I j.j.j.j.z.h.h.j.h.j.j.I j.j.j.j.h.h.h.h.h.h.m.m.l.I I I I h.h.h.h.F D F F I D D F I I I I I I I I I F h.:.:.:.F :.h.h.I h.h.I I j.h.I I I I I I h.z.I K K G D I L L L L K U U I /./././.C.I I L L K Z.V.Z.K j.j.j.j.j.:.h.I H g Z f Z } 3.>.>.3.:.;.;.;.:.;.>.>.D D D D D S g f f f f g h h 1 1 g g Y g Z C C C { { { { { [ { :.} C B ] { >.D./.mXMXfXpX9 7 h g h g f f f f h L U l.k.j.j./.k./.1.D.[.[.}.>X,X,X,X>X>X>X>X>X>X>X,X,X,X,X,X,X>X>X,X>X>X>X>X1X).,X).(.(.S.Z.S.S.Z.U U U P P B.pXpXB.P pXiXiXfXdXdXdXsXuXyXyXyXyXyXy yXy y y y yXyXyXyXyXyXuXyXy pXq P P pXq yXy y y t r pXpXpXpXpXr pXyXpXgXgXgXgXlXgXgXgXgXgXjXgXgXgXgXgXA.S.Z.Z.S.S.A.S.Z.S.S.S.S.(._._._._._.).).).).).).,X}.^.^.}.>X^.|.|.[.].|.|.].].].[.[.|.-X}.|.|.|.{.[.[.[.'.].oXoX{.#X3X3X3X3X1X1X}.}.}.#X|.@X#XoXoX#X@X-X5X7X>X@X#X@X+X+X#X#X@X.X5X}.{.@X#X{.{.4X4X.X@X@X@X@X@X@X#X-X.X#X-X5X}.@XoX=X=X=X=XoXXXOXT.T.T.T.T.T.XXOXOXOXOXOX@X5X5X6X6X@X@X@X+XXXXX+X@X@X#X#X#XoX+X@X&X=X;X;X#X@X-X:X:X:X5X5X0X4X3X5X5X3X6X6X6XVXVXVX6X6X5X3X3X#X@X@X-X@X@X#X#X@X+X@X#X-X;X;X4XwX5X5X;X;X:X4X0X4X-X=X;X:X-X5X5X6X1X1X1X1X2X2X2X2XNXNXNXBXBXBXBXBXZXZXZXBXBXBXBXBXZXZXBXBXBXBXNXNXNXBXBXNXNXNX2XNXNXNXNXNXNXNXBXBXBXZXBXBXBXBXBXBXNXNXBXNXNXNX<X7X2X>X}.v.[.].[.v.{.v.|.^.^.|.^.l.n.|.b.|.|.l.k.k.k.k.l.l.j.j.k.l.k.j.j.j.h.h.j.j.j.h.j.j.j.j.l.x.x.x.x.x.,Xk.k./.,Xx.l.z.x.(.).,X,X,X|.[.v.v.v.v.[.|.}.{.].{.}.{.[.[.[.v.v.v.n.n.l.l.l.l.k.k.k.k.k.k.k.l.l.k.l.n.M.x.M.x.x.^.|.[.v.[.k./.^.^.^.^.,X|./.^.l.j.x.x.x.",
"] ] ^ ` [ ;.F N.Z C B C { [ [ S C C C B A S { [ { ;.;.;.;.} C [ [ { { [ [ ;.;.[ [ [ [ [ ;.,.>.>.>.>.3.:.:.>.2.1X).j.j.h.:.3.3.:.>.>.0.OXeXS.I j.j.j.G F G j.j.l./.j.j.:.h.j.h.h.h.F :.;.>.3.3.:.F h.:.:.;.;.;.>.f.f.f.p.;.:.:.[ ;.S F F S S S :.} S ;.[ { { [ [ { C C C C C [ [ { { { ;.C } C C ;.{ S ;.S S F S S S F :.:.F D D G G G I K K K K K U c././.S._.S.Z.L h h 7 7 6 L K F F F :.:.h.h.j.h.h.F Z C { ,.>.>.:.:.>.;.;.:.>.,.>.D D D H Z Z Z g f f g 1 f g < 1 Y g g C C { C ;.[ ,.[ [ ,.[ g.g.f.>.2.|.1XCXZXkXlXw L 7 1 f Z Z g f f g g h h K I z.k.k.k.k.k.k././.^.^.,X>X>X>X>X>X>X>X,X,X,X,X<X<X,X>X>X,X>X>X>X>X,X).).^.).).(.S.S.A.A.A.A.P P gXgXP q pXhXhXyXpXiXuXt t yXy y y r r y yXt t t y t y y y yXyXyXt y yXy y yXyXyXpXB.B.B.t r r q w q pXyXsXzXdXsXuXuXuXuXuXuXiXlXiXiXiXiXiXfXfXiXsXiXiXiXpXyXpXiXiXiXpXpXiXiXiXiXgXgXjXgXgXgXgXnX_._._.S.(.(._._.nXnX(._._._.(.(.^.^.^.^.^.^.}.}.|.|.^.[.'.].'.'.'.'.'.'.{.@X}.}.}.}.>X}.}.}.3X#X{.{.{.]. X{.@X@X#X>X3X#X@X@X$X=X=X@X@X@X.X}.@X@X=X{.}.1X1X}.{.@X#X=X@X#X4XwX1X.X1X1X>X3X#X5X-X1X4X4X:X4X:X:X:X;X&X&X;X:X0X0X:X:X4X0XwX6X6X0X4X:X&X+X%X%X$X@X@X@X=X#X+XOXOX&X;X;X#X#X=XoXoXoXoX=X4X@XoX@XoX@X3X3X3X6X6X6X6X5X5X#X#X=XXXoX;X;X;X;X;X%XOX&X:X4X=X;X:X0X5X-X=X;X:X:X-X}.{.$XoXoX@X{.{.{.|.|.{.{.}.}.>X2X7XNXNXNXNXNXNXNXBXBXZXZXZXBXBXBXZXZXBXZXBXBXNXNXNXNXBX<X<X<X<X<X<XNXNXNXNXNXNXNXNXBXBXBXNXBXBXNXNXNXNXNXNXNXNX2X1X>X|.{.{.{.v.n.|.|.|.|.l.j.j.n.M.n.k.k.k.k.k.2.3.3.>.:.:.3.h.:.:.} h.:.N.} N.h.h.h.h.:.>.h.z.l.x.x.x.x.l.j.j.j.k.k.z.z.x.x.x.<X2X<X>X|.|.v.v.v.|.|.{.}.{.|.|.[.v.v.v.v.v.v.b.b.k.k.j.2.2.m.k.k.k.k.k.k.j.k.j.n.l.z.l.l.M.^.k.b.v.v.k.j.j.l.l.l.M.l.j.j.j.j.l.x.x.",
"C m ^ ' ,.3.I U N.C B C C C ;.2.:.Z C { B C { { ;.S :.F :.h.} { [ [ [ ;.;.>.2.3.{ { [ [ ;.;.>.>.,.>.3.:.:.>.>.j.z.z.h.h.h.k.j.:.3.;.g.J.VXMXU z.j.z.j.h.h.:.:.:.:.F F 3.:.:.:.:.;.>.>.;.;.>.3.3.:.:.;.;.;.:.;.:.>.f.8XCXmXK j ;...;.;.;.;...;.;.;.[ ;.;.;.;.;.^ ^ B ^ ^ ^ ^ ^ ..^ ^ ^ [ [ [ { { [ [ ;...{ { S S S S ;.[ { S S S F :.:.F F I I I z.z.j.z.I U K P U K K K L 2 g g h H D D D ;.:.:.} S ;.;.;.[ ;.;.;.;.:.} } ;.>.>.,.;.;.S S J g g Z F F Z g f 1 g Y g 7 Y g Z C C C C [ g.g.g.g.f.f.`.=X0XCXDXFXkXfXlXV.0 g Z g g Z F F F j g h g g g Y I I j./.j.l.^.l.l.^.^.^.>X,X,X).,X>X>X>X,X,X<X2X<X<X,X>X,X,X>X>X,X,X).(.).)._._._.nXnXgXgXpXpXpXpXiXiXpXpXyXuXuXr r r r q r t r r t t r r r r r r r r t y r r r r r y t t t t t r q q q pXiXpXq w e q q t y aXdXdXaXyXyXuXaXyXaXdXdXaXyXyXyXuXyXy y y y y t r r t t q r t r r t t yXiXlXlXiXiXlXhXhXgXgXgXgXgXgXhXkXkXMXkXMXMXjXA.S._.nXnX(.).^.^./.^.^.^.].'.'.].].`.'.[.{.|.|.|.|.|.{.{.{.@X}.|.@X{.|.].].].].oX[.].:X3X].].=X{.=X=X{.@X}.}.@X XoX@X#X}.>X>X>X3X>X.X-X#X1X1X}..X-X5X3X3X3X3X3X5X4X4X4X5X4X5X5X5X:X=X-X4XwXVX1X4XqXwX6X6X6X0X4X-X;X#X;X&X$X&X:X4X0X:X@XXXXX&X;X@X@X@X$XXXXXOXoX:X4X#XoX$X:X:X4X5X5X5X5X4X4X5X5X#X;X;X&X%X&X:X:X:X$X X$X;X-X:X.X@X@X.X=X=X{.].].].].oX`.`.`.`.XXU.K.v.|.3XoX].{.@X>X>X<X<X<XNXNXNXNXNXNXBXZXZXBXBXNXNXBXBXBXAXBXBXBX<X<X<X<X<X,X<X<X7X<XNXNX<XNXNXNXNXNXNXNXNXNXNXNXBXNXNXBXBXNX<X2X,X3X#X[.[.{.].b.b.l.n.n.n.j.k.k.n.n.b.l.l.k.k.:.:.>.2.>.,.;.>.>.[ [ } N.:.;.[ } :.:.} :.[ { } h.z.z.x.l.x.z.h.j.h.h.h.j.z.z.x.x.)._._.x.,X,X|.v.n.|.|.|.>X}.[.[.[.v.v.v.v.v.b.b.b.b.p.>.f.b.v.v.k.b.k.k.j.k.k.k.k.k.k.k.n.n.k.l.n.b.b.k.j.k.j.k.k.z.j.k.k.j.l.l.x.x.",
"Z C B ^ 1./.U U N.F F Z Z C S h.z.N.Z C { { } } ;.S D F N.h.F S { } { { { ;.k.l.h.} [ [ [ ;.>.>.>.2.^.h.:.>.p.k.h.h.:.>.>.>.:.;.;.;.,.p.wXMXB.I :.F :.F F S { ;.;.;.S ;.;.;.,.;.[ ;.,.>.>.>.3.3.3.>.;.S ;.:.S S ;.-./.FXGXuXY ;.>.>.>.:.;.,.,.>.,.;.,.;.>.;.;.;.;.;.^ ^ ^ [ ;...^ ^ ^ ^ [ [ [ [ { ^ ....^ { D D D S ;.;.{ [ { ^ { { C S C C S F h.h.j.j.h.I I L L L K K K L h g g f g Z D D S ;.;.;.;.;...........;.[ [ { [ ;.;.;.[ [ [ ;.Z Z Z Z } N.Z Z Z g g g g g Z Z g Z C F :.3.v.-X6XVXCXDXJXLXPXHXbXaXr w 0 Y H F S g g g Z H H H g g H F :.:.z.l.j.G /././.^.^.^.^.^.).).(.).).1X1X<X).)._.2X<X<X,X,X<X).,X>X,X).).)._.).nXnX_.(.(.gXU P P iXlXiXuXyXyXr r r r r t yXt t t r r r r q q q q q w q r q q w 9 9 w w q q w w q yXpXP P 9 q iXyXw 9 w w q t r t uXaXt q w q r r t t q w 9 q q q r r q q r q w 9 9 9 9 w t yXt t r r pXyXaXaXaXdXdXaXuXiXuXsXsXhXkXxXcXxXSXkXkXhXhXjXAXMXMXMXnXnXnX_.).l./.^.^.[.'.{.{.[.[.^.^.^.).^.^.^.^.^.^.}.}.^.^.^.[.`.`.[.[.{.{.].].[.v.].{.{.@X{.{.|.|.@X{.].].{.@X{.}.1X>X>X>X>X1X.X}.{.=X=X=X-X=X-X=X:X@X#X@X=X{.@X#XoX=X$X$X+X+X#X5X>X{.oX#X3X3X-X-X@X{.@XoXoXoX+X=X=X@X-X3X.X=X=X+X$X;X;X#X#X$XOXOX%X=X5X5X-X-X4X4X6X7X5X3X#X@X:X:X-X#X#X#X;X;X&X@X-X#X;X$XXX=X-X#X-X#XoX@X#X=X@X@XXXR.R.K.T.OXXXXXK.XXR.T.'.#X3X@X@X#X3X3X3X3X3XNXNXNXNXNXNXBXBXBXBXBXBXBXBXBXNXBXBXBXBXNXNX7X7X7X7X7X7X7X7XNXNXNXNXNXNXNXBXBXBXBXBXBXNXNXBXBXNXBXBXBXNXNX2X}.[.v.v.v.v.b.b.n.k.k.n.l.v.v.v.k.k.l.l.k.k.>.2.2.b.>.,.g.f.>.;.>.} :.>.[ [ >.>.;.[ >.:.h.:.3.j.z.l.l.x.z.j.k.j.j.h.j.k.j.z.l.x.).).).x.,X^.b.n.|.|.M.,X|.{.@X].`.v.v.[.[.b.p.H.p.b.b.v.v.v.v.b.b.b.b.b.v.b.b.b.b.k.k.n.k.j.k.n.k.2.2.3.k.k.k.2.j.k.b.k.j.l.M.,X,X",
"Z x m B ;.z.U Y Z F z.I Z C C Z Z Z Z C ;.F h.F C { ;.S :.F S { } { { { { { :.h.h.} { { [ ..;.;.;.2.l.z.N.;.p.).(.I h.j.2.2.F S ;.;.,.<..XmXB.I I ;.;.;.;.;.[ ;.;.{ S { ;.{ [ ;.[ [ { [ ;.;.;.>.>.>.3.F D D F D ;.,.:.I U U h.F ;.;.;.D ;.;.;.;.;.;.>.3.S { [ ;.,.;.......;.[ ;.^ ^ ^ ^ [ [ [ [ ^ ^ [ { { { { { { ....;.{ [ ..A A B { { { { { { { { ;.F :.j.j.F I L K L K L L L L h h j j g Z S S S S S ;.{ [ ;.,.;.[ ;.;.;.S S ;.;.{ [ ;.;.:.:.N.} Z Z N.N.} } } } } } S F F :.l.1XmXmXDXLXKXKXKXHXcXdXyXq 7 7 g Z Z C D H h h g h h h h g L K U z.I I I L L K I C.I I ^.^.^.x.).).).).)._.BX_.).)._._._.).<X_.(.).).,X>X>X,X,X,X,X).x.l.c.Z.Z.U gXhXhXaXuXuXyXpXt q q q q q q w 9 9 w w w w 9 9 9 8 9 q q w 8 9 0 w q w P P w P P P 9 9 8 w pXuXt w 8 8 8 9 9 P iXhXsXt q P P P q r q P P P P P P P r r B.B.P P P P P P B.t t y y r t yXyXyXyXuXaXaXyXuXaXaXaXaXxXxXxXxXxXzXfXiXA.A.Z.Z.U S.S.Z.S.S.(.(./././.[.H.[.|.1X).).)._.nXnXnX_._.2X).).,X,X,X).^.^.^.^.^.^.,X6X|.k.v.v.v.`.[.[.v.v.[.{.[.|.@X{.{.-X{.[.|.v.{.{.#X#X{.{.{.{.=X=X{.5X.X@X$X$XoX=X;X=X=X:X;X;X;X;X:X:X-X4X5X-X:X:X-X#X#X@XoXOXOXOXoX@X+XXXXX@X@X{.@X#X#X#X#X#X#X#X#X#X+XOX+X;X-X-XoX@X:X#X3X#X#X@X+X@X:X:X:X#X3X#X;X@XOX+X;X;X@XOXOX=X#X@X#X@X@X#X3X2XVX6X#XOXOXOXOX+X+XOXXXOXOXOX+X#X#X@X#X3X3X3X7X7X7X7XNXNXNXNXNXNXBXBXZXBXBXBXBXBXNXBXBXNXBXNX7XNX7XNXNXNXNXNXNXNXNXNXNXNXNXNXBXBXBXBXBXBXBXNXBXBXBXBXnXBXBX<X).n.v.v.v.|.n.v.v.v.b.v.v.n.b.b.k.b.b.k.k.b.2.<.>.m.|.n.2.f.m.2.>.;.>.>.;.[ } :.>.>.;.h.j.j.j.h.j.z.z.z.j.h.h.j.j.h.h.j.h.j.j.k.l.x.x.x.x.x.l.^.v.[.^.|.|.|.|.[.v.v.v.v.|.[.v.b.p.b.[.|.n.v.v.v.v.v.v.v.v.v.v.v.v.b.k.b.l.k.k.k.v.k.k.k.z.k.j.k.b.b.n.n.n.n.l.x.).).",
"C C x x Z g Y I Z C F F C x C x x C C C C h.h.Z C C C C { C C { { { [ [ { { { } C C C { { B { { [ ;.:.h.} g.f.h.I N.h.:.j.l.z.:.:.;.;.;.[.CXnXc.N.{ ....;.[ [ { [ [ [ [ ;.[ [ [ [ { { { [ [ [ ;.;.>.F F ;.;.;.{ { [ ;.{ ;.:.:.:.;.;.S ;.;.[ { [ ;.[ 3.k.:.{ [ [ [ [ [ ..[ ..[ [ [ ^ [ { [ [ [ [ { [ [ C C C { ^ B B ^ ..^ { ;.......;.;.{ { { [ ;.;.{ C ;.;.;.:.F I U U K L h h h h L K I I I D D D C C D F S S ;.,.;.;.;.>.D D D D F S ;.;.;.>.3.:.h.h.j.m.3.>.m.k.:.:.3.F F F F F I L P kXkXkXsXV.0 Y g f g g g j H H H h h g f 1 h L L K Z.V.P L L 0 0 8 6 0 0 0 L K I c.x.x.).).).).).)._._.).).(.(.(.(.).).(.(.).).).).).).).)././.U S.A.gXpXyXyXy t B.r P P P w w 9 8 8 8 8 8 8 8 8 8 8 8 8 6 8 9 w w w P pXgXhXpXP P P P L 7 8 0 L L P yXr w 9 8 L L L P P gXpXpXpXpXpXpXpXyXyXiXhXkXaXyXiXhXhXsXuXiXhXhXhXiXpXpXiXpXr B.yXyXyXr r B.B.B.B.B.B.B.pXpXB.r r t t y yXyXuXuXuXpXpXpXpXV.Z.Z.V.Z.Z.Z.S.S.S.C.C./.^.(.(.(.(.(._.nXnXnXnXnX2X_.).).,X,X,X,X,X,X,X>X>X>X1X}.[.[.v.v.b.b.v.b.`.'.XX'.@X#X}.|.}.].[.{.[.@X{.[.].oX@X[.[.@X{.{.#X#X@X].oXXX@X;X@X@X-X1X3X-X5X5X5X1X0X0XwXVXVXVXwXwX0X0X4X:X;X$X;X;X=X-X4X4X4X4X4X4X3X4X-X3X4X:X#X#X@X=X:X#X#X@X#XoX#X4X-X#X#X@X#X-X4X5X3X5X#X#X$XOX$X;X;X+XOXOX+X#X@X#X@X@X4X7XCXDXCX3X#X#X-X5X:X;XXXOXOX+XOXOX@X#X:X4X3X#X3X3X5X7X6X6X6XNXVXVXNXBXZXBXBXBXBXBXBXNXBXZXBXBXNXNXNXNXNXNXNXNXNXNXNXNXNX<XNXNXNXBXBXBXnXBXNXNXNXNX<XNXNX).BXNXM.M.n.v.v.v.n.n.v.v.v.v.v.v.v.v.v.b.v.v.2.2.b.{.[.p.n.n.k.b.m.p.m.v.2.>.<.>.;.>.h.2.>.3.k.h.h.h.m.m.k.k.h.h.h.:.:.:.h.z.k.j.j.j.h.k.z.x.x.x.x.z.j.k.k.k.k.k.l.^.b.v.v.[.|.|.|.^.b.[.[.[.n.^.n.v.v.b.b.v.b.v.v.b.v.v.v.v.v.n.n.n.b.b.b.k.k.j.j.k.k.l.l.n.l.k.k.z.).<Xx.",
"Z C C Z F g Z F F C Z F :.F F D C m B C C C C C C C C C B C C { [ ;...;.[ ;.[ { { B B { { C C { [ ,.,.,.g.f.f.i.B C ;.;.3.z.h.F h.F ;.,.f.n.c.I F { ..[ [ [ [ { [ [ [ ;.,.;.;.;.[ { [ [ ;.;.;.;.;.S F :.[ [ [ [ [ ;.[ [ { { { [ ;.{ { [ [ ;.;.;...^ [ ;.{ [ ;.>.;.;.[ ;.[ ;.;.[ [ ;.;.[ [ [ [ [ ^ { { { [ { [ ^ ^ B B ^ B B C { { ..S ;.;.S S S S C C S S { ;.;.:.h.I I I Y L Y Z Z I I I I I I I j.:.C Z C D S ;.,.,.>.;.:.C C D D Z Z S S S ;.2.2.j.z.j.h.j.>.2.,Xh.Z :.F Z Z Z S Z Z Z Y Y K Y L H H g f f j j h h g g h 7 7 f 7 0 0 P w w 9 8 7 1 7 7 g 7 7 7 L L K K c.(.(.c.).).).).).).).(.).).).).).).).).).).(.(.(.S.S.S.Z.A.A.A.gXpXgXiXB.P w P P P P P K 0 L L L K L L L 0 8 8 0 0 w L L P w q B.P t t uXuXuXiXP P K L P P P w q V.q q q P P B.pXiXhXhXkXdXfXdXdXsXkXkXdXdXdXdXdXdXsXsXdXdXdXdXdXzXxXxXdXfXsXlXlXiXiXyXyXyXB.pXgXgXgXpXgXgXB.P P P P P P P q P P w q q r r P pXpXP pXpXpXpXpXiXhXhXgXgXnXnXA.A.S.(.A.S.S.S.(.(.(.(.(.^.^.}.}.[.{.].].].[.].{.[.].[.b.`.'.`.XXK.K.XX+X@X].@X3X3X#X{.@X{.{.-X4X}.`.XX+X+XXXoXoX].@X#X3X#X@X;XXX+X#X].].XX+XXX`.oX[.].].{.-X1X1X6X6X6X6X6X6X6X1X5X$X$X;X=X4X5X5XwX6XwXwX6X5X5X4X4X5X:X;X;X:X4X4X:X:X;X;X:X:X:X:X:X:X4X4X4X5X5X6X-X@X;X;X:X;X$X:X;X;XoX;X:X:X#X=X4X6X6X2X7X5X5X3X4X2X3X&XOX+X+X=X+XOX+X;X-X:X3X3X#X4X4X4X6X6X6X6XVXVXNXBXCXBXBXVXVXBXBXBXBXBXBXNX2XNXNXNXNXNXNX<XNXNXNXNXNXNXNXBXNXNXNXNXNXNX<X<X<X<X<XNX<X<X<X,XM.,Xn.v.v.v.b.v.v.v.v.b.v.v.v.v.v.v.b.b.b.k.k.k.k.2.k.b.b.v.p.f.f.m.>.p.b.>.,.f.m.m.k.k.v.3.m.m.m.m.m.m.2.h.3.>.>.3.h.k.j.j.j.z.j.k.z.x.x.x.x.x.l.j.j.k.b.k.^.l.k.b.b.^.^.|.|.^.k.[.[.[.[.^.l./.k.1.k.k.^.^.^.k.k.k.k.k.k.k.l.b.2.2.m.m.m.>.2.k.l.M.l.n.n.n.n.n.M.x.M.",
"z z z z x z z z C C C C F F F :.F C C { { B B { C C C B B C C C C C S ;.[ ;.,.S B ....;.{ B B ^ ' d.K.3.} f.*XCXmXK I [.j.h.F D C C B ^ <.5XCXA.I :.;.[ [ [ [ ;.;.{ { ^ ^ ^ C { { C C { ^ { { { ;.;.{ { [ { [ [ ;.;.....^ [ ^ ^ [ { [ { [ ;.,.;...........[ [ ,.;.[ [ ;...;...............;.[ [ { ^ ^ ^ ^ ^ ....B B ^ ^ B B B B B ^ ^ ^ ;.;.F S F ;.;.:.F S S :.:.h.F h.:.F } } h.z.h.N.N.N.N.N.F :.h.F D F F S ;.;.,.;.S S S C F F S F F :.F F j.j.z.z.j.j.3.2.3.j.h.h.h.F Z Z F F S S F D H j j g g g g g f 1 1 g f 1 f g g 7 1 g 0 L 0 4 4 4 7 f g g g g f g h Y I z.c.).(.Z.S.(.x.c.(.(.(.c.(.(.(.(.).).).).).).).(.(.(.U S.Z.U U U U U U U U U K K U U U U P U U A.gXgXpXpXP P P P P P P B.P P q w w P P q w w q kXkXyXpXpXpXP r q q pXpXq q V.pXiXkXdXsXaXaXaXsXdXzXzXsXdXaXy uXuXyXy yXuXyXuXaXaXaXaXsXdXdXsXsXuXuXuXiXaXuXyXyXyXhXkXhXhXhXhXhXhXAXAXgXgXgXgXgXgXgXU gXP P P P U gXgXP B.P B.pXpXpXgXhXhXkXkXhXhXhXgXgXgXgXgXgXgXgXgX_.(.^.^.}.|.{.[.].`.[.`.'.].oX{.@X`.'.'.XXXXoX'.oX@X@X{..X6X5X}.@X#X#X{.>X5X}.]. X$XoXXX@X#X@X#X@X@X@X@X;XoX+X$XOXT.T.OXT.XXOXXXXXOXR.XXXX+X@X@X{.#X#X#X#X@X@X+X+X#X#X:X6X6X5X1X1X5X5X5X5X4X5X5X:X#X;X:X-X:X4X:X;X=X:X4X4X4X4X4X4X4X5X4X4X4X-X;X;X4X:X;X;X4X5X-X=X;X4X4X5X3X4X5X6X6X4X4X5X5X4X4X:X&X;X;X;X;X;X;X;X:X4X4X:X:X4X4X4X5X6XwXVXwXVXVXNXNXCXCXBXBXNXBXBXNXNXBXNXNXNXNXNXNX2XNXNX<XNXNXNXNXNXNXNXNXNXNXNXNXBXNXNX<XNXNX<X<X<X<X<X<X1X,X|.|.v.|.[.v.v.v.v.|.v.[.v.v.v.v.v.v.v.v.v.m.m.b.[.p.p.v.p.f.p.f.2.b.p.>.f.f.m.m.n.l.k.2.m.m.m.f.f.m.m.f.>.:.>.k.n.k.j.j.k.j.j.k.j.l.l.z.x.x.x.z.j.k.n.k.k.k.b.k.k.b.k.m.v.n.k.k.b.b.v.b.k.k.k.k.k.k.v.k.j.j.k.b.b.m.v.m.m.m.m.f.>.f.f.f.f.2.v.>Xn.n.n.,X,X,X,X,X,X",
"z z z z z z m m z z m B B C C C C C C C C ^ { { { { C C ;.:.Z C C C C { [ >.L.^.I Z { { [ [ { ^ ^ ,..XnXL C D.MXGXuXY l.z.N.F F C C ^ ^ ] h.nXgXU F S S { [ ;.,.;.{ [ ....^ { ..^ ^ ^ ^ ^ [ { B B ^ { ;.[ { [ [ [ ;.......,.;.[ [ { { { [ ..;.[ [ ;.....>.,.;.[ [ [ [ [ ..............,.,.;.;.,.,.;.{ [ [ [ ....;.{ ^ ^ ^ ^ ^ ^ ^ ^ ^ [ [ [ { { { ;.>.F h.F D D H F D S ;.;.[ [ { :.j.h.F :.:.;.;.C F F S ;.;.;.;.;.;.;.S C Z F I F F C F F H D I I j.z.h.:.h.z.h.:.F F F S D D G H j j g g g g f f f f f f f 1 1 f f f g g g g g g g h 2 - < 7 1 f g f f g h K I c.).).).x.(.Z.Z.S.S.U Z.Z.Z.U c.(.(.x.x.(._.).x.).).).c.).c.(.).).c.c.x.).<X<X,X).)._.nXBXnXnXAXnX_._.U A.B.B.P P P P P P P P P q 9 w P pXpX9 9 0 P iXaXy yXr q q t t q P t q q q uXdXdXy r r y t t y y y r r r q q r t yXuXsXsXaXaXaXsXsXsXsXaXaXsXaXaXsXsXaXiXiXiXfXdXkXxXvXGXHXHXGXSXMXMXAXAXMXMXMXMXAXjXgXgXjXnXnXnXgXgXnXnXnXAXmXAXnXhXhXhXhXAXMXMXAXAXAXAXAXAXAXnXnXnXnX<X,X,X>X3X{.{.@X{.].[.[.oX].{.[.`.'.oX@X@X].[.'.@X{.}.1X>X>X}.@X@X-X>X2X1X}.@X@XoX X@X.X=X=X=X=X;X@X=X=X;X;X&X%X%X&X&X&X&X&X&X;X;X;X&X&XOX+X=X;X#X#X;X;X$X+X+X@X#X4X6X6X1X-X@X@X@X@XoX@X-X=X=X;X:X:X5X4X4X4X:X4X4X5X6X5X6X6X4X4X4X4X4X4X4X4X5X5X5X:X:X{.5X4X3X:X=X3X3X5X4X6XwX6X4X4X4X#X4X5X:X;X;X;X;X;X;X$X;X:X4X4X4X#X#X5X5X5XwXVXVX6XVXNXNXNXNXNXNXBXBXNXNXNXNXNXNXNXNXNXNXNXNX2X2X7X7XNXNXNXNXNXNXNXNXNXNXNXBXBXBXBXNXBX<X<X<X<X<X<X,X,X}.,X,X|.[.v.v.[.}.^.|.{.v.v.v.n.M.n.v.v.v.b.v.v.oX`.b.v.b.p.v.v.v.[.b.p.p.p.v.v.m.m.v.v.m.m.v.f.f.m.2.f.m.m.m.v.m.m.m.k.l.l.k.m.b.b.b.k.k.n.M.n.M.n.b.m.b.f.m.p.b.b.m.m.v.v.v.v.m.b.v.m.m.v.m.m.n.>Xv.b.b.v.v.v.v.v.v.v.m.p.v.b.p.i.f.p.'.{.-X|.|.,X<X<X).<X<X).<X",
"z z m m m m m m z z z m B C C C C B B B B C { C S D S C C :.F Z C C C C { ,.2.C.I Y C C C { { S { { 3.^.C.H Z U U U I Z Z } ;.k.h.C ^ ` g.[ F N.h.k.j.Z C [ ,.>.2.;.;.;...,.,...,.,.,.;.;.;...^ ;.;.;.....;.;.[ [ [ [ ....,.>.>.;...;.;.;.^ [ [ [ [ ;...,.>.;.,.,.;.[ ;.,.>.,.[ [ ;.....;.;...;.>.;.{ [ ;.;.;.;.;.;.[ ..B ^ ^ ......[ [ ;.;.[ [ [ [ ;.;.F F D F H F Z Z D S S S S S F F F :.;.;.;.;.S ;.[ [ [ [ { S D D D S F :.h.h.h.F Z Z Z g H I :.j.:.j.j.j.F F D H H J j h g h g f f 1 f f f f f f f f f g g g f h j h g f g f g g f - 1 g g f g f h j Y c.)._.).).x.x.(.c.U Z.Z.Z.Z.A.P U c.c.c.c.x.(.(.c.c.(.)._.).).).).<X<X<X,X<X).,X,X,X,X,X).).,X<X).).^.^.l.l.c.z.U U c.U U K K P P P P q P P q q w q P P pXt r r q q q r q q q q t pXt y y y t q q r q q q w w q q q q q q r r r r q w w w q q q r yXuXuXuXuXaXdXsXdXdXdXdXdXdXzXcXcXvXxXzXlXpXgXA.S.A.A.A.A.gXpXgXgXgXgXgXgXgXgXgXA.S.gXgXgX_._._._._._.nXnXnXnXnX_._._._.).).<X,X>X>X,X>X1X}.}.}.|.{.[.v.v.[.].[.`.L.'.'.'.[.[.K.`.[.[.|.|.|.|.|.#X1X>X,X1X|.].[.`.$X:X-X@X{.=X-X:X-X-X5X5X4X4X0X0X4X0X0X0X4X:X5X0XwXwXqXwXwXwX4X4X0X4X0X:X+X+X#X=X5X6X6X4X:X=X;X$X*X*X;X:X:X:X0X4X4X4X5X4X4X4X4X4X4X6XwXwX6X6X5X5X5X5X4X5X6X3X3X1X-X@X{.3X3X5X4X-X5X5X4X6X5XVX6X4X:X;X;X4X5X4X:X:X:X:X-X;X$X;X:X6X5X:X:X4X4X0X6X6XNX6XVXVXVXNXNXNXNXNXBXBXNXNXNXNXNXNXNXNXNXNXNXNX2X<X<XNXNXNXNXNXNXNXNXBX<XNXBXBXBXnXnXBXnX<X<X<X<X<XNX<X,XM.l.,X|.b.p.b.v.n.n.>Xn.v.v.v.M.,X,Xn.[.[.v.v.n.|.{.{.`.`.b.@X#X[.`.[.@Xv.'.[.[.v.n.@Xv.v.#X[.b.v.v.b.2.m.v.v.v.b.m.v.v.n.v.v.v.n.n.v.v.v.n.M.3XM.v.v.[.v.v.v.[.v.b.b.v.v.v.v.v.v.v.v.v.v.v.v.v.n.M.|.[.{.}.{.[.}.#X#XoXR.XXoX].`.[.3X2X,XNX1X/.l.).<X).).<X<X_.).",
"z z z z m m m z x z z x B B C C B B C { { C C C C C S S S C C C C C C C B ;./.S.K g Z C C C C C C C ;.3.rXU N.:.} F j.j.F ;.,.;.F { ' g.f.f.,.C C k.^.F C ;.,.,.[.k.:.;.;.;.;.;.;.;.;.,.,.;.,...;.>.;.;...,.>.;.[ [ [ ..;.;.;.;.;.;.,.>.,.;.;.;.;.;.[ ;...,...>.>.:.S ;.>.>.>.>.>.,...;.;.,.,.,.>.;.{ ;.,.>.F ;.;.,.,...A A ......;.{ { ................>.;.;.} :.:.F Z H H j H D D H j H D D S ;.;.,.>.>.,.,.,.;.;.F F F F D D D D F h.:.:.:.F F h.h.h.F h.j.G G G H h h h f f f g g g g f g g g g g g f g g f h H F H F D Z F Z Z g f f 1 g Y g g h L I I c.x.x.l.z.j.z.x.x.(.c.U Z.Z.U U U U S.U P A.Z.Z.S.Z.S.S.(.(.(.(.).).).).,X>X,X,X>X>X>X>X>X,X^.^.^.^.^./././.^.|./.^.(.(.S.Z.K U P P P q q w w P pXyXyXq P pXr r q q q q q q t r q pXyXt t t r r w w w w 9 8 8 8 8 8 8 6 6 9 9 0 L L L 0 8 w L P P P P w 9 w 9 9 w q yXaXaXyXyXyXaXsXdXaXaXaXsXyXiXpXpXP q q P P q P V.pXpXV.P P P U A.gXgXgXA.A.gXA.A.A.gXgXgXA.S.S.S.S.(.(.(.(.).).).).,X,X}.^.^.|.|.].[.[.[.'.].'.'.`.`.'.].@XoXK.K.v.v.+X[.v.[.-X3X>X>Xn.v.[.XX].[.oX@X@X+X].@X=X5X5X-X-X4X4X0X6X6X5X6XwXqXqXqXVXCXZXZXDXDXDXZXCXVXVXwXVX5X+XOXoX].-X5X1X-X@X@XoXXXXXXX$X;X;X3X4X4X5X4X4X4X4X4X4X5X5X6X6XwX6X6X6XwXVX6X6X6X6X4X5X0X4X:X:X4X5X5X4X4X5X6X4X6X1XwX5X4X=X+X;X4X1X6X5X5X5X4X4X:X;X;X4X5X:X=X=X;X4X4X1X5X6X6XVXCXZXCX2X6X6X6XNXNXNXNXNXNXNXNXNXNXNXNXNX<X2X2XNXNXBXNXNXBXBXBXBXnX_.<XnXnXnX<X<X_.<X<X).x.x.x.<X).M.l.l.M.k.1.p.b.v.k.l.n.n.k.v.n.,X,X>X,X#X{.oX{.>X|.}.[.`.`.[.{.}.|.{.}.,X}.@X{.{.}.6X0XoX@X}.|.[.+X[.|.v.[.v.v.v.v.].+Xv.v.@X[.{.#X#X@X@Xv.|.3X#X{.}.}.|.}.{.1X-X[.[.@Xv.[.oX].[.[.{.{.3X}.}.{.{.|.}.}.|.|.|.|.>X,X7X>X[.`.[.|.[.[.v.,Xl.x.<Xl.k.b.l.x.x.,X<X<X_._.",
"m m m z B B B B C C C x x x x x x x C C S C C C C C C Z Z C { { C { { ;.C x F I Y Y C C C C x B B C C C F I Z C { C :.:.} :.h.{ ;.2.f.f.Q.eX1XI j } F } { [ ;.;.;.3.3.;.;.;.{ { [ [ ;.;.;.;.;.;.;.;.;.>.-.,.>.>.>.>.,...,.,.;.;.;.;.>.,.;.;.......;.;.;.;.........S F F :.h.:.;.,.,.>.>.,.>.,.;.,.,...;.;.;.D F :.j.eXmXh H C C C A B A S ....,.,...;.;.;.;.;.;.>.3.N.N.N.N.I I Y j f f f g g Z D F ;.>.>.;.;.;.;.;.>.>.>.:.h.D H D Z H D D F h.:.h.j.j.h.h.N.F I K L h h g f g g g g g g g g g f g g g f g g f f U _.L j H Z F j f f f g h Y K K I I I x.x.)./.l.l.c.I I c.c.S.U U U c.x.c.c.U U U P P U (.S.c.x.(.Z.Z.Z.Z.(.).(.).).).>X|.>X>X>X1X).).).^.^.^.^.^.^.x.x.^./.C.Z.A.A.P P P P P P pXpXpXpXpXuXyXt r q q r q q q q q q q r r q q q q q w q 9 8 8 8 8 6 8 8 8 8 8 8 6 6 P gXgXjXgXgXpXB.pXgXgXgXgXgXU P A.P P K P pXpXq w w w w w w e w w 9 9 w w w 8 6 8 9 9 9 9 w w w 9 0 K P gXiXhXkXkXcXxXkXhXiXhXhXhXhXhXgXgXgXgXgXnXgXnXmXnXnXnXnX_._.^.l.^.l.k.k.k.k.k.k.[.[.[.[.[.}.}.|.[.'.oX[.].[.`.@X6X1X}.#X#X@X@XoX#X#X@X{.oX+X+XOX+X.X-X:X4X:X4X4X4X4X4X6X5X4XwXVXVXZXZXZXJXZXZXZXZXCX6X6X1X#X@XoXXXXXOX+X#XoX].XXXXOXXXOXXXXX=X#X#X4X-X-X:X5X4X4X4X5X6X6XwX6X6X6X6XwXVXwX3X1X6X5X-X-X4X-X=X;X4X6X1X1X-X:X-X-X5X4X:X;X#X;X;X:X6X5X5X5X-X:X0X0X;X;X4X:X;X=X:X:X=X$X;X-X5X6X6X7XNX6X2X7X7X3X7XNXNXNXNXNXNXNXNX<X<X<X<XNXNXNXNXBX<X<X<XnXNX<XBXBX<X<XBXBXBX<X<X).x.<X<XM.x.<X<Xx.l.M.M.M.n.b.b.b.n.v.v.v.v.v.n.M.<X7X<X<X,X|.n.,XM.|.v.v.v.`.`.v.n.}.}.M.M.,X{.].}.,XBX2X>X3X<X2X2X1X>X}.}.{.@X{.oX;X:X-X{.#X-X3X7X6X1X1X1X>X3X3X}.{.}.}.|.>X>X,X>X|.}.>X}.}.}.|.|.|.1X1X).,X,X>X>X}.}.}.[.{.|.,X,X,X,X>X|..X{.`.H.H.b.v.b.b.k.k.b.v.k.x.x.x.,X<X_.nX",
"m m m B B B B B m C m x x z x C C C C C C C C C C C C C C C C { C C { :.;.C C C C C B m m C B B B C { { { } } { { { ^ ' ^ [ ;.{ { :.h.,.L.DXLXGXr Y C [ ;.;.[ [ [ 3.k.k.:.{ ;.;.;.,.;.;.;.{ [ ;.;.;.;.,.,.,.,.>.>.>.>.,.>.>.>.>.,.>.>.,.,.,.;.,...,.,...........;.;.>.3.h.:.>.,.,.;.;.>.>.,.>.>.>.>.>.,.;.D G D D D I jXw h H S Z J x C C S S ;.;.;.;.,.,.[ ....>.>.:.:.h.:.h.h.N.F Z g g g h h j H D F F F ;.,.,.,.>.>.>.>.:.;.3.:.D Z g j Z Z F :.j.h.:.F h.z.I I I K L H H g g Z Z D F Z Z g 1 1 h g f g g g g g L h g f g h g f f f j Y Y c.x.).).).^.^./.l.z.U U K K U c.c.c.x.z.x.c.U c.c.c.c.c.c.c.x.x.x.x.U K K K U U Z.Z.S.(.(.).^.|.,X).).).(.(.C.S.S.U (.^.^././.(.Z.K gXgXB.P P P P pXiXiXyXt r q q q q q w q q 9 9 9 w 9 9 w w 9 w w w 9 8 8 8 8 8 6 6 8 8 8 8 8 8 8 8 0 hXvXvXvXdXyXyXyXpXA.U U U U U U K K U K P gXiXq 9 8 8 6 6 8 6 6 6 8 8 8 0 0 0 0 L L 0 0 L P P U K U gXgXhXhXhXhXhXhXhXhXhXhXhXhXhXhXhXhXAXAXAXAXAXAXAXMXAXAXAXAXnXnX_.).).).l.l.l.^.l.^.^.^.|.}.}.>X>X|.`.'.'.].[.=X@X|.}.}.|.}.3X4X#X@X#X#X@X@X@X@X=X=X@X=X@X#X#X-X-X-X1X4X4X4X5X4X5X5X5XNXBXCXCXNXBXCXCXNX3X=X@X$X+X+XOXOXXXOXXXOXOXOXOXOXOXOXOXOX$X$X@X;X#X;X;X:X#X-X-X4X5X5X4X4X4X5X5X6XwX5X-X5X4X4X4X-X-X:X5X@X3X5X1X5X5X-X=X.X4X5X-X@X-X:X-X#X-X-X@X{.=X4X4X4X;X:X4X:X;X=X:X;X*X*XOX;X5X3X5X7X7X6X5X3X3X3X7X7X7X7X7X<X<X<X<X<X<X<X<XNX<X<X<X<X<X<X<X<XBX<X<X<X<Xx.x.<X<X<X<X<X<X<X<X<Xx.x.M.,X,Xn.k.n.M.v.k.b.|.v.v.v.v.v.,X,X,X<X,X,X,XM.3X3X,Xn.v.v.v.v.v.v.[.v.|.M.,X3X}.{.>X,X<X<X,X,X<XNX<X2X7X3X}.}.-X}.1XwX6X2X>X3X1X>X7X6X<X6X6X>X>X|.}.#X{.}.|.M.,X>X}.|.|.}.}.{.v.n.}.,X|.|.k.,X,X,X>X>X>X}.{.{.}.>X>X|.{.>X>X}.[.1.1.1.p.v.v.b.v.v.v.b.k.l.x.x.x.x.).<X",
"C x m B B B B B B m m m z x x z z m C C C m C C C B B B B m B C C C C B B [ [ { ^ [ [ >.;.C B ^ [ [ [ [ [ { [ [ [ ....%.f.;.;.;.....[ ;.,.(.kXxXiXY { ..,.>.>.;.[ ;.:.h.:.:.;.;.;.{ ;.;.;.{ [ ;.>.,.,.>.>.>.>.>.>.>.>.>.>.>.3.2.3.>.>.>.>.3.>.>.>.>.>.;.;.;.;.S ;.[ ;.>.:.F :.F >.;.S ;.;.;.>.>.>.>.>.>.F D G D H H Z Y I H H H j j Z C C Z H D D ;.;.;.;.;.....;.>.>.>.;.>.;.>.:.:.:.} N.Z g g g Z Z C F F ;.>.>.>.>.>.>.>.>.>.,.;.:.C Z F Z Z C C h.h.h.j.j.x.x.j.j.h.I N.N.} C { ;.S D S D g 1 1 g f g Z Z j j Z g g f f f g h h j Z h.x.).).).).^.^././.j.x.c.U U K K K I z.z.z.j.z.z.c.U c.c.I U c.U I I U U K K K K P P P P A.A.S.S.c.U (.(.(.S.U U K K L K U U K U Z.S.Z.U B.gXP P q P P P q q w w 9 9 9 9 w 9 8 9 9 9 8 8 8 8 8 8 6 6 8 8 8 6 8 8 6 6 8 8 6 8 8 L w 8 8 8 8 0 hXcXzXzXaXyXdXkXiXV.P U U K K K K K K K L q P 9 8 8 8 0 L 0 L L L L 0 K U P P P P A.gXgXgXgXAXnXnXnXnXnXnXnXnXnX_._._._.nXnXAXAXnXnXnXnXnXnXnXnX_._.).).<X<X<X<X<X2XBX<X).).).,X,X,X,X,X>X1X1X1X>X,X>X|.`.'.oX@X{.-X#X{.@X@X@X{.1X6X}.{.@X#X#X#X@X{.-X-X-X=X@X-X4X4X4X5X5X5X4X6X5X.X-X-X}.3X6X7X7X7X3X3X5X-X#X@XXXOX].+XOXOXXX*XR.R.OXOXOX+X+XOXOXOXOXOX+X;X;X;X;X;X#X=X-X5X5X4X-X=X4X4X:X5X1X-X4X6X4X4X4X-X=X-X4X5X5X-X}.-X.X{.@X=X-X-X-X-X5X4X@XoX+X#X@X-X:X;X:X-X-X-X-X@X+X+X+X#X;X&X&X;X4X3X5X5X5X5X3X3X3X3X3X3X7X3X7X7X>X7X7X7X7X<X<X<X<X<X<X<X<X<X<XNXNX<X<X<X<X<X).<X<X<X<XBX<X<X<X<X,XM.M.M.M.n.b.n.n.n.b.v.n.n.}.n.n.}.3X>X7X7X>X,XM.n.>X,X3X[.@X#X.X{.[.v.v.n.|.}.,X,X}.|.>X,X,X,X,X,X7XNX<X<X<X,X>X>X3X>X,X2X,X,X,X,X,X1X6X2X<XNX<X,X}.|.}.[.[.v.n.M.M.,X}.{.{.{.v.v.v.n.>X,Xv.v.v.}.}.}.,X,X>X}.[.[.|.}.|.k.[.|.n.b.p.1.b.p.p.b.b.p.b.v.v.k.b.k.x.x.x.x.<X<X",
"C C C C C C B B { S F Z C C C z m m m B B B C C C B B B B ] ] B B B B ^ ^ ..,.;.C C [ 2.j.F [ ;.;.;.[ ;.;.;.[ ;.,.<...;.k.1XI D ;.>.;.;.>.j.(.U U I S { ;.;.;.;.{ ;.;.F D S ;.;.;.;.{ { { ;.>.>.>.,.>.>.>.>.>.>.>.,.,.>.>.>.3.h.:.;.,.>.>.>.>.>.>.;.3.3.3.3.3.:.:.;.,.>.:.:.:.S F D D D D :.>.>.;.;.>.>.D G I K L L j j j j h h h j Z C Z H h j H D D D D S ;.,.[ >.2.3.;.;.,.,.>.>.>.;.>.:.} } } } } } :.:.>.>.>.>.>.>.>.>.>.>.>.>.>.;.;.C Z Z Z Z Z Z :.h.j.j.j.j.h.F :.:.{ [ { ;.;.;.S S S s g g g Z Z D H g f g f f f g g j I I z.z.x.x.x.l.l.^.^./.I I l.c.U K K L K I z.z.j.j.z.j.j.z.z.z.z.z.I U K K K K K K K K K K K K P P gXgXgXA.A.U K K K K L K K K U gXpXP P P A.Z.U P P P q P B.B.q w q w 8 0 0 8 L L 8 9 L K P 9 8 8 8 8 8 0 0 0 K P P P P P P P P P w L P P 9 8 8 0 9 w q q q q t dXxXsXyXpXpXV.P P P P K K P P w P K U U U U U U U U U A.P gXgXgXgXgXjXhXhXhXhXhXjXAXAXnX).x.).^.^.^.^.|.|.^.|.|.,X<X>X>Xn.,X>X,X}.}.}.[.[.{.|.}.,X6X<X).<X).^.^.v.|.}.[.v.v.v.v.[.].[.v.[.'.`.`.].@X{.[.oX@X+XoXoXoX#X}.{.@X#X@X{.{.{.{.@X@X@X=X.X5X5X5X4X4X4X1X6XwX6X5X6XwXVXVXCXCXZXZXVXwXwXwXwX0X:X@X@X:X&X%X$X&XXXOXXXOX;X=X$XXXXX&XOXOX%X+X=X;XoX+X@X#X#X5X5X5X4X5X4X:X:X4X:X:X3X5X5X}.-X{.].oX{.1X1X@X[.].@X#X=X@X#X@X@X@X@X#X$X`.OX@X#X;X@XoX+XoX].oXoXOXOX%X%X@X;X;X:X-X#X#X#X3X4X4X5X5X3X6X6X7X5X3X3X7X7X3X7X7X7X>X7X<X<X<X<X<X<X<X<X<X<X<X<X<X<X<XBX<X<X<X<XNX<X<X<X<X<X<X,XM.3Xn.v.v.n.3Xn.n.n.n.3X,X,X3X>X,X7X7X>X7X3X3X3X7X>X}.}.3X5X3X{.@X[.v.}.}.n.,X,X>X>X,X}.>X1X<X<X<X,X,X,X,X,X>X1X1X>X>X>X>X,X2X6X2X2X<XNXNXNX6X3X}.}.#X{.].{.}.3X>X>X}.{.@X].`.`.|.|.}.v.[.{.{.|.}.,X,X|.|.[.`.v.n.n.v.v.v.v.b.b.b.b.b.b.p.b.p.1.1.b.v.v.v.n.n.).<X<X<X",
"B B B x C C { { } F F F Z F F C C B { ;.C C C C C { ^ B B ^ ] ^ ^ ^ ^ ~ ~ ..;.k.h.C [ >.j.h.} :.3.:.:.h.j.k.:.2./.).).I z._.S.j Z k.^.:.F :.l.U F F ;.;.{ { A { ;.F C C C S ^ ;.S S C C F F :.:.:.>.,.>.>.>.>.>.>.;.,.,.>.>.2.:.3.>.,.,.,...,.,.,.,.>.>.3.h.j.2.>.>.>.3.3.h.h.F F F D D D F F F ;.;.;.F D D I I K U U K Z.Z.K L h g f g g h h h h j H D D D F F ;.;.k.j.:.{ ;...;.,.;.;.;.;.>.;.;.>.;.;.2.2.:.>.>.>.>.>.>.>.>.>.>.>.3.:.:.:.{ >.>.:.:.:.:.>.>.3.3.3.3.:.:.>.;.[ A ;.[ ;.S ;.C C Z H j j j g f f f g j g Z I I c.x.c.x.n.n.l.2.k.^.^.^.z.K I z.z.Z.K L I I k.j.j.z.z.j.j.k.k.j.z.z.I U K K K K K K K K K K K K K K U B.gXhXgXgXU U U U K U P A.gXgXiXiXiXpXP P P P P P pXpXP P pXyXq UXV.q V.P q P q q q P P V.q w P P pXP P V.pXpXiXlXiXiXpXyXiXiXiXiXiXiXiXpXP q P P q w 9 w w w q q q r q P q P pXpXgXgXgXgXAXAXAXAXAXAXAXMXMXMXMXMXAXAXhXgXMXSXGXGXMXMXAXAXAXAXMXGXMXnX).l.[.K.K.p.p.K.K.K.'.`.@X#X#X{.{.@X{.{.[.@XoX`.XX`.|.|.|.1X,X,X,X,X|.[.[.].|.v.[.+X`.[.@X=XoX`.'.XX'.`.`.oX@XoXoX@X+X'.'.'.oX@X@X@X#X#X@X{.{.=X-X@XoX=X=X.X1X1X1X5X-X>X6XVX2X5X1X6XNXCXCXCXDXZXCXVXVXVXVX6X4X#X$X@X@XXXXXXXXXXX'.'.@X;X=XXX:X4X#X@X=X=X:X:X$XOX+X;X:X6X6X6X6X5X4X4X4X5X4X3X3X3X#X@X@X].[.oXoX@X[.`.`.`.].1X5X}.@X#X[.oX;X@XoXoXoXoXoX+XXXOXOXXX$X:X:X*X;X;X;X;X-X=X4X5X-X@X#X4X1X1X6X3X7X6X6X6X6X1X2XNX6X>X3X7X7X7X3X7X7XNXNX<XNXNXNX<X<XNXNX<X<X<X<X<X<X<XNXNX<X<X<X7X7X<X>X3X#X#XXXv.v.n.|.[.@X#X3X3X5X5X5X3X7X5X3X6XwX1X7X7X>X>X2X<X,X>X}.{.v.n.>X,Xn.M.M.<X<X,X}.>X>X,X,X,X>X,X,X,X<X<X,X>X{.|.|.|.>X2X2X2X2X<X<XNXNXNX<X>X>X>X}.].{.}.3X>X>X>X>X}.{.`.[.v.v.n.|.{.v.v.v.v.v.b.k.b.v.v.v.n.n.>X>Xv.v.b.b.v.v.v.b.b.K.H.1.`.[.[.`.v.n.,X,X<X<X<X",
"B B B C C C C D F Z C Z C Z C C C B B S Z C C C C { { ;.>.{ C { >.>.;.:.:.C C Z Z C [ ;.>.:.h.h.h.k.F F h.j.h.z.z.I I h.z.I U z.Z C :.:.k.j.Z Z C C C C { C S C S D Z C C x C C C C C C Z C S F S ;.;.,.>.>.>.>.;.>.f.3.:.>.m.j.:.>.>.>.>.,.,.;.;.;.,.;.>.>.>.>.>.>.2.j.F F h.3.>.;.F D F j.G D D D D D D D D D D F H L L Y I I I j Z I K Y j g h H F F Z Z F F F } h.j.:.;.,.>.,.>.,.>.>.>.>.>.,.;.;.,.k.k.h.:.>.>.>.>.;.;.>.>.>.;.:.D F S C ;.;.;.;.;.>.>.>.>.>.k.3.{ { ,.....A S ;.;.S S D D H g g g f f f g g Y I z.l.).<X<X,Xk.b.b.^.^./.l./.^.l.z.j.j.I K K U I h.j.j.z.j.h.h.j.j.j.j.j.I U K K K K K K U K K K K I U U U U S._.nX_.U U c.x.x.c.U S.gXgXgXpXB.P P P K L L K U P q q P q q pXP q P q B.yXr yXyXpXpXpXpXiXiXuXsXsXaXsXuXyXaXsXsXdXdXaXyXyXaXaXuXaXsXsXaXyXt q q V.P q P P P q P P P B.pXpXyXiXhXkXMXkXcXvXbXGXSXMXMXhXnXnXnXAXMXMXMXZXAXAXAXAXSXMXnXnX_._._.<X_._.).l.[.b.[.K.K.`.`.K.K.'.XX].{.{.{.{.{.|.{.@X{.}.}.@X{.{.@X@X{.}.}.{.}.}.}.{.'.oX[.@X@X+X].oX@X-X@X].oXXXOXOXXXOXoX@X#X#X#XoX'.oXoXoX#X#X#X#X@X=X=X=X@X@X@X{.{..X}.}.|.@X@X}.5X5X>X}.|.[.{.3X3X7X6XNX6X6X6XwX6X6X6X3X-X{.].`.R.`.U.+X+X'.oX+X`.oX:X-X].oX#X3X3X5X4X;X;X:X-X5X5X6X6X5X0X4X5X4X4X4X5X-X#X:X-X=X@X].`.`.`.].'.`.[.#X|.[.|.{.oX'.oXXX&X;X;X;X;X$X+X*X*XXX=XwXwX4X4X-X=X-X4X1X1X5X4X=X].{.}.}.1X7X6X1X,X6X2X1X1X6X2X6X6X6XNXNXNXNX6XNX7X<XNXNXNXNXNXNXNX7XNX<XNX6X7XNXNXNX6X<XNX6X6X6X5X5X#X@XOXOXoX.X-X=X:X4X5X6XwX6XVXNXNX6X1X6XNX1X,X,X|.>X,X,X>X,Xn.M.n.v.v.v.b.v.n.M.,X,X,X,X,X,X,X,XM.M.,X<X<X<X,X|.[.[.n.}.>X,XM.<X<X<X<XNX<X<X,X>X}.|.,X|.}.|.n.,X>X>X,X|.|.'.v.v.v.v.v.v.v.v.v.b.b.b.v.|.@Xv.n.}.,Xn.l.v.v.v.[.v.|.|.|.|.|.|.1X1X1X[.[.|.x.).<X).).<X",
"B B B { C C C C C C C C C C x C B B B C Z C { { C C C C } C C B { ;.S :.h.F Z C C ^ ....;.{ :.:.F ^.z.h.h.:.:.:.:.{ { { [ { { :.} { C B S F Z { C C B B x x x x C x x x x x B C C C x x x C C :.F C S ;.;.;.:.F :.>.>.1XrXI :.:.>.>.>.>.>.>.>.>.>.>.>.>.>.>.>.>.>.;.;.;.S S ;.;.;.;.S S 3.:.j.j.j.h.G :.j.h.F h.h.F S S S S S :.:.:.:.h.h.h.h.F I h.j.h.} N.h.h.} F :.>.;.;.>.>.>.>.,.;.>.>.3.>.>.;.;.>.:.:.:.:.>.>.>.>.;.,.>.>.>.:.h.Z C Z C } { } } } :.>.>.>.3.:.3.>.;.....S S j j j j H D H g f g H j g Z h.z.x.|.^.^.l.n.k.[.{.^./././.j.j.j.l.l.k.k.k.I I I I h.k.z.k.j.:.h.j.j.I I K K K K K K K K K K K K K U U B.gX_.(.(.).x.x.x.l.^.l.^.^.^.)._.nXnX_.(.(.(.c.c.U K K K K K 0 8 9 9 0 9 9 8 8 8 9 9 8 9 9 9 9 w q q w w r r r t r P q r r r r r r r r q w w q w q w w 0 w P P w P P P P B.gXgXpXgXhXkXkXkXkXkXSXGXGXcXcXcXSXMXMXmX).2X>X^.).,X>X).).).,X).).,X,X,X3X>X|.|.|.[.`.XXOXoX].`.`.`.'.].@X=X:X.X|.|.@X@X{.{.@X4X5X1X5X>X#X-X-X=X=X=X=X#X{.=X=X].[.5X0X.XoX+X@X@X].].@X#X@XOXOXOXOX].@X@X@XoX].'.'.'.oX@X@XoX@X].oXoXoX].`.oX@X@X{.3X3X#X#X@XoX$XoXoX@X@X5X0X6XCXZXCXVXVXVXVX6X1X5X6X5X6X6X>X].XXR.L.XXK.K.K.K.K.XX$X].oX@X:X5X7X7X5X3X@XoX@X4X>X-X-X5X5X5X3X-X-X3X6X}.-X4X>X}.[.[.p.p.].[.b.b.K.`.v.`.{.-X4X=X%X&X;X;X;X;X;X;X;X'.oX;X5X1X,X,X1X[.'.].@X3X>X>X-XoX`.[.{.|.#X3X>X>X}.}.3X>X1X1X,X6XVXNX2XNXNXBXCXCXZXZXCXNXNXNXNXNXNXNXVXVXNX6XNXCXNX6X6X2XNX6X2XBXCX6X6X-X@XoX@X5X6X6X1X1X>X2X6X2XNX<X<X<X,X<XNX,X,XM.<X<X,X,X,Xl.n.M.|.v.v.v.v.v.v.n.M.,X<X<XM.M.M.M.,X,XM.<X<X,XM.n.v.v.n.,X,X,XM.<X<X,X,X<X<X<X,X,X|.n.n.,X|.n.,X7X7X,Xn.M.,X].v.+X+X[.[.[.[.{.@X`.K.v.|.}.{.|.M.M.,X,X|.>X>X|.|.|.,X,X>X>X).)._.).l.n.x.).x.x.x.x.c.x.",
"B B B B C C C C S Z Z C C C B B B B B B C C { [ C { { { C B B { { { B B C C C B ^ ^ ^ { C ^ ;.S C h.h.F } ;.S F } { { ;.^ ^ ..^ [ [ ;.[ B C ;.3.Z C B B m m m m B m z m m m m z z m z z x x x S C C C C A S F D F ;...:.U I :.;.;.,.>.;.;.,.,.>.>.>.>.>.>.>.>.,.[ ;.;.;...;...;.[ [ [ ;.;.;.;.:.j.j.j.j.j.j.:.:.3.;.;...[ [ ;...;.;.;.;.3.3.:.h.h.h.h.:.} { ;.>.;.;.;.[ [ [ ;.;.;.;.[ [ >.j.j.:.>.[ ;.,.>.;.;.;.[ >.>.>.>.>.>.>.2.h.N.} F :.{ ;.} :.:.:.:.>.;.F D D S S S S D J f f f f g Z Z I N.F I h.k.k.b.n.n.v.k.k.p.1.K.[.[.^.j.j.G G F j.j.j.j.l.j.j.j.j.k.k.j.j.j.k.j.h.j.j.I K K K K K K K K K K K K K P gXnXAXAXAXnX(.).).).^.^.^.^.^./.^.^.^.).).).).,X^.).).).x.Z.A.P P gXP P L L K L L 0 0 L 0 0 L 0 L 0 8 8 w w w w w q q q q P P P q q q q q q q P q q q q P P P P P P B.B.gXgXgXgXhXAXAXAXAXAXAXMXAXAXMXMXAXAXnX_._._.nX2X,X^.}.#X}.@X@X-X5X.X|.|.|.}.}.{.{.{.].[.].{.@X].`.XX@X#X+X'.`.XX@X}.{..X}.|.{.@X{.{.|.}.-X>X}.}.].@X=X.X{.{..X=X{.{.{.{.@X|.|.1X{.[.'.'.oX'.].@XoXoX'.'.'.'.`.`.`.`.`.'.].oXoXoX+X@XoX#XoXoXoXoXoX+X+X@X@X#X5X5X3X:X;X:X:X:X-X4XwXVXCXDXJXLXDXCXVXCXVX5X5X1X6X6X7X2X,Xb.v.H.H.J.p.K.K.K.XXXXXX&X@X@X3X1X<X1X3X}.[.`.].{.-X5X[.[.].@X#X#X;X-X5X{.@X{.,X[.v.b.p.p.v.v.v.XXR.K.K.K.].=X=X@X#X@X@X;X;XoXoX@XXX`.oX-X5X}.b.1X1X[.XXR.`.].}.}.|.'.K.`.oX@X@X#X3X5X{.@X3X>X7X2X>X>X2X2X2XNXNXBXBXBXCXBXBX2X2XNXNXNXNXBXCXVXVXNXCXZXVX6X6X<X7X<X,X_.BX,X,X>X1X{.}.>X1X,X,X}.,X,X,X).,XM.,X<X<XNX<X<X,X<X<X,X,XM.n.n.n.M.,Xn.v.v.n.,Xn.n.M.,X<XM.M.M.M.,X<X<X,Xx.M.M.M.M.n.v.v.[.n.n.M.M.,XM.M.,X<X<X<X,XM.v.v.n.M.3X>X>X3X{.|.,X>X>X3X#X{.{.>X>X{.|.|.{.{.}.>X,X|.}.,XM.,X,X^.|.,X|.|.^.).,X,Xx.l.l.l.j.k.x.x.l.z.x.x.c.x.x.",
"B B B C C { C C C F F C C C m B B B B B C C C ^ B { [ [ ^ ^ ^ ^ ^ ^ ^ ^ ^ ^ ^ ^ ^ { C [ ^ ^ <./.h.Z Z Z C ;.:.F Z { { { ^ ......[ ^ ;.>.{ { [ { { ^ ^ ^ ] ^ ^ B B B m m ] m B B m m m m z m m B B B m B B B B C C ;.S } ;.;.;.;.,.,.,.,.>.,.;.;.;.,.>.>.>.,.>.,.;.>.>.,.,...,.,.;.;.;.;.;.;.[ { { } } ;.;.;.{ { ;.,.;.;.;.;.;.;.,.........;.;.} [ ;.>.3.;.{ ;.;.S ;.A ;.;.{ { F S ;.;.;.>.3.3.3.>.>.;.>.>.;.;.;.,.>.>.;.,.,.;.>.k.j.;.;.;.;.;.,.;.>.;.;.;.:.F D S D C C C g g Z Z Z Z h.j.z.l.n.l.n.b.b.b.b.v.b.p.p.1.H.K.1.[.^./.j.G G G F F G I j I I I I h.h.h.h.j.j.j.z.z.I I K K K K K K K K K K K U U U gXnXnXAXAXnXnX_.(./.c.Z.I I U (._.Z.I I /.^.z.^.^.).^.).).)._.(.U A.gXgXP P K U U U U K K L P P P P B.P P w q q w 9 9 9 w P P pXiXpXpXt UXV.B.pXpXiXiXiXpXpXpXgXgXgXgXgXgXgXnXAXnXnXnXnXnX_._._.<X).^.).BXnXBX_.).|.>X>X,X^.|.|.}.}.}.|.|.}.}.}.{.].{.|.}.{.|.|.].`.|.}.1X|.[.].{.-X=X@X].oX5X>X}.}.{.].@X{.{.|.{.|.|.}.].`.'.R.[.{.}.|.{.{.].[.].[.`.oX[.-X@X`.'.'.].].].].oXoX`.`.XXXX].[.@X@X@X@X;X#X#X#XoX@XoXoXoX@X@X=X4X=X-X5X#X3X5X6X6X1X5X4X4X5X5X5XwXVXZXDXDXDXZXBX6X6X6X6X5X1X6X6XNX<Xn.b.b.K.J.i.p.R.XXXX+X+X@X;X`.[.{.,X7X>Xn.v.b.v.b.v.{.@Xb.b.+X[.#X=X-X-X@X@X[.p.n.v.v.b.p.p.p.p.b.v.`.'.XXK.XX$XoX@X@X{.-X5X:X-X#X+X'.XXXX].@X@XoX{.-X#X&XU.J.K.`.{.#X[.`.@X4X@X[.{.}.{.{.[.].|.3X7X>X>X>X1X<X7X<XNX2X2X2X2X2X2X2X2X<XNXNXNXBXNXNX2XNXBXNX2X2X,X>X,XM.,X,X}.|.}.,Xk.|.|.k.b.b.|.,X,X,X<X,XM.,X,X).<X<X,XM.,X,Xx.M.M.,XM.M.,XM.M.n.v.,XM.,X<X,X,X,XM.M.M.M.,X<X<X<X<Xx.M.M.M.n.>X[.v.v.v.n.n.M.M.,X>X,X7X<X,X,XM.|.>X,X6X2X1X}.#X#X3X>X>X,X1X,X1X>X}.|.|.[.v.n.M.M.M.l.n.,X,X,X^.^.|.,X|.^.l.).x.l.z.l./.l.j.k.z.l.l.k.l.l.z.z.l.",
"{ { C C C C C C C Z Z C C C B B B B { { C C C C ^ ^ [ { { ;.;.{ C ^ ^ ^ ^ ..,.,.;.;.;.' +.$...:.F { { { { { [ { C C ^ ^ ^ ......;.^ ^ [ { [ ^ ^ ^ ^ ^ ^ ^ ^ ^ [ [ { ^ ] ^ ^ [ ;.;.^ m B ^ B m B B B B B B B B B B B B ^ C S ;.;.;.;...;.;.,.,...;.;.>.>.>.,.;.,.f.f.f.>.>.;.,.>.,.>.>.;.;.;.[ [ { [ [ [ { [ { { [ ;.;.;...,.;.{ [ ........[ [ [ [ ;.>.>.:.F D D H H H H H H H D D :.;.3.j.:.D S ;.;.>.>.:.>.,.>.>.>.>.;.;.>.>.>.:.:.;.;.:.:.:.:.:.F F D S D D D F Z Z Z Z Z F :.j.k.l.,X|.n.}.|.v.b.p.p.1.H.[.[.`.1.2.2./.k.l.k.k.j.F F h.j.j.I K L j L H F j.j.j.j.j.j.I K K K K K K K K I U I I I I U U gXgXgXgXS.S.S.A.Z.U U U K K K K K U gXA.K I j.^.(.Z.S.(.(.).(.(.).).c.(.nXA.U gXnXnXc.c.c.U A.A.gXpXpXpXB.P P P P P P P P P P P P iXiXpXpXpXpXgXgXgXgXgXgXgXA.P P gXgXgXnXnXnX_._._.(.^.^.^.^.^.^.}.>X>X{.}.>X>X).}.}.|.}.}.}.{.[.].}.}.|.{.[.{.{.].].|.}.>X>X>X|.|.|.{..X|.k./.|.#X3X1X-X}.{.'.|.|.[.v.[.`.`.b.`.`.`.{.}.#X].'.K.L.`.`.{.].'.[.'.'.'.L.'.[.^.1X^.^.^.|.|.@X{.@X@X@X&X$X$X@X#XoX@X@XoXoX@X#X@XoXoX+XXX@X#X#X-X3X3X3X6X1X3X#X1X1X5X3X#X3X3X3X5X4X6XNXCXJXJXDXmX1X2X6X2X1X,X,X2X2X1X,Xn.v.b.`.J.J.s.U.XXXX#X#X@X[.`.b.v.}.>X>Xv.b.p.v.+X`.[.`.XX+X$X@X#X@X{.{.[.].b.L.p.p.p.p.b.[.v.K.`.v.oX@X+XXX$X@X+X@X#X#X#X#X@X@X@X'.+X+X$X;X@XoX@X]..X{.XXJ.T.XXXX[.].`.L.{..Xv.[.].|.-X}.{.@X{.3X3X,X7X>X>X>X,X,X2X2X,X<X<X<X<X<X<X<XNXBXNX2X7X,X,X<X<X<X<X,X,X}.n.n.,X>X>X|.n.n.b.k.k.b.v.b.k.n.n.M.,X,XM.M.,X<XM.M.M.M.M.,X,Xn.M.n.M.M.M.M.M.n.n.M.M.M.M.M.M.,X,XM.M.M.<X<X<X<X,X,X<XM.M.M.,X}.{.3X3X}.}.,X,X>X,X>X<X<X>X>X,X3X3X7X7XBXNX1X@X#X3X>X<X<X,X,X,X,X,X|.v.v.v.v.n.M.,X,X,X|.l.M.,Xx.x.x.l.j.j.z.z.z.z.l.j.j.j.j.j.j.j.j.j.l.l.z.x.",
"^ { C C B B { { C C C { C C { ^ ^ B { { C C C C C B [ ;.;.C :.:.{ ^ ......,.>.;.;.{ ;.$.$.$.>.:.;.....,.,.;.;.;.[ ........,.>.[ ;.<.,.;.;.;.[ ......[ ;.[ [ [ [ [ [ [ ^ ^ ^ [ ;.;.[ { [ [ { { { [ { { B ^ ^ ^ ] ^ ] B ^ B B C { { [ ;.;.;.;...;.,.;.;.;.,.;.<.f.f.9.0.;.2.>.>.,.;.:.:.[ ;.;.;.;.;.;.;.;.[ ;.[ [ ;.,.>.;.{ ;.>.[ { [ ^ ....[ [ [ { [ ;.;.D D H h h g g g h h h Z Z F F h.j.:.F F F F :.:.:.:.;.;.;.;.;.;.>.>.>.;.;.;.;.S S S F j.I j Z C Z Z F F F :.h.k.l.k.b.b.b.b.b.p.p.`.oX].v.b.D.H.L.D.D./././.G G G h.j.j.j.h.F F F j.j.I I K H H j F j.j.j.z.c.K K K K K K U U K U c.c.c.c.(.(.S.S._.gXZ.Z.Z.Z.Z.Z.U U A.U K K K K K U P P U S.I S.Z.Z.Z.U c.x.(.U (.).).x.(.)._.nX_.nX_.).).c.U U P B.B.U K K K U P U U U K K U K K P P U P K K U U c.c.U U U U U Z._.gXnXnXrX(.(.)./.(.C.(.).^.^.}.1X1X1X>X}.|.|.|.[.[.[.[.[.[.].'.{.}.}.|.{.{.|.}.{.].|.1XwX2X2X,X1X1X^.^.,X^.|.{.{.{.}.1X}.{.'.[.'.`.'.XX].K.J.K.`.].@X.X@X].'.`.[.].[.[.[.[.^.^.[.^.^.^.^._.CX).).).}.-X@X@X@X=X.X:X=X@X@X;X@X@X@XoXoX:X4X4X#X@X+XoX#X@X@X3X3X3X,X6X>X#X{.>X7X5X3X-X3X5X3X5X6XVXCXCXmXnXrX}.[.|.}.,X>X1X1X,X1X}.v.`.XX+X'.+XOXOXXXOXXX-X3X@Xb.K.'.].].[.v.v.XXK.XXOXXX`.`.XXoX;X:XoX].'.[.@X].v.`.p.p.K.K.`.@X@X[.XXXX#X-X].[.#X@X+X+X#X#X#X+XXX;X4X=XoX=X:X@X].`.].@X[.H.L.H.XXXXs.b.[.`.K.b.v.[.v.[.[.#X|.|.}.|.|.{.3X3X>X,X>X,X,X>X,X3X,X,X,X,X<X<X<X<XNXNX2X1X>X,X2X>X,X,X,X|.v.v.v.n.M.3Xn.k.b.v.v.v.v.v.v.v.v.v.n.n.M.|.n.,X<XM.M.,Xn.,X,X,X,XM.v.v.n.k.n.M.M.M.M.M.M.M.M.,X,XM.M.M.,X<X,X,X7X7X,X<X,X,X3X3X3X>X7X,X>X3X3X>X7X3X>X>X,X>X>X>X3X3X>X,XBXDXCX-X#X,X,X<X<X,X|.n.n.n.v.v.v.v.v.n.M.l.l.l.j.z.l.l.z.h.l.n.j.k.j.z.z.j.z.k.j.k.j.k.z.l.n.k.z.l.l.x.",
"B B B ^ B B B { { C C { ^ [ [ [ { B B B C { { ^ ^ ^ ^ >.:.C C ;.[ [ ......;.{ ;.[ ;.>.<. X.Xz.j.:.,.,.f.i.[.3.:.[ ..;.>.2.k.:.} ;.;...,.>.1.;.;.[ ................;.[ ;.;.;.;.^ ^ ;.^ ^ [ [ [ [ [ [ ;.[ ....^ ' ` ^ ^ B ^ ^ ^ [ [ { [ [ ;.;.[ ;.>.>.,.;.....>.f.XXeXrXI I 3.>.,.;.3.:.{ [ [ [ ;.[ ;.;.,.;.;.;.{ ;.>.>.;.{ ;.>.,.[ { ......[ ;.S S { ;.S D D H h f f g g g Z H F j.).).).).^.^.^.^.^.^.^.l.k.k.k.k.2.p.p.2.2.2.h.3.3.3.3.h.h.h.h.h.F :.k.k.l.l.k.k.v.b.v.b.p.1.1.2.p.J.J.L.L.H.H.p.b.2.3.D.D.G G G G F F F F :.F F ;.;.;.:.:.F F F F :.F H j I I I l.c.U I c.c.c.c.U A.Z.S.(.S.U Z.S.Z.U Z.A.U U V.P P P A.A.gXgXA.K A.A.P U U K U U (.c.U S.nXU I z.z.c.U U (.(.(.(.S.S.S.S.nX_.).(.S.U P P A.A.Z.S.A.A.A.gXnXnXnXS.S.nXA.A.A.Z.Z.Z.U Z.Z.Z.S.S.S.Z.U S.S.S.A.A.A.gXnXS.nXS.Z.S.Z.A.nX_._._._._.rX_.rX_.).).^.^.^.^.^.^.|.{.|.1X>X^.|.}.}.1X1X>X,X2XeXBX_.).).).x.x.,X)./.^.^.>X|.,X|.|.].'.'.'.`.[.@X`.J.K.[.oX=X-X|.].`.v.k.^.l.^.v.|.^.^.^.).).).x.x._.l.|.>X3X3X=X@X@X@X@XoX].].oX@X#X@X@XXX@X4X5X1X3X#X@X@X@X@X#X3X3X5X>X>X}.#X#X5X6X6X1X-X1X4XwX6XNXVXBX_.<X,X[.[.[.{.3X3X7X7X7X>X>X3X].`.XXoXoX@XXXR.XXOXXXoX].L.p.`.].v.v.b.L.`.R.K.R.R.J.K.J.K.oX=X@X[.{.[.{.-Xv.v.v.K.XXOX`.K.+Xv.v.XXXX$XoXoX@X;X#XoX=X:X4X@XXXXX@X5X.X@X@X[.L.K.H.oX@X}.-X].[.XXR.i.b.oX[.`.[.@X#Xv.v.v.{.b.n.,X>X}.}.|.|.,XM.,X>X,X,X,X1XM.,X,X>X,X,X,X<XNX<X<X,X>X,X,X>X>X3X,X|.v.n.3Xn.n.>Xb.b.v.[.v.v.@Xv.v.v.v.v.{.n.,X3X,XM.<X,X,XM.>X3X,X<X,X,Xn.v.v.n.n.M.M.M.n.M.n.M.M.M.M.M.n.M.3X3X3X>X,X>X,X<X7X1X3X3X3X>X7X2X2X>X>X>X,X7X,X>X>X>X,X,X>X,X,X,XBXCX_.,X|.M.n.M.M.}.|.{.v.v.v.v.b.b.v.n.n.k.j.k.b.k.j.k.j.j.k.l.j.k.k.k.k.k.k.k.k.n.M.k.k.M.n.j.b.v.n.n.",
"^ ^ ^ ^ ^ { ^ ^ { { B B ^ ^ [ [ [ { ^ { { ^ ^ ^ ^ ^ ^ ' ;.[ { { [ [ [ [ ..[ ^ ..;...<.1.^.rXU h.:.<.2.<.D./.z.:.;.,.;.>.>.k.j.h.>.>.D.2.;.k.2.>.;.;.....;.;.....;.....,.>.;...,.1.;.>.2.;.;.;.;.,.;.[ [ ;.;.,.,.i..Xj.S ;.;...^ ^ [ [ ;.;.;.;.;.>.>.>.>.3.;.,.>.[.ZXGXhXU :.3.2.k.l.j.:.;.;.[ [ [ [ ..;.F D S S S S S S ;.[ ;.;.{ [ { C { { C Z F S C C C Z g Z H I I c.c.z.z.l.^.1X).).l.n.n.b.b.l.l.k.k.k.2.p.p.p.p.b.v.v.v.b.b.v.v.n.[.|.n.k.b.b.b.b.v.n.b.p.H.L.K.K.K.K.K.K.J.H.H.1.L.`./.[./.j.j.I tXG :.:.H Z F F F S ;.S ;.;.[ ;.;.;.[ S F :.:.F D I I U U c._.).).).x.(.).(.Z.Z.Z.Z.Z.Z.A.pXV.U P P P P q P P P P P gXjXkXP V.A.gXgXU U (.(.c.c._.S.S.U x.^.)._.U U (.S.Z.S.Z.A.A.A.A.Z.S.U U U P P P P P P P P V.A._.AXnXS.hXgXpXyXpXP P P V.V.pXpXA.gXV.P P P gXgXpXgXgXMXGXhXhXhXMXgXA.A.gXgXgXnXnXnXnXnXmXmXmXmXnX_.rX_.1X1X).2XrXCX2X2X).2X).).).).2X1X)._.).).).(.mXZXZXCX(.(._.nX_.BX2X^.[.[.].{.[.[.].`.K.K.].@X}.}.|.{.@X#X>X>X,X2X2X}.|.>X>X>X1X1X|.,XCX).,X#X{.{..X=X].@X@X@X=XoX=X-X-X5X=XoX+X@X#X3X5X5X-X@X@X@X6X5X-X-X5X-X.X-X3X5X6X6X1X-X}.3X1X}.}.}.n.|.3X|.v.`.[.[.3X5X6X7X7X7X2X3X{.].`.`.`.`.`.`.XXXX'.`.`.`.oX@X@X[.`.`.J.J.K.`.`.XX`.K.L.b.[.[.b.v.v.b.].{.[.'.'.oXoXv.v.XX$X#X#X$XOXOXT.@X-X5X3X].@X-X3X|.`.K.[.|.1X#X`.].'.R.H.oX@X[.[.[.b.K.s.i.p.`.v.v.@X{.v.b.b.v.v.[.#X7X7XNXVX1X,XM.,X>X>X,X,X7X,X,X3X|.{.@X{.}.,X<X<X,X7X6X3X3X7X3X,X|.{.{.{.3X@X[.n.p.v.v.[.v.p.p.b.n.>X3X#X@X#X3X3X<X<X<X7X>X,X>XM.,X7X,X>X3Xn.n.3X#X>XM.M.}.3X}.3X3X,X,X<XVX6X7X7X7X7X>X>X<XNXNXNX2X>X>X>X|.,X,X,X>X,X<X<X,X,X,X,XM.,X,XM.M.,X<XBX).,X,X,X}.}.}.n.{.n.M.M.l.k.k.k.b.b.2.j.k.l.M.n.k.k.k.l.b.k.k.b.n.v.v.{.n.v.v.n.n.b.b.|.l.n.}.}.}.|.",
"^ ^ ^ ^ { { { { { { { ^ ^ ^ ^ [ ^ ^ ;.;.[ ^ [ [ ^ ........,.;.;.;.,.;.;.[ [ ^ ..;.^ ;.;.h.l.N.} [ >.3.>..X(.I :.>.1.2.:.3.:.} ;.[ ,.1.^.h.:.>.>.,.;.,.,.,.;.,.;.,.;.,.,.>.p.<.3.|.h.:.2.;.,.>.,.>.;.;.;.;.;.>.,.;.)._.I 3.,.;...;.;.;.,.,.>.'.3.S ;.;.>.3.F ;.;.:.I U U h.3.2.k.j.j.j.j.k.k.2.3.;.;.;.C C ;.F D F :.:.:.:.;.;.:.:.:.j.j.h.:.F F F :.:.:.:.F :.h.j.l.^.)._.rX_.l.k.j.j.j.j.k.v.b.v.v.k.k.p.1.p.1.1.1.p.b.v.v.v.b.[.[.`.`.`.`.[.`.[.v.L.b.b.p.J.H.L.J.K.`.`.`.H.H.H.1.D.H.[.[.^.^./.I I I G F h.h.:.C { { { { { { [ [ [ [ ;.>.;.S F F D D H K K K K U (.(.(.(.S.(.S.S.Z.A.A.A.A.gXpXpXB.pXgXpXpXP P P P q A.gXgXpXiXP P K U K U c._.ZXmXS.nXZ.U c.2XmXDXJXkXA.U K U A.P U P P P P U U c.c.U P P B.P P P gXgXpXnXJXMXU AXpXpXq q P pXyXpXpXpXhXiXyXpXV.P P A.gXP P B.iXsXiXhXhXkXhXgXA.gXgXgXgXgXpXgXlXjXjXgXgXgXgXgX_.(.^.^.BXnXrX_.(._.rXrX_.).).^.^.^.^.^.1X(.U MXMXgXS.S._.BXBX_.BX_.,X[.v.].@X}.{.[.`.XXXXoX#X3X3X#X@XoX{.}.|.<XZXCX>X#X3X}.0X1X{.{.^.).,X>X>X4X3X>X|.{.=X@X5XwX5X1X4X}.}.{.'.'.oX;X-X4X5X{.@X@X{.4X5X{.}.}.|.}.#X3X3X7X>X>X2X[.[.@X@X[.@X@X@X@X@XoXoXv.[.3X3X7X1X7X,X1X,X|.`.`.b.b.[.oX[.`.[.[.v.v.[.].[.{.[.].XXK.s.K.oX].[.b.H.b.v.b.'.+Xb.`.R.K.].XXR.`.[.=X-X@X@X5XVXCXVXeXeX4X{.#X1X}.v.b.`.|.|.H.H.`.[.v.[.K.i.H.`.`.[.].K.K.b.b.oXXXp.p.v.v.v.#X[.v.v.[.v.[.#X3X7X<X<XBX<X,X3X>X}.3X3X>X3X>X3X3X3X#X#X#X#X3X3X5X1X7X7X3X3X3X3X#X#XoXoX#X5X@X`.v.+X+X+X[.@XXXK.J.v.3X7X3X@X#X#X>X7X7X7X6X7X3X3X3X,X6X6X1X#X{.}.3X3X>X>X3X,X>X3X7X7X<X<XBXmX2X7X7X7X<X>X,X,X<X<XNX<Xx.,X>X|.^.}.}.,X,X,X,X,X,XM.M.,X>X>X,XM.,XM.,X,X,X,X<X,X|.v.v.b.b.n.M.l.n.n.n.n.n.v.b.n.n.n.b.v.b.b.n.n.v.v.v.v.v.{.3X}.].].[.v.v.[.}.>X,X<X,X}.^.",
"B B B ^ { ^ B { { { [ [ [ [ [ ^ ^ ^ ;.[ [ ..[ [ [ [ ;.,...[ [ ;.,.>.>.>.,.[ [ ;...` ' ^ { } ,.^ ..<.k.:.F h.h.>.>.3.^.j.3.>.2..X/.2.>.f.f.f.i.J.[.3.;.>.>.>.,.>.>.>.>.,.,.2.>.;.:.:.;.[ [ ;.>.>.>.>.>.,.>.>.>.>.;.;.:.:.;.....>.,...,.,.,.3././.I j.G 3.3.j.j.:.F I j.j.j.2.3.3.:.:.F :.j./.l.j.2.k.j.:.3.k.k.j.j.j.j.j.j.j.k.k.k.v.}.1X|.^.k.v.b.k.j././././././././.^.^.^.).z.j.j.j.j.k.l./.k.k.1.1.1.1.1.1.1.[.b.p.p.b.v.b.`.b.v.v.`.b.[.[.[.[.v.v.v.b.J.J.J.K.J.K.H.H.H.D.[.]././././././.j.I I I I F I N.h.h.S ;.{ [ ;.;.{ ;.;.[ [ >.>.,.;.D j h h h h L K K K K U S.S.A.Z.Z.Z.A.P P P P q w w P gXiXpXpXP P pXB.B.pXP P B.P P U c.Y F N.h.I S.U I I L I c.(.gXhXkXfXpXU K A.gXU U U U P K U _._.nXgXP P P P P B.P A.A.AXLXGXB.kXiXB.P pXpXiXiXB.P P gXiXpXiXpXgXhXiXiXpXiXpXpXpXP hXhXsXiXyXgXhXhXgXiXlXiXlXiXuXiXiXiXpXpXpXgXA.A.S.nXgXmXmXA.S.nXnX(.(.).^./.^.^._.nXnXS.A.U U _.BXNXNX).).).).,X}.{.{.>X6X1X|.[.].`.`.oX#X}.#XoXoXoX{.=X}.6X,X3X7X6X5XeX1X|.{.[.|.}.^.).2X).^.^.^.|.|.1X>X}.|.{.|.{.{.`.[.@X4X4X5X3X{.@X@X].].{.-X5X#X#X3X3X#X#X#X3X6XCX|.{.-X4X5X6X6X5X5X3X5X5X#X3X5X3X7X6X7X,X2X1X^.k.[.v.v.v.v.v.v.v.[.v.v.v.[.v.@Xv.v.[.K.s.p.b.b.p.p.K.`.b.K.XX+XXX&XXX'.-X:X].6XCXJXDX2X,XZXLXLXLXJXZX1Xp.{.n.v.b.p.p.}.|.[.b.v.`.f.J.i.s.s.`.@X[.].@X@X+X@X#X@X[.v.@XoX#X@XoX[.[.[.oX#X3X3X3X3X>X,X>X3X5X3X3X3X3X>X}.#X3X5X3X3X3X4X-X5X3X3X6XwX1X1X5X-X#X#X#X#X@X4X6X-X=X4X:X;X-X5X5X3X#XoXoX-X3X3X5X5X5X5X3X>X7X6X7X7X1X6X7XNXNX,X,X3X>X,X<X2X,X,X<X).,X,X<X<X<X<XS.2X7X7X7X,X,X,XM.M.M.,XM.M.M.M.M.M.|.[.M.M.M.M.,X,XM.,X>X>X>X,X,X,X,X,XM.M.<X,Xx.M.n.v.v.k.b.M.M.M.n.n.n.>Xv.v.n.[.v.v.v.v.[.n.n.[.}.}.}.}.#X,X|.|.|.|.|.|.n.,X).).<X,X).x.",
"B B ^ ^ { B B { { C { [ { { ;.,.,.,.,.;.;...;.;.{ { [ ;.,.j.:.{ [ ;.;.;.2.[.3.3.p.i.p.3.;.,.i.D.S ;.2.3.C :.>.p.f.;.:.h.3.>.3.^.).,Xv.p.f.i.i.L.1X^.j.3.,.,.;.-.,.>.>.>.<.<.<.i.p.2.<.<.,.;.,.>.>.>.,...>.>.>.>.,.,.,.,.....,.>.3.3.3.3.2.j.j.c.c./.^.).).).).).(.S.(.c.l.j.2.1.k.k.j.k.l.)././.^.k.^.^.k.b.`.^.^.l.k.k.k.k.`.`.p.b.[.^./.^.|.|./.j.j.G I I I I I /./.l./././././././.^./.C.C.j.j.j.2.2.G j.k.k.k.k.1.p.b.b.b.p.`.{.v.b.b.K.b.b.p.v.v.v.b.K.`.J.p.1.H.`.L.1.L.[.k.k.j.j.k.l.l./.l.j.j.j.h.h.h.h.:.S F S >.>.;.;.;.;.[ ;.>.;.;.>.D H H Y Y Y I I I I U (.(._.U K K K K K L 0 7 0 0 L P gXiXyXpXiXhXyXr q w 0 gXgXK I z.z.h.F Z Z C F F h.I K Z.Z.S.gXP P gXpXP U A.gXgXP B.gXgXK gXMXJXPXhXgXjXgXgXB.P P K U MXKXHXr iXsXyXpXB.pXiXiXB.pXjXhXiXB.iXiXhXMXMXhXhXhXpXB.pXiXkXfXaXaXuXuXfXzXfXfXsXt r q r t yXpXr pXpXpXiXiXgXgXhXkXkXlXiXiXgXA.A.Z.S.S.Z.S._.nXgXgXmXnXBXBXBXNX2X<X_._.,X>X,X>X1X1X6X1X>X>X5X1X[.`.|.2XZXeX{.@XoX@X{.6X>X2XDXZX1X^.[.[.[.[.|.).).rXCX_._.)./.^.|.1X^.b.[.[.].{.{.[.].3X6X6X6X3X{.{.-X.X1X5X1X5X}.#X3X3X3X7X3XNXNX2X1X6X6X5X1X6X6X1X1X3X3X5X5X5X1X>X1X1X1X,X<X_.).^.>Xv.v.b.b.`.`.b.+X`.b.b.b.v.v.v.v.+XXXJ.J.b.b.p.J.K.v.[.].+X@X{.5X1XeXZXCX}.ZXPXKXGXnX).AXMXcXMXBX>Xv.v.v.[.v.p.s.p.#X|.}.[.v.p.i.J.i.s.s.K.{.|.{.{.#X].@X#X].@Xv.@X#X@X#X#X#XoX@X#X#X5X4X6X5X3X3X5X5X5X3X5X3X.X@X5X5XqXwX5X5X5X4X:X4X5X5XwXwX1X6X6X4X4X5X4X-X#X5X6X6X6XwX5X1X1X2X1X-X5X-X=X-X3X1X1X1X7X3X,X>X2X<X<X,X,X,X<X<X<Xx.M.M.M.).BXBXx.x.).<Xx.x.<X,Xx.nXJXCX}.,XM.,X,X,XM.M.M.M.M.M.n.n.,X3X}.|.|.|.n.,X>X,XM.,X,X,XM.M.).).x.).1X#X3XM.M.M.M.n.n.n.n.M.M.M.n.v.v.v.v.v.n.|.[.v.v.[.].}.3X>X>X1X>X>X|.^.|.^.^.|.|.|.n.l.x.).).).x.x.",
"B C { { C B B { S { { { :.S C ;.>.2.k.k.F ;.3.3.S { { ^ ;.3.:.S { [ [ ;.>.k.j.3.2.1..X^.h.:.1.).j.h.3.2.3.3.;.>.[.5X^.l.l.k.[.:.:.2.|.eX).eXeX^.)._.(./.D.3.3.3.F ;.3.:.:.2.<.H.'..X.X.X[.k.1.1.p.i.<.G.2.D.D.2.2.2.1.2.<.D././.^.^.^./././.k.^.).l.).).).).).(.S.(._.S.I I /./.^.^.).).c.l.j.l.^.k.b.`.D.D.1.1.2.k.b.b.1.1.1.1.H.D.1.p.p.1.k.^./.C.I j L L L L L I j.j.G G j.j.j.(.(._._.S.Z.I I I j.l././.h.j.k.k.k.b.p.`.K.K.@X4X{.].`.L.`.`.`.v.[.b.H.L.'.`.`.H.L.`.`.H.H.k.k.k.k.h.k.3.h.k.k.k.k.k.k.k.3.h.F F F S :.2.>.3.3.>.>.>.>.,.,.3.:.F F N.N.h.j.:.j.j.z.I I I I I I K K K L Y Y K U A.gXgXiXpXq q P q P P L g U U I h.h.h.F Z C S F I C.(.S.U S.nXnXA.P A.gXgXgXgXP A.gXgXP gXhXP pXkXvXvXaXpXgXiXlXiXB.P P P iXkXaXr B.iXuXuXiXyXiXhXiXkXPXHXxXyXpXP P gXgXpXhXkXiXP P pXhXfXyXyXuXuXuXuXy y r r pXB.q q pXpXyXyXiXyXq pXgXgXgXgXfXiXB.pXgXgXgXgXgXgXA.A.nXAXAXAXMXMXMXZXJXDXCXc.(.(.).,X)._._.,X,X3X3X,X).).^.].1XDXLXMXrX5X5X1XeXZX_.nXJXjXI 2.p.L.b.l._.nXnXnXnXnXnXS.(.^..X1X1X[.[.b.v.{.{.[.@X3X6X6X6X7X{.].@X|.6X6X>X}.#X3X5X2XDXCXBXZXDXCX3X6X5X3X3X3X3X3X5X3X3X>X>X>X1X,X,X1X,X<X6X_.2X1X1X|.`.R.T.XX+XR.XXK.R.U.R.XXXX+XXXoX`.K.K.K.v.[.K.'.{.5X|.>X|.l.,X).nXMXZXl._.MXPXMXU l.l.c._.SXFX^.[.].v.v.v.K.s.p.k.b.v.n.[.p.p.XXJ.s.U.J.`.{.{.#X3X#X].oX[.oX@X#X4X3X5X#X#X@X#X#X#X5X6X7X7X6X5X6X5X4X3X5X4X4X5X6X6XVXVX6X5X5X5X5X:X5X5X6X6X6X6X6X6X1X1X1X1X>X3X5X6X1X).>X>X2XVX1X1X5X|.}.}.|.1X,X,X,X,XM.,X,X,X<X,X<X,X<X).).x.l.l.l.x.<X).<X<X<X<X<X,XM.<X<XAXMXU ).).x.x.,XM.M.,Xn.n.n.,X}.}.>X,Xl.M.|.|.^.|.M.M.x.x.x.x.,Xn.n.M.nXZXCX.X}.,XM.,XM.M.M.n.M.3X3X3X#X{.`.v.#X@X[.n.}.}.|.[.[.|.|.|.n.n.l.l.^.^.^.l.^.}.|.k.k.n.,X).x.<X<X<X",
"C x B B x C C C B C C C F F C C C F :.j.I h.h.j.:.S S ^ ^ { { [ { { [ [ ..;.;.;.>.3.k.z.h.:.:.h.h.F :.j.h.F S ;.;.k.z.h.h.h.k.1.2././.S._.nXmXnXnXnX_._._.z.G h.F Z :.k.j.j./..XrXnXrXrX(.).).).eXeXrXeXCXrXrX(./.^.^././.^.).(.c.l.l.^.^.l./.^.2XmXS.2X2X2X2XFXjXgX_.Z.Z.C./.^./.l.^.l.l.^.^.|.^.k.k.1.1.1.D.D.^.|././././.l.k.].^.k.k.2.D.2./.).rXS.U L h g h j H F F F F :.j.h.j.l.).(.S.Z.U U h.h.z.).).l.k.b.v.b.[.`.`.K.J.[.}.|.[.].K.K.'.[.`.`.`.L.`.`.K.p.2.2.2.k.1.[.^.[.v.b.R.`.b.j.l.k.k.^.v.v.[.v.k.j.h.F F F :.3.F 3.:.;.3.>.>.3.:.3.S C } :.3.:.S :.h.h.j.h.h.h.h.I K K L L Z.S.gXgXgXhXhXP 0 0 L P P P K j Z F N.h.N.N.N.:.N.Z F h.c.Z.Z.U K U S.gXP A.A.A.P P P P B.gXpXq pXiXpXP B.pXr B.B.pXpXpXiXhXgXP P B.q 9 w B.hXiXiXuXsXyXiXhXdXdXaXuXyXpXB.P P P P gXpXB.P A.P gXiXq P pXpXyXq w q pXyXpXyXt pXiXiXyXy t P P gXgXgXU U gXgXgXnXAXMXAXgXA.A._.ZXnXnXgXjXhXMXSXPXPXGXMXP S.nXnXBXnXnX_.).,X6XBXBX(.(._.2XrXmXMXnXNXVX2X^.,X).)._.nXU z.k.L.{.}.2XnXnXS.(.).nXnXnXBX2X>X|.}.|.[.`.`.v.[.oX@X3X5X6X6X1X@X@X@X#X5X1X5X-X#X3X5XCXPXMX_._.MX_.>X>X3X3X3X5X6X6X1X3X3X3X3X3X3X7X<X<X<X<X>X}.|.>X6X-X+XOX+X$X;X@X.X5X-X;X=X5X5X@X].[.].{.@X@X@X.Xv.v.|.)._.ZX).z.2X<Xc.ZXZXk.M.<XnXc.l.n.b.k.BXPXMXz.#X{.v.v.{.;XJ.R.K.p.b.}.3X@X+X+XU.J.U.U.XX+X`.[.@X#XoXoX#X;X=X5XwXwX5X.X=X-X-X:X5X5X6X5X5X6X6X6X6X6X5X5X4X4X5X5X1X2X2X2X3X3X5X5X3X1X1X6X6X7X7XNX6X>X[.}.1X,X>X>X>X|.[.|.|.,XVX2X^.,X|.,X^.^.n.,X<X3X,XM.,X3X7X<XM.M.<Xx.x.x.x.M.M.M.M.x.<XNX<X<XNX<X,X<XNX<X<Xx.x.).M.M.,X<XM.M.,Xn.n.n.,X,X,X,X,XM.n.v.v.v.v.n.M.M.x.M.>X,Xn.v.,XAXMX(.|.,X,X,X<X,X7X7X7X6X1X}.}.{.{.{.{.}.[.v.n.|.|.^.|.{.|.{.[.b.b.b.b.k.k.j.l.,X|.k.z.n.,X,X).<X<X<X<X",
"B z m B B m m C x C C C B x C C B C C Z F Z Z F :.F S ;.,.[ { ;.;.{ [ [ [ ,.;.;.>.3.h.j.h.} ;.3.:.S { [ ;.;.;.;.;.>.} [ ;.,.2.]..X^.(.I h.z.z.I I I h.h.3.:.;.;.;.;.;.;.:.:.:.:.I U U U U S.(.S.C.S.S.S.nX_.S.(.z.k.j.j.h.j.z.).).).^.^.^.l.j.k.).mX_.)._._._.mXhXA.Z.S.(.S.(.c.x.(./././.^.^.^./.j.2.1.2.2./.^.1XrX_.).^.^.^.).).).)._.(.(.(.).(.(._.S.U I F Z Z C D F :.:.:.:.} h.j.h.:.h.h.h.z.^.l.k.k./.k.b.b.v.v.v.`.H.H.H.b.b.|.].{.{.[.[.[.D.].5X^.k.[.'.[.k.|.k.k.2.k.j.k.b.T.U.XX2X).l./.^.^.b.[.].@X|.|.^.j.j.h.h.F F ;.>.2.:.F F F D D D ;.>.>.>.>.:.h.F F G F I I I L S.gXU A.gXgXgXhXSXGXxXiXpXP Y L L L K I h.} :.:.F h.h.x.z.h.h.z._.S.c.c.).(.U A.U U gXnXU P B.P gXhXpXP pXB.B.P P pXpXB.gXnXgXgXhXkXhXiXpXP P L L pXhXyXr w yXB.B.iXyXy uXaXdXfXfXhXiXpXiXhXiXB.V.P K V.P 0 L K P A.pXq w B.pXq q r r q B.pXyXiXhXMXAXMXMXnXnXnXmXnXgXjXAXmXgXgXA.A.jXgXgXgXA.S.U nXnXB.U _.nXAXAXMXAXnXnXmXnXZXPXGXkXgXgXMXMXnX(.nXAXBX,X|.2X,Xn.|.).).).}.|.[.n.<X<X<X).^.<XBX_.,X,X,X|.[.[.[.@X[.L.R.oX0XwX#X#X4X|..X-X].@X@X-X3X}.1X5X5X3X3XNXmXnX,X,X_.).>X3X5X3X3X3X1X1X1X6X7X6X6XVX6X6XNXNXVX6X{.{.{.5X1X.X=X%X@X@X-X|.2XCXrX2XBXCXBX,X|.v.[.[.v.v.oX{.{.|.l.,X2X_.^.k.l.x.).BX1X2.b.v.b.b.v.v.v.{.,XnXBX<X3X{.@X[.}.4X@X+XU.s.T.+X@X+XoX+X+XoX;X=X&X+X#X#X-X#X-X:X;X@X;X4X5X6X-X;X:X4X5X5X5X5X0X4X5X4X5X1X5X5X-X5X5X5X5X5X5X2X2X3X3X3X3X3X1X1X1X6X1X>X1X2X3Xn.v.{.>X>X<X2X>X|.}.@X#X3X,Xn.n.n.M.n.b.n.|.,X3X3X>X3X,X,X<X<X,XM.,Xx.x.<X<XM.M.,XM.<X<X<XnXnXBX<X<X<Xx.x.<Xx.M.M.M.M.M.M.M.M.>Xn.v.v.v.v.v.n.M.M.v.v.[.{.v.[.n.,X,X,X,XM.|.}.M.<X_._.2X<X<X2XNXNXNXNXBXBX<X,X3X}.}.3X1X}.v.v.v.[.v.n.|.}.|.1.p.b.1.2.k.j.j.k.l.|.k.z.x.M.,XM.x.<X<X<X<X",
"C C B B m ] { C C C m ] ^ { C m B ^ { C { { B B B { { ^ ,.[ [ ;.{ { { ^ ^ ,.,.;.;.;.} { { { ..^ ;...^ ^ ....<.,...g.f.g.g.g.g.i.2.k.h.m.f.p.m.f.f.f.f.p.R.R.K.XX X'.1.2.k.|.h.>.,.3.3.k.j.j.j.h.j./.I I h.m.m.:.:.h.:.F F } } h.j.:.:.j.j.F F :.j././.).(.(.(._.A.Z.c.x._.(.(.x.x.^./.^./.k.k./.I I I j.j.j.I C.C.C.z.l.j.j.j./.c.c.(._.rXS.S.c.c.x.).(.(.^.l.j.j.j.j.j.j.j.j.h.j.k.j.k.k.2.p.b.b.v.v.b.L.1.1.1.1.1.k.k.^.k././.k.k././.|.3X3X3Xn.n.k.<X_.z.k.1X_.F j.j.^.j.j.j.k.2.{.VXDXnXU U k.^.2X^./.|.|.^.^.^.|.,X,X|.l.k.k.k./.k.F Z C D F D D F S :.3.).nXK j H I L L K Z.jXjXgXhXMXMXcXkXdXdXkXGXkXP I S.gXA.S._.z.l.x.).l.z.x.x.x.<XNX).).).x.,X<X).x.c.c.U nXmXZ.K U P pXpXpXgXgXP P gXA.B.gXgXMXGXgXkXhXfXiXq e P gXP P B.pXpXP pXpXpXhXcXsXdXdXdXaXuXiXfXfXsXhXhXsXyXiXhXgXP V.A.P P P A.P P P gXpXP P q P P P pXhXhXhXhXhXhXkXkXkXjXkXMXgXgXgXB.gXgXP U U U U U _._.BXAXBX_.MXJXAXMXAXMXDXnXgXSXMXGXSXhXgXgXnXAXnXnXZXLXKXGXS.).eX2X|.-X1X|.[.|.^.1X^.^.|.}.^.,XNXZXmX[.`. X=X$X$X].-X-X{.oX@XVXCX}.+X:X}.|.-X].].}.{.|.[.|.1X1X^.}.>X1X1X}.|.,X>X|.|.3X3X3X5X6XwXCXCXVXCXZXZXCXVXCXCXCX2X^.[.|.}.^.^.[.[.|.|.k.|.^.^.^.).NX2X<Xn.v.[.@X@X[.b.v.,X3X@Xk.).6Xb.p.b.b.v.}.,Xv.v.[.v.`.@X@X#X#X3X3X7X7X<X3X7X6X1XVXZX6X#XOXW.T.OXOX%X$X=X:X:X:X:X:X0X0X-X4X4X5X:X;XoX@X@X}.>X1X4X1X1X6X6X6X5X4X-X5X6X6X6X6X5X-X3X1X6X1X3X5X2X1X3X3X1X3X3X3X,X,X,X,X,X5X>X>X7X6X-X{.}.n.>X>Xl.3X#X[.-X}.v.v.n.n.v.n.,X<X,X).>X>X>X,X<X<X<X,XM.n.M.,X<X<X<X<X7XM.x.<XBXBXBXNX<XM.M.M.M.<X<X<X7X,X,XM.M.3X3X3X}.@X@Xv.v.v.n.M.|.{.v.@X@X[.[.}.,X,X|.,X>X#X#X>X7X7X<X<XNXNXBXBXBXnXBXNXNXNX2X,X}.}.7X>X[.v.v.v.[.[.b.k.k.j.2.b.k.2.j.k.l.k.b.b.v.n.M.M.M.,X,X,X,X<X<X<X",
"C C m ^ ^ ^ ^ C { [ ' ` ^ ^ B B ^ ^ [ [ [ ' ' ' ^ ^ ^ ' ' ' ' ....{ [ ....^ >.>.;.{ [ [ [ ;.%.,.>.;.....=.=.0.i.2.<.f.f.f.y.0.f.1.b.b.f.d.U.v.oX{./.3.2.=X0X^..X0X1X^.k.v.v.`.v.XXD.k.k.p.3.3.k.k.k.j.j.k.[.4X.XI F 3.:.D ;.,.3.3.3.3.;.:.:.F F :.j./.(.S.I F F h.F h.h.I U I x.,X/.j.j.j.k.D.j.G /./.l.l.k.j./.C.Z.U I z./.^./.z.j.k.^.rXrX(.^.^.).^.^././././.l.k./.^.^.|.^.l.^.^./.l.l.[.v.`.@X#X|.k.[.[.k./.^./.^.^./.j.F F F F F C :.|.6X6X,Xn.m.k.z.h.m.2X_.F rXI I j.l.3.j.j.z.DXPXkXP S.z.l.VXrXl.^.2XCX^.^.M.n.k./.|.>X>X>X>X^.k.h.:.:.F H H F F F F ^._.L g g h U U U nXgXhXSXSXkXzXfXpXw P gXhXgXU c.(.nXS.U c.x.<X<XBXnXnXBX<X<X2XNX_._.).).CXDXnXx.<XBXnXc._.S.).x.(.S.U P U U U U nXnXgXgXA.hXGXiXhXhXgXA.0 L gXhXiXiXpXP P gXB.q B.r aXaXdXsXdXsXhXkXxXxXkXxXkXiXuXiXgXiXpXpXgXhXhXhXMXhXP gXjXhXgXpXgXgXiXpXgXkXkXkXkXkXkXhXhXkXhXhXMXnXgXnXgXnXnXnX_.nXnXnXMXJXMXJXPXSXAXMXGXnXMXCXnXmXnX_.CXnXAXgX_._.).).x.,X).ZXGXMXgXU }.5X>X[.|.}.}.[.[.|.6X1Xb.`.].6XCX_.mXCX}.:X-X{.[.=X=X.XwX3X.X1XZXJX).[.5X|.^.[.b..X5X[.|.].^.^.^./.^.|.|.}.}.].|.}.|.|.#X3X7X>X,X,X7X3X<XNXCXCXNXCXZXZXCX_.).^.^.^.^.l.|.].{.l.,X#Xv.p.[.#X3X}.v.+X+X#X:X:X#X+X{.CX>Xb.m.ZXDX[.U.s.p.].@X[.b.5X{.n.1XCX>X3X3X6X6X7X7X2X6XNXNXVXCXCX5X:X$X*XT.&X&X;X:X:X4X-X=X#X1X0X4X=X;X.X}.=X@X'.@X{.5X5X1X6X1X1X6X1X>X}.|.1XwX6X2X6X6X3X3X3X1XVX6X5X6X6X5X3X2X2X1X,X3Xn.3X,X,X>X-X}.>X3X1X|.[.oX[.@X{.3X>X}.|..X{.[.|.>Xv.v.}.,X<XNX<X7X,X<XNX<X<X,Xn.M.,XM.M.M.<X<X<X<X<X<X<X<XNXNXNX,X,X7X,X7X7X7X7X7X>X>X,X3X7X6X3X}.#X@X[.[.@X3X>X}.{.@X{.[.{.}.}.}.}.}.1X5X}.{.}.>X,X,X<XNXBXBXNXBXBXCXNXNXNX<X<X>X}.,X[.v.[.v.n.}.v.k.k.k.k.k.2.m.k.k.k.|.b.v.n.n.M.,X|.,X,X,X,X<X<X<X7X",
"] ] ^ ^ ` g.;.C [ ;.f.f.p.;.S C ^ ^ [ [ [ g.f.<.<.2.1.>.>.p.p././.:.;.,.>.{ ;.>.2.p.2.h.3.>.>.L.^./.:.C ;.>.*.p.:X.X2.K.8XqXeXrXrX2Xn.4X.X^.0XqXCXnX(.3.k.eX2X2XBX_.l.k.v.v.XX:XeXrX(.^..X).^.[.[.^.j.:./.1XmXDXgXI k./.:.;.<.{.|.^.k.b.b.h.:.j.h.:.l.l.c.j.j.:.F :.k.z.^.c.j.j.rXnXU I z.z.j.j.F F I l.(.rX(._.S.K K z.l.z.(.I I :.G F I I j.I h.z.l.l.h.j.F j.j.j.j.j.:.j.k.^.j.^.^./.^.^.,Xl.2XZXFXA.I ^.h.h.k.h.h.h.j.j.:.F Z C C { } k.DXJXLXJXJXZXmXz.l.BXmXU S.U I l.mX(.I j.k.(.gXgXU ).n.n.<XBX_._.(.nX_.<XNXCXS.c.^.^.}.2X1X^.>X|.|.|.k.:.:.z.h.h.h.h.h.Z Z Z Z h.z.z._.S.A.B.gXB.P K K I U U x.x.<X<X_.nXnXx.<X6X_.S.nX_.(.BXCXBXBXBXnXmXnX_.ZXPXMX<XCXJXJXMXCX).<X<X_.).x.c.BXBX_.nXnXnXmXmXjXP AXgXA.S.(.Z.K gXgXfXyXB.gXhXP kXiXP hXB.r yXuXaXhXhXkXcXkXsXkXkXhXhXiXhXgXiXhXgXgXgXgXhXMXMXAXMXMXMXAXjXgXgXgXhXMXMXkXcXSXkXhXMXAXAXAXMXZXnXBX<XBXBXNX<X2XBXBXBXZXMXAXAXAXZXnXBXBX<X2XBXZX_.2X,X<X_.<X,X,X>X|.[.[.>XCXBX_._.).>X1X-X}.].[.'.[.{.@X|.|.5X5X-X].2X2X^.>X1X1X}.1X|.|.1X>X>X2X3X7XBXMXMXC.[.}.|.[.v.b.[.^.^.).).(._.nX_.).^.^.^.{.{.[.[.|.|.#X>X>X>X3XNXVX7XVXDXDXCXrXBXAXnXnX_._._.).<X)._.VX5X3X|.6X5XR.XX=X4X-X4X2XCXwXZXJXZXwXVXVX2X].oX>X2X,X|.0XVXDXJXJXCXVXVXCXCX1X6X5X5XNXJXDX6X6X6XCXCXVXwXwXwX0X0X4X0X:X&X+X:X0X.X-X-X@X3X1X3X.X@X#X|.].-X.X.X5X5X3X>X7X7X1X1X1X1X|.v.[.}.3X7X1X1X1X>X1X3X,X1X<X7X2X1X>X,X,X,X7X,X}.|.5X5X>X5X3X3X3X,X>X|.}.3X#X@X[.[.|.,X}.v.#X@Xv.n.n.n.3XM.<X7X<X<XM.<X7X<X<X|.v.n.M.M.M.M.,X>X>X,X<X7X7X>X<X7XNX1X,X7X7X7X7X7X>X3X3X7X7X>X6X<X,X>X>X}.|.{.@X[.}.{.@X3X#X@X@X{.|.,X3X>X1X}.v.{.}.3XM.,X<XNX<XNXBXBXZXAXNXNX<X<XNX<X,X>X{.k.b.n.n.n.v.k.k.b.3.k.p.2.b.k.n.n.n.n.k.l.M.>X,X>X,X,X<X7X7X7X6X",
"^ ^ ..;...f.1XI Z h.2.[.1XrXU I ;.[ 3.:.} ;.>.[.^.C._.2XI /.).(.(.z.} ;.;.[ ;.[ ;.3.:.:.:.;.;.2.3.j.h.:.[ [ $.<.[.|.2X_.nXMXGXMXhXnX).CXJXZXZXDXGXgXnXl.:.3.n.>XNXNX).}.@X.XeXDXJXGXjXmX_.ZXnX(.1XCXCXrXI /.I S.nXc.l././.j.k.[.}.^.l.|.2X/.G I j.j.j.j.l.j.j.j.j.j.k.z.I z.j.j.I _.U I l.l.z.x.l.h.z.z.I (.S.nXmXP Y h.h.F z.h.F F :.h.F C S S F h.h.:.F h.F F Z Z h.j.F F F _.I S.nXS.(.l._.ZXMXFXGXiXU ).z.l.j.3.>.2.2.p.k.k.k.3.3.:.^.I U MXGXPXPXHXGXgXS.MXIXmXS.I h.h._.nXK j.k.j.I c.).).x.,XVX).).x.x.)._.(.nXmXgXc.l./.^.NX_.)._.2X1X^.,Xl./.).).2Xl.j.k.l.h.h.h.z.,X2X_.).(.c.).c.).x.x.x.x.BXJXMX(.BXnXAXCXBXBXJXMXU nXc.c._.AXMXkXGXkXhXAXnXnXnXZXCXZXnXnXnX<X<XZXZXBX,X<XBXmXCXnXc.).nXMXmXjXU A.MXMXS.Z.Z.K U A.P pXkXkXMXyXiXhXhXhXhXB.B.pXiXiXpXhXhXB.P gXkXhXkXP gXgXU _._.(.U U c.nXBX_._.nXAXAXAXZXAXAXZXZXAXZXZXmXnXAXZXAXAXBXCXBXNX<X3X<XDX_.>XVX2X<X1X2X2X6X,X2XDXAXBXNX7X3X,X<X,X,X,X6X,X|.3X>X{.[.{.2XCXGXgX).2X1X1X1X^.|.|.[.[.].5X1X|.2XCXCXVX|.}.|.}.}.}..X^.}..X}.VX<XmXJXDXZXmXMXU k.b.[.|.-X>X)./.).<XBXnXnXnXnXnX_.).|.v.v.[.v.[.@X@X3X>XNXZXCXDXJXAXZXJXMXmXnXnXAXnXnX).,X).).).BXZXZXZXVXVXDXZXCXDXJXDX2XCXJXGXnXZXLXGXFXPXPXmXqXeXJXJXCXeXJXLXPXGXGXGXJXZXmXCX6X6X6XCXZXDXCX0X6X6XVXCXVXVXVXVXVXwXwXVX4X;X@X@X4X.X#X3X-X3X3X3X.X@X#X|.[.].{.{.|.}.|.n.7XNX,X}.-X>Xv.v.@X3X7X6X7X1X>X3X>X3X3X3X3XNXNX2X3X}.}.6X6X7X7X1X3X>X>X1X>X3X>X,X3X,X2X3X>X{.oX[.v.3X}.v.[.v.[.@X@X3X3X,X7X3X3X7X3X>X7X<X7X3X|.n.3X7X7X3X3X7X7X7X7X3X7X,X7X7X7X3X3X7X6X7X,X3X3X3X<X7X7X>X<X<X,X>X}.{.{.}.#X{.|.{.@X}.#X@X[.].M.3X6X>X>X}.|.{.}.3X,X,X<X<X<XBX<XnXBXBXBXNX<XNXNX<X<X,Xn.k.b.n.k.k.b.j.k.b.k.b.n.v.b.k.k.n.M.k.l.|.>X>X>X,X,X<X2X7X2XNXNX",
"{ [ ;.[ { ;.z.U N.F { C D U I N.C ^ ;.:.F { { :.z.I F z.I F F :.h.h.N.} [ ,.>.;.,.{ C ;.[ [ ,.,.;.;.;.;.;...%.>.k.j.).c.I I U U c.z.j.z.nXMXgXMXcXP I z.k.<.p.[..X6XVXeXeXCXMXMXMXkXjXgXS.S.gX(.)._.gXnXZ.I G I (.c.^.^.l./.|.1XrXZXrXU nXMXA.I h.j.j.j.l./.j.:.h.h.j.j.I I l.l.(.U I z.h.F F F :.h.:.h.F I K I K L I F S S D h.h.h.:.:.:./.:.C F j.F D F h.h.F Z F k.).I F F I I I ).(.c.h.I nXS.A.gXU I l.(.x.j.n.|.|./.k.^.k.l.^.j.D j.z.I H U nXA.U U I I I I U c.h.k.:.:.I H h.h.j.j.h.(.mXS.CXJXJXFXMXnX_._._.nXU nXc.M.|.l.).<Xx.).x.M.l.z.z.l.).(.BX(.j.l.).).I z.x.,XBXCXnXc.z.CXmX_.CXZXZXnXBXJXGXgXnX_.nXnXBXZXGXfXgXc.BXnXBXSXMXgXkXkXgXnXmXMXSXPXPXLXGXAXCXCXZXMXGXAXBXZXZXMXFXmX_.).<XZXgXU S.P hXMXgXZ.Z.K U gXP P hXiXiXhXiXhXhXpXhXpXP gXgXgXgXgXgXnXS.gXMXhXkXnXAXnXx._.(._.).).2XNX,X>X|.}.NXCXnXBXBX_.BXCXBX_.<X).).BXBXBXZX2X>X6XCXeXVXNXZX_.>X,XBXCX2X2XVX2X1XCXZXZXJXJXDX_.1X).).).).2XBX2X_.CXrX^.rXmXA.gX(.).2X6X).,X,X}.^./.b.].1X1X).).2X_.BX^.|.3X>X1X|.k.^.1X6X).).BXZXJXJXMX).).|.[.|.[.}.6XBXmX_.).<XBX_.).).<X<X,X,Xv.v.v.`.[.[.@X>XCXVXBXmXZXMXPXSXMXSXAXnXBXBXnX<X<XNXNXNX<X<XDXMXGXLXDX_.ZXGXPXPXGXMXMXJXGXSXBX6XJXPXMXAXMXFXrXCXJXDXmXZXZXZXZXAXBXnXBX<X).NXCXVXwXCXZXCX2X0X5X6X6X6X2X6X6X1X2X1X6X6X1X[.[.|.{.{.#X3X#X@Xn.,X>X[.@X3X].v.v.v.{.}.5X#X7XNX1X3X@X{.[.@X-X3X7X,X1X3X3X6X6X7X3X3X3XNXBX2X>X#X}.3X7XNX7X6X1X>X>X3X}.#X|.3X|.3X2X|.7X3X@XoX].@X#X#XoX`.+X+X@X3X3X7X6X7X5X3X3X>X7X7X7X7X7X3X7X6X6X7X7X7X7X6X7X7X7XNXNX7X7X5X7X7X3X3X3X7X6X2X<X7X7X,X>X>X>X>X,X}.{.{.{.{.{.].].|.|.`.[.{.M.,X>X,X>X|.v.v.|.>X,X,X<X<X<X<XBXBXBXBXBX<X<X<X<X<X<Xx.b.b.b.k.k.k.v.b.b.k.j.k.v.v.v.n.n.,X,X,X>X>X,X>X,X,X2X6XNXNXNXNXNX",
"N.C { { { [ ;.F :.:.[ { { C } } { ^ { C C { { C F F C { } C { { ;.;.[ ;.;.,.>.>.2.:.;...,.;.;.;.,.>.3.>.>.0.<.2.2.k.j.h.:.:.:.:.>.<.>.3.h.l./.(._.c.m.f.<.i.J.'.{.1XeXnXBXnXS.(.U Z.z.z.(.(.z.z.h.I I I z././.j.j.^.^.l.l.j.j.rX_.S.S.I I S.Z.I j.j.j.j./.C.I I I j.j.k.k.j.j.l.).I j.j.j.h.F F j.z.j.j./.j.I I H I h.j.F S F F h.h.h.F D I I H C F :.C :.z.F S S F F } h.j.j.h.k.h.:.z.z.j.z.l.I j.j.j.j.l.c.I h.l.6XCXmXI I z.j.).(.H c.).z.j.h.h.I z.z.j.k.:.F F h.k.3X2Xl.j.h.h.k.k.l.h.I I I (.jXkXkXhXS.(.(.c._.U mX_.x.NXBXBX<Xx.n.n.BXDX_.z.,Xx.h.z.c.l.,X_._.c.c.x.,X).mX_.(.z.CXmXgXSXPXGXGXDXMXPXMXnXBXMXMXJXGXGXSXMXnXZX_.BXnXnXgXnXhXgXnXmXGXMXkXkXGXGXGXGXSXJXhXSXGXJXMXmXMXMXAXmX2X2XJXMX_.(.(.gXgXgXgXZ.K K gXgXP gXB.B.B.B.AXgXpXgXhXP nXnXA.A.nXnXnXnXgXgXgXnXBXZXJXAXnXA.rXnXmXnXmX_.BX2X_.CXmX2XVX2X2X<XBXCXNX>X|.|.|.2XmXDXCXmXJXmXS.ZXJXJXMXZXVXCXCXZXZXMXmXmXZXGXKXPXHXGXjX_.S.mX_.(.S.mXmXnXAXgX_.S.gXgXnX).^.,X2X).|.|.1X)./.[.{.,X_.CX>X^.|.,X,X).).x.^.^.^.[.>X^.2X).BXBXZX(.^./.{.'.{.}.|.oX[./.).2X<X,X>X3X3X|.,X,X{.v.b.].oXoX{.|.1XrXZXmXBXmXZXZXZXZXBXnX).<XNX<X<XBXZXDXJXBX6XNXmXnXMXGXZX,X2XDXZXMXBXnXJXmXBXZXCX1XeXZX2X1XCXCX2XCXZX6X1XCXmXCXwXwX1X6X5X5X6X6X6XwXVXNXBXVX6XqX6X5X6X7X6X6X6X6X3X3X6X7X3X@X@X4X5X4X5X-X@X@X@X3X6X.X#X5X3X@X+X+X-X-X4X@X@X3X1X3X@X@X#X-X5X4X5X5X6X5X5X5X,X2X6X2X7XNXNX<X3X3X}.,X,X6X7X3X1X1X}.@XoX@X3X5X{.[.v.@X3X,X3X4X#X@X#X3X@X+X&X-X5X5X7X6XNXNX6X7X7X6X2X7X7X6X6X5X3X3X6X6X6X7X7X6X7XNXNXNXNX6X5X6X5X6X7X7X7X6X7X<X<X7X7X7X3X>X>X>X,X,X}.{.{.{.v.v.[.[.[.v.[.v.M.M.|.).,X|.v.v.n.,XM.,X<X<X<XBXBXBXBXBXNXNX<X<X<X<X<XM.n.v.b.b.b.v.v.v.v.k.k.k.v.v.n.M.M.>X,X,X,X<X<X<X2X2X2XNXNX<X2XNXNX",
"Y Z C { [ ^ ..;.F F :.{ [ ;.:.[ ;.,.,.{ ;.[ ;.;.{ { { ^ g.[ { [ [ { [ [ [ [ [ ;.2.m.3.f.f.>.,.f.f.f.,.g.0.>.f.f.p.p.b.k.>.>.>.,.,.f.f.f.m.f.@XeX(.m.f.d.d.Y.$X{.@X{.{.}.n.|.|.k.:.:.3.j.h.h.:.;.;.S S S F :.j.j.F h.h.h.z.j.h.h.j.I j.j.j.j.j.j.j.j.k.^.I z.l.S.U z.x.l.l.j.z.).).(.j.j.j.z.j.z.z.z.z././.(.c.c.I I z.j.I I j.:.h.F I I D F I D S D h.F F j.F F F h.h.h.h.h.h.h.^.>Xk.l.|.^.^.k.j.j.k.j.l.l.x.z.j.3.l._.U I h.h.l.h.F I h.F F F :.:.:.:.F k.^.k.:.} 3.eXCXDXFXS.I l.1X,X(.l.h.h.h.F j.z.c.c.x.).l.h.z.z.x.BXBXCXPXkXAXDX_.rXmXHXkXnXCXnXBXrX_.ZXMXMXnXU c.M.CXmXMXmXS.K U Z.U U A.hXgXA.A.gXA.A.(.S.P hXMXMXMXMXMXJXJXLXJXJXhXMXMXgXAXU nXAXgXgXU AXMXgXjXMXgXgXjXhXpXMXPXMXgXS._.mXGXhXnXZXZXAXgXpXgXgXgXP gXAXMXgXAXhXhXhXhXgXgXgXnXnXnXAXnXnXnXnXnXAXAXgXnXDXJXKXPXfXiXgXA.gXAXgXAXmXMXDXMXZXBXBXBX_._.rXJXJXmX2X2XrX2X2XmXJXGXhXMXgXc.AXPXLXMXAXZXDXJXZXMXhXMXAXgXGXHXGXhXMXMXgXgXAXgXS.(.BX<X_.nX_._._._._.).^.|.}.5X|.|.}.1X^.>X1X|.1X^.2X1X).2X2X).1X^.^.^.^./././.^.).mXZXJXmXC.(./././.^.^.^.|.|./.^.^.,X<X).,X2X^.^.}.{.{.oX{.|.|.).nXBXnXnXnXNXBXBXCX<X7XM.<XBXNXNXCXDXPXLXKXJX<X3X}.[.].}.2XeX2XBXZXDXrX6XVXZXCXCX1X1X1X5XwX5X-X6X2X6XVXCX5X.X3X6X6X1X5XwX4X-X3X6X6X6X6XVXVX6X6XVXwX6X7X6X6X6X6X6X6X1X6XwX6X5X5X=X:X5X5X5X{.oX@X#X3X6X6X5X5X3X=X@X@X-X5X#XoX@X#X5X5X1X}.0XVXVX2X3X7X6X1X3X3X}.1X2X7X<X<X>X}.3X3X-X>X,X3X3X}.3X>X}.}.3X#X3X3X5X-X#X3X5X1X5X6X3X5X5X#X3X5X3X3X5X6X>X,XNXNX<X7X7X<X,X7X7XNX7X1X5X3X7XNX6X<X6X6XNX<XNXBXBXNXNX<XNXNX2X,X,X<X,X,X,X<X7X,X3X>X7X7X,X,X,X,X}.{.v.v.v.b.v.v.b.b.[.k.l.M.n.n.v.n.l.^.l.<X<X<X<XBXBXBXBXBXBXBXNX<X<X<X<X).^.|.v.v.b.n.n.b.b.v.[.[.[.v.{.{.>X>X,X,X7X7X<X<X<X<X<X<XNXNXNX<X<X",
"U N.;.[ ' ` ' [ { C C { [ [ } g.g.[ <.3.>...%.%.' g.g.g.g.f.[ ' ^ ` g.g.g.g.g.g.f.f.>.f.f.d.y.0.f.g.y.t.y.s.f.f.y.y.s.0.8.f.f.i.s.s.i.i.p.U.K.[.1X-X=X0XqXVXCX6X5X:X5XwX5X1X5X.X[.[.k.3.3.>.;.;.;.{ ^ ^ ^ { 3.3.F S S S F :.:.:.F S D F :.F F :.j.h.h.l.j.h.z.I I j.l.).c.z.z.x.l.l.x.z.j.c.j.c.C.j.z.z.c.U c.I j.j.z.).c.h.j.l.c.I I F G I j.j./.j.z.j.j.j.j.j.j.j.j.k.k.j.j.k.k.|.v.|.1X^.l.j.n.l.j.k.k.j.j.j.l.j.l.rXI j.k.k.j.k.j.j.h.:.j.j.k.k.j.j.j.^.^.j.h.h.h.z._.nXnXZ.L I ,X2XU h.:.l.h.h.h.l.x.x.<XCXCX2X,XBX_.mXLXHXPXkXAXDXmXGXkXP hXgXmXAXmXmXnXnXgXU U I h.z.ZXMXU I I I I I I N.I c.).nXnXnXZ.Z.MXmXK U MXMXAXMXMXSXGXGXGXcXiXB.AXS.U c.(.A.gXAXgXMXGXGXkXMXjXP gXU P gXGXkXpXA.mXMXMXgXgXGXMXSXkXgXgXgXMXgXgXgXMXAXhXkXlXhXkXhXMXMXjXJXZXAXSXMXAXJXGXkXSXMXMXGXPXPXHXiXpXgXgXgXZ.Z.AXZXAXmXnXCXBXCXNX_.nXnXMXhXMXJXMXnXmXZXGXHXPXMXAXAXZXJXKXLXMXZXMXGXPXGXMXAXhXkXB.gXhXMXkXGXMXnXnXnXnX_.<X,X,X).^.>X,X).^.^.|.3X>X1X1Xl.^.l.^.).).(.(.mX_.rX_.gXMXmXnXnXS.(.(.Z.Z.Z.K Z.Z.gXMXcXV.U A.A.Z.(.).x.^.).x.l.).)._.mXU _.nX_.).^.).1X).).).)._.BXBX<X<XBXCXZXJXJXJXDXDXJXLXJXJXLXKXKXKXLXMX,X#X#XoXoX0XCX>X5X2XCXZXBXVX2X2X2X2X}.5X5X5X1X5X4X3XwX5X-X>X5X5X1X#X#X5X6X5X4X-X5XVX6XwXVXVX6X6XVXVXNX6X7X6X6X5X5X6X>X}.3X1X1X>X}..X@X@X{.}.#X@X@X#X5X1X6X5X#X-XoXXX@X-X}.@X@X-X3X#X5X3X}.1X2X<X2X3X3X7X6X7X3X5X}.n.M.,X,X,X3X#X#X3X5X>X>X#X@Xv.,X>X7X6X>Xn.1X1X>X@X#X5X6X1X1X3X3X3X3X3X3X,X1X7X3X}.}.M.,X7X3X3X,X7X6XNXNXNXVXwX5X>X,X1X7X7X7XNXNXNXNXNXNXNX7X<X<X<X<X<X7X7X<X,X<X<X7X3X,X,X,X,X,X,X>X,Xn.n.v.b.b.b.b.b.b.v.b.n.n.v.b.b.n.|.M.M.,X<XNXnXnXBXBXBXBXZXBXBX<X<X<X<X<X,X|.v.v.v.v.n.v.v.[.{.v.v.|.|.|.}.>X,X>X>X,X<X<X<X2X<X<X<X<X<X<X<X",
"U I } f.f.f.f.f.,.^ %.` ` %.,.g.f.e.<.2.[.p.i.i.f.e.d.I.s.p.J.G.=.%.,.0.U.I.E. XD. X.X[.].9XqXVXeX1X.X0XqXeXVXeX0XqXVXqX4X/.j.p.G.Q.eX^.D.eXCXDXMX_.1XrXMXGXMXBXZXDXZXmXMXDXDXDXmX).|.k.|.5X/.^..X/.k.h.3.2.2.3.2.2.;.;.;.;.>.2.;.{ { { C Z F S F { C :.F F :.:.:.h.h.l.x.l.j.j.j.k.b.b.b.l.z.h.j.j.j.h.z.j.j.j.j.j.h.j.z.z.j.z.c.c.j.j.j.j.l.j.k.l.k.^.^.k.l.l.^.l.j./.k.j.j.k.|.v.3X3X3X,Xl.j.^.|.j.k.b.k.j.k.|.k.j.l.l.k.b.v.b.j.k.k.j.k.k.k.k.k.|./.j.^.).z.^.j.h.F h.z.U I c.l.k.).l.:.:.l.k.j.h.h.j.z.c.S.nXnX_.mXmXjXGXkXkXGXGXPXGXSXgXI c.c.I c._._.U z.I I F h.F h.nXGXGXP U :.h.z.l.j.h.x.)._.nXgXgXP gXmXA.A.GXGXGXGXMXFXjXgXgXgXc.c.x._._.nXmXnXnXgXA.S.hXMXgXjXgXK S.nXA.P hXpXP K U U U U gXhXhXhXpXP gXP A.pXgXgXP gXgXgXgXpXgXhXiXkXiXGXGXpXgXhXpXpXiXq gXhXgXiXiXpXiXiXgXgXgXgXA.A.MXLXSXgXS.FXMXjXMXgXgXnXAXhXGXGXkXjXJXPXGXGXHXHXPXJXPXKXKXKXGXGXMXGXPXGXMXAXMXGXnXnXAXAXJXPXAXBXNX<X6XCXCXBXBXeX|.b.^.^.^.}.>X7X2XBXCXnX<X).).BXnXA.U gXA.nXAXnXMXgXmXnXU nXgXgXgXU U nXS.nXU U P K U Z.S.nX_.).).x.<XBXCXZXnX_.(.MXMXnX(.c.x.(.(.(.rX_.<XBXZXZXZXJXLXKXKXKXKXKXKXKXKXKXKXKXKXKXLXGXMX6X.X4X@XoX1XeX}.3X6X6X2X2X,X,X3X5X}.].-X1X4X6X5X=X{.wX5X5XeXVXVXeX8X0X6X4X;X-X-X5XwXVX6XVXVXVXVXVXVXVXNX6X6X6X6X6X5X-X3X3X5X5X3X5X5X-X:X5X6X5X5X4X-X4X4X6XVX-X@XXXXX=X@X@X:X=X.X@X].{.{.#X3X>X6X6X3X5X7X7X7X3X1X3X@X3X3X3X7X7X5X-X3X3X#X3X3X#X-X3X6X7XNX2X3X6X1X.X=X-X,X7X6X6X3X>X5X5X3X3X7X6X7X>X#X3X3X3X7X6X6X2X2X6X7X2XNXNX6X3X3X1X1X7X6XNXNXNX7XNXNXNXNXNXNXNXNXNX<X7X7X,X>X,X7X7X>X,X,X<X<X<X,X>X,XM.|.v.v.v.p.b.|.}.v.v.v.v.v.v.v.n.M.M.M.M.<XNXBXBXBXNXBXBXZXBXBX<X<X<X<X,X,Xn.v.v.v.v.|.|.[.{.}.>X3X1X|.|.}.>X>X>X>X,X<X<X<X<X<X<X<X<X<X<X<X",
"SXnXz.m. X8X8X8XeX1X|.[.L.L./.l.2. XCXmXS.rXCXCXCXCXCXFXDXCXCXDXDXmX_.^.rXDXDXGXjXjXmXnXS.nXnXMXMXAXmXjXAXnXgXMXmXMXGXGXHXcXP (.^.rXmX_.z.1XmXMXMXAXDXmXU c._.(.mXMXMXMXmXgXjXMXZXmXrX1X_.rX(.C._._.BX(.z.^..X,X).1X1X1X.X/.j./.k.:.:.<.k.:.:.:.:.;.k.j.:.;.>.>.>.k.j.j.z.j.j.j.k.l.1XwXeX).).h.j.k.l.j.j.^.k.j.k.k.v.l.k.k.m.m.j.k.j.j.j.h.z.h.j.k.b.].{.^.).x.l.k.j.j.j.j.k.n.3Xn.3X7X6X2Xj.:.k.k.k.k.b.k.j.k.b.v.k.k.,X|.b.v.v.k.k.k.2.b.b.[.CXS.U z.j.^.h.z.l.^.rX/.h.h.j.l.j.j.z.ZXmX_.2X).^.k.z.z.l.l.,Xc.c.c.c.U U U U A.mXMXMXnXMXhXS.l.l.n.j.).rXZXU h.l.l.h.j.j.h.I U hXgX(.z.x.).).z.z.l.).nXnXA.P S.c.gXnXgXgXnXgXB.AXMXJXMXnXAXAXMXgXZXMXMXMXgXAXA.U c.U U U S.U U S.A.Z.U A.A.U Z.gXgXA.U A.AXgXA.P K K K K L K P P P gXP P K gXgXP P B.pXkXpXpXgXP w L L U P A.P pXP gXiXpXgXP P P kXkXdXfXhXgXkXhXhXMXhXgXgXgXgXgXgXgXgXkXxXfXMXhXhXGXPXLXHXvXvXxXkXMXGXSXSXPXGXMXMXAXnXCXZXMXPXJXJXJXZXBXmXDXJXmXnXrX).)._._.BXCXBXBXCXDXZXBXBXBXNXBXnXU gXMXSXMXMXgXgXS.c.c.(.AXAXBXBXBXBXBX<X<X<X).).l.x.).BXBX<XNX<XZXJXSXJXJXnX).nXMX_.c.c.x.)._.(.MXMXDXMXGXMXMXJXPXPXPXPXPXKXPXKXKXKXKXPXLXKXLXPXJXBX>X5X.X[.{.1X>X1X1X1X3X{.#X3X#X#X;XoX0XwX5X0X1X-X4XVXVXCXCX6X6X1X.X0XwX:X%X;X4X5X5XwXCXCXVXVXNXNXVXVXNX6X6X7X6XwX1X3X3X3X5X5X5X5X5X6X1X1X1X}.>X5X-X:X#X1XVX4X@XoX=X-X@X@X-X5X-X3X.XoX@X#X3X3X3X7X5X5X5X7X7X7X6X3X5X6X1X5X7X7X6X5X6X5X4X6X6X4X4X5X1X7X6X5X3X>X>X-X3X5X5X5X2X3X3X5X-X.X3X3X7X2X>X3X7X7X7X3X3X<X6X7X7X7X<X2X<X<X7X3X6XNXNXNX<X7XNXNX7XNXNXNXNXNXNXNXNXNX<X<X<X,X>X>X,X<X,X,X,X<X<X,X<X,X,X,X|.b.v.[.{.}.3Xn.v.v.b.b.v.v.v.v.n.M.,X,XNXNXNXBXNXNXNXBXBXNXNX<X<X<X<X,X>X{.].`.[.}.>X|.[.{.#X>X,X,X^.|.,X,X>X,X,X).<X<X<X<X<X<X<X<X<X<X<X",
"AXAX(.h.j.1XCXDXSXMXmXS.rXmXA.U c.z.U gXgXK A.A.V.gXgXP gXgXB.gXhXgXgXZ.K A.gXP K L K I Y Z I I N.Z F I I I F c.I Y Y U P U U I I z.z.z.b.[.).(.(.(.mXMX_.x.1X/.I I I ).2X(.I I ).2X2XrXrXmXnX(.j.z././.^.^.)._.).(.S.mXCXrXU 2XmX_././.eX).x.).I G /.^.).k.2.[..X)._.rX).).).(.^.^.).mXMXmXmX_.(._.2X).).|.^.k.^.|.eXCXCXmXCXCXCXCX(.(.).h.j.k.}.^.|.4XDXMXS.c.x.l.^.l.h.b.[.}.>X6XVXVXDXJXMXI k.k.v.k.|.^.j.k.k.|.VX_.).1X}..Xk.b.b.k.k.k.2.1.2X(.I :.h.k.j.j.h.j.rX).).j.j.m.:.:.F (.nXnXmXrX(.^.l.,X,X).(.x.l.x.x.).z.z.l.z.x.c.<X<X(.U BX<X<X,Xl.n.l.<X).z.M.M.l.l.x.x.).c.U _.c.z.).z.z.x.,Xz.z._.(.c.c.c.x.x.(.c.x.MXGXnXU nXZXPXkXMXMXMXA.gXjXA.AXgXgX(.c.<X<X(.(.(.S.nXgXU U A.gXA.A.U gXgXgXU U A.gXgXgXP U A.L L K gXpXV.lXpXP P K U A.gXgXhXkXiXP B.B.P gXA.Z.U U B.gXpXP pXP gXgXP P pXlXkXyXhXgXpXiXlXiXlXiXgXiXgXP P MXhXpXiXhXkXgXgXhXcXkXhXhXMXAXAXMXSXSXSXHXGXSXZXZXnXFXJXGXPXGXcXSXSXMXMXGXJXMXnXZXMXnXnXnXJXLXMXnXAXGXPXJXJXJXZXZXBXBXnXMXMXMXAXgXMXMXZX_.).ZXJXnX<X<XBXBXZXZX<X2XCX).CXJXMXnXBXBXZXJXPXHXGXGXmX_.nXDXmXnXnXBX<X<X<XnXJXGXjXMXMXSXJXLXLXKXLXGXPXGXGXKXKXPXSXJXLXPXJXZXCX,X}.#X[.3XwX5X3X3X5X@X@X#X4X-X-X4X:XwXwX-X5X5XwXwXwXVXeX1X5X5X5X@X-X4X1X5X:X4X5X1X5XVXVXNXNXVXNXNXNX6X6X6X6X6X6X5X5X5X-X5X5X5X1X5X5X-X4X=X{.-XwX6XVX5X2XNXwX{.[.{.-X.X4X-X@X].3X4X4X4X3X3X3X3X7X6X5X5X6XVXVX6X7X6X5X5X5X5X5X6X6X5X5X5X6XVX6X6X5X5X5X5X3X3X3X1X5X7X5X5X}.#X}.3X6X}.-X5X5X7X3X>X7X6XNX7X7X3X7X3X3X7X7X1X6XNXNX6X7X7X7XNXNX2X7XNXNXNXNXNXNXNXBXBXNX<X<X<X<X7X<X,X3X3X>X,X,X,X<X<X,X,X,X3X}.v.[.[.{.@X@Xv.b.v.{.v.p.b.v.v.[.#X>X,X,X<XNXNXBXNXNXNXNXNXNXNX7X1X,X<X<X<X3X@X{.}.,X,X,X>X3X,XM.M.M.M.M.M.,XM.M.,X<X<X).<X<X<X<X<X<XNXNX<X",
"U U (.).I I I S.gXB.nX_.S.gXU U N.h.I Y j Z Z F g g Z Z Z N.Z Z N.N.h.j.I Z F Z Z C B { { { ;.>.>.3.:.F :.3.;.:.:.F ;.^ B { [ ;.;.{ { [ 2.[.j.j.:.:.F z.j.^.0XrX/.j.j.j.k.^..X^.^.^.l.^._._.Z./.k./.).(.).).).(.(.(.U I U U I ^.).(.C.C.C.(.).(.U z.C.C./././..X2X).).rX_._.).(.).).l.c.c.nX_.).).(.U (.(./.^.^./.^.)._.rX_.nXgXgXmXnXS._./.l.^.1X^.^.2XmXMXA.(.).).)._.l.^.1XCXCXZXJXJXGXHXHXgX(.,X^.^.).).k.l.1X^._.mX(.).1XCXCX).1X2X^.[.`.[.^.^.|.k.2.k.^.^.k.k.j.k.b.[.^.|.k.b.k.j.l.l.).).).).l.x.NX_.c.l.M.x.z.z.l.x.).,Xl.,XZXJXGXP (.).DXJXAXBXNXZXJXZ.c.BX_._.BX_.(.).<X<X).n.n.n.,Xn.7X2X,XM.l.l.x.<XAX(.c.x.).JXPXSXgXnXJXPXkXAXgXMXSXS.mX_.mXnXc.l.(.(._.S.U (.).nX_.c.(.nXS.S.S.U P P P K K P gXpXP P P P P P P gXgXpXyXpXpXgXA.V.P gXkXhXhXpXP gXgXP gXA.Z.S.S.S.U U gXgXgXgXB.gXgXB.iXkXpXiXgXgXkXhXiXhXpXiXgXgXP U AXgXU A.gXAXhXgXgXgXgXjXMXnXnXnXAXAXAXAXnXnXnXnXnXnXmXjXMXMXgXnXnX_.<X<XBXBXnX)._._.2Xx._.MXSXjXmXJXvXPXHXHXKXKXJXZXZXnXnXnXnXnXnXmXgXDX_.^.nXmXmXDXCXBXZXPXGXnXmXMXgXnXgXgXA.mXMXSXgXgXhXgXgX_.(._.AXmXgXAXmX(.x.BXBXZXZXZXJXAXJXLXKXLXPXGXMXJXDXJXPXJXGXAXDXPXJXZXCX2X1X-X].oX5X6X4X.X-X1X=X=X;X0X4X=X0X:X:X5X0X4X5X5X2XVX6X5X0X0X0X4X:X4X0X5XCXwX=X5X4X6X6X6X6XVXVXVXVXVXNXNXVXVXwX6X6X6X6X6X5X5X6X6X4X:X;X-X4X-X=X3X1XVX6X7X6X5X@X-X4X-X.X4X@XoX=X5X6X4X4X4X5X5X6X6X6X6X6X6X6XVX6X5X6X5XwX0X6X5X1X6X6X6X6X6X6X6X6X7X3X5X-X#X3X5X1X6X1X>X-X#X=X@X1X1X>X3X5X5X6X7X7XNXNXVXNX6X7X6X6X3X3X3X,X6XNXNX<X7X>X>X7X<X<X<X<X<XNXNXNXNXNXNXNXNXNXNXNXNX<X<X7X3X3X3X7X7X7X,X,X7X7X7X3X}.{.@X@X@X+Xv.v.+X@XoX'.'.[.v.v.{.3X,X,X<X<XBXBXNXNXBXBXBXNXNXNX6X6X7X<X<X<X>X[.|.,XM.,X,X|.n.n.n.|.M.M.n.M.M.M.M.,XM.M.<X<X<X<XNXNXNXNXNXNX",
"c.z.I I c.N.Z F I Y Y F I I I N.F C } C C B m B B B B C C C C Z Z F h.h.h.Z C C ^ ;.:.S S { { { S :.F S ;.,.>.;.>.3.;.3.>...>.<.2.j.;.[ ;.;.j.j.:.j.j.;.;.:./.).j.3.3.<.>.H..X1X^./.^.^.).(.I /.j./.).S.I (.).).S.C.I I j.j.j./.^./.C.Z.I j.(.Z.U c.C.(.C.C./.C.Z.U S.(.(.(.(._._.(.S.S.(._.nX_.S.(.S.C.).^.).)././.).U Z.(.(.U I I C.I I j.j./.l.z.C.(.I I c.^.^.^.^.2X).)._.gXgXA.A.gXgXpXgXgXU (._._.(.^./.j.^.).z.c.c.x.(._.S.(.).).z.|.|.}.^.).^.^.^.k.j.^.).BX^.@X3X^.^.1X/..X1X^./.l.^._._._._._.CXZXBXCX2X<X1X^.2XZXmXBXmXZX_.nXMXMXS._.BXnXZXJXAXgXMXSXA.(.S.nXmXnXS.BXJXMX(.CXZXCXCXZXJXJXZXCX2XVXZXZXMXZXnXBXBXZXAXnXnX_.mXMXgX(.<X_.BXc.).M.,X<X<Xl.,X).l.x.x.l.).).(.l.).).(._.nXS.U U K K U hXgXP P B.P P B.gXP P B.B.iXiXpXgXgXpXpXpXiXiXiXgXB.gXgXgXgXgXS._.nXBXBX_.nXgXgXgXgXgXP gXiXpXhXMXhXgXhXgXgXgXgXhXhXMXMXnXAXgXnX_.A.S.AXjXmXS.nXMXMXAXgXgXnXgXAXZXnX_._.nXnXnXnXAXmXAXnXNX7X7X6X6X6X6X6X2X1X|.>XrXZXmX_.)._.MXkXjXnXAXGXHXHXHXGXAXmXnX(.nXZXMXnXZXmXCXZXJXPXPXGXkXMXhXgX(.S.U U _.gXgXA.gXgXhXgXU U U c.c.z.z.c.c.x.mXZXBXnXJXJXZXZXZXZXZXZXAXSXMXMXAXZXDXDXJXAXAXJXDXZXZXZXBX3X@X@X4X0X4X=X X@X-XqX0X=X$X;X5X0X0X4X;X:X-X-X3XwXVX2X6X5X5X0XwX5X5X4X:X5X5X6X.X.X5XwX6X6X6X6XVXVXVXVXVXVXVXVXVXVXVXwXwXVXVXwX6XVXVXwX4X:X:X0X6X:X=X-X3X1X#X#X=X5X-X5X6X5X4X=X;X4X6XwX0X5X5X6XqXwXVX6X6XwX6X6X1X>X>X6X6X5X-X}.>X5X6X6XVXVXNX2X3X6X3X5X5X3X5X5X4X3X3X3X3X-X5X-X3X1X7X6X4X3X7X6X6XNXNXBXBXNXNX7X7X7X7X>X7X,X<X<XNXNXNX<X<X<XNXBXNX<XNXNXNXNXBXNX<XNXNXNXNXNX<X7X7X7X3X3X7X7X6X6X7X7XNX6X7X5X5X3X5X5X;X@X@X@X+X+XOX+X@X#X#X3X3X3X>X,X1X<XNXNXNXNXBXBXBXNXNXNXNX<X<X<X<X,X>Xv.n.,XM.}.|.n.v.v.{.|.|.|.|.|.,X>X>X>Xn.,X,X<XNXNXNXNXNXNXNXNX",
"Z Z Z } Z F h.G I Z C B C { B C { B { ;.;.{ ^ { B B { C C C } S h.:.S C Z Z C ;.B C { ;.3.;.C C B C C B ^ [ [ [ { ;.3.:.S ;.>.k.k.j.F 3.;.{ ;.;.;.:.:.;.;.,.:.F 2.>.>.3.1.`.^.(.c.z.k.l.l.l.).).(.C./.(.I I j./.(.j.I I /.I j.k././.C.I j./.C.U Z.U Z.S.Z.Z.(.(.U Z.Z.Z.Z.Z.U Z.(.S.Z.U U I I U U (.U I j.l.).).j.j./.I I z.I I I I G G j.j.:.:.^.).S.I I I /.).j./.^.c.l.I U S.S.I z.z.I I I c.(.l._.S.I h.h.h.j.k.j.k.b.k.j.,X(.j.>X_.I 1X)._.z.j.j.l.j.j.F :.l.).).ZXJXjX_.I F rXBXZ.z.k.j.)._._._.2X2XBXmXMXmXBXVX2X_.MXmXmXAXMXmXZXDXJXgX2XNXCXDXGXMXA.nXmX(.c.x.(.(._.).nXMXSXMXZXPXPXPXPXPXHXSXPXLXJXPXGXhXJXPXJXDXZXBXmXnX).).BX_.).).,X2X).^.|.|.,X>X|.n.n.[.}.7X,X|.|.[.|.3X1X,X)._.).<Xc.c.(.S.A.P U U gXpXgXgXB.B.pXgXpXpXiXpXkXhXpXyXpXB.B.pXgXgXgXgXgXgXgXmXnXMXPXHXkXgXA.A.U Z.U K U P P P gXB.A.gXA.A.gXgXgXMXgXMXgXmXS.S.gXgXgXgXgXmXS.Z.gXMXMXgXB.B.P gXgXgXAXA.nXgXgXAXMXMXjXmXZXJXZXDXLXLXJXZXZXJXS.(.mXmXMX_.)._.nXmX(.(.nXnXgXkXGXkXmXnXS.(.nXMXAXnX(._.CXZXhXhXgXgXU U _.(.j.^.).S.nXgXB.A.K K K U c.(.(.z.x.z.l.2X_.BXZXZXmXDXGXMXGXPXPXPXFXBX<XNXCXZXBXZXZXJXJXZXZXDXZXVXVXZXVX4X:X4XwXwX0X-X=XoX-X4X{.@XoX5X2X6XVX1X:X4X3XwXwX6X6X1X5X4XwXeXwX5X5X0X4X5X0X-X;X0XwXVXwXwXVXVX6XVXVXVX6X6X6XNXVXVXVXVX6X6XVXVXVXVXVX6X6X5X6X4X5X;X#X;X;X;X+X+X=X4X.X5X5X5X-X5X5X5X5X6X5X}.}.5X4X1X1X1X<X6X2X7X3X3X#X3X3X|.}.1X1X>X>X,X2XNXNX6X6X6X6X6X7X1X2X5X3X}.}.3X3X3X3X7X5X>X1X6X3X3X6X2X1X2XNXNXBXNXNX2XNX<X7X7X<X<X<X<XNXBX<X<X7X<XCXCX<XNXNXNXNXNXNXNX7XNX6X7XNXNX6X6X6X6X6X5X6X6X6X6X6X6XNX6X5X4X5X5X1X>X.X.X=X@XoXXXoX@X@X{.>X>X,X>X>X>X,X<XNXNX<X<XNXNXBX<XNXNX<XNXNXNX<X,X}.n.M.M.,X{.{.|.>X>X}.}.@X#X}.{.3X3X3X>X}.3X7XNXNXNXNXNXNXNXNXNX",
"C C C { } } :.F h.} C ^ ^ { ^ C { ^ ^ ;.[ { { ;.{ { [ [ { { [ [ [ ;.;.;.:.} { [ ^ ^ ' %.>.3.;.[ ,.,.>.;.{ ..;.;.;.;.>.;.;.....;.3.k.:.:.;.^ ....;.;.;.[ [ [ ;.;.......2.2.3.j.I z.h.j.k.:.h././.(.(.(./.C.I j./.).(.C.C.C.I I j.j.j.C.z.z.(.C.K U Z.Z.K U K K U Z.Z.Z.Z.K U U I z.(.S.L I j.j.F :.h.I F F z.l.l.h.F I j.j.:.j.j.h.G F h.j.:.F S I z.z.I z.I K U I ).c.I j.z.j.j.h.h.l./.l.z.z.j.l.j.l.I F :.3.m.m.k.k.b.@X{./.k.k.j./.rXmX).).ZX(.j././.^.|.^.h.h.j.l.DXvXpXU h.:.l.).U z.n.k.l.^.k.,X7X,X,X).).).<X2X2X<XnXx.,X,X,X_.mXFXMX_.2X2XDXMXMXAXc.,X).).,X,X<Xx._._.)._.AXAXnXgXnXAXgXnXMXAXSXMXkXhXjXgXAXFXMXAXZXjXGXAXZ.(.).nX_._.CXmX(.^.2XZXZXrX|.}.}.[.[.|.|.}.@X-X#X|.3X).).).).1X).l.).c.U U _.U P pXgXgXgXgXjXgXpXB.pXgXhXpXpXpXpXpXgXgXhXgXgXnXnX(.nXmXnXMXkXuXP P U K U gXA.P U U P P P P A.gXP U A.P P gXP gXgXgXU S.nXA.gXgXgXgXgXgXP gXgXgXgXP P gXP gXgXP A.P P gXgXgXpXgXgXmXgXgXGXSXhXgXgXgXZ.(.(.Z.(.(.nX_.(.(.C.Z.S._.gXA.gXA.nX_.).<X_.nXnXmXBX<XBXmX(.).).BXBX(._.).^.).(.U S.S.gX_._.nXS.A.S.S.U c.c.x._._.).c._.nXnX_._.BXJXKXKXGXMXBXVXVX6X6XBXZXZXZXDXZXZXZXCX6XNXCXCXwX4X0X0X5X}.-X0X-X5X0X=X=X@X0XVX2X6X}.5X5X5X0X1X2X6X6X6X5X6X1X0X5X6X4X.X5X0X:X$X:X:X4X6X6XVXVXVXVXVXVX6XNXVXNXVXVXVX6X1X6X6X7X6X6X6X5X6X5X4X-X=X=X3X#XoXoX+XoX#X3X5X5X#X1X1X6X6X5X1X>X{.@X#X5X-X-X3X5X7X7X,X7X7X6X3X3X>X}.1X3X|.}.3X3X7X2X2X6X6X6X7X<X<X6X1X#X}.>X7X7X3X3X}.>X>X,X1X>X>X1X2X,X>X1X7X<X<X<X<X<XNX<X7X,X<X<XNX2X<X<X<X7X7X,X<X<X,X7XNXNXNXNXNX6X6XNXNX7XNXCXNXNX6XVX6X6X6X6XNX6X6X7X6X2X1X1X1X>X,X,X,X>X>X|.{.{.[.v.[.v.|.|.|.,XM.>X<XNXNXNX<X<XNXNX<X<XNX7X7X<X7X7X<X}.[.n.,X3X>X|.#X}.3X3X3X3X5X6X5X1X3X6X6X6X6X6X2X2X2XNXNXNXNXNXNXNX",
"C C B B { [ [ ;.C C { ;.[ [ [ ^ ......[ ;.{ ;.S C { { [ ;.[ [ [ [ ;...[ { S { { ;.;.,...,.:.S { ;.;.;.;.[ ..,.,.;.[ ;.;.;.;.{ [ ;.;.;.;.;.;.^ >.2.;.3.>.;.;.,.;.,...,.>.3.3.3.:.3.;.;.>.;.D F j.z.^._._.S.C.C./.(.(.S.Z.I I G j.j.j.I I h.I K K I z.z.I I H I I I I K K K K U I j.l.c.I j.j.^.^.:.h.j.G F h.j.2Xj.F G G j.D F j.j.F F F :.:.j.F F h.h.h.j.I I I z.z.z.(.z.h.:.F :.j.^.j.z.z.z.j.l.^.^.|.k.2.2.v.#XwX|.b.eXDXmXC.j.j.^.).).z.l.(.z.k.^./.l.).l.j.k.k.k.).gXK x.l.k.|.1X,Xz.|.}.^./.|.3X5X#X|.>X6X>X^.1X2X2X<X).|.>X2X1X).).).,X|.>XCXAXnX_.,X,X|.^.,X,X,X,X).x.<X2X).).).,Xx.).).^.).z.c.U U U (.(.(.S.S.).).(.)._.(._.(.Z.S.S.S.Z.Z.U S.mXMXMX_.ZXmX_.)._.^.^.CXJXDX(.).^.z.l.,X2X1Xx.,X<Xx.c.c.).U U P gXgXgXgXB.pXB.P gXjXgXgXB.gXnXAXgXpXpXgXMXZXMXmXjXgXgXpXV.A.A.P A.A.pXgXgXgXgXgXgXgXgXnXnXnXnXnXnXnX(.nXnXnXgXgXnXgXAXMXgXgXP gXgXgXP B.gXgXgXgXgXgXgXB.gXgXP gXgXgXgXgXgXP A.K K U U U nXnXS.(._.(.(.x.).nXnX_._.(.S.(._.S.(.nX_._.).2X}.v.l.c._.ZXZXmX_.^.|.^._.2X(.)._.).CX_.)._.(._._.AXnXgXgXgXnXS.).<XnXAXAXnXBXBXBXnXBXCXJXKXPXGXAXCXZXVXVXwXVXCXDXZXCXZXZXCXZXCXVXVXeXCXwX4X4X6X5X4X4X4X5X0X-X.X;X-X4X5X1X1X5XwXwX-X1X6XwX6XwXwX.X-X=X=X5XwX-X4X0X0X4X$X=X=X4X4X6XVXVXVXZXCXVXVXCXZXVXVXVXVX6X4X5X6X6XwX6X5X3X3X4X4X6X0X-X5X4X-X@X#X4X=X-X-X@X@X4X0X-X[.}.>X3X-X@X-XwX6X6X6X6X7X7X1X7X7X6X2X1X>X>X3X|.{.}.3X>Xx.<X2X<X,X1X1X<X<X7X>X3X3X7XNX2X1X,X,X>X7X3X,X>X>X,X,X<X>X>X,XM.<XNXBXNXNX<XNX<X<X7X<X<X7X7X7X7X7X7X7X>X2X6X7X6XNXBXCXVXNXNXNXNXNXBXBXNX6XNXNX6X6X7XNXNX6X6X7X7X,X>X,X,X,X>X,X7X3X#X[.@X[.{.oX@X{.v.[.v.M.,X,X7XNX<X<XNXNX6X7XNXNXNX6X2X2X7X3X#X-X#X3X5X3X>X3X5X6X5X5X5X6X6X1X1X1X6X2X2X2X2X2X2X2X<XNXNXNXNXNXNX",
"{ { ^ ^ ^ ^ ^ [ { { [ ;.{ { ......;.S { { S S S C B B ^ { [ { ^ [ [ ;.;.;.S D F S ;.>.>.;.;.;.;.[ ;.>.>.{ { ,.3.;.[ [ ,.;.,.;.[ ;.,.>.;.>.>.;.>.1.:.:.2.>.>.>.>.<.L.`.`.L.2.<.>.>.2.>.,.-.G j.h.h.h.C.Z.I G G j.j.I I K I I G j.F I I F h.I I I F F F :.D D D D F I K K I K U j.:.j.j.j.h.j.I z.F F F D F h.:.j.F D G D D G j.j.h.F F F :.k.j.F :.3.3.h.k.j.h.:.j.h.z.nX(.F G :.F j.^.z.j.k.l.k.[.}.l.1X|.|.|.}.CXZXnX^.).mXS.U l.k.l.^.^.^.-Xk.j.k.|.k.|.,Xl.^.p.b.b.k.^.l.k.v.|.|.|.>X^.|.}.^.k.n.>XVXDXrX).,X>X>X>X5X2X>X>X}.|.1X,X,X>X[.^.^.>X,X<X2X6X2X1X1X}.>X>X|.}.>X,X)._.).^.^.^.l.^.>X>X^./.l.^.l.l.).).).^.)._.)._.(.nX(.S.c.Z.(.c.c.S.U U K K K A.U A.gXA.S.nXZ.I nXPXvXgXmX_.rXCXnXrXCXnXDXJXDXZXZX_.c.x._.S.nXc.U A.gXP B.gXhXiXB.gXgXAXZXAXP pXkXPXPXvXiXhXhXiXpXpXP gXgXgXV.P gXAXgXgXjXgXnXnX(._._.(.(._.).(.nXnXnXnXnXgXAXMXAXhXhXgXgXgXgXgXgXAXgXgXnXgXgXAXgXgXgXgXgXgXgXgXMXgXP U I c.).c._._._._._.CX).^.,X<X_.nXBXnX_.x.)._.(.U (._.).nXJXmX^.#X,XBXmXnXCX_.^.>X,XNX_._.).2X<X,X^.n.|.,X2X<XBXnX).).BXBXBXBXNXBXZXZXMXMXDXZXAXJXLXKXHXMXAXCXVXCXVXVX6XVXCXZXZXVXCXZXCXZXBXVXwXNXZXCX5X4X5X1X4X4X=X:X4X-X4X-X:X4X1XwX0X3XwXVX5X6XVX6X5X6XwX:X&X&X:X4X0X1X4X0X.X:X:X4X4X4X6XwXVXVXCXZXZXBXVXCXZXCXVXVXVXwX6X6XVXVXVX6X5X4X6X:X:X4X4X-X-X-X3X-X6XwX4X4X;X%X$X-X:X#X+X+X3X3X6X-X5XwX6X6X6X7X7X5X1X3X>X5X}.}.5X5X#X{.#X#X[.}.>X1X2X,X>X7X,X7X<X7X,X,X,X<X<X,X,X,X7X,X3X,XM.,XM.M.<X<X<X<X<X<X7X7XNXNXNX<X<XNXNX7X,X7X7X7X6X6X7X6X6X6XVXVX6XNXNXBXNXNXNXNXNXNXNXBXBXNXNXNXNX2X7X<XNXNX7X7X7X7X,X7X3X7X7X7X7X7X7X3Xv.#X#XoX@X|.n.{..X@X#X3X3X7X7X7X6XNXNX7X6X6XNXNXNX6X1X5X3X4X5X1X5X6X6X2X2X6X6X1X1X1X>X>X>X>X,X,X,X>X1X1X2X2X2X<X<XNXNXNXNXNX",
"[ [ [ [ [ ^ B { [ ;...;.>.;.{ ;.>.F D C ^ ^ ..^ B ^ ;.[ { { [ ^ ..[ [ [ { ;.;.;.;.[ [ ;.;.[ ;.;.[ >.D.|.j.:.>.k.j.3.;.,.>.>.;...;.<.2.>.>.>.2.:.:.3.;.;.;.>.>.>.>.2.k.3.2././.k./.2.D././.j.j.j.j.l.^./.j.j.:.j.j.G j.l.z.j.:.j.j.j.G j.h.D j j S D D D D S D F F F j H h.I I j.F :.j.h.h.h.I I :.:.F D G k.^.(.C.I G H G C.j.l./.k.j.j.j.l.k.h.:.:.k.h.:.j.j.j.k.k.j.(.l.j.j.j.j.j.^.1X1Xl.k.^.k.j.j.|.1X/./.1XrXgXU l.k.j.l.l.j.l.l.l.k.^..X^.k.|.{.k.n.|.^.^.[.b.k.b.|.}.|.k.[.}.l.>X1X|.|.|.b.|.^.mXPXGXS.1X>X>X>X1X>X1X6X}.^.|.>X1X6X^.^.}..X}.1X}.}.|.|.|.}.}.}.6X1X>X1X,X,X^.|.}.|.^.|.,X,X,X|.^.^.|.l.2X).l.^.^.l.).BXS.S.U z.x.x.x.).c.c.K U c.I (.nXS.U K U K K K U U gXgXA.jXA.A.nXmXS.mXZ.MXGXPXPXPXJXJXJXMXA.nXJXJXhXjXgXB.MXkXiXP hXSXGXHXcXt yXiXdXsXpXP pXV.pXP pXP pXgXgXpXP gXgXAXnXnXgX(._.(.(._._._.nXnXnXAXnXnXnXnXnXMXMXAXAXnXgXnXnXnXnXAXAXAXnXnXnXnXAXnXnXnXnXnXgXgXgXMXjXgX).,X,X,X_.mX).).1X).).^.[.@X>X<XCXZX).^.|.[.1X6X,X>XCXZXZXSXMX^.#X.X1X1X^.^.[.{.-X-X6X1X6X1X1X5X>X{.oX#X=X-X3X,X2X1X5X5X7X6XVX6X6XNXCXZXZXAXnXMXLXKXKXPXZXVXCXCXCXVXVXVX2X2XCXCX6XVXZXZXCXCXeX6X2XCXZX6X5X3X1X5X#X@XoX@X@X-X.X-X5X2XVX1X5X6XVX4XwX6X6X5XwXwX:X;X:X4X4X4X4X:X=X=X4X5X4X4X5X5X1X6XCXCXCXZXCXCXZXZXCXVXNXVX6X6XVX6X6X6X1X0XwX6X4X:X=X;X&X&X;X4X6X0X6X5X4X:X&XOX:X4X:X&X;X4X6X6X6X1X4X5X4XwX6X5X5X3X5X5X#X@X3X1X3X#X@X#X#X|.3X3X,X3X7X2X7X>X7X<XNX7X,XM.>X|.n.n.M.3X,X,X,X3X3XM.,X<X<XNXNXNXNX7XNX7X<XNX7X7XNXNX7X6X6X6X6XNXNXNXNXNXNXNXVXNXNXNXNXNXNXNXNXNXBXNXNXNXNXNXNX<X<X<X7XNXNXNX<X7X6X6X6X6X6X7X7X6X6X6X2X1X5X@X+X@X#X3X5X1X#X#X5X6X2X6XNX6XNX2X1X1X2XNXNXNX6X1X5X6X1X1X6X6XNXNX2X2X2X,X,X>X>X>X>X3X3X2X6X1X1X3X1X2X2X2X2X<X2XNXNXNXNX",
"{ { { [ ;.:.F } ;.;.C { ;.k.h.:.:.:.:.C { ....;.^ ^ ;.;.;.;.{ ;...;.;.,.;.;.[ [ ;.;.^ ^ ;.>.:.;.[ [ ;.3.3.k.:.:.:.>.<.2.3.:.3.;.;.;.;.;.;.,.2.:.:.>.,.;.;.>.>.>.>.>.3.>.2.k.^.l./.j.C.G j.3.:.:.h.h.k.k.2.j.:.3.j.D G :.F h.:.j.l.z.j.j.:.D H j H H D G G I I I I I I j.l.U K I F :.j.:.j.z.I F :.3.j.j.I z.(.S.U C.K U I /.l.j.j.j.l.k.^.^.).x.k.j.^.l.k.l.j.j.l.j.F I :.h.k.l.>Xk.j./.^.2.2.k.^.h.j.j.).j.j.^.j.z.z.k.[.-X|.|.^.k.l.l.l.k.k.k.1.[.|.l.k.|.{.k.b.[./.k.[.|.}..X-X}.|.^.^.|.k.|.|.1X1X).nXnX(.^.>X1X1X2X2X2X2X1X|.1XeX2X_.).|.}.^.^.1X1X1X|.|.}.}.>X|.1X|.>X1X,X}.>X>X>X.X[.[.|.|.{.`.[.[.{.}.>X1X).^.}.v.,X).).x.x.l.l.x.).).x.x.z.z.x.U U nXA.U U U S.U U U gXU K U Z.A.K K A.Z.(.Z.Z.U _.nXjXMXSXGXkXiXhXcXcXuXyXiXB.kXlXpXU P pXpXiXiXpXpXpXpXhXAXA.P P P K U P U S.S.gXA.S.nXnXnXgXnX).<X<X<X_.BXnXnXnXBXnXBXBX_.nXnXMXZXnX_._.BXnXAXAXnXnXnXBXBXnXnXAXAXAXAXAXAXMXnXnXnXnXnXBX<X2X6X,X2X2X,X>X1X5X{.=X=X=X}.1XVXrX^.-XXX'.].{.@X]..X_.).1X1X.X].5X1X[.oX'.-X=X=X$X=X=X=X-X@XoX=X=XoX;X=X=X@X5X4X-X4X-X5X5X6X5XeXVXCXNXVXVXCXDXJXLXPXPXZXCXDXDXCXNXVXNX6X2XVXCX6XVXBXNXNXZXCXDXCXCXCX2X5X|.5X1X3X@XoXoX@X4X{.{.#X>X2XCXeXeXeX2X2X5X6X1X5X5X=X=X:X4X4X5X5X4X#X-X-X-X5XVXVX3X3X6XCXZXZXCXCXCXZXZXCXCXCXCX6X6X6X5X6X6X6X6X4X-X:X;X%X&X%X%X=X4X0X6X4X5X6X4X:X;X4X0X4X0X0X0XwXwXwX5X0X6XqXwXqXwXwXwXqX0X:X-X4X5X6X3X4X3X4X3X5X5X3X#X5X5X3X3X7X6X7X7X7X3X3X#Xv.}.,X,X7X7X,X3X#X}.3X7XNXNXNXNXNXBXNX6X7X6XNXNXNXBXBXVXNX6X7X<X2X7X7X<XNXNXNXNXNXBXBXBXBXNXBXBXBXBX<X<X<X<XNXNX<X<X<X<X<XNXNX2X6X7X2X7X2X6X6X2X2X6X2X1X.XoX@X#X{.}.1X1X.X@X3X1X1X1X7X7X7X6X6X1X6X6X2X6X6X2X6X6X6X6X2X<X<X<X2X2X2X2X2X>X1X7X1X3X7X6X7X1X1X3X>X3X2X1X2X<X2X<XNXNXNX",
"{ { [ { { F Z C [ { { C C C :.} { ;.S C ;.;.;.:.;.B ^ ,.;.;.C ^ ....;.[ ;.>.[ [ ;...,...;.>.3.>.;.;.[ ;.>.k.:.3.>.>.3.3.;.;.>.;.>.>.,.;.;.,.,.;.;.;.,.>.>.>.,.>.p.1.1.`.[.k././.^.^.j.D D >.>.3.j.F :.:.3.j.j.l.^./.j.j.j.j.j.j.z.l.h.F D G I L L I I G I L I I j.I j.z.z.(.K I j.j.j.I C.(.z./.I I I j.j.I K K K U K I I :.j.j.j.F G F j.j.l.z.^.^./.k.j.h.h.k.z.j.h.h.k.n.>X^.l.k.k.k.h.3.3.:.k.j.l.k.k.k.k.k.2.k.k.2.|.6X).l.^.^.^.^.[.[.oXb.[.[.|.^.|.|.^.^.].|.1X^./.D./.|.1X^.^./.1X1X/.k.^.1XCX).l._.(.I (._.ZXnXrXmX_._.eX2X(.(.).).).).l.^.,X1X2X1X1XwX1X1X1X^.^.1X1X}.}.3X>X|.6X{.[.#X|.-X{..X1X^.{.|.}.^.^.v.|.|.,X>X,X,X,X,X).2X).c.).x.x.).U U U U S.U U A.Z.U U Z.Z.K K K K K K K K K U U U c.c.S.A.A.gXgXA.P B.gXP gXgXP P B.gXMXgXL B.gXV.P w P P iXjXnXc.U U I U c.<X<Xx.).).).)._._._._.2X<X<X,X,X6X).2X<X,X,X3X1X2X2XBXmXBXBX,X>X6X,X<XBXnXCXBXNXBXNXBXBXBXBXnXAXBXnXnX2X<XNX2XBXVX6XVX1X2X2X}.5X-X=X=X{.-X4X.X}.1X}.[.].R.K.`.L.+XXXXX`.@X=X'.oX@X].].=XoXXX;X4X4X0X0X:X&X=XoX@XoX=X#X@XXXoX-XwXwX5X5X1X1XCXCX5X5XVXCXNXCXVXCXZXAXZXMXMXZXBXZXDXBXNX7X7X3X2XCXVX1XVXNX6XNXZXZXDXmXBX2XVXwX3X1X}.wX4X[.@XqXeX^.-X-XwX_.CX_.}.3XVXVX1X-X5X3X5X4X=X;X#X.X5X4X4X-X:X4X5X1XwX6X6X5X6XCXZXCXVXVXVXVXVXVXVXCXVX6XwXwXwXwX0XwXwX4X0X:X:X:X:X4X4X0X0XwXwX4X0XwX6X4X8X0X4X0X0XqXqX6X0X4X4XwXwX6XwXwXwXwXqXwX5X6X4X4X5X5XwXwX0X0X5X5X6X4X5X5X5X3X5X7X6X5X3X7X5X6X5X3X5X6XVX6X7X3X#X#X3X3X3X6XNXVXVXNXNXNX6X6XNXNXNXVXNXNXNXNX7X6X6X7X7X7X<XNXNXNXNXNXNXBXBXBXNXNX<XNX<X7X<X<X7XNXNXNXNX7X<X<XNXNX7X7X7X7X7X7X6X2X3X3X3X>X>X@XOX+X#X@X=X5X4X:X@X#X=X-X5X3X3X>X2X2X2X1X1X1X1X>X,X<X2X<X,X>X7X7X2X2X<X1X1X>X>X2X2X2X2X6X6X2X2X2X2X>X>X3X1X2XNXNX2X2X<X<X",
"{ [ [ { C C C C [ [ [ [ { { B ^ ..{ S { ;.F D S C { { { C { { ^ ^ ..,.[ [ ;.{ [ ;.,.>.;.,.;.,.>.<.>.;.;.;.3.3.2.3.>.>.;.;.,.;.;.>.;.;.;.,.,.,.,.,.,.;.>.1.>.;.;.3.1./.^.|.^.j.:./.^.k.j.j.3.3.3.F :.>.3.j.^.^.(.).)./.j.j.h.h.j.h.h.h.F D G I I I H I K K I j.z.).).).).(._.S.Z.(.(.(.Z.K U (._.(.Z.U I /.I K U I I I z.^.j.k.^.j.:.j.j.j.:.j.l.1X_.).^.k.k.k.k.).l.j.k.b.|.^./.k.k.|.^.k.l.^.k.k.^.|.k.v.b.[.`.H.H.[.@X[.b.n.k././.|.|.k.{.5X|..X^.1X/.^./.j.^.^.^._./.G 2.3././.^.^.j.^.).I I j.).S.U I _.S.K K U mXmXZXmX_.(.BXnX).x.<X).).).BX).).,X<X2X2X).1X6X1Xl.^.wX2X1X1X}.1X1X1X}.}.5X.X1X1X^.1X|.[.'.|.5X6X|.}.}.>X>X>X>X,X<Xx.).<X).<X<X).2X_.).).x.).x.(.nXS.Z.S.c.).S.).c.I c.c.U c.c.).).(.).c.U U S.A.A.S.U U MXhXgXMXV.A.MXGXHXlXq pXMXpX6 P A.P gXgXJXMXA.AXZ.U mXZXJXmX(._.).x.).).rXmXDXmXCX_.VXVX_.nXCXZXDXCX,XCXDXnX1X1X2X2X2X|.|.>X>XmXJX_.2X1X2X6XNX2X2X2XCX2X,X3X>X}.5X1XeX1X1X1X1X}..X|..X-X{.].=X X.X{.}.3X{.`.`.K.R.H.L.K.XXXX'.5X5X].].0X=X'.4X@XOX+X=X.XwXeXwX=X$X4XwX.X@X=X+XOX+X-XCXCX6X1X6XwXCXBX1X5X1X1X6XVXBXNXNXVXCXBXCXCX6XNXZXCXNXNX7X7X6X6X2X2X6XNXNXNXZXZXCXBX).3X2X1X7X3X3XqX.Xb.@X,X2X1X5X5XwX,X2X1X>X}.3X1X|.^.1X1X3X1X1X5X5X5X5X0X-X-X4X6X5X5X4X4X4X6XVXVXVXCXCXVXVXVX6X6XwXVXCXCXVXVXVXVXVXwXqX6X4X0X0X0XqXVXVXwX6XwXwX4X5X4X4X4X:X:X:X-X6X6X6X5X-X-X5X5X6X5X4X6X6XwX6X6X6XwXqXwX4X:X5X6X6XqX0X5X6XwX0X6X6X6XwXwX5X5X5X6X6X5X5X5X6X6X6X3X3X3X3X3X6X6X6XNXVXNXNXNXNXNX6X6XNXNXVXCXBXNXNXNXNXNXNX6X6X6XNXNXNX7X6XNXNX7X<X7X7XNX7XNXNX6X7X7X7X7X7X6X7XNX6X6X7X6X7XNX6X6XNX6X6X6X5X5X4X5X4X;X&X@X#X#X:X5X5X5X-X@X{.-X5X#X3X3X1X1X>X}.3X3X}.}.3X>X<X7X2X1X1X1X2X1X1X1X,X>X7X7X2X2X2X2X1X,X>X1X1X>X>X3X1X2XNXNX2X2X2X2X",
"B C { [ { C C { [ ^ ..;.C C { B ^ { C { { C S S { { ;.C C { ;.;.^ A ^ [ ..;.;.;.;.[ ;.[ ;.;...;.2.>.>.;.[ ;.;.3.j.>.>.3.:.;.;.>.>.:.:.:.,...>.>.1.>.{ ,.,.1.>.;.{ >.>.:.:.l./.j.j.^./.^.l.j.3.3.j.3.3.:.3.k.^.I I I :.F F F F :.;.;.:.S D D D F D F I U U x.x.x.2XmXrXrXS.mXmXU K S.S.Z.K K I I U U U (.).S.S.S.(.I G /.^.).l.2X_.z.k.l.l.l.l.z.|.).l.k./.^.}.>XBXBX).[.b.^.^.^.|.^.b.[.b.k.b.|.v.{.|.k.[.{.{.k.b.[.'.[.@X5XeX^./.^.^.^.^.1XCX_.(.I (.I I I L I I z.U I G /.j.F G j.j.:.^.(.U c.c._.S.K U U U L L U K U jXnXnX).2XBX_.).NXBX_._.CXBX).,X2X2X).^.).eX2X,X^.CXFXrX2X1X2XeX1X1X1X5X5X5X1X^.|.|.{.@X}.2X2X^.|.>X>X2XVX<X,X<Xx.,X6X).,X).).NX2X).<X).).,X).,X).).).,X,X<X<X).n.>X,X).,X,X,X,X).).l.2X_.nXU A.MXMXgXMXMXP gXU U hXkXkXr P P V.q w K K K A.gXxXdXpXGXgXK MXMXGXIXS.(.).).,X^.)._.ZXAXCXBXCXBXBXZXJXJXMXmX).BXZX_.eXVX1X2XVX^.|.-X}.1XrX_.1X1X>X>X1X,X1X1X1X>X>X3X>X}.}.|.{.{.@X@X[.{.=X-X}.1X|.].{.{.{.[.'.@X@XoXoX@X=X`.`.oX'.$X:X-X{.4X0X5X-X'.'.=X$XoX{.5X1X2XCXVX:X-X0X1XeXVX.XoXoX}.,X1X1X1X2X2X,X1X1X1X3X5X3XVXVXVXNXNX6X7XNXVXNX7XZXZXZXCXBXCXNX,X>X2X7X6XNX6XVX2XBXVX2X6X1X3X3X3X5X-X[.[.-X>X,X3X#X3X}.-X3XeX1X|.{.1X0X|.}.-X{.}.wX6X1X1X5X0X4X=X4X4X5X4X5X4X5X6XVXwXVXNXVXVX6XwXwX6XqX6XVXZXVXVXVXVXVXwX6X6X4X0X5X5XwXwXwX4X4X4XqX0X5X0X0X4X4X4X=X-X4X5X5X:X=X4X5X5X6X6X6X6X6XVXVX6X6XqXqX0X4X4X4X5XwXqXqXqXwXqX4X4XwXqXwX5X4X5X5XwX5X4X5X5XwX6X5X5X3X3X7X6X6X6XNXNXNXBXCXBXNX7X7X6XNXNXCXBXBXNXNXVXNX6X6X6X6XNXNX6X6X6X6X7X7X6X6X6X6X6X7X6X6X6X7X6X6X6X6X6XNXNXNX6X6X6XNXNXNXNXNX6X6X6X1X5X3X3X4X-X#X#X@X+X&X#X#X#X3X3X3X-X-X3X3X>X>X>X}.3X3X-X{.#X3X5X3X3X3X1X1X,X2X2X>X,X,X1X6X2X2X2X2X2X7X>X>X1X,X>X>X>X>X<X<XNX2X<X<X<X",
"C C C [ ;.;.B { [ [ ;.;.:.S S { ^ { C { { ^ [ [ [ [ S S C B ;.;.[ ^ B { ..;.;.;.[ { { { ^ ;.,.,.;.;.,.;.;.3.3.;.3.;.>.k.l.h.;.;.C :.:.;.3.2.:.:.2.3.;.>.,.,.1.3.{ >.2.2.^.l./.j.3.k.k.j.j.j.:.F h.F h.:.3.:.j././.j.G j.j.j.:.2.2.`.2.G G D I j.I I C.(.Z.I (.U S.S.U U I U U I I I I K U I I I I (.(.(.(.U I I I I I I I (.U (.(.z.j.j.j.k.k.k.k.[.k.v.[.^.b.|._.BX,X1X^..X^.^.|.[.b.`.[.[.|.^.[.|./.k.^.^.|.k.k.{.5X>X_.CXJXmXI /.j./.1Xz.S.U K K Z.K I I I I I j.z.I (.I I h.:.j.k.j.j.(.(.K U U Z.U I (.(.I K K K K U c.).).l.)._.c.(.rX_.).rXCXnX,X2X2X).,X1XeX2X2X).2XZX_.).2X2X2XVXVX2X2X6X6X}.-X}.1X}.@X1XVXCXrX}.,X,X2XZX_.).VX2X1X1X).,X,X>X).^.^.^.>X,X^.^.l.|.,X>Xv.[.3X}.}.1X1X6X>X1X1X>X>X>X,Xn.2X_.(.(.(.nXnXS.gXgXgX_._.S.gXA.U U U K P P gXA.gXgXA.AXA.P P mXnX_.nXS.S.nX(.)._.).>X1X|.|.).2XeX2X2X_.,X>X2X).).>X1X^.).).CXZX_.1X1X|.{.{.|.|.}.1X>X|.1X,X,X1X1X5X1XeX2X>X1X>X}.#X].'.'.[.[.oXoX{.{.-X].].]..X:X'.R.$XoX@X-X4X@X`.'.0X].`.].[.[.{.@X1X5XL.XX$X-X0X.X1X.X|.2XCX1X}.#X|.2XCX|.{.@X@X#X.X-X3X2X1X}.}.5X6X6X3X3X2XNXVX2XNXNX7X7XNX7XNXCXCXCXBXBXCXNX7X3XwX6X,XBXZXNX1X2X2XeX2X5X#X=X4X5X3X@X{.5X1XVX1X-X3X3X{.@X-X>X-X@X-X5X1X5X4X@X#X1X1X1X1X1X6X4X=X-X4X-X-X#X3X6X6X6X0X6X6XVXVXVXVXqX6X5X6XNXNXVXVXVXCXVX6X4X5X6X0X4X4X6X4X4X4X0X4X4X5X5X5X4X5X0X4X-X6X6X3X5X5X3X4X6X6XVX6XwXVXVXZXZXCXVXqXqXqXVXVXqX0X0X0X0XwXVXwX6X0X0XqX0XwXwX0X0XwXwX6X6XwXwX6X6X6X6X6XNXVX6X6X6XNXCXBXZXCXVX6X6XNXNXBXCXCXNXCXCXNXNXNX6X6X6X6X6X6X6X6X6X6XNXVXVXVX6X6X6X6X6XNXNXNXNXwXwXVXVXNXNXNX6X6XNXNXNXNXNX6X6X6X1X5X5X5X5X3X#X#XoXXXOX@XoX@X-X5X5X-X3X5X3X>X1X4X3X2X6X1X}.#X@X#X3X3X>X>X>X2X2X,X>X6X2X6X2X1X7X7X1X>X3X1X1X1X2X,X>X,X,X<X<X<X<X<X<X<X",
"S C C ^ { S C C { [ [ ;.:.F C C C { { B B B B B { C C C { B B B [ ;.;.C ^ ..^ { ;.C { [ ..^ >.L.3.F k.:.S :.:.D S { :.j.h.F D C C B ^ ;.;.:.k.j.j.:.C ;.,...>.2.,.<.b.k.k.k.3.>.>.2.2.j./.l.j.j.j.j.:.:.j.l.j.j.l.j.G j.^.^.j.j.:./.j.G j.D :.(.S.S.Z.S.Z.U U I I I K U (.U K I (.(.c.S.Z.I K K K K K K K I I F I j.:.h.j.j.j.j.h.j.j.k.|.k.k.p.`.L.b.b.].[.`.[.[.|.).>X|.1X^./.b.v.k.`.^.|.}.|.|.1X^.[.^.l.|.^./.^.)._.).c.U S.c.j.k.j./.(.U K K K I h.h.j.h.h.j.h.h.h.h.F j.j.^./.l.)./.(.c.I I I I I h.h.x.).U I I h.z.c.<X<Xx.).2X(.U l.z.x.).).(.).2X2Xl.,X,X).1X2X<XNXBXBX,X>X>X^.2XVX_.2XVXZXCX1X2X2X^.|.1XeXCX2X2X1X,X)._.).)._._.(.).).^.|.>X).1X2X^.^.>X}.^.}.>X>X}.}.wX6X2XVX2X2X2X1X1X5X5X}.}.1XVX6XBXBX_.<XBXmXnXnXnXnXZXnXBXCXnXnX_._.(.S.A.nXA.gXgXA.S.Z.Z.U x.z.(.).).).2X2X_.).^.^.1X1X1X|.}.1X).1X>X>X}.1X>X|.^.|.^.|.1XBX_.).}.|.^.{.].`.[.|.>X>X1XVX<X<X<X1X6X1XVX2X^.|.}.-X-X@X@XXX$X;X$X$X$X;X;X X=XoX'.'.`.K.*X=X-X@X}.|.}.oX1X|.`.`.XX`.`.XX{.4X`.XXXX{.5X>X3X=XoX{.}.}.5X3X@X|.{.{.{.@X#X@X@X@X}.5X4X@X#X3X1X6X5X4X5X6X6X6X6X2X6X6XVXZXVXNX2X2X7XVXVX2X6X7X7X6X6XZXPXmX6X6X2XwX5X-X5X4X@X-X=X4XwX5X}.1X6X5X1XwXwX6X@X=X4X@X@X5X5X5X0X4X@X-X5X4X-X4X5X5X4X#X#X=X=X@X=X6X6XwXVX6X6XwXwXwXVXwX4X6X6X6X6XVXVXVXVXwXwX4X4X0X4X4X4X4X0XqXwX6X4X5X5XwX0X4XwX6X6X6X6X6X5XwX6X6XwXVXVXVXwXVXCXZXZXZXZXZXCXwXwXVXVXVXwX0XwXwXwXVXVXwXqX0XwXVXwXqXqXqX6XwXVXwXwX6XwXVXwXwXVXVXVX6X6XVXVXCXBXCXCXVX6X6XNXVXCXCXNXNXCXCXNXNXVXVXVXwX6X6XVXVX6X6XVXVXVXVXVX6XVXVXVXVXBXCXVXVXNX6XNXCXCXNXNXNX6XNXNXNXNXNXNX6X6X6X6X6X6X6X-X:X5X-XoX*X@X@X@X@X3X}.{.{.>X>X>X1X1X1X3X1X1X1X3X#X}.1X5X3X3X5X1X1X>X>X7XNX6X1X1X2X1X>X3X>X}.}.>X>X>X>X,X<X<X<X<X<X<X2X2X",
"C C C B B C C C C C { { C S D D C { C B B { C B C C B B ^ { { B B C { B B ......B C C C ;.{ C :.j.F h.h.F C F Z S S :.:.F C S C C C { ;.{ { :.:.h.k.>.>.>.,.,.p.1.1.k.1.[.3.3.1.>.2.^.^.j.j.k.k.k.k.j.j.j.j.F j.k.j.:.h.:.:.h.h.F F j.G j.j.j.z.I K U K K I I G tXC.C.Z.S.U K U K I C.Z.K K K K K K I I z.j.^.^.j./.j.j./.k.k./.k.2.1.`.@X[.b.`.[.[.v.`.].|.[.p.[.|.^.^.^.^.^.b.b.p.{.|.^.[.{.^.j.|.^.^.l.k./.k.k.j././.z.j.j.j.I I c.(.I I I I I I h.j.^.j.h.k.b.b.v.|.h.z.^.k.l./.^.l.).).l.x.l.z.z.k.b.n.l.,Xn.n.|.,X2Xx.,X,X).,X,X,Xn.n.n.,X).l.l.l.x.).).,X1X1X2X2X2XBXZXZXnX2X2X^.|.1X7X1X1X6XCXCXrX_.^.2XCXrXrX2X2X<X<X2XBX<XBX2X_.).eX_.).,X2X2X<X2X1X|.>X1Xl.>X7X1X>X1XCXmX).2X,X2X1X1X1XwX6X5X6XCXDXDXZXBX_.NXBXZXnX_._.rXBXnXmXCXnXnXnX_._.(.S.U U U U K Z.(.).x.)./.).,X1X).2X).^.).1X^.^.>X}.|.].{.|.}.|.>X>X1X1X}.oX@X@X@X-X1X|.|.}.|.1X}.{.@X{.-X6XCXBX_.<X,X,X<X2X>X>X-X#X#X3X5X5X-X@XoXoX=X;X=X$XoX].'.'.R.XXoXoXoX-X0XeX1X1XVXwX5X{.{..X{.-X:XoX`.[.|.1X=X].#X3X3X@X=X%X=X.X#X4X=X:X:X#X#X#X#X;X:X4X;X#X#X=X;X4X4X6X6X6X6X6X6X6X6X6X7X6X6XCXDXCXNX6X6X6X6XVXVX6X6X6X6X6XCXMX_.6X6XwX6X3X-X0X4X=X5X-X0XVXwX4X5X1X1X1X2XVX5X1X5X5X1X#X3X5X1XwX5X=X:X4X#X@X#X{.5X4X#X-X:X:X:X:X6X5X6XwX6X1X5X6X5X6X5X4X0X6X6X6XVXVXVXVXwXqXwX6X4X4X4X4X:X4X0X4X0X6X6XwX6XwX6XwX4X5XwX5X6XVXwXwXwXVXVXVXwXVXVXCXZXZXZXZXZXZXVXwXVXVXwXqXwXqXwXVXVX6XVXwXqXwXwX5X4X6X6X5X6XwXwXwXwXVXVX6XVXVXVXVXVXVXVXVX6X6X6XNXNXNXNXVXVXNXVXVX6XVXNXVXNXBXCXVXVXVXVXVX6X6X6X6X6X6X6X6XNXNXNX<XNXNXNXNXNXNXNXNXBXBXBXBXNXNX6XNXNXNXNXNXNX6X6X6X6X6X6X5X4X5X1X=X.X=X{.{.{.@X{..X3X3X1X1X1X>X>X>X>X1X2X1X>X2X6X1X1X1X1X1X1X.X>X<X<X,X,X1X2X>X>X>X|.{.|.{.>X>X>X>X<X2X,X,X,X<X2X2X",
"B C C S C C } F Z B B B B x C F S C C S C C C x B B ^ ^ B ^ ^ ^ B B B ^ ..^ ;.3.:.C S C C :.C x C C C C Z { F S C { ;.S C C C C { ^ ^ ;.[ ;.;.;.2.[.|.|.k./.[.2.[.k.k.^.eXrX/.j.3.>.:.:.3.3.j.k.j.j.j.j.j.j.:.3.h.F :.j.l.h.h.j.j.I j.j.k.^./.C.I K K K K I I I C.I U K U K K K K K I Z.K K I I I I h.k.l.j.l.).l.j.j.j.j./.k.k./.k././.[.b.k.1.[.|.|.{.|.|.^.[.-X|.^.|.>X}.^.b.b.1./.n.b.[.1XmXI /.^.).z.j.I G 3./.C.C./.j./.(.S.S.K K K I j.j.h.:.h.^.).j.l.|.|.|.|.1X/.j.j.k.k.k.^.l.l.).).x.|.n.3X}.n.3X4X5X|.1X|.2XBX).CXDXDXDXDXDXCX2XVXrX_.x.,X2X_.).).,XVXDXmX).2XrX(._._.nXCX).2X2XVX6X6XCXDXJXmX).,X,X2X).<X,X,X,X,X<XCX_.ZXCX_.).6X2X>X,X1X1X,X,X5X1X^.2X3X,X2X<X1X>X,X,X|.|..X6X2X>X1X1X1XCXDXDXmXnX_._.CXZXmXDXDXmXnXmXnXmXmXmXnXgXA.A._.nXS.S.U (.(.c.(.l.k.k.}.^.).2X<X^.^.^.^.^.).^.>X>X|.}.>X5X3X#X@X4X5X1X1X0X4X-X@X@X.X@X].1X5X|.}..X{.:X.X>X>X2X2X1X>X>X6XVX6X5X5X=X4X5X5X5X4X.X=X;X=X=X].@X;XoXoX@X=X5X5X0X0X.X1X.XeXeX6XVX2X^.{.{.1X1X|.-X@X[.@X{..X-X=X4X0X6X}.4X=X;X5X6X5X@X:X:X;X;X-X-X4X4X4X-X#X;X:X:X:X4XVXVX6X5X6XVX6X6X6X6XNXVXNXCXCXVXVX6X6X6XwXwX6XVXVX6XwXVXCX4X6X5X1X4X5X4X0X5X4XeX5X5X0X5X-X4X3X5X#X@X5X5X5X1X1XqXwX4X6X6XCXeX#X:X:X@X-X:X;X:X:X:X4X4X4X0XqX0X:X4X4X4X5X4XwXwXwX1X4XwXqXwX6XVXVXVXVX6X6X6X6X4X5X4X:X;X:X0X1XwXwX6X6XwXwXwXwXwXwXqX6XwXwXwXwXVXVXVXVXVXVXwXVXZXZXZXZXZXZXVXVXVXwX6XwXqXqX6X6XVXVXVXVXVXwX5X0XwX5X5X6X6XwX6X6X6X6X6X6X6X6X6XwXVX6X6X6X6X6X6XVXVXVXVX6X6X6XNXNX6X6XNXNX6X6XNXNXVXNXVXNX6X6X6X6X6X6X6X6X6X6X6X6XNXVXNXNXVXVXNXNXNXNXNXBXNXNXNXNXNXNXNXNXNX6X7X7X6X1X,X>X3X>X}.=X=X}.}.>X4X-X-X4X5X5X1X1X1X>X>X>X1X2X1X1X,X,X<X,X,X>X>X>X1X1X>X>X,X>X,X2X1X>X>X>X1X1X1X.X>X>X>X1X<X2X6X2X>X>X1X>X",
"B B C C C C } Z Z C { ^ B B B B B B C C C C C x B B B B ^ B B { ;.{ ^ ^ ;.;.{ ;.F C [ { C :.C C ^ ..,.{ C [ ;.;.;.[ ;.>.;.;.,.;.,.,.*.>.>.>.>.,.f.[.1XeX).(.2X/.|.^.l.z._.nXU F S ;.;.;.>.3.3.j.G F j.j.j.^.z.F :.:.j.k.l.j.j.h.j./.l.j.j.j./.mXZ.K K K I U U K K K K K K K K K K K K U Z.U j.j.j.k.j.j.^.l.j.j.j.G j./.j.k././.j.C././.l.^.^.D./.^.^.|.|.1X).^.1X1X^./.|.k.k.[..X^.l.k.[.1XCXMXU I j.U I I G G I C.U I I F G I z.I I I h.z.j.h.I F h.z.^.j.k.}.}.|.|.l.^.k.b.2.3.p.[.l.z.l.x.l.}.5XCXDXDXZXCXDXDXFXZXDXMX_.mXMXMXMXGXGXkXkXJXmX_._.mXmXrX_.(.(.S.MXjX_.mXDXMXS.).).).2XCXZXZXZXDXDXGXjXnX_.>X2X6X>X2XVX>X6X>X^.CXmXmX2X2X>X1X>X}.|.}.>X-X@X#X3X|.3X#X>XDXZX_.1X>X1X5X6X4X6X2X>X>XCXCXmXmXBX2X2X_._.mXZXmXFXLXMXMXDXmXmXZXZXmXnXnX_.gXmXnX_.).)._.).).).^.|.3X<X6XCXCX2X6X2X2X2X_.2X>X6X>X2XVXCXCXCX1X0X1X1XBXCX1X.X5X}.[.@X=XeXwX.X|.{.}.1X1XwX5X3X6X5X5X5X6X6X1X1X4X5XwX1X5X6X5X}.{.=X:X4X:X5X0X4X=X0XCXDXDXeX.X.X^.5XeX1X1X>X}.}.oX[.6XwX>X[.`.oX@X=X4X=XoX=X3X3X0XwX.X@X1XZXCX1X:X-X4X=X-X4X4X5X.X0X4X;X:X:X4X4XVXVXwX5XwXVX6X6X6XVX6X6X6XCXCXCXNX6X6X6X6X6X6XwX6XVXCXZXCXVXVXVX0X0X0X4X0XwXwXVX2X5X4X4X:X:X-X-X:X:X4X5X4X4X5X5XqX5X4XwXCX2X5X:X4X4X0X0X:X:X:X:X4X4X6X6XwXwX4X0X0X4X4X0X0X6X6X6X4XqXwXwXwXVXNXVXVX6X6X6X0X4X4X0X0X:X:X0XwXwXqX0X0XqXVXwXwXVXVXwXqX0XwXwXwXVXVXVXCXVXqXwXVXCXZXZXZXZXZXVXVXqX4X4X6XqX6X5X5XwXVX6X6XVXVX7X5X6X6X6X4X4X6XVX6X6X6X6X6X6X6X6X6X6X6X6X6X6X6X6X6XVXVXVX6X6X6X6X6X6X6XVX6X6X6X6X6XNXNXVXVXVXwX6X6X6XNXVX6X6X6X6X6X6X6X6XVXVXNX6XNXNXVXNXNXNXNXNXNXNXNXNXNXNX6X6X7X5X5X>X}.#X3X.X=X=X#X-X5X5X5X5X1X>X>X}.>X>X>X1X>X>X,X>X3X3X,X<X<X<X<X,X<X2X,X>X1X6X1X,X2X>X,X,X1X2X2X1X}.}.>X1X1X<XNX2X2X,X1X1X>X",
"{ { C D C C { C C B ^ { C C C C B { B B B { ;.;.C C B B C } C C ;.;.{ ^ ^ { [ { { ^ ;.;.F C C { ^ [ p.k.} ;.;.{ ;...,.2.1.>.>.>.<.>.<.>.3.2.>.>.2.3.:.).(.h.l.k.:.:.:.:.:.I h.h.:.;.3.j.j.G j.j.j.h.j.j.j.^.).z.h.3.2.j.j.:.j.h.h.j.l.k.j.j.C.A.A.U Z.Z.I K K K K K K K L K I K K I I I I z.^.).).^.l.^././.tXtX/.I G C./.tXj./.C.C.j.j.l.^.^.^.^.}.}.^.1X^.l.b.v.n./.^.[.b.p.[.}.)./.^.l.j.U U K c.(.K K I F I K K L L h.j.h.h.j.j.h.j.h.l.h.h.j.j.n.l.j.k.k.[.^.^.#Xn.l.[..X{.b.k.^.^.h.k.^.k.k.VXJXHXGXSXMXMXkXgXS._.nXS._.S.Z.S.S.S.S.U (.(.(._.(.S.Z.(.c.(.S.Z.U U U S.S.(.).).).).rXCXDXCXMXMXMX_._.6X1X>X1X1X^.2X1X1X1X,XDXJX_.,X2X1X6X5X1X}.5XeX>X6XCXZXZXCXVXmXDXJXFXZXZXCXZXDXDXZXZXDXmXmXmX_.).1XwXCXBXnXnXgXgXnXMXMXMXmXnXmXAXmXAXnXnXnXnXmXnX_._._._._.).wX5XeXCXDXDXmXZXZXZXCXNXCXrXCX_.VXrXrXrXmXDXJXZX_.|.6X_.rX2X).6X1X/.[.^.^.^..X.X}.|.2X1XeXwX2X2X1X1X1X1X>X3X.X1X1X1X>X>X1X1X|.^.eXDXDXZXDXJXZX6XwXCXnXnX).{.$X'.{.1X1X1X-X=X{..XeXVX5X-X].'.$XoX4X0X@XoXoX#X3X6XwX1X5X1X2X2X5X-X-X-X=X6X0X.X5X4XwX5X4X0X0X5X6X6X6XwX6XwXwX6X6XNXVXVX6XCXZXZXZX6X6X6XwX6X6X6XwX6XCXZXCXCXZXCXVXwX6X6X4X6XwXwXVXwX6X5X4X4X4X4X:X0XqX4X@X#X;X;X4X5X6X6X4X6X0X0X4X0XwXVXwX0X0X0X0X4X0X4XwXwXCXVXVXwX0X0X0X0XwXqXqXqXqXwXVXCXCXwX0XqX5X6XVXwXwXwXqXVXwXqXqXwXVXqXqXqXwXVXVXwXwXVXVXwX0XwXVXVXwX6XVXZXVX0X6XVXCXCXCXZXZXZXVX6X6X4X0X6X6X6X6X6X4X6X6X6XVX6X5X5X4X4X5X5X6X6XVXVX4X4X6X6X6X6X6X6XVXwX6X6X5X6X4X6XVX6X6X6X6X6X6X6X6X6XwXVXVXVXVX6X6X6XVXVXVXVXqXqXwXVXVXVXVXVXVX6X6X6X6X6XNXNXNXNXNXNXNXNXNXNX6X6X7XNXNXBXBX6X7X7X3X5X3X3X5X3X-X=X=X5X1X1X>X>X>X>X1X}..X>X>X1X1X{.}.,X,X>X>X,X7X<X7X<X<XNXBX2X>X,X>X,X<X<X>X>X}.>X}.|.}.}.|.>X<X2X2XNXNX2X2X2X,X>X",
"{ S C C C C C { C C B C C Z F Z C C C B B B ^ ;.S C { C C Z C { { { [ [ [ ;...^ ..;.;.;.{ C { [ ;.^ ^ 3.j.3.:.F ;.,.;.>.3.>.>.>.2.D.L.k.k.h.h.2.1.>.;.;.>.p.'.=X[.^..X.X).).^.j.j.F F :.:.S F S F F F F C F h.h.h.3.3.h.j.h.h./.h.h.h.j.^.j.I K K K I z.I I I L I I I U U U )._.Z.I :.j.^.j.C.C.U I I /.I S.C.I I I I tXtXtXI ^.(.S.c.).).^./.^.^.^.^.|.^.b.k.b.[.k.l.^.^.k.{..X^.^.|.^.k.j.j.I K U Z.U I I U I I I I D F j.h.h.h.1X^.:.j.k.k.[.k.k.[.l.k.[.H.].}.k.l.^.>X^.1XVX2X/.^.^.l.j.j.l.l.(.U gXgXnXS.nXS.S.(.(._.(._.S.U Z._._.x.x.^.^.).).x.x.x.z.l.).(.z.z.z.x.c.c.x.c.x.x.).)._.nX_._._.).,X6X2X>X2X2X).>X1X1X1X6X2XZXMX_.6XCXCXZXCXCX1X1XwX1XCXDXDXGXFXZXZXmXFXSXFXFXFXMXGXMXMXMXMXjXgXnXmXCXDXLXJXmXnXnXnXnXBXZXAXmXmXnXMXMXMXJXMXmXDXnXnXBX_._.).x.,X,X2X6X1X2XnXnXrXCXCXBXCXVXrX_.CX_.1X).).).(.S.S._._.6X1X,X,X>X^.1X>X^.}.k./.^./.l.k.^.>X|.,X).1X1X>X>X}.>X>X1X1X>X|.^.).,X).).)._.ZXJXMXmXrXrXrX1X-X}.1X-X}.oXXX].{.}.5X1X4X-X].{.wX6X}.[.XXXXOX+XoX.X5X5X#X=X4X5X5X5X4X-X{.}.-X@X5X.X#X4X4X{.-X4X4X5XVXwX6X6X6X6XVXwXwX6X6X6XVX6XVXVXVXCXCXCXCX6XwX6XVXCXVX6X6XNXZXVXNXNXCXVX1X2XVX2X-X5X6XVXZXVX6XwX0X4X0X4X5X0XwX0X-X4X0X0X4X0XqXwX4X5X0X0X4X4X0XwXwX0X4X0XqXqXqX0XqXwXwXVXVXVXqXqXqXqXVXVXVXVXVXVXZXZXVXwXwXVXVXVXZXCXVXwXqXwXwXqX0XqXqXqXwXqXVXwXwXqXwXVXVX6X0XwXVX6X5X6X6XVXwXwXwXwXCXCXVXVXVXCXVXVXwX5X5X6XwXVX6X6X5X5X4XqXwX0X4X4X4X4X4X4X6X6X6X6X5X4XVXVXVX6X6XVXCXVXVXVXVX6X6X6XwXVX6XVXVX6X6X6XwXwXVXVXVXVXVXwX6X6XVXVXVXVXVXVX6XwXVXVXVXVXVXVX6XVXwX6XNXNXNXNXNXNXNXNXNXNXNXNXNXNXNXBXBXNX6X5X5X4X4X4X4X5X1X.X-X-X{.|.|.}.>X>X1X1X1X1X1X5X>X{.>X2X2X1X>X>X7X7X7X,X7XNXNX,X>X,X,X>X>X,X>X1X}.|.|.|.|.{.3X,X2X2X<XNXNX2X2X7X,X,X",
"C S F F Z C C { { :.F C C C C Z C C C C B B C C S { ;.S C C C { ;.[ ^ [ { ^ ^ B ^ ;.{ { B B ^ ^ [ [ ..3.j.j.j.D S { S S ;.S F S ;.,.1./.l.h.:.;.>.>.>.>.p. X.X1X)./././._.I I j.:.F S ;.;.,.>.;.{ :.j.;.{ ;.:.:.:.2.j.:.3.:.F j.h.F :.;.F F I K L I h.z.I G G j.j.).).(.(.(.(.(.C.j.j.I j.I G I U K L I I U K K U I I j./.I (.).l.l.l.).^.^.^.>X1X}.^.l.j.k.[.|.5X1X^.^.^.j.j././.j.k.j.h.I j.I I K U I F I _.z.h.h.h.:.F j.h.h.k.2X<Xl.^.|.[.[.b.b.b.k.k.k.[.|.wXrX(.(._.C._.DXFXS.(.x.x.z.j.z.)._._.(.K z.l.).x.x.)._.Z.U Z.Z.U Z.A.S.S.U ).2X2X).x.^.^.l.).2XBX(.,X2X).).,X).)._._.<X).).).).2X^.l.6X2X<X,XVX2X^.7X5X6XVXNX2X2X).,X2XCXmXmXrXBX1X|.>X|.>X2X2X(._.2X<X).1X1X2X2X1X2XmX_.S.A.Z.U (._.S.S.mXPXLXGXjXgXmXMXAXJXMXnXnXAXMXgXgXGXMXgXMXMXmXZXDXZXCXnXCXVXVXCXCX2X2XCXCXZXCXrXmXrX).).2X_.).^.l.).).).).).1X).l.n.>X}.>X|./.k.^.|.1XBX)./.1.[.}.|.,Xn.|.3X6X1X}.#X}.}.1X|.^.,X).2X,X<X7X_._.2X<X,X^.VXZXeX|.{.=X-X=X].=X=X].].}.1X-X].].@X@X@XoX'.%XXXK.&X X.XqX5X-X-X-X=X5X4X-X@X=X;X;X:X4X4X5X-X-X;X=X=X:XeXDX2X6X6X6X6X6X6X6XVX6X6XwX6X5X2XNXNXNXVXwX2X6XVXVXVX2X2XZXZXCX2X2X2XVX6X5X1XwX2X6X5X6XVXCXZXVX6X5X6X0X4X0X6XwXwX4XwXVXVX6X0XqXqX0XwX0X4X0X0XqX0XqXqX0X0X0X0XqXqXqXwXwXwXwXwXVXwXqXqXwXwXVXVXVXCXDXZXVXVXVXZXDXCXVXVX2XwXwXqXwX5X5XwXqXwX6XwXwXqXqXVXCXVXVX6X4X6X6X6X5X6X6X6X6X6X0X6XVXVXVXVX6XVXVXVX6X6X0X6X6XwXwX5X5X4X0X0X0XqX0X0X0X4X0X4X6XwX6X5X6XqXqXVXCXVX6XVXCXCXCXCXVXVX6X6XwXVXwXwXwX6X6X6XwXwXwX6X6X6XVXwX5X6X6XVXNXVXVXNXNXVXVXVX6XVXVXVXVXVXVXwXVXVXNXNX6XNXNXNXNXNXNXNXNXNXBXBXBXNX6X6X5X1X5X5X1X1X1X1X}.{.{.{.{.|.}.}.1X1X>X>X>X>X>X}.>X>X,X1X>X>X7X5X7X>X7X7X<X7X,X,X,X>X>X>X>X}.|.}..X1X5X5X>X,X2X1X<X<XNX2X2X<X>X,X",
":.Z F } Z C C C { ;.:.S C C C Z C C C C C C C C C { ;.D C C B { [ ;.B { { ^ ^ { { C B ^ ^ B B ;.;.;.;.;.S Z Z C F S B { [ { :.;.;.;.>.2.h.:.>.,.>.1.3.F 3.k.j.j.j.j.F :.k.j.3.2.:.F >.;.;.,.<.>.2.3.3.;.;.,.>.>.;.h.j.:.>.;.j.j.G F 2.^././.c.z.j.j./.^.C.C./././.^.(.Z.K I C.C./.C.I I I I j.l.c.I D h.j.I j.z.^.l.l.l.x.x.l.^./.^.l.k.k./.k.k././.[./.k.k./.l.).1Xc.j.j.j./.j.I z.^.(.C.I z.z.I I h.h.h.h.h.j.l.,Xz.l.j.z.j.j.k.^.k.z.k.^.|.[.|.|.|.^.^.^.^.^.2XnXU I c.^.j.).nXc.l.k.|./.l.).x.).2X2Xl.^.l.>Xx.).).(.S._.S.Z.S.A.A.P A.U U _._._.).|.}.)._.mXmXS._.nXrX).|.,X,X2X2X,X^.|.>X^._.).).VXCXCX2X).^.^.>X}.2XZXZX_.).|.}.^.l.rX).l.|.|.|.}.|.>X2X2X1X1X1X1XwXCXBXDXFXCXDXJXgX(.(.c.c.c.)._.A.A.MXkXhXpXA.gXjXMXGXHXGXMXMXSXgXgXhXjXgXgXMXMXGXJXJXGXGXPXPXPXLXLXDXnXmXMXmXmXgXnXBX(._.rX_.(.).).).).^.^.}.1X^.|.|.}.>X|.|.^.1X|.^.2X_.).>X[.|.|.}.>X3X}.,XZXCX^.|.{.|.1X1X1X6X2X6X7X7X3X}..X5X5X.X.XCXFX2X|.].@X@X@X=X{.=XoX].@X#X@XoX=X:X4X@X'.oX;X$X XoX=X4X1X.X.X-X4X1XeX0X-X4X5X-X:X-X4X4X4X=X;X:X:X$X=X1X6X5X6X4X6X6X6XwXVXVXVX6X6X6X5X6XNXNX6X6X6X6X6X6X6X1X5X6XVX2X1X5XCX2X6X5X:X3X5XVXVX6X4XwXCXZXCXVX6X6X0X0X0XwXwXwX0X0XVXVXwXwXqXqX0X0X4X0X0X0X0X0XwXqX0X0X0X4X0XwXqXwXwXqXqXwXVXwXwXqXwXwXVXVXVXVXZXCXVXVXVXCXCXVXwX5X6XqXqXwXVX6XwXwXwXqX6XqXqX0XwXwXVXwXVXwX5X5X6X6X6XwX6X6XwXwXVXVXwX6XVXVXVXVXwXwXwXqXqXqX0XqXwX5X0X0X0X0XqXwXVXqX4X5XqX0X0XqX5X5X0XwX0X6XVXVXwXVXVXCXCXNXNXVXwXwXwXwX6X6X6X6X6X6X6XwXVX6XwX6XVX6X2XwX6X6X6X2XNX6X6XVXVXwX6X6XNXNXVXVXVXVXVXVXVXVXNXNXNXVXVXVXNXNXNXNXNXBXBXNXNX6X6X6X5X5X1X1X1X6X>X{.].@X@X[.{.|.>X1X>X}.>X3X>X>X>X>X>X2X,X7X7X2X2X<X7X1X3X7X,X2X<X,X2X1X>X>X@X#X>X>X1X>X}.>X>X>X1X1X<X<X,X,X,X>X",
"v.m.f.f.f.[ ^ [ [ :.F Z C C { } C { ^ { C C B ^ { ^ { { { { { ^ ^ ^ [ { ^ ^ ^ ^ ^ B B ^ ^ [ ^ { { { { ,.;.C { ;.;.;.;.[ ,.>.;.>.;.,.>.;.>.>.,.,.>.3.j.h.3.>.3.2.2.2.2.2.2.p.<.2.k.k.2.2.p.<.p.p.p.[.[././.2.2.3.3.2.k.k.j././.j.j././.^.).(.(./././.C.C.I /./././.l.l.I L H G G G j.z.j.z.z.k.j.l.)./.l./.^.^.^.^./.l.^.k.k.b.`.H.k.k.{.1X/.2.].^./.^./.^.).C.z.j.j.z.j.j.l.l.j.z.).z.z.(.h.h.h.h.j.h.j.b.k.3.2.k.^.^.k.k.l.n.k.[.[.b.2.2.|.|.|.k./.^.^.).l.k.|.>X,Xz.j.b.v.b.k.|.b.v.k.2.b.v.|.,X).k.}.^.[.|.|.l.x.).).)._.S.(._.S.S.A.gXZ.U Z.(.).<X2X).(.(.Z.U U U S.rX(.).2X).2X2X<X1X1X1X).rX(.^.).).).>X/.k..X1X1XDXJXJXS.^.|.|.|.|.}.|.}.v.[.{.>X>X|.^.^..X>X1X1X1XCXZXJXLXPXGXMXnX<X<X6X<X).(._.A.Z.gXA.A.Z.S.gXgXMXAXhXgXgXgXMXgXgXgXgXgXA.gXgXgXMXkXiXhXMXkXkXGXGXkXA.gXMXA.Z.Z.(.(.(.S.S.S.(.).^.^.).|.|.{.{.|.|.}.NXVX|.>X1X1X^.1X>X}.}.}.|.3X}.}.1X2X6X|.rX_.^.}.-X5XwX5X5X5XwXCXDXDX6X[.-X6X|.{.}.,X}.].@X;X-X:X=X#X@X1X4X{.{.].].$X$X1XeX|.].@X=X=X XoX=X-X.X0X=X{.:X-X-X4X4X:X-X#X;X:X4X-X4X-X;X;X;X$X;X-X5X4X6X6X6X6X6XVXVXVXVXNXNX6X6XVXVX6X6X6X6XqX6X6XwX6X5X6XwXwX5X1XVXCXwX5X4X5X6XVXVXqX6X6XwXVXCX2XwXVXwX5X5X0XwX5X0X1X1X5XwX1X5XwX.X$X:X:X1X0X:X4XqXqXqX0X4X4X0XqXqXqX0XqXqXwXVXwXqXqXVXVXVXVXVXVXVXVXVXVXwXwXwX6X6XwXVXVXVXVXVXwXwXwXwX0X4X4X4X0X0XwX0XwXVXVXwX0X0XwXVXwXwXwXCXVXVXVXwXqXwXVXCXVXVXVXVXwXwXVXVXwX0X8X8X4X4X4X6XwXVX6X6X6X6X0X6X6XwXwX6X6X6X6XwXwXwXwXVXVXNXVX6X6XwXqX6XVXVXVX5XwXqX6X6X6X6X5X6X6XVX6X6XwX6X6X6X6X6X6X6XVX6X6X6X6XNXNXVXVXVXVXVXCXVXVXNXVXVXVXBXCXBXNXNXNXNXNXNXVXNX6XNX6X6X6X1X1X1X5X5X5X-X@X{.#X#X@X3X3X3X@X{.}.}.}.>X>X>X2X<X<X7X7X<X<X<X,X>X>X7X7X,X,X>X7X>X>X>X}.1X1X1X>X>X}.>X1X}.}.,X>X>X2X1X>X",
"m.v.+XU.p.p.p.<.S Z C } { ^ ^ [ g.g.' ^ ;.;.;.,.,.;.;.;.[ [ ,.;.^ ..;.,...^ ^ ;.;.^ ^ ^ ....,.<.,.;.;.;.,.;.;.,.>.,.;.;.,.>.;.;.[ ;.;.;.,.>.>.<.b.3.:.:.3.;.,.<.,.,.1.D.1.[.p.>.>.3.2.2.[.k.^.1X1XrXrX_.rX_.).^.^.(.(.).^././.^././././.^.(.(./.j./.C.G G :./.:.k.l.j./.I I I z./.l.).l.).).^.l.^.).^.1X1X^.^.^.k.k.2.1.2.k.k.L.L.D.3./.1X)./././././.^.).(.(.(.U z.z.j.j.^.).l.z.l.[.k.m.n.|.j.k.v.b.n.b.v.b.oX#X}.}.k.b.[.{.|.[.[.[.[.`.b.{.{.|.^.|.|.k.k.|.}.|.^.^.k.H.[.v.{.].v.{.k.k.].v.|.|.>Xn.v.[.[.{.|.|.).).).2X_.(.).).(.S.S.A.gXnXS.U ).2XVX).).).U U S.K U Z.A._.S.Z.S._.S.c.).).(.)._._.).x.,X)././.^.^.).rXmXmXC.^.>X|.#X3X1X|.{.].[.|.|.|.n.|.^.}.1X>X>X).2XCXJXJXMXmXmXZXJXJXJXFXS.Z.Z.Z.U gXA.K K S.A.U B.gXgXgXA.A.jXgXgXjXgXP A.gXA.P B.P P gXgXgXgXAXgXA.S.gXnXgXZ.(.x.).).S.S._.).^.|.|.n.{..X}.|..X.X3X6XBX^.}.>X.X1X5X}.[.[.[.].>X1X1X>X2XZX).[.]..X5X4X1X6X1X1X1X2XFXJXGXmX^..X3X-X-X5X1X.X;X#X:X-X-X:X@X=X}.5X-X{.=XoX'.XX{.=X{.@X@X=X;X$X=X@X:X.X4X=X-X4X:X-X4X0X5X.X6X5X-X5X-X4X-X4X=XoX;X4X4X4X6X0XwXwXwX6X6XVXVXVXVXVXVXVXVX6XVXwXqX6X6XVXwXwX6XVXwX4X5X4X4X0X6XqX5X0X6X6XVXwX6X6X5X1XeXVX1X1XwX5X6X1X1X0X5X-X}.2XwX0X=X5X5X@XoX=X-X:X0X-X4X0XqXqX0X0X4X0X0X4XwXqXqXqXqXwX0X0XqXqXwXwXVXVXVXVXVXVXVX6XwXwXwXqXwXVXVXVXVXVX6XwXwXwXwXwXqX0XqXqXqXqXwXwXVXVXwXqXwXVXVXwXwXVXwXwXwXVXwX0XwXVXVXVXVXVXVXwXwXVXwX4X4X4X4X6X6X4XqXwXwXwX6XwX6XwX6XwXVXwX6X6XwXqXqXqX6X6XwX6XwX6X5X0X6X6XVXVXwXwXqX6X6XVXVXVX6X6X6XVX6X6X6X6XqXwX6XVXwXwXVXwX6X6XVXVXNX6XVXVXVXVXVXVXVXVXVXNXNXBXBXBXNXNXNXNXNXNXNXNXNX7XNXNXNX6X1X5X5X5X#X@X@X}.3X-X-X5X3X>X#X#X{.{.}.>X>X>X).<X<X7X7X2X<X<X2X1X1X,X7X,X>X>X3X>X>X1X1X5X2X2X>X>X>X>X>X}.>X>X1X>X>X>X>X",
"f.L.eXZXZXCXDXFXmX(.:.[ ;.;.[ g.f.p.`.2.3.>.,.,.,.>.,.;.,.g.g.0.,.>.>.,.;.,.,.>.;.;.........>.<.>.,.,.>.,.>.>.>.>.;...,.>.;.;.;.;.;.>.,.;.,.,.,.>.>.;.{ [ ;.>.>.,.>.>.<.<.p.b.p.<.1.p.p.1.1./.^.(._.S.Z.S.S.(.(.(.S.Z.C./././.^.^././.C.(./.).(.I I j.j.j.l.l.j.j.l.j.)._.c.z.^.^.^.1X).).^.l.^.^.^.^.^.}.^.^./.[.b.1.H.{.^.k.2.].^.I j.l._.1X^./.(.^.^.).)._._.).,X,X^.,X>X2X).l.b.`.[.k.{.1Xl.k.[.v.v.v.b.`.`.[.|.}.}.{.{.-X|.}.-X[.L.].v.v.|.-X{.[.[.H.K.L.[.].[.[.].`.[.[.[.b.{.5X^.b.oX].].b.v.v.v.}.}.|.5X1X1X6X,X,X^.l.2X).x._._._._.nX_.(.(.).).).,X).)._.BXc._.(.U Z.A.U U S.nXS.2XnX(._.(.S.x.).).).j.j.).,X).,X).^.k.^.|.v.|.}.}.v.[.[.[.|.}.,X,X>X^.).).,XwXVXVXCXZXMXZXDXLXPXPXPXSXkXA.Z.Z.Z.Z.nXZ.K Z.A.A.A.gXgXgXnXZ.U A.A.nXMXgXgXA.P gXA.A.gXjXgXU A.gXnXS.Z.(.S.U (.(.).).^.<XBX(.).).{.[.{.{.|..X}.[.[.>XVX2X2X>X|.|.[.}.5X1X[.@X{.@X#X3X>X}.|.>X}.}.0XeX}.5X5X5X5X1X-X1XCXmX_.rX1X1X5X.X4X5X5X-X#X#X:X-X X=X X'.{.@X-X4X-X=X$XXXoX'.oX=X=X;X;X@XoXoXoX@X]. X4X0X-XoX=X=X=X}.5X5X3X5X5X-X4X0X-X:X:X4XqXwX6X6X5X5X6X6X6XVXVXVXVXVXVXVXVXVXVX6XwX6X2XVXVXwX6XwX4X6X4XqXwX4X6X6X6X5X1X3X1X5X3X5X5X1X1X1X|..X>X1X3X>X2X1X-X#X5XwXwX5X5XwXwX;X;X;X;X:X0X8X0X0XwXwXqXqX5X0X0X4X0XqXwXqXqXqX0X0XqXqXqXwXVXVXVXVXVXVXVXVX6XVXVXVXVXVXVXVXVXwX6XwXVXVXVXwXwXVXwXVXVXwXqXwXVXwXqXwXVXVXwXwXqXqXwXVXVXVXVXwX6XVXVXVXVXVXwX0XqXVXwX6X4X4X4X6X6X0X4X5X0XwXwXwX0XwXwXwXVXVXVXwXwX6X0X0X0X0XqXqXwX4X5X6X5XwXVXwXwX5X6X6XVXVXVX6X6X6X6X6XVXVXVXwX0XqXqXwXwX6X6XVX6X6XVXwX6X6XNXNXVXVXVXVXVX6X6XNXVXCXBXBXBXBXCXNXVXVXNXNXVX6X6X2X6X6X5X5X-X-X.X-X@X.X3X3X1X1X3X3X4X5X#X@X#X>X>X>X,X2X2X2X2X2X2X2X2X2X2X>X>X>X>X>X>X>X>X>X1X>X,X,X>X>X>X,X1X1X>X,X,X}.}.|.|.",
";...3.(.S.nXMXhXB.c.l.[./.:.} ;.>.p.1XCXCX).|.{.[.k.k.>.f.f.d.a.s.<.>.1.1.3.2.2.,.,.,.,.,.,.,.;.2.>.>.>.;.>.>.>.>...,.,.>.>.;.,.,...>.>.,.>.3.2.>.>.2.,.;.,.f.1.<.<.p.1.H.'.XX$X X.X0XeX_.).).^._.(.S.c.(.z.c.l.c.).^.j.j.j.l././.).rXS.Z./.l.).)././.^.)._.^./.).^./.).rX/.^./.j.j././.^.^.^././.^.|.^.^.^.^.k.|.[.1.].1X).).^.|.).(._.(.).).2X_.(.).^.).).>X,X,X^.^.}.>X^.^.^.|.[.[.eX).k.v.{.[.v.v.v.[.`.K.K.].|.^..X}.}.1X^.|.^.[.b.[.].[.b.}.|.k.[.`.L.L.`.L.b.2.`.[.[.=XoX[.[.].b.b.[.`.K.[.`.b.}.6X>X>X6X2X1X1X>X>X}.|.>X}.|.<X).<X).x.,X1X).<X1XVX2X1X1X,X,X).,X,X).(.(.c.U U _.nXnXZXZXnXS.U c._.(./.z.z.).<Xx.).,X{.[.|.[.|.|.1X5X|..X.X|.}.>X1X|.>X1XCXCX2XCXBXZXmX_.ZXDXmXMXmXmXFXgX_.nXS.Z.A.Z.Z.K K A.gXnXgXS.mXmXmXnXnXnXjXAXAXgXgXA.A.gXU U gXmXjXZ._.S.U ).c.).).^.|.,X,X,XVX2X).^.,X}.[.[..X1X}.{.-X].1XZXPXZX).,X^.[.].}.}.>X1X5X}.5X}.1XVXeX{.].-XwXBXCX1X1X5X1X5X4X=X5X6X2X.X-X3X3X5X-X4X5X=X4X-X;XXX`.XX'.XXXX=X;X:X5X{.@XoXXXXX$XoX=X@X;X;XoXoXXXXX+X%X$X'.{.].K.'.XXoXoXoX-X-X{.=X=X-X5X-X0XqX5XwXwX1X5X4X4X6X6XwX6X6X6X6XwXVXVXVXVXVX6XwX6XVXVXeX6X6X6X1X6X6X6XeX5X5X6X6X1X1X3X}.-X#X-X5X6X2X6X-X#X#X>X3X1XVX6X5X-X6XwXwX5X0XwX0X;X:X8X:X:X:X8X8X4X0X0X0X0X0XqXqXqXqXwXqXqXqXqXqXqXqXqXqXqXqXwXVXwXwXVXVXVXVXVXVXVXVXVXVXVXVXwXqXwXwXVXwX0XwXVXVXVXVXwXwXVXVXwXVXVXwXwXqXwXqXqXVXVXVXVXVX6XwXVXVX6X6X6XqX4X0XwXwX6X4X4X4X5XwX4X4X6XwXwXqXqXqXwXwXVXwXwXwX6XqX0X0XqXqXwX6X6X6X4X6X4X6XwXwXwXqXwX6X6XVXVXVX6XVXVXVX6XVXCXVX6XqXqXwXwX6X6X6X6X6X6X6XwX6X6XVXNXNXVXVXwX6X6XVXVXVXNXBXBXZXZXCXVXVXVXNXVXVXNX6X6X1X>X3X5X-X=X5X-X-X-X-X1X1X5X3X3X3X.X#X@X3X3X3X>X,X2X2X6X6X2X2X2X2X2X2X1X>X>X1X>X>X>X>X>X}.|.}.}.}.>X>X1X1X>X>X,X,X>X{.|.|.",
",.<.>.F F h.I N.N.N.:.^.2X_.z.} [ ;.:.I U c.k.}.2XBXBX).|.oX;X0XVXeXI I ^.k.:.f.f.<.[ [ ,.,.,.;.3.2.>.;.;.;.;.;.,.,.;.;.>.>.>.>.>.i.>.>...>.>.>.2.3.3.>.>.>.>.f.i.f.s.K.p.J.'.8XqXeXVXCXmXnX).(././.l.k./././.l.k.j.k.k.j.j.j.).).S.S.S.S.(.).).).(.(.).).(.).^.^.^.^.^.^.^.^./././.|.^./././.l./.|.^.^.^.^.^.^.|..X|.1X_._.2X).^.1X_.nX_.c.l.^.^.^.^.^.^.|.}.|.|.|.[.[.v.[.v.[.|.|.v..X|.|.v.{.}.[.{.-X-X.X@X-X5X.X|.|.|.b.n.[.`.[.@X[.`.[.`.p.1.D.k.k.|.b.>.p.`.[.b.#X5X|.1X>X{.@X@X[.`.K.XXK.].@X[.[.5X2X,X1X>X1X1X}.}.>X>X}.}.5X1X|.|.[.|.{.1X>X,X|.2X,X1XwX1X|.|.>XVXBX/.^.^.j.l.,XBXnXmXZXnXS.U U c.x.x.x.).x.NX2X^.1X}.|.|.|.^.1X1X).^.1X1X1X1X1X}.|.>X>XCXZXCXCXZXCXBX).NXCX_.2X2XNXZXDXmXDXmXK Z.Z.A.Z.K K Z.Z.U Z.S.nXnXA.A.AXgXgXS.A.A.P A.A.A.S.S._.BXnX_.).).1X^.>X^.^.{.>X}.^.CX2X^.|.].{.|.|.}.|.^.}..X1XCXFXMXrX^.>X|.].{.@X[.[.{..X}.-X}.5XwX1X5X=X=X1X^.}.}..X5X4X5X:X5X6X6X1X1X6XVXVX5X1XqXVXVXDXCX$XXX$X=X&XOXXX+X@X:X-X{.oX'.oXOX$XoX-X-X-X-X.X=XXXXXOX&X=X'.$X;X*XXX$X;X:X:X5X5X5X=X:X4X5X-X-X5X5X5X6XwX1X5X5XwXwXCXVX6XwX6X6XVXwXVXVXNX6X6X2XwX1X1X2X6X1X1X1X6X1X,X}.3X3X,XNXwX.X.X-X-X3X1X2X2XCX2X-X#X#X5X3X6X6X5X4X4XwX0X0X0X0X0X:X:X8X:X:X8X0X0X0XqXqX8X4XVXwX0XqXqX0X0X0X0XqXqXwXVXqXqXwXwXqXwXwXwXVXVXVXVXVXVXwXVXwXwXwXwXVXwXqX0X6X6XqXVXVXVXVXVXVXwXwXqXqXwXwXwXwXqXVXwXqXwXVXVXVXVXVXVXwX6X4X6X0XqX0XqXwX6X4X4X4X0X0XqX4X5XwXVXwX0X0XwXwX4X0X0X0X0XqXwXwXwXwXwXVX6X6X0XqXwXwX6X0X6X6X6X6XwXVXwXVXVXVXVXVXVX6XwXwXqX0X6XVXVX4X4XwXwXwXwXwXVXVXVX6XVXNXVXVXVXVXVXVX6XNXNXNXNXNXNXCXVXNXNXVXVXVXNXNX6X6X5X5X5X5X5X5X-X=X4X5X3X5X1X1X1X1X.X@X#X@X#X5X5X1X3X5X3X3X1X2X2X2X2X2X2X1X>X>X7X3X>X>X>X}.}.#X#X{.|.}.>X|.|.|.|.[.{.3X}.|.|.",
"..,.1.;.{ } } :.j.:.{ { F h.h.:.>.,.3.h.h.} { ;.:.h.z.z.l.).rXmXJXPXkXK h.2.[.`.`.0X^.3.f.d.0.i.0.%.>.;.;.>.;.;.;.,.....,.,.>.>.,.2.`.p.1.H.2.2.2.2.>.>.i.i.i.a.a.R.T.*X9X8X8X1XeXCXrX_.rXrX_.).^.^.^.^.^.^.^.).^.l.l.^.^.^.^.)._.rXS.S.(.S.(.(.(.(.).).).).).).).^.).^.).).^.).^./..X1X^.^.^./.k./.^.>X,X).>X>X^.|..X|.^.^..X/.^.>X^.^.^.[.`.`.[.].{.{.[.[.{.1X>X|.|.[.v.v.[.oX[.|.@X}.|.>X1X}.}.v.{.wXCX1X1X1X|.^.^.{.|.[.].].`.[.v.oX`.2.H.1.2.1.[.b.|.[.b.1.L.p.b.[.`.k.|.}.{.{.{.[.oXXX4X-X].{.=X@X}.1X.X.X-X1X1X>X6XeX,X1X6XwX1X|.[.[.].].}.}.1X>X>X1X6X6X1X6X1X1X2X6X,X^.|.b.v.3XVXJXZXmXnX_.).l.n.3X|.}.2X).2X1X^.1X2X1X2X^.).2X2X).j.).2X).^.}.}.eX2X,XCXZXZXBXZXZXDXZXNXBXCXCXVXCXCXmXS.mXgXS._._._._.U U (._.nXnXnXmXnXnXS.nXnXnXmXmXA.A.A.A.gXgXgXmXnX_._.).2X1X|.1X>X^..X1X}.1X2X1X1X^.{.-X|.|.}.}.^.|.}.}.>X1X/.^.|.|.].@X@X].].@X@X;X=X=X@X].[.].-X=X$X:X-X{.5X0X5X0X1XwXVXVX6X5XVXDXDXZXeX5X1XCXDXDXCX^.5XqX5X.X.X=XoX&X&X&X+X=X].+X+XoX=X:X-X-X-X4X:X$X=X;X$XoX X=X$XXX X$X$X=X-X.X1X5X5X{.5X.X@X{.{..X1X1X0X5X1X1X1X2X2XBXZXVX6X2XCX6X6X2X6X6X2X6X7X3X1X6X2X2X1X{.-X#X3X-X3X#X3X6X5X{.{.5X5X0X5X5X5X1X1X5X0X5X5X5X4XwX6X4X4X0X0X4XwXwXqX0X0X0X:X:X0X0XwXwXeXqX8X0XwXwX6X0X4XqX6X5XqXwXqXqXwXqXqXwXwXwXqXqXqXwXVXVXwXVXVXVXVXVXwXqXwXVXVXwXwXVX6XwXVXVXVXVXVXwXqXqXqXqX0XwXVXwXwXVXwXwXwX6XwXVXCXVXwXwX0XwXwXqX4XqXwX0X0X8X:X0XqXqXqX0XwXwX6X0X0X4XwXwX0X4X0XwX0X0XqXwXVXVXVXVXVXqX0X6X6X6X6X4X4X6XwXVXwXVXwX6XwXwX6X6X5X6XVXwX4X4X6XwXVX6X0XqX6X6X6XqX6XVXVX6XVXVXVXVXNXVXVX6X6X6X6XNXNXNXVXNXNXNXNXVXVXNXNXNX6X6X5X4X1X1X1X5X@X#X4X-X.X5X1X1X1X1X.X{.@X.X3X1X1X4X1X>X>X3X2X2X2X2XNXNX2X1X>X7X7X7X1X1X>X{.@X#X3X}.{.}.>X>X>X}.}.@X@X[.|.|.|.",
"..,.>.>.>.>.{ ;.;.{ ;.;.;.;.>.>.3.j.h.h.h.:.>.,.;.;.{ } :.3.3.G I c.U I :.>.3.l.j.(._.).1X0XeXCXeXrX1X.X/.2.k.2.<.,.<.<.i.<.0.0.<.<.K.b.2.D.k.j.2.>.,.>.i.a.I.9XqXqXeXCXDXDXJXDXDXZXCXrXVXVXVXmXrX1X1X2X_._.).)._.).^.^.)._.rX)._.rX(.(._.).).).).).(.).).^.^.^.^.^.^.).).).1X^.^.^.^.^.1X).1X^.^..X^.1X>X^.|.|.|.k.b.].[.b.[.'.[.{.].oXoXK.OX'.[.@XoXoX].[.=X5X>X}.-X-X.X.X:X5X1X1X>X1X1X}.5X}.|.b.].}.2X/.k.{.{.|.1X-Xk.k.`.`.v.v.b.p.K.XX$X=X].[.{.[.|.[.@X#X{.`.].].'.oX[.[.5X.X{.[.=XeXeXrX>X=X@X-X1X1X2XrX2XCXeX1X1X1X>X>X>X1X1Xv.b.].'.].@X3X3X>X1X6X1X1X2XwX2X1X2X,X1X}.{.[.|.@XeXZXCXBX).,X1X[.@X3X5X1X1X^.^.}.[.|.>X).2X2X2X,X>X^.l.,X1X).^.^.2XZXmXmXDXJXJXJXDXGXHXPXJXDXJXDXFXZXDXmX_.(._.nXnXBXBXCXCXmXnXnXZXmXmXmXmXmXmXmXmXmXmXjXA.A.A.A.gXgXS.nXnX_.).2XVX>X|.[.b.|.=X1X>X1X1X1X1X}.|.{.|.|..X@X].|.{.@X@X{.].$X=X5X-X}.-X-X-X@X@X@X=X:X@X'.].;X=X=X:X4X-X-X5X5X2XwX5X6X2X6X6X5XVXCX2X1X5XVXCXCXrX1X1X=X1X5X5X1XeXCXCX1X:X:X$X8XeX-X:X4X=X=XoX@X-X@X=X:X:X-X$X$X'.'.'.$X&XXX$X=X{.{.{.}.-X.X|.[.@X@X@X-X4X1X3X#X1XwX1X3X1XmXDXBX7X2X2X6X6X6XVX2X2XCX2X3X3X3X6XCX6X@X;X;X#X:X#X#X:X-X-X:X4X4X5X4X4X:X4X4X4X5XwXVXVXwX0X6XwXwX0X0X0X0XwX5X0X0X0XwX-X-X0X6XwX0X5X4X5XwXwX0X0X4X0X0X4XwXwXqXqXqXqXqXwXwXwXVXwXwXwXwXVXCXVXVXVXVXVXCXVXwXVXVXVXVXwXwXVXVXVXCXCXVXVXqXwXqXqXqXqXqXqXqXwXVXVXwXVXVXVXVXwXwXqXqXwXCXVXwX0XwXVXqXqX0X8X4X0XqXVXVXwXwX0XwXqXqXwXqXqXqXwXVXqXqX0XwXVXCXCXVX6X6XwX0XqXwXwX0X0XqXwXVXqXwXVXqX0X4X0XwX6X6XwXwX0XwX0X4XwXwXVXwXwXVXwXqX6X6X6XVXVXVX6X6X6X6X6X6X6X6X6XVXVX6X6X6XNX6XNX6XNX2X6X6X6X2X2X6X1X>X1X4X5X-X5X.X=X{.}.1X>X>X}.}..X.X1X1X1X1X1X>X>X1X2XNXNXNX7X6X1X>X>X7X7X2X2X1X1X.X=X@X@X{..X1X1X1X}.}.{.{.{.[.].{.].",
";.;...,.2.p.>.,.;.;.;.3.3.:.>.;.h.j.j.j.j.h.:.:.,.>.>.;...,.,.,.:.:.>.3.:.;.;.S ;.;.;.:.k.^._.nXnXmXnXmXrX).[..X.X2.2.p.p.p.R.:X.X/.3.k.b.[.|.b.p.L.H.1.1.i.U.8XZXCXCXCXCXZXZXDXDXDXDXDXZXCXZXZXmXrXrXrXrXrXrXrXrX_._.2XrXrXrXrXrXrX_.).1X1X).^.^.^.^.^.^.1X^.^.^.^.>X^.^.^.^.^.^.^./.|.v.[.[.].[.[.[.|.^./.L.`.[.v.].[.[.[.`.[.[.'.'.=X-X].:XqXeX.X{.4X5X}.1X1X1X5X1X6X1X5XqX1X}.5X1X>X|.^.]..X.X{.@X{.}.{.[.].@X{.|.|.[.[.`.`.].].].=X].4X4X-X@X@X@X-X=X@X#XVX2X{.0X1X-X@X=X$X0X5X[.[.1XDXJXmX(.}.-X1X1X1X2X2X).1X|.|.}.|.-X5X1X}.}.@X].'.'.]..X}.3X3X>X6X1X1X|.}.>X>X2X6X6X5X6X5X1X1X)._.2X1X1X>X1X6XeXDXJXmX).^.^.}.^.^.}.>X1X6X6X^.}.}.}.^.^.^.|.^._.nX_._.nXjXjXmXMXnXjXnXnXnX_.nXmXmXCXNX2XeXrXnXmXZXZXDXZXnX_._.mXmX_._.S.gXgXgXgXjXgXjXnXgXS.S.S.A.S.nXDXZX_.^.|.0X1X.X1X.X^.{.>X>X}.6X6X1X}.{.[.{.@X@X].].@X@X5X}.-X X:XeX5X-X.X=X-X|.1X5X1X5X5X@X{.-X=X-X.X4X-X.X5X6X1X5X1X5X6XCXwX5X5XVXwX4XwXCXDXCX1X-X:X:X-X=X:X-X.X1XeX1X=X$X=X.XCXrX.X=X$X$XOX+XoX:X=X].'.oX].$XXXXXXX'.$X'.'.{.=X=X@X{.].@X[.[.'.XX@X-X4X5X3X3X6XwX1X-X1X_.BXNX5X1X5X6X6X6X6X1X1X1X}.-X-X5X4X6X1X5X4X:X;X:X;X;X;X:X4XwXqX0X0X0X0X0XwXwXwXwXqXwXwXwXwX6X4X5X0X5X-X:X:X=X4XwXwX0X4X:X4X4X0X0X4X4XwXVX0X4X4X4X4X-X1XwXVX6X6XqXwXwXVXVXVXVXqXVXVXVXVXCXVXVXCXVXVXZXVXwXVXVXVXwXqXwXVXVXVXVXVXwXqXqXqX0X0X0X0XqXwXqXwXwXVXVXVXVXVXwXqXwXVXwXVXCXVXwXqXqX0X0X0X0XqX0X0XVXVXwXwXwXVXVXwXwXwXqXwXqXwXVXeXqX0X0XwXVXVXwX6XwXVXqX0XwXwX4X5X6X6X6X6X6X6XwXqX0XqXwXwXqX0XqXwXVXwX0XqXVXVXVXVXVXwXqX6X6X6XVXVXVXwXqXNXNXVX6XVXVX6XVXwXwXwXNXNX6X6X6X6X2X1X1X1X6X2X1X1X1X6X6X2X}.|.|.].].|.{.{.}.>X1X1X>X2X2X1X1X1X1X1X2X2X2X2X7X7X7X>X>X>X7XNX2X1X>X>X}.{.].|.{.}.}.|.|.|.|.{.@X[.[.'.oX@X",
";.;.;.[ ;.;.;.2.2.k.:.:.h.:.3.:.h.j.h.h.k.j.h.:.;.2.L.<.<.3.;.;.;.,.<.1.1.3.>.,.>.>.>.<.2.j.j.h.I I :.k.n.f.i.2././.^.k.3.<.2.eXDXFXU z.p.L.b.2.1.H.[.D.H.K.'.:XqXVXCXDXDXJXJXJXDXJXJXDXDXDXDXDXDXZXmXrXrXmXrXrXrX2X2XrXrXrXrX_.).^.^.^.^.^.^.^.^././.^.^.^.}.|.[.[.{.[.k.[.`.].].[.[.v.v.oX;X0XeX1X1XeX1X.X.X.XwX1X>X1X>X}.@X|.[.{.'.].1X.X|.eXmX2X1X5X}.|.|.^.}.1X^.}.}.1X5X1X1X1X>X1X}.[.].-X}.}.|.6X1X^.`.K.=X=X[.-X4X4X.X.X:X@X@X:X-X5X5XoXoX=X=X#XoXXX=XwX2X1X2X|.1X1X1X.X5XqX5X.X{.).mXmX(.|..X}.}.1X|.^.[.#X1X}.{.{.}.|.}.|.|.-X0X5XeX2X1X1X>X1X1X1X6X6X1X}.-X}.1X6X2X1X5X1XVXVXVX2X2X1X}.>X3X1X1X_.rXrX(.).,X^.).).).).)._.rX^.}.|.}.|.|.1X^.l.).BX_.(.(.(.(.(._.U U (.(._._.)._.rX2X2X<X2X)._.nXmXZXMXJXJXZXMXJXJXJXMXgXnXgXjXA.gXgXgXgXS.S.Z.A.S.S.nXmXmX_.|.|..X5XrXDXrX^.-X3X1X.X5X1X}.|.{.{.{.].'.'.@X@X=X-X{.}..X.X1X1X5X5X1X.X{.}.qX1X}.}.|.|.}..X.X|..X5X5X5X6X6X5X5XVXCXCX2X1X1XeXVXVXwXVXwX1X5X4X4X:X4X4X:X:X=X=X:X=X X$X:X:X1X}.].oX=X=X%XoX5XVX).].%X$XXX$X$X=X`.'.$XoX].4X-X[.oX+XoXoX#X;X&X X=X-X-X-X4X4X4X5X1X5X6X6X6X5X4X6XVXwXVX6X6X6X4X4X-X4X0X4X0X6XwXqX0X0X4X0X5X0X0X0X0X4X:X0X0X0X0X0X4X0XVXVX6X6X6XwXwX4X6X6XqX4X;X:X:X:X5XwXqX4X4X:X4X0X:X4X0X0X0X0X4X4X4X0X0X:X4X5X0X6X6XqXqXwXVXwXwXqX0XwXVXVXVXVXVXVXCXVXwXVXwXwXVXwXwXVXwXwXVXVXVXVXwXqXwXwXqX0XqXqX0XqXqXwXVXwXVXwXwXwXwXwXqXVXwXwXVXVXqXqXqX0X0XqXwXwXwXwXwXwXwX6XwXVXVXVXVXVXwXwXVXwXwXVXwXwXwXVXVXVXVXwX6XwXwXwXwXCXCX0X5X6X6X0X4XwXwX6X6X6XwXwXwX0X4X0XwXwXwXqXwXwX6X6X6XVXVX6X6X6X6XwXwXwXwX6X6X6X6XwXVX6X6XNX6X6XwXVX6X6X6X2X7X6X6X6X6X7X<X1X1X2X6X2X,X>X{.=X X].{.}.>X}.}.>X>X>X1X1X>X1X5X3X1X2X1X1X1X1X3X3X>X,X<X6X7X>X>X>X>X}.}.}..X@X{.{.{.@X}.{.|.{.@X@X].XXoX",
";.,.,.[ [ [ [ ..>.j.h.:.3.j.j.j.:.:.:.:.h.h.3.3.:.3.;.2.-X1Xh.:.<.H.1.:.k.2.>.,.,.,.<.p.k.:.:.>.2.k.F :.b.b.=XeX(.j.k.2.2.1.>.3.z.(.z.j.p.K.[.1.2.1.p.2.2.`.'.=X0XqXeXVXVXZXZXDXDXDXJXPXJXDXDXDXDXJXMXmXmXmXmXrXeX5X6XrXrX_.).^.^.^.^.^./.^.^.^.^././.^.|.|.|.[.].^.k.k.^.{.[.[.=X4X5X5X0XeXCXDXDXmX2X2XCXmX_.)._._.NXVX>X.X1X|.k.|.'.=XwX2X).1X2X2XqXeX1X1X1X}.>XwX5X-X4XVXCXVXCXBX,X}.|..X1X.XeXVX1XwX1X].$X=X1X0X}.|.-X4X}.}.4X-X4X4X6X0XqXwXqXVXwXwXVXCXZXCXmXeX1X1X1XwX.X.X-X1X1X}.{.[.k.).,X|.{.}.3X1X1X}.|.}.eX1X^..X}.|.1X|.|.|.1X2XCXBX).^.^.1X1X1X>X1X}.}.}.{.1X1X>X|.}.}.1X1X1X1X,X|.|.1X1X>X1X1X|.1X,X,X,X,X2X).).x.).).).^.1X2X2X^.1X1X^.^.^.^.).).1X).x.).(.c.c.).(.mXmXU ).).).2X).).,X2XCXZXDXLXLXGXMXGXkXkXkXjXgXgXgXgXA.P P P gXJXJXgXA.S.S.mXCX(.2X>X}.=X5XCXrX^.eXVX.X}.{.}.|.{..X-X{.-X-X].=X.X.X.X{.-X.X=X.X.X>X1X1X|.|.{.{.].}.1X}.|.|.}.1X1X1X1X1X1X3X0XwX0X1X6XeXVXwXwX5X1X5X5X1X5X5X1X6X4X4X4X4X4X0X0X-X-X0X=X'.'.'.].@X@XoX;X:X-X:X5XVXZX_.{.&X%XXXXXoX@X'.].=XoX[.}.0X5X$X=X:X:X@X@X%X X=X;X@X@X#X:X-X#X5X5X6X6X1X5X1XCXZX6XwX5X5X5X5XVXwX5X4X0X4X5X0X4X0X0X4X4X0X0X4X:X:X4X:X:X:X:X4X4X5XwXVXVXwX6X5X6X6X4X0X0X5X:X;X;X;X:X0XqXqX4X4X4X0X0X-X:X4X4X0X4X4X4X5X4X0X4X4X0X0XwXqX6XqXqXqXqXqXwXwXVXVXVXVXVXVXVXVXVXVXVXwXwXwX0XwXVXwXwXVXVXVXVXVXVXVXwXqXqXqXqXqXqXqXwXwX6XwXqX0XqXwXVXwXVXwXwXVXwXqXwXqXqXqXwXVXVXwXwXwXwXqXqXqX6XwXVXVXwX4X0XqX0XwXwX0XwXwXVXVXVXVXVX0X6XqX6XwXwXwX6X6X6X6X0XqXqXwX6X5XwXwXqXqX0X0X0X6X5XwXwXwXwXwX6XwXVX6X6X6X6X6XwXwX6X6X6X6X6XwXVX6X6XVX6X6X6X6X6X2X6X6X6X6X6X6X6X7X>X<X1X1X5X1X}.3X-X}.{.'.'.{.{.}.}.[.{.#X3X5X5X3X3X5X3X>X1X1X1X5X1X>X>X>X2X2X2X>X>X>X>X>X>X>X1X1X=X{.{.@X#X#X}.}.}.-X@X{.].{.",
"[ [ ;.;.;.;.;.^ [ :.:.>.>.:.F h.:.>.3.3.:.} 3.[.j.j.:.:.k.).z.:.,.3.j.F 3.>.;.;.,.;.,.,.>.>.>.>.1.'.j.j.3.2.2.^.c.F >.>.<.1.2.>.3.2.b.2.<.p.5XVX/.3.b.L.1.D.H.`.:X8X-X0XqXVXCXCXDXDXMXkXMXmXmXmXjXjXgXjXrXmXrX_.eXCXCXZXA.Z.(.^.^.^.^.)./.j./.^.^.^./.^.>X1X1X1X1XeX).^.}.1X}..X}..X1X6XVXVXNX2XNX2X2XeXCXCX_.).).^.^.^.^.0XZXVX[.`.[.^.5X2XBXeX_.).2X_.).>X1X}.^.^.|.{.5XBXCXCXCXBX2X1X.X1X1X|.^.>X>X1X>X[.#X3X#X-X].@X$X=X:X-X0XCXZXDXDXDXDXJXDXDXZXZXZXZXFXCXnX).2X1X}.1X1X{.{.|.{.^..X|.[.#X|.[.[.|.1X1X|.|.|.[.).|.^./.^.l.^.|.|.l.l.l.l.).).|.^.^.^.1X>X|.^.|.|./.l.^.^.>X|.|.}.1X1X1X}.}.1XVX2X2X1X6X1X>X3X>X>X>X2X,X,X<X,X/.^.b.|.6X|./..X^.|.5X.X{.|.|.>X|.^.>X,X,Xx._.nXA.S.S.).).).1X^.6X6X2XCXmXmXZXMXgXgXMXP V.pXP A.A.P B.P P Z.U gXhXiXV.gXnXS._._._._.1X|.{.}.1X1X^.1XeX.X3X3X}..X{.=X-X{.|.}..X5X5XwX>X}.|.{.|.|.|.|.|.|.[.{.].].].5XwX1X}.{.=X.X1XqXeXeXwX5X5X5X1X1X1X1X6X1XwX6X5X4X6X4X6X0X5X4X-X4X4X=X-X-X1X@X=X4X-X].'.XXXX&X;X-X:X:X4X:X-X1X1X1X.X=X=X&X+XoX@XoX-X-X=X=X5X6X5X@X=X:X-X{.#X$X$X;X;X-X#X@X#X#X#X4X3X5X-X}.-X>XBX2X2X1X1X1X-X>X1X5X1X-X-X.X0X4X3X4X0X0X-X0X4X4X4X-X:X:X0X4X-X:X4X5X1XwXeX5X4X4X5X5XwX0X5X4X;X*X;X:X-X4X4X0X0X0X4X:X=X:X:X:X:X4X:X:X:X:X:XqXqX0X0X4X0XqXwXwXqXqXqXqXqXwXVXVXVXVXVXVXCXVXVXwXwXVXVXwX6XqXqXqXqXwXwXqXwXVXVXVXwXqXqXqXqXwXwXwXVXVXVXwX0X4X0X0XwXqXwXqXwX0X4X0XqX0XwXqXwXVXwXVXCXCXVXVXVXVXwXwXVX5X4X4X4X0X0X0X6X6X6XqXqXqXqX0X5X5X6XqXqXqX0X-X4XqX6X6XwXqXqX6X5X0XwX6X5X5X4X0X6X6X6X6X6XwXwX6XVXVX6X6X6X6X6X6X6XwX6X6X6X6X6XVXwX6X6XwX6X6X6X6X1X6X6X6X6X6X6X6X6X1X7X6X7X3X#X#X#X#X@X{.{.@XoX@X@X{.{.`.oX#X#X3X5X5X5X3X3X1X1X1X>X>X5X3X>X>X2X2X>X}.3X>X>X>X>X#X}.}.{.{.|.{.{.}.>X>X}.{.{.}.}.}.",
";.;.;.>.;.;.;.{ :.:.;.,.>.F h.h.3.>.j.:.F S :.;.:.h.:.[ ;.:.:.:.,.:.S ;.;.;.,.,.>.,.,.>.>.>.>.>.<.2.k.3.>.>.<.2.k.3.>.>.2.1.>.>.>.>.<.p.[.2.j.^.).l.k.K. XH.2.R.&X0XqXqXVXDXZXDXDXDXFXmXnX_.(.S.Z.S.(._._._._.(.(.2XCXJXlXV.S.(.(.^.).).(.l./.^.^.^.^.).).^.^.^.^.1X2X^./.}.^.|.}.|.5X5X6X5X5XVXCXZXDXZX_.(.l.n.v.[.1X|.b.[..XwXVXCXrX(.1X2XBXmX_.1X1X1X^.|.1X1X2X>X^.[.3X1X).,X2X1X1X}..X1X1X>X|.|.3X5X6X5X4XeXwXVXCXCXCXCXDXDXDXJXDXJXJXDXmXrXnX).).,X|.^.).,X,X|.}.{.-X}.|.{.].{.@X[.{.[.[.[.|.-X-X|.>X>X^.^.|.|./.l.k.^.^.k.k./.^.^.^.j.l.^.^.|.^.^.^.>X|.|.^.^.1X).^./.^.CX).).,X}.}.}.|.|.1XwX2X2X1X1X5X{.-X5X}.1X5X|.|.5X}.k.[.[.{.}.|.|.}.}.>X6X1X1X|.[.v.|.|.|.>X^.^.).).(.).1X2X>X^.>X^.1X,X,X6X2X1X<XBXZXmXA.Z.nX_.U K U Z.U K K U U nXS.U U (.nX_.)._.NX).>X>X|.}.}..X1X2XCXCXVXCXVXwX1X5X.X.X}.1X1X1X1X).^.>X|.{.].{.-X-X|.].oXoX'.oX=X5XwX5X-X-X=X=X=X-X1X.X4X5X.X1X5X6X4X5X1X1X6X6X5X6X6X6X6X5X4X5X.X=X-X{.@X.X{.:X-X-X.X=X&X*XoX;X:X4X-X#X#X;X=X@X@XwX5X{.$X=X=X;X;XoXoX=X@X;X:X1X.X`.].].@X@X-X;X'.oX4X4X=X@X@X:X:X3X3X=X=X#X4X-X1X3X3X1X1X.X}.}.}..X{.=X{..X5X6X0X1X0X0X4X4X4XwXqX-X:X4X:X5X0X=X4X4X5X5X0X5X5X4X4X6XVXVXVX6X:X:X0X0X5X4X4X4X4X0X:X;X;X0X:X:X:X8X:X4X4X0X0XqXqX4X5X4X6XwXVXVXwXqXqXwXqXwXVXVXCXZXVXVXVXVXVXwXVXZXCXVXVXVXwXqXqXqXqXwXwXVXVXVXwXqXqXwXqXqXqXwXwXVXVXVXqX0X:X4XqXqX0X6XwXqX0X0X0X4XqX0XwX6X6XCXZXZXZXZXZXVX6X0XqX0X0X0XqXwXwX6X4XwXVXVXwXwX6XwX0X0X0XqXqXqXqX0X4X0X4X5XqXqX0XwX6XqXwX6X6X4X4X4X5X5X5X6XVXVXVX6XwXVX6X6X5X6X6X6X6X6X6XwXqX6X6XwX6X6X5X6X6X6X6X6X6X6X6X6X6X5X7X6X6X1X1X5X6X6X#X#X;X@X@X#X#X;X&XOXXX].@X&X@X=X@X.X5X4X-X.X1X1X1X1X1X3X3X>X>X>X,X1X>X#X#X3X>X>X3X5X1X>X}.1X.X@X@X}.>X1X.X{.{.{.}.{.",
"S ;.;.;.S F F F F :.;.;.3.:.F F :.:.h.:.F S S { { S { ;.>.;.;.:.3.;.>.;.....,.,.,.>.>.>.>.>.;.>.>.>.3.3.>.>.>.2.3.<.>.>.1.2.>.>.2.>.>.1.1.2.3.3.2.2.1.<.H.[.oX;X0XeXVXCXCXDXDXDXDXDXFXmXmXmXrXrXrX_._._.(._._.(.(.)._.mXgXZ.(.(.C.c.).).).).^.).).|.1X,X).|.^.|.|..X.X}.}.^.{.-X}.^.|.{.-XwXCXFXFXmXrX_.)./.k..XeX1X}.{.{.0XCXZXDXMXgX(.>X2X_._.).1X6X1X}.}.3X>X,X>X|.{.@XoX-X5X}.}.4X0X6X1X1X1X}.}.5X5XwXZXDXZXDXDXDXDXZXZXMXFXDXZXZXDXJXJXZX_.).1X1X1X{.]..X5X>X}.-X{.{..X{.{.@X@X{.|.{.[.@X{.^.|.}.[.k.|.|.^.|.,Xk.k.[.|.^./.^.l.l.j./.|.l./.k.k.|.,X^.^.,X).).).,X).).^.l._.).,X,X,X,X{.{.].-X5X1X1X1XeX2X2X1X.X}.1X1X1X.X}..X].oX@X#X-X1X|.|.>X}.^.^.1X|.{.#X-X}.1X1X>X|.1X).).,X).).,X,X).^.).).).2X2XCXCXBXZXZXmXmXZXZXFXmX(.)._.(.(._.nXnXnXnXBXCXCXCXmX2X_.1X>X5X.X.X1X}.1X2XCX2X2X2X1XwX2X,X1X|.}.|.|.>X{.[.[.-X@X].oXoX4XVXVXVXqX0X:X0XeXVXeX5X5X4X:X=X-X:X-X-X-X4X4X5X4X5X5X1X5X1X5X5X5X6X6X2X6X5X1X1X5X=X:X-X4X1X}.3X-X-X4X-X@X@X=X:X-X}.5X4X#X$X+X+X].1X1X{.oXoX5XVX-X`.XX`.@XoXXXoX-X[.@X@XoX+XoX=X-X-X-X-X-X4X-X5XwX5X=X-X-X@X5X-X5X5X}.3X3X}.1X-X-X=XoX=X-X-X}.5X5X.X=X:X4X5X4X0X5X5X4X=X=X4X0X=X:X0X0X5X5X6X4X4X4X4XwXwXwX6X-X0X0XqX4X6X4X;X;X:X;X:X:X:X:X0X8X0X0X4X4X0X0X0XwXqXwX4X0XwXVXVXVXwXqXVXwXqXwXVXCXVXVXVXVXVXVXwXVXVXVXVXVXVXwXqXwXwXwXVXVXVXVXVXwXqXwXVXwXwXqXVXVXVXVXwXwX0X0XqXwXwXwXwXVXwXwXqX4X0XqXwXwXVXVXVXVXVXCXZXCXVXVXwX0X5X6XwXqXwXwXqX0XwXwXVXVXVXVXwXqXqX0X4X0X0XqXqX0X4X4X4X0X4X4X0XqXwXwX6X6XqX0X4X6X5X5X6XwXVXwX6X6X6X6X4X5X5X5X6X6X4X5X6XwX6X6X6X6X3X5X5X5X6X6X5XwX6X6X6X5X6X5X5X4X5X5X5X6X6X3X-X;X-X3X=X=X&XOXOXXXoX=X;X;X=X}.-X.X=X].@X1X,X2X1X1X5X-X}.#X}.}.>X1X1X.X}.}.}.}.-X.X}.}.1X}.@X@X}.,X1X.X}.=X.X}.{.",
"C { C C { F F F Z Z { [ ;.j.h.F } { { { C { [ [ [ ;.;.{ ;.;.;.;.{ { { ;.......;.;.,.,.<.<.;.;.>.>.,.>.>.>.>.2.2.>.<.>.>.>.>.>.>.2.2.2.2.>.>.>.>.>.2.1.1.p.`.$XqXCXmXBXnXCXrXBXCXCXZXMXmXmXmXZXFXmXrXrXmXmXrX_.(.).).).).(.(.^.1X1X).^.^.>X^.>X|.}.>X,X^.^.1X1X/.b.=X.X|..X.X{..X5X).^.[.:XeX2X)._._.).|.|.}.[.^.1X^.|.0XeXCXmXmXDXmX_._.2XwX1X1X|.|.3X1X1X5X1X{.{.=X].=X:X0XVXCXeX0XeXCXCX2X5XwX1X1X1X}.}.1XrX2XCXDXmXmXZXCX_.rXmXBXNXrX_._.(._.>X1X6XwX1X|.{.1X>X}.}..X-X.X|.|.{.=X3X1X}.{.|..X|.|.[.[.b.k.|.^.k.k.k.b.[.^.l.k.^.^.^.k.k.>Xl.|.|.k.}.5X1Xl.x.).>X,Xl.n.>X^.^.2X,X>X2X,X2XeX2XCXCXCXVXwX1X2X).2X1X>X1X|.|.4X4XqX1X].1XCXCXBX2X}.1X}..X].}.wX|.|.1X1X>X>X1X1X}.6X6X,X2X,X,X>X1X,X).).).NXCXCXDXZXnXnXmXmXmXmXZXMXmXBX2X2XBXZXCXCXCXmXCXCXCXnXrXrX).1X5X5X1X|.}.0X1X1XwX5X1X5X.X|.1X1X).|.|.^.|.{.{.oX{.=X=X5X5XeXVXCXDXDXZXCX0X4X.X1X.X.X:X4X4X4X4X4X4X-X4X4X-X4X4X-X.X5X1X}.}.=X-X4X4X4X1X6X6X1X1X-X{.=X-XqXwX1X1X@X{.-X].{.@X.X4X-X}.0X5X@X+X*X`.XX=X=X].XX&X:XeX}.+XOXoX#X@XXXoX=X{.@X].].XX+X=X-X{.'.]..X-X}.1XVX1X5X1X{.{.4X1X5X5X1X-X}..X.X1X5X-X@X@X-X-X=X:X-X4X=X1XeX4X4X1X1X4X:X4X;X8X8X=X&X=X:X4X0X4X0X0X:X:X6XqXqX4X-X4X0X0X:X4X:X;X8X8X8X8X:X:X:X0X0XqXwXwX0X0X4X4X6XqXqX4X0X0XqXqXqXqXwXVXqXwXVXVXVXwXwXVXVXVXVXqXwXVXVXVXwXwXwXVXVXCXVXVXVXCXVXVXVXVXwXwXVXwXqXwXwXwXVXVXCXwXqXwXVXVXVXVXVXVXqXqXwX0XwXVXVXVXVXVXVXVXVXNXVXCXZXVXwX6XwXVXwXqXqXqXwXwXqXwXwXwXwXwXwXqXqX0X4X5X6X0X4X4X4X4X0X4X6XwXwXVXVX6X6X6X0X5XwXwX0X6X5X5X1X6X6X6X5X6X6X4X5X6XwX6X0X6X6XwXwX4X4X4X6X5X4X5X4X5X6XwXwX5X5X6X6X6X4X4X4X5X6X6X5X:X:X4X5X-X=X&XOXXX&X;X=XoX$X{.5X5X{.{.$X@X>X2X6X2X1X5X}.|.{.{.{.3X1X1X1X=X}.|.{..X}.|.^.|.}.].].}.1X>X}.}..X1X>X}.",
";.;.C { { C C Z } { [ [ { :.N.Z { ;.3.:.C ;.;...;.>.;.[ { ;.;.{ { { { ......,.,.;.[ ;...>.3.3.;.;.>.,.,.>.>.,.>.>.2.<.>.3.>.>.>.>.>.>.>.>.2.`.2.>.<.1.1.1.1.1.^.).).l.^.[.[.^.[.^.).(.(._._.rXrXrXrXrXmXmXmXS.S._._.2X_._._.)._.rX2X1X1X1X|.>X1X^.^.eX).k./.^./.D.].=X{..X3X1XCXCX2X^.[.]..X1X2X2X,X{.0X0X}.{.[.`.[.{..X).(./.).CXmXBXZXCXBX1X5X5X-X@X4X4X0XwXwX0X0X.X0XeXeXeXeX2X1X1X2X1X1X1X5X}.}.5X5X{.{.|.1XVXDXCXrXBX_.^.^.,X,X1X).1X2X1X1X1X1X}.5X1X^.[.5X^.^.k.}.1X}.|.}.-X:XqXwX^.[.|.[.[.[.[.@X[.|.>X|.l.}.-X|.|.}.^.^.k.^.|.|.b.|.}.n.^.^.^.^.|.^.>X>X|.}.#X1X>X|.^.>X1X1X2XCXVXrXrXCXZXmXCXCX_.).>X,X,X).VX2X1X5X1XeX1X1X1XrXCXCX2X|.1X}.@X$X=X5X1X1X>X>X1X}.1X1X1X6XeX2X>X>X,X1X1X>X^.>X,X).rX_.nX_._.BXBXBXBXnXBXnXnXBXrX2XrXmX2X2X_._.2X1X).1X1X1XeXwXwX5X1X}.}.5X5XeX1X1X1X1X}.}.^.}.}.}.}..X0X4XwXVXeXeXVXDXDXZXZXrXrXeX2X5X.X.X=X$X X=X=X:X:X-X.X.X.X-X0X5X5X5X5X5X.X.X1X5X5X}.-X4X5X5X4X6X6X5X1X.X.X{.{.5X1X1X.X].'.'.{.=X{.}.-X-X.X.X=X-X#X=XoX=X-X-X=XXX$X@X@X@XoX+X;X;X@X`.[.@X].].{.=X`.oX$X'.K.`.].@X{.{.-X>X2XVX>X{.{..X1X5X6X5X4X1X3X5X3X5X4X0X=XqX0X:X;X:X:X5XVXeX4X1XCX1X=X0XqX:X=X$X;X;X;X;X4X0X-X5XwX0X4X5X0X4X;X:X4X4X0X:X8X0X:X0X:X:X4X:X8X0XwXwXwXwX6X0X0X4X4X4XqXqX0X0XqXqXqXqXqXwXVXqXwXwXwXwXqXqXwXVXCXVXwXwXVXVXVXVXVXVXCXZXVXVXVXVXZXCXVXVXVXVXVXwXqXqXqXwXVXZXZXCXCXVXVXZXCXVXVXVXwXwXwXwX0XVXVXVXVXVXVXVXVXVXVXVXCXCXVXVXwXwXVXwXqXwXVXVXVXqX0X4X6XqXwXwXwXwXwX0X0X4X4X0X4X:X0XqXqXqXwX6XVX6XwX6X4X4X6X6XwXqX4X4X4X5X4X5X6X5X4X5X5X4X5X5X6XwX5X4X5X5X4X4X6X6X5X4X4X5X6X6X6X5X1X3X1X6X5X5X5X5X1X6X6X4X4X4X=X@X@X=X;X$X%X;X=XoX].-X-X5X3X-X-X}.=X4X6X6X5X4X1X|.|.{.{.@X{.}.}..X.X}.{.{.{.}.|.|.|.}.].].{.}.}.{.=X5X>X>X>X",
"F ;.S { { { { C { [ [ [ [ } F F [ { :.h.C ..,.;.,.;.;.[ ^ [ [ [ [ [ { ......>.k.:.>.;...>.>.,.;.;.>.,.,.>.>.>.>.>.>.>.3.3.>.,.>.>.,.>.<.>.<.b.k.2.>.2.>.>.<.>.>.3.i.U.&X8XqXCXVXVXVXeXeXrXrXrXrXrXrXrXrX_._.(.S.S.).rXrXrXnX_.2X2X1X1X5XeXrX_.2X2X^.1X)./.[.[.D.D.H.oX:X0X5X1XVXCXBXeX0X.XeXDXCX>X@X0XZXrXeXeX.X[.`.].^.l.^.|.^.}.).).rXrX).eXCXCXCXVXCXDXDXDXZXCXCX).}.1X1X1X1X0X0X1X1X1X1X}..X-X|.1X1X{.-X-X5X1X2XrX).,X,X|.{.}.|.{.|.1X}.}.3X1X|.^.[.-X1X^..X^.^./.|.{.|.@X5X.X-XwX2X^.[.{.{.{.#X-X-X{.[.5XVXCX1XeXCX).1X^..X|.k.^.[.oX@X}.1X}.}.{.[.@X}.1X1X1XVXVXCXVX1X).|.wXwX^.).1X>X1X2X2X2XZXDXeX/.|.}.>X1X2X,X}.1XVXZXCXeX5X2X<X1X0X}.}..X}.-X5X1X>X1X1X1X1X}.|.}.}..X5XwX2X6X6X6X1X1X1X1X1X1X2X1X7X2X2X2XBXNXBXBX2XNXCXBX_.1X2XrX1X1X1X6X6XVXVXCXeX1X1X1X1X}.1X1X1X.X5X1XeX}.}.1X1X1X^.}.5X0XVX5X0XVXDXDXCXqXVXCXrX1X2X1X1X4X1X0X0X=X=X=X=X:X0X1X=X=X=X.X.X.X4X5X1X1X1X6X5X-X}.5X5X1X1X4X5X1X6XwX6X0X-X{..X1X}.5X>X1X.X=X'.'.@X=X{.@X-X6X5X{.#X@X@X-X4X:X-X-X:X=X X:X-X=X].].@X;X@X{.{.=X].].{.[.K.XXR.`.XX`.oX;X@X@X-X#X1X2X}.@X-X1X1X1XVX6X5X1XwX5X-X4X4X4X=X0X5X0X:X;X;X1XZXZXZXNX1X.X=X=X:X:X;X;X;X:X;X;X;X-X4X4XwXwX0X:X4X4X:X8X:X:X:X:X:X:X:X:X:X0XqX0X8X0XwXVXwXqX6X0X8X:X4X0XqXqXqXwXwX0XqXqXqXqXqXqXqXqXwXwXwXwXwXCXZXVXVXwXVXVXVXVXVXVXVXVXVXVXVXVXVXVXVXVXVXVXCXVXVXwXwXVXCXCXCXVXZXVXVXCXVXwXVXVXwXVXVXVXVXVXVXVXVXVXVXVXVXVXVXVXVXVXCXCXwX6XwX6X0XqXwXqXwX0X0X0XwXwXqXqX0X0X0X0XqXqXqX0X4X4X4X6X0XqX2X6X6X6X6XwX0X6XwXwXwX6X4X:X4X6X4X4X4X-X4X4X4X4X4X5X6X6X5X4X4X4X4X1X5X5X4X4X4X4X6X1X1X3X1X5X.X1X4X1X1X4X5X1X1X6X6X1X=X;X;X=X:X:X;X$XXXoX4X5X.X@X.X5X5X}.#X5X6X1X5X1X1X}.}.}..X5X.X@X{.|.}.>X.X=X{.{.}..X{.{..X.X=X1X1X.X{.1X1X2X6X",
":.:.:.} { :.;.[ } { { [ ;.Z C C { { { C C { [ { ;.:.:.;.;.;.>.2.;.;.{ ....,.;.:.{ ;.....[ ;.,.>.;.>.>.2.>.>.,...,.>.>.3.3.>.>.>.>.,.1.1.2.<.3.3.3.>.1.2.>.<.i.<.i.G.I.Q.qXVXDXDXDXDXDXDXCXmXrXrX_.rX_.rX_._._.(.(.(._._.(.).2X5X0XqXwXCXDXmX_.2X,X^./.j././.^.^.[.R.@XwXCXCXCXCXZXDXDXCX_.nX2X^.[.0XDXDX_.rXrX^.^.^././.^.|.[.[.{.[.^.^.1X5X4XVXCXCXZXDXDXDXCXCX2X2X,X}..X1X1X-X0XqXVXeX1X1X|.eXVX1X1X}.|.0X6X1X>X,X>X1X,X1X|.|.=X=X-X^./.[.-X6X1X|.|.`.[.{..X}.>X1X|.{.@XXX=X-X.X0XDXCX2X.X{.5X0XVXVXeX2X}.5XwXCX_.2X_.).3X1X}.}.5X1X-X@X3X1X6X|.|.{.[.oX-X.X1X).rX2XrXrX2XeX1XwX1X^.|.#X>X>X>X2X1X)._.1X>X1X|.|.}.|.}.|.2XBXrXBX2XwXCXeXeXwX1X5X1X1XVXeX5X5X1X5X2XVXwX1X5X5X-X0XwXwXwX1X5X1X1X1X>X|.,X2X,X2X2X2X,X<X2X2X1X).<XCX2X1X>X^.).^.}.>X1X2XCXVX_._.^.^.|..X4XqXVX1X^..X).).|.1X1X1X4X.X1X5X6XwXVXVXCXZXCX2X1X2X1X1X4X1X4X5X5X5X-X.X.X.X-X1X.X0X5X-X:X=X=X=X.X5X1X1X1X1X1X6X0X-X-X.X}.}.5X5X1X5X6X6X6X5X.X1X1X.X{.}.3X=XoXXX'.].oX=X=X=X-X-X-X-X@X=X4X4X-X=X=X=X@X{.=XoX=X0X@X[.oXoX{.{.oXoX@X=X'.XXXXK.R.OX$X@X&XoX@X@X@X0X0X-X#X-X5X5X6XVX6XwXwXwX1X-X4X-X=X:X-X5X0X4X;X;XVXZXJXDXZX6X-X=XXX&X;X:X;X$X;X;X$X;X5X0X4X0X4X:X:X:X0X8X8X:X&X:X:X:X:X:X:X:X0X0X:X:X0X0XqXqXqX0X0X8X0XqXqXqXqXwXVXwXqXwXVX0XqXqXqXqXqXqXwXVXVXwXVXVXVXVXwXwXVXVXCXVXVXVXVXVXVXVXCXVXVXVXVXVXZXZXVXVXVXVXCXCXCXCXVXVXVXVXVXqXqXVXVXVXVXVXVXVXwXVXVXVXVXVXVXCXCXCXVXVXVXCXZXVXwX0X0XqX0X0XqX4X4X4XqXVXVXwX0X4X4X4X0X0X6X4X4X4X4X4X6X0XwXZXwX6X6X5X5X0X0X6X6X5X5X4X:X4X4X4X4X4X:X4X4X5X4X:X4X5X6X0X6X4X:X4X4X5X5X4X4X5X6X5X1X1X5X5X.X-X5X4X4X6X4X5X1X6X6X6X5X=X&X;X=X.X=X$XXXXX%X{.[.].].].{.|.|.{.>X2X6X4X-X3X5X1X1X4X4X.X@X@X{.>X1X>X}.{.@X}.-X@X.X3X}.|.1X1X1X1X1X1X2X1X",
"{ ;.>.N.:.;.{ ;.:.} { { ;.;.;.;.{ { { ;.C ;.;.{ { ;.;.;.[ ;.;.k.j.:.;.;.,.<.,.{ [ ;...,.;.[ ..`.k.;.,.>.>.,.,.,...,.>.<.2.>.>.>.1.>.>.1.>.>.1.1.>.>.1.1.1.<.1.H.R.Q.*XqXVXCXDXJXJXDXFXFXDXDXDXCXmXmXrXmXmXrXrX_._.).(.)._.1X6XwXDXDXDXMXmX_.2X5X1X.X.X/.C././.^.^.1X2XVXZXDXmX2XVXCXVX2X).^.>X5X:XeXZXBX).^.^.^.|..X|./.^.}.|.|.=X=X{.|.{.-X.X5X1X2XVXZXCXmX2XCXZXCX2X1X}.}..X-XqXeXCXmX1X5X|.1XrX).1X-X=X5XVX_.1X1X1X5X1X>X^.|.].{.5X0X^.[.oX1X1X1X{.[.].{.^.}.|.|.}.|.{.=X{.}.5X6XCXrX).{.[.}.1X2X2X2X^.|.1X0X1X2X>X>X>X>X>X}.}.}.>X}..X>X>X|.|.].@X].].}.}.}.|.^..X^.^.^.1X|.|.^.>X}.|.1X1X>X1X6X2X_.).}.1X^.1X1X^.^.>X2X2X).^.1X2X).2XeX_.2XwX1X1X2XrX1X5XwXwX1X6XVX1X1XeXeX1X6X6X6X1X1X}.}.1X>X|.1X6X1X,X,X1X,X,X2XwX).>X).2X2X).1X1X}.|.@X6XVX1X1X1X1X>X>X1X1X1X1X1X2X1X1X}.}.|.|.=X=X5X4X5X1X5X1X1XeXeX2X).2XeX1X6X5X1X1X1X0X5X.X5X5X=X{.=X5XwX5X.X.X4X:X=X=X-X5X4X5X}.1X1X1X1X1X.X=X{.|.{..X}.1X6X6X1X1X1X.X>X>X-X].#X#X@X{. XoXoX=X=X=X=X=X-X5X4X#X=X@X@X=X{.{.@X@X;X;X@XoX:X=XoXXXOX$X X$XoX`.XXXX'.OXT.T.+X:XoXOX$X=X@X@X4X5X5X5X5X6XwXCXVXVX6XeXwX-X-X:X:X=X0X0X-X4X4X;X-XNXJXLXJXZX6X:X;X&X;X;X&X;X:X;X;X8X0XqX0X:X=X=X:X:X:X;X;X:X8X0X0X8X:X8X8X:X:X:X:X:X8X8X4X4X0X0X0X0XqXwXwX0X0X0XqXqX0X0X0XwXqXqXwXqXqXqXqXwXVXwXwXVXVXVXVXwXqXVXCXZXVXVXVXVXVXVXVXCXCXVXVXVXCXZXVXVXVXVXVXZXZXVXVXCXVXVXwXwXqXwXVXVXVXwXVXVXVXVXVXVXCXCXCXDXZXVXVXVXVXVXVXVXVXVXqXqXqX0XqXqX0X0XqX0X6XqXqX0X0XqXwXqX0X4X4X0X:X:X4XVXwXwXVX5X5X6X4X4X4X4X6X4X0XqX4X4X:X:X:X-X4X4X5X4X6X5X4X:X5X5X5X5X4X4X4X-X:X=X=X=X-X6X5X6X5X5X5X=X5X5X1X5X5X5X4X4X-X-X>X-X$X=X=X=X.X=X$X%XXX'.'.oXXXXXXX'.{.=X#X}.>X7X3X@X3X4X1X5X6X1X{.].{.{.}.>X}.{.{.=X@X#X#X=X}.}.|.}.}.}..X#X>X>X>X",
"^ B ;.F } { [ { { :.3.:.{ ;.;.F F } :.:.:.F D S [ [ [ [ ;.;.;.;.:.3.3.[ ;.,.;.[ [ ;.,.>.;.^ ..>.2.;.;.;.;...>.1.<.>.>.>.,.>.>.>.>.>.,.>.>.>.>.<.>.>.>.2.1.1.H.`.:X8XeXCXDXZXDXJXPXDXFXFXMXMXFXFXMXmXmXmXmXmXrXrXrX_._.rXrXrX_.eXMXDXmXS.(._.6XqXeXrX_.(./.(.)._.2X2X2X2XeX2X1X}.}.1X1XeXVX2X}..X-X.X.X}.}.}.>X}.|.^.|.^.k.[.@X{.[.{.{.|.{..X.X5X6X6XwXVXeXrX).2XCXCXCX).^.{..X.X1X^.1X^.^.-X5X}.}.|.|.4X.X.X5X_.>X>X}.1X}.|.|.{.{.{..X-X^.].].{.>X1X5X}.}.{.^.|.|.[.}.}.{.{..X.X|.{.|.|.|.].'.].=X}.1X}.}.1X>X1X5XwX1X5X5X>X}.}.>X>X}.|.{.5X1X1X}.{.{.].:X0X1X>X}.[..X5X5X>X>X2X).1X1X|.|.}.-X5X1X>XwX2X>X1XeX1X|.^.1X^.1X1X^.>X|.,X1X^.,X1X_.).^.^.2X2X_.2XVXVXVXVXVXCX2X1XCXCX2X1X2XZXZXZXeX1X1X-X|.}.>X>X|.>X1X1X2X,X1X).>X).1X2X1X1X1X>X-X5XVXZXCXVXeXeX2X6X6X,X1X1X^.1X1X1X.X|.}.}..X=X.X.X.X1X5X0X5X1X5X5X.X5XwX1X1X0X1X|..X-X-X-X.X$X$X$X@X-X=X.X$X$X4X:X=X-X-X-X5X4X5X1X5X5X6X5X4X-X=X=X-X-X{.}.5X5X1X1X=X=X{..X.X=X#X@X{.{.oX=X=X:X3X5X5X3X5X4X5X=X=X:X;X=X@X@X;X#X@X:X:X=XXXXXOXOXOX X'.$XoX'.%X%XXXXXXXXXOX;XoXXX&X:X-X;X;X-X-X4X4X0XCXDX6XwX0X5X0X4X5X4X:X@X:X4X5X0X1X:X;X1XZXLXJXCX1X-X;X:X;X&X%X%X&X$X;X4X0XqX4X&X*X&X:X8X8X:X8X:X4X4X0X:X:X;X8X:X:X:X:X:X8X8X4X4X:X4X0XqX0X4X4X5X4XqX0X4X4X4X4X0XqXqXwXqXqXwXwXqXqXqXwXwXqXwXVXwXqXwXVXVXVXVXVXVXVXVXVXVXCXVXCXZXZXZXVXVXVXCXZXZXCXVXCXZXCXVXVXVXwXwXVXVXwXVXwXVXwXVXVXVXCXZXZXZXZXZXZXCXVXVXVXVXVXVXqX0X0X0XqXwXqXqXwXwXwXwXqX4X0XwXqXqXwXVXwX0X4X4X4XVXwXqX0X5X5X6X4X0X0X0X4X4X0X6XwX4X4X4X4X4X5X4X5XwX6X5X4X4X5X5X4X4X4X0X4X4X-X:X;X;X:X:X3X4X5X4X5X.X-X5X1X1X1X.X.X{.@X-X-X-X=X-X3X5X5X-X@X;X;X].XX&X%XXXXXXX].{.@X@X-X1X-X=X#X.X#X.X}.#X3X.X.X{.}.>X}..X3X@X@X#X#X{.-X5X3X.X=X@X#X#X>X>X3X",
"{ ;.,.:.} { [ [ { } h.:.C ;.:.D S { { { { C S S ;.[ [ ;.;.;.;.;.,.,.,.;.[ [ [ ..[ ;...>.>...,.>.;.;.,.:.S ;.>.3.3.>.;.>.,.>.,.,.;.,.,.>.>.>.>.j.j.>.>.2.1.1.1.b.|..X.X).).2XCXZXMXmXMXFXMXMXMXkXjXjXjXmXmXmXmXmXrXrXrX_._._._._.2X2XmX_._.1X6XwXCXDXmXmX_.).,X1X1X6X>X6XVXwXVXVXCXDXCXmXrX).|.-X3X0XVXCXCXCXeX1X{.[.{.{.[.v.[.v.[.{.{.{.{.-X-X5X1X,X>X5X0X5X^.[.|.|.1X1X1X.X{.^.}.|.[.^.|.}.}.-X.X[.[.{.{..X^./.^.|.}.}.|.|.{.{.].{..X{..X].'..X-X}.}.}.}.{.[.].].].{.|.@X{.-X4X.X[.'.'.].].-X].].{..X.X{.5X1X^.|.=X{.{.}.|.|.-X5X1X3X{.=X|.>X5X4X{.[.].:X6X6X1X}.{.@X-X-X5X1X2X_.,X1X|.}.^.}.5X>X|.}.}.>X1X6X1X1X|.>X}.1X1X|.1X}.1X6X1X^.^.,X^./.|.>X1X>X).2X_.)._.CXDXrX_._._.CXZXCXDXFXZXrX2XwX6X1XeXVX2X1X2X^.1X1X>X1X>X>X7X1X1X>X5XwXVXCXwXCXCXZXZXCX1X1X2X2X2X6X5X1X0X1X.X{.=X-X5X.X{.{..X4X5X1X5X4X5X.X-X-X1X5X1X5X.X}.1XwX-X-X4X-X$X$X*X$X=X;X=X;X=X:X-X4X4X-X=X=X;X4X1X1X.X-X5X4X-X-X:X:X#X@X=X:X4X-X=X=X.X-X:X-X-X:X=X-X=X@X=X-X5X-X5X-X-X4X-X@X#X4X5X:X:X-X;X:X:X-X0X=X XXXXXXXXXXXXXXXoXoXXXXX%X%XXXXX$X$X$XXXXX&X:X:X$X&X&X;X;X;X5XCXDXVX1X4X4X4XwXwX5X4X:X4X:XqXqX.X:X;X-X1X2X2X1X=X:X:X:X:X:X;X&X&X*X&X:X0XqX8X;X&X&X:X8X8X:X:X:X8X0X:X:X:X:X8X:X;X:X:X:X8X8X0XVX0X0X0X4X:X4XqXqXwXeXeX4XqX0X4X0XqXVXVXVXVXVXwX0XqXqXqXqXqXwXwXqXqXwXVXVXVXVXVXCXZXZXVXVXVXVXZXDXZXCXVXVXVXZXZXCXVXVXCXVXVXVXVXVXVXVXVXVXqXVXVXqXqXVXVXVXVXCXZXZXZXZXZXCXVXVXVXCXVXwXqXwXqXqX0XwXqXqXVXVXwXwX0XqXwXwX0XqXqXwXwX4X4X4X4X5X4X4X0X:X4X4X5X4X4X4X:X:X5X1X5X4X4X4X4X6X6X5X4X5X4X4X4X4X:X:X:X-X4X4X4X5X3X5X5X4X-X4X4X-X5X4X=X=X@X}.-X1X5X1X5X4X:X-X=X;X@X#X3X3X1X1X-X{.=X$XOXXXXXXX$X$X XoX@X=X-X.X=X@X@X;X;X#X@X#X3X1X>X.X1X1X{.5X5X{.{.#X#X{.}.3X1X5X5X4X-X.X{.}.-X",
"[ ;.>.:.} ;.;.;.:.} C C } S ;.;.{ [ { [ [ ;.;.{ ;.;.[ [ ;.>.;.;.;.,...<.2.;.;.,.,.;.;.,.>.>.;.>.>.>.>.;.;...,.>.:.;.,.,.,.2.3.,.,.>.,.>.>.>.3.j.j.3.>.2.1.1.p.'.|.|.1X,X1XeXeXCXmXmXmXmXmXnXnXnXrXrXnXmXgXnXnXnXmXrXS.(.(._.rXrXVXZXDXmX2X2XeX2XrXCXZXCX_.>X}.#X-X6XqXeXCXCXCXFXmX_.(.^.|.^..X5X1XCXDXDXDXJXZXCXCXCXwXwXeX1X].@X-X}..X`.{.4X1XCXrX^.{..X|.^./.`.oX{.|.|.|.|.{.[.].oX:X.X{.|.{.{.-X.X[.`.[.].-X1X^.b.{.|.-X-X|.[.{.@X{.{.=X=X].=X{..X|.|.{.{.{.].oXoXoX{.@X.X|.-X5X-X{.$X=X{.-X.X4X0X|.{.@X5X1X.X@XoX{.=X{.{.{.3X1X|.-X=X0X5X}.}.5X{.[.].-X5XwX1X5X@X[..X5X.X}.|..X}.3X5X1X}..X1X1X}.}..X3X3X3X>X1X}.#X#X#X}.1X1X6X1X>X^.|.}.[.{.}.}.^.|.>X>X1X1X^.l.).nXrX2X,X2XmXFXDXCXnX_._.eXZXDXDXJXDXmXrXeXwX2X).1X6X6X6X2XCXeX1XqXVXVXCXCXDXDXDXDXDXCXeXVXwX6X6X1X1X1X1X4X.X.X0X1X{.{.{.1X4X4X1X1X.X.X{..X.X-X.X-X5X.X.X1XeX1X1X1X1X.X$X$X=X:X-X|.=X.X.X1X0X-X=X=X$X$X-X5X>X{..X4X4X4X.X=X=X;X=X$X;X:X=X:X:X$X=X=X@X=X:X:X:X-X=X;X#X-X{.-X=X=X5X=X=X4X6X6X4X4X:X;X:X8X=X=X].XXOX$X&X&X$X&XoX+X+XXXOX%XQ.XX$X:X$X$X$X&X;X$X$X$X*X$X&X$X#X0XwXVX6X1X5X:X4X6X5X1XwX4X:X:X0X-X-X:X;X;X=X:X4X-X;X;X:X;X:X;X:X:X$X&X;X4X0X0X:X;X:X9X8X8X8X8X:X;X8X:X:X8X:X:X8X:X;X:X8X8X8X8X6XwX5X4X0X0X:X0XVXwXwXwX0XqXqX0X0X0XwXwXwXVXVXwXwX0XqX0XqXqXqXVXVXwXqXwXVXVXVXVXVXCXZXZXCXVXVXVXCXCXCXVXVXVXCXZXZXZXVXCXCXVXVXVXVXVXVXVXVXwXqXVXVXqXwXCXVXVXVXVXVXVXCXZXZXZXCXVXVXVXVX6XqXwXVXqXwXwX0X0X4X6X4X6X0X0XwX4X4X4X4X0X0X0X6X6X4X:X4X4X4X4X0X6X5X5X6X4X4X:X:X6X0XqX0X4X4X6X5X4X4X4X6X6X4X:X:X:X-X4X4X:X#X3X7X6X5X6X5X5X5X4X5X4X:X:X#X3X3X5X5X1X3X5X4X-X=X$X@X@X=X=X=X-X5X5X-X$XOXXXXX%X$X;X*X$X;X=X$X=X.X=X=X;X=X@X@X.X>X1X1X1X1X1X.X5X5X=X=X@X@X=X3X3X1X1X6X5X}..X@X.X-X",
"^ [ >.;.;.3.:.:.} } { { [ { [ [ [ [ ;.;.;.>.3.S [ ;.;.;.;.,.;.;.>.,...,.>.;...;.>.,.>.,.,.2.:.;.>.>.,.;.....>.1.<.<.<.<.<.>.>.>.>.,.>.,.>.>.2.k.3.>.>.>.<.1.`.$X1X1X^.>X1X1X).).^.1X1XrXrXrXrXmXrXmXmXmXjXnX_._.rXrX_._._._._.rXrXCXDXZXVXVXZXCXVXeXrX).>X5XqXeXCXCXDXmX_._._.(./.k.[.|.|.}.^.}.|.)._.CXCXBXCXCXZXmX2XeX1X.X|.{.{.|.{.=X=X{.1X2X1X^.|.4X{.].'.[.v.].{.|.|.[.].'.=X].}.=X[.{.}.|..X}.^.{.[.].{.|.[.[.v.v.{..X|.{..X3X-X]. X'.oXoX{..X|.{.[.oX=X{.-X].'.;X-X-X|.{.-X1X5X5X=X@X{.|..X1X>X{.@X3X1X.X{.'.].@X{.@X5X5X}.}.3X3X1X1X{.-X}.{.{.@X-X.X1X}.{.;X:X{.1X1X}.{..X.X}.{.-X-X.X1X6X1X5X}.1X4X-X}.5X{.@X#X5X}.}.1XCXmX^.}.}.}.|.{.1X1X1X}.|.|.{..X1X}.}.1X1X,X,X>X,X2X2X_.2X2X2XVXBXmXZXCXCXrX).1X2X6X2X1X6X6X2X2X2X2X1X1XqXqXwXVXZXDXCXCXCXCX2X1X2X2X1X}.1X>X1X1X.X.X-X-X{..X=X.X0X0X1X}..X5X.X-X5X.X=X.X.X.X5X1X}.1X3X1X1X{..X=X@X=X{.|.=X-X.X5X0X4X=X$X:X0X1X.X@X.X.X.X.X-X-X-X].=X:X=X=X-X=X;X4X=X;X;X;X;X.X-X-X=X X;X=X=X=X4X4X:X4X4X4X4X4X4X4X4X4X:X=X:X=X$X%XOXXX=X:X$X+X=X=X-X.X1X{.%X*XXX$X;X@X=X=X:X;X;X%X;X;X=XXX'.=X-X-X5X1X}.=X=X4X4X-X0X0X=X$X:X8X4X-X4X4X:X;X:X:X:X4X4X4X&X&X;X;X;X$X:X0X4X8X8X:X8X9X8X8X8X8X8X8X$X:X;X&X;X:X:X:X:X;X:X4X4XqX0X4X4X5XwXwX4X4X0XwX0XqX0X0XqXqX0X4X4X0XqXwXVXVXqXqXqXqXqXqXqXqXwXVXVXwXVXwXVXVXVXZXZXZXZXVXVXCXZXCXCXVXVXVXVXVXVXCXVXVXVXVXVXCXZXZXZXCXVXVXVXVXVXwXqXwXVXVXVXVXVXVXVXVXCXZXZXZXCXVXVXVXqXqXVXVXqXqX0X4X:X:X4X4X0XqX0X4X4X4X4X4X4X4X4X5X5X:X;X:X4X4X4X0X6X4X5XwXqX0X:X4XwXwXqX0X:X4X0X4X5X6X6X4X5X4X4X6X4X=X5X4X:X#X3X4X4X4X4X:X=X.X-X-X4X4X5X6X7X4X;X;X;X#X#X:X:X=X#X$X%X;X#XoX&X=X4X=XXXT.XX X X X X'.]..X.X@X#X{..X-X5X#X@X=X@X#X3X-X}.3X1X-X}.3X.X{.{.{.{.-X3X.X>X1X}.}.-X.X.X.X",
"g.[ ;.g.,.3.j.} { { ;.>.;.[ [ [ [ ;.;.,.>.:.:.:.;.;.>.j.j.3.>.>.,.;.;.;.......,.;.[ ;.;.;.,.>.>.>.>.>.>.>.,.,.i.s.d.s.i.<.>.f.s.s.i.i.<.,.>.p.k.3.>.p.p.1.1.K.[.^.-X1X4X0X0XeXeXqXeXeXeXZXDXFXMXmXmXmXmXmXmXrX_._.rXrXrXrXrXrX1X2X6XVXVXCXDXDXDXDXDXZX2X6XeXDXDXDXDXDXmXnX2X2X1X^.b.v.[.|.}.>X|.1X|.^.^.|.[.|.1X>X^./.|..X^.b.[.{.|.{.:X.X|.5X^.^..X[.].].].{.|.v.`.'.].=X{.|.{..X.X}.|.{.}.>X|.|..X^..X.X3X|.|.oX@X{.-X{.].{.}.1X1X1X-X[.].=X@X=X{.].=X$X=X=X=X4X-X'.{.}.{.|.|.{.|.|..X-X5X5X>X3X>X}.].@X=X-X{.].'.'.].@X.X5X>X>X1X1X1X1X>X^.-X-X|.@X@X-X{.{.{.{.=X=X=X.X.X.X=X{..X.X@X{.{.=X4X5X5X3X}.}.4X4X}.1X}.{.5X1X{.=X.X2X_.1X1X5X1X|.}.-X}.1X1X1X|.[.|.1X1X1X.X}.}.1X1X>X1XwX6X2X6X2X_._._.2XeXwX1X^..X|.^.}.1X1X2X1X1X1X2X1X1X1X1X5X1XeX6XeXwX2X2X2X1X1X1X1X.X5X1X1X.X.X-X-X=X[.{..X.X.X5X.X{.-X.X.X4X4X.X|..X-X5X5X1X.X-X}.-X=X.X4X.X=X.X=X=X=X=X.X-X.X.X{.].=XwX1X|.=X.X.X.X=X-X-X-X{.=X4X.X.XwX-X$X#X=X=X;X;X=X=X.X=X=X=X4X:X;X=X:X:X;X4X4X:X:X:X:X:X=X-X:X-X4X4X;X;X&X$X X=X=XoX@X-X-X1XeX^.@X@XoXXX;X=X=X;X=X:X0X4X:X=X&XoX-XqX4X$X$X:X:X-X0X4X4X4X0X0X;X$X;X:X:X4X0X0X0X4X;X;X:X4X4X:X$X;X&X*X*X&X=X0X4X0X0X0X8X8X8X8X8X8X8X:X$X;X;X%X%X;X:X:X4X0X:X4X0X0X4X0X0X0XqXqX4X0XqX0X0X0X4X0X0X0X0XqX0X0XVXVXCXVXqXqXqXqXqXqXqX0X6XwXwXVXVXVXVXVXVXZXZXZXCXVXCXZXCXZXCXVXVXVXCXZXCXZXZXZXVXVXVXZXDXZXZXCXCXVXVXVXwXqXqXwXVXVXVXwXVXVXVXVXCXZXZXZXZXCXZXVXqX4X0X0XqX0X0X0X8X8X0X4X0X0X4X4X4X:X4X4X5X4X0X4X5X:X:X:X4X4X4X0XwX4X4X4X4X4X:X5X6X5X4X:X;X:X:X4X0XwX5X:X=X4X4X4X5X@X4X4X:X;X4X0X5X=X;X;X=X.X-X;X:X:X-X3X5X:X;X:X;X#X#X;X:X:X=XXX=X:X:X-X=X;X:XoXOXOXXX X X=X=X=X=X$X X$X$X}.5X4X4X#X=X=X{.{.@X{.@X3X3X=X.X5X5X3X@X@X{.-X5X1X1X1X1X1X-X=X.X=X",
"0.*.,.,.,.2.3.;.} ;...;.;.[ [ [ ;.;.;.,.>.3.:.:.,.;.;.3.:.>.>.;.[ ;.;.,...,.>.>.>.g.g.g.0.%...;.,.>.>.>.,.>.>.,.d.s.Q.$X^.2.p.T.R.'.=X.X/.3.2.k.2.<.p.$X8X[.[.}.-X:X0XVXDXJXJXJXDXJXJXJXJXJXFXMXmXmXmXmXmXmXrXrXrXrXrXrXrXVXVXVXVXCXDXDXDXZXFXDXFXZXCX).1XqXZXZXZXDXDXmXmXBX).^./.k.[.@X{.}.>X|.[.[.L.`.[.'.+X=X|.{. X`.'.'.].`.H.L.[.L.{.^.^.^.[.].].@X].4X5X|.[.[.'.].].|.|.}.|.[.].|.}.^.}.1X.X5X|.|..X4X{.{.oX{.{.{.|.].=X5X1X>X}.5X{.@X-X{.{.].[.=X=X$X=X]..X=XoX=X-X}.{.{.[.{.5X}.}.1X1X}.}.{.|.].@X=X{.`.'.$X X=X-X-X1X>X>X1X1X>XwX6X|.].=X=X{.@X@X{.@X=X{.{.{.-X}.{..X=X|.{.-XoX@X=X;X:X-X-X.X5X5X1X1X}.5X4X.X5X0X.X=X.X5X^.}.5X5X}.}.}.{.}.5X^.|..X].{.}.1X1X.X.X.X5X1X}.1XVXVX2X1X2X2X2X1X>X1XwX1X}..X.X.X1X6X6X1X1X1X1X5X1X1X5X5X5X5X1X5XqXqX6X5X2X1X1X1X}.{.0X1X|.=X.X:X=X'.'.].=X{.{..X{.{.5X5X.X5X-X=X=X=X-X-X-X0X-X-X=X=X;X-X0XeX-X=X:X;XoXoX{.=X5X5X=X|.{.}.1X-X=X.X.X.X-X4X.X{.=X.X{.=X:X6X.X X=X:X-X:X:X=X=X:X=X=X=X=X#X#X=X=X-X-X4X:X#X;X#X=X=X=X-X-X:X4X-X=X:X:X-X X$XoX'.:X].'.[.[.oX+X$X$X$X=X;X:X=X].=X1X5X.X X$X=X0XqX0X$X$X:X4X-X1X=X$X$X:X=X$X;X4X4X0X0X4X0X4X:X;X;X:X=X=X;X:X:X;X&X%X%X&X:X:X:X:X8X8X8X8X&X8X:X&X$X&X;X;X&X&X;X:X:X:X4X8X8X8X:X:X:X:X0XqX0X4X4XwX0X4X0XqX0X8X0XqXwXwXqXwXwXwXwXqXqXqXqXqXqX0X0X0X0XwXVXVXVXVXVXVXCXZXCXVXVXCXCXVXVXVXVXCXZXCXZXCXZXCXCXVXVXCXZXCXCXZXZXZXCXVXVXqXqXqXwXVXVXVXVXVXVXCXVXCXCXCXCXCXZXZX6X0X0X0X0X0X4X4X8X8X8X8X;X8X4X4XqX0X0X0X0X4X0X0X0X0X4X4X4X4X4X4X0XqX0X4X:X;X:X:X4XqX6X4X:X:X:X4X4X4X:X-X;X:X4X4X:X5X6X0X0X4X;X:X4X:X#X;X=X-X6X0X:X;X;X#X:X:X=X;X;X=X;X;X=X=X:X$X%X$X@X=X}.-X4X4X;XOXOXXX=X=X=X@X-X4X=X$X$X;X5X5X-X;X-X5X-X@X}.=X;XoX@X#X@X{.}.-X}.@X#X@X.X=X3X6X1X6X5X.X.X=X.X",
"`..X.X^.^.|.b.m.m.'.L.D.:.;.;.;.>.f.>.>.>.;.>.>.<.<.>.>.>.>.2.>.;.>.;.>.;.>.,.,.,.f.d.U.Q. X/.:.2.p.<.H.H.1.k.<.e.U.qXCXmX).n.=X-X0XCXmX_./.j.k.D.1.2./..X/./.|.:XqXeXDXJXLXPXJXDXFXFXMXMXMXmXmXmXmXmXmXmXmXmXmXrX_.rXrX_.2XVXCXZXZXCXZXFXFXmXmXmXnX).^.1XeXCXBX_.2XBX_.).<Xl.[.].D.K.].].[.|.[.`.`.`.`.'.=X;X=X.X|.].[.D.p.L.`.D.1.L.`.].{.|.[.`.'.[.].{.}.{.].[.'.oX'.[.[.|.|.[.[.].=X}.|.|.{.|.|.{.=X@X{.{.=X=X=X@X#X{. X$X-X}.{.=X.X.X{.:X1X}.|.[.{.=X X].].{.].'.=X-X3X{..X].XX:X5X.X|..X.X[.].].=X].].{.'.K.'.$X$X{.}.5X5X1X>X}.|.}..X{.].{.@X=X{.#X.X{.{.{..X{.{.|.|.|.{..X].].].;X:X8X0XqX0X4X6X0X5X1X1X5X5X.X.X0X1X|.}.}.^..X5X.X^.1X5X>X1X5X}.{.{.{.-X#X@X5XwX1X1X0X0X1X1XVXCX6X2X1X1X1X5X2X6X6X5X1X1X5X6X1X6X1X1X5X5X3X1X-X1X1X1X1XwXwX5XqX0X6X5X6X1X1X1X|.}.0X.X|.|.{..X.X].[.=X.X{.@X{.|..X}.5X5X1X-X-X-X=X=X=X=X1X}.=X=X X=X.X.X1X.X-X-X;X=X=X@X=X4X5X.X{.=X.X5X5X.X=X.X.X-X.X.X@X:X-X@X=X:X-X}.=X=X:X-X-X5X@X;X=X$X;X4X4X:X:X;X:X4X5X4X:X;X;X#X@X=X:X:X-X=X-X-X{.-X5X-X{.+XXX X$X XoX=X=XoX$X=X=X=X=X:X;X X].=X=X:X=X$X=X;X5X0X5X4X:X:X-X=X=X*X%X$X$X$X$X;X:X4X0X0X4X4X=X;X:X:X8X&X$X;X:X:X:X:X:X;X;X:X:X:X8X;X:X8X8X:X;X:X:X:X:X:X&X&X:X:X:X:X;X:X8X8X8X:X:X8X:X:X0X4X4X4X0X0X:X8XqXqX8X0XqXwX0XqXqX0X0XwXqXqXqX0X0XqXqXqXqXqXqXwXVXVXVXVXVXVXVXVXVXVXVXVXCXVXVXCXZXCXCXZXCXVXVXCXVXCXZXZXZXZXZXZXZXZXVXwXqXqXqXqXwXwXVXVXVXVXVXVXVXVXVXVXCXVXVX6X0X0X0XqXqXqX0X0X8X8X8X:X8X4X0X0X0X0X0X4X4X4X4XwXqX4X4X4X0X0X4X4XqXqX0X:X;X4X4X4X4X:X:X4X0X6X6X4X4X:X:X:X:X:X:X:X4X5X4X0X8X;X#X$X$X;X;X:X4X6X4X-X;X;X-X:X:X:X;X&X$X;X;X;X;X;X$X&X&X+XXX=X4X0X6X4X=XOXoX=X{.oXoX@X#X#X#X@X=X-X-X=X$X#X4X=X@X:X:X;X@X@X;X:X@X{. X{.=X#X#X=X}.>X2X6X5X1X-X@X=X=X",
"h.:.F z.z.z.b.b.[..XrX_.(.j.3.p.b.m.$X8XeX/.j.k.]..X^.k.[.=X4X1X|.n.k.3.>.3.,.,.>.f.U.8XeXCXZX).|.-X/././.:.j.k.>.i.L.j.z.k.f.`..XrXZ.I j.3.2.1.D.1.>.>.3.2.2.D.[..X1XrX_.mXDXFXDXDXJXmXmXrXrXCXZXCXmXrXmXCXmXmXjX_.nXnX_.NXCXCXnXCXCXZXFXFXmXmXBXrX).}..X|.^./.2.`.-X.X/.b.[.XX:X{.`.'.'.[.{.].].'.|.{.[.].{.].`.[.'.$X'.$X0X].D.1.K.`.`.-X|.{.'.'.'.].].}.}.#X#X{.:X-X.X[.=X}.`.'.{.}.{.|.=X:X5X.X1X^.{.{..X|.|.].@X-X{.@XoXoX-X|.^.'.'.-X1XwX5X^..X=X{. X].{.].'.].=X{.{.@X=X{.].@X{.=X{..X}.[.`.'.].].].].].].].[.`.{.|.-X1X>X}.{.{.|.|.{.{.{.].].@X.X}.{.].|.5X1X5X.X.X|..X.X|.=X=X.X-X.X=X.X1X0XwX1X1X.X=X|.{.{.@X.X}.|.}.{.{.{.}.1X1X}.}.}.}.1X}.}..X|.-X-X.X}.5X1X-X1X.X.X1X6X6XVX6X2X1X1X1X1X1X5X1X5X5X5X5X1X1X.X.X5X-X{..X-X5X1X1X1X5XwX2XwX2X1X1X1X1X1X1X}.{.}.}..X}.{.-X-X.X{.}.1X.X.X=X.X.X{..X|.=X:X1X5X:X-X=X.X0X-X=X=X$X{.-X1X1X=X=X.X=X=X@X=X=X=X:X=X{.-X5X4X4X.X=X{.-X.X.X-X X=X:X=X$X;X5X5X:X=X X$X$X$X@X;X=X=X;X=X-X4X5X5X-X=X-X5X4X5X4X:X:X4X5X:X-X:X;X=X@X@X}.{.].@X'.XX'.$X=X].oX@XoX;X=X$XoXoX*X$X=X-X=X$X%X@X:X-X5XCXCXqX0X:X=X:X;X;X:X:X;X&X*X%XW.*X:X0X0X-X$X&X;X:X:X:X:X&X&X:X;X:X;X:X:X:X:X4X0X:X:X0X8X&X&X;X;X:X&X;X&X;X:X;X&X;X;X8X8X0X0X0X0X8X:X:X4XqXwX0X0X:X:X0X4X4X0X0XwXwX0X0X0X0XwXVXqXwXwX0X0XqXqXqXqXqXqXqXqXwXVXwXVXVXVXVXVXCXCXZXDXCXCXZXCXVXVXCXCXVXVXVXVXCXCXZXZXZXZXZXCXVXwXqXVXqXqXwXwXqXwXVXwXwXVXVXVXVXCXVXVXVXVX0X0X0X0XqX0X8X8X8X8X:X0XqX0X0X0X:X:X4X0X0X:X:XwXwX-X0X8X4X4X4XwXqX0X4X4X4X:X;X:X:X;X;X:X:X:X4X4X:X4X4X4X:X4X0X-X4X4X;X:X:X:X;X;X;X:X4X;X4X4X-X=X-X4X:X;X:X;X:X;X&X=X#X;X:X-X.X4X&X&XOXXXoX-X5X5X5X-X%X$X:X=X=X4X-X X=X@X=X-X5X4X:X;X;X;X=X@X4X:X$X$X#X#X#X@X=X$X@X;X@X@X}.1X1X4X1X1X1X-X:X3X4X",
":.:.;.:.:.>.1.{.|.^.(.I I :.;.p.p.f.[.1X_.(.h.h.k.b.b.k.2.3.j.k.[.-X=X[.3.3.2.<.p.p.p.1.j.j.^.^..XVXCXrX(.j.:.;.>.<.U.oX}.v.p.L..X^.F ;.<.>.<.i.H.p.i.i.U.H.2.3.1.L./.^.).2XmXnXnXnXmXnX_.).).mXZXZXZXmXrXmXmXrXnXS._.rX2XVXVXZXCXmXmXrX_._._.^.^.^.[.[.oX=X-X-X[.'.-X4X.X|.[.'.:X}.].L.[./.'.].=X-X|.[.@XoX{.|.].{./.|.|.}.5X}.1.2.p.L.].|.|.`.[.{.{.{.[.{.-X{.{.|.].=X].'.].:X=X[.].^.^.{.[.].{.[.}.{.|.|.{.|.^.].{..X^.{.@X[..X.X^.[.'.{.1X}.1X.X=X.X.X{.{.=X=X].=X.X.X{.{..X^.|.}.{.=X.X5X|./.'.'.'.'.].=X.X{.}.|.[.@X].}.}.|.|.=X}.}.|.].{.{.].{.{.{.|.{.{.|..X|.[.5X-X}.5X3X}..X|.^.}.5X[. X.X-X5X1X5X-X.X{.].{.{..X{.-X5X}.{.{.}.5X1X.X}.5X}..X{.{..X{.{.{.=X=X4X0X.X.X=X.X-X5X5X1X2X1X1X1X5X4X1X1X5X4X5X1X1X1X.X=X.X5X.X.X4X5X0X1X1X1X1X1X1X2X2X1X1X1X}.1X1X5X=X|.=X=X.X4X.X.X.X.X}.5X.X.X.X5X=X.X=X`.$X=X.X.X{.{.=X.X-X-X.X@X=X{..X-X=X X.X.X.X-X-X5X.X=X:X=X{.-X.X.X-X.X=X{.{..X=X-X=X$X=X=X X=X4X4X:X{.$X;X X@X#X;X=X=X:X=X{..X4X6X-X-X5X1X5X-X=X;X=X-X4X-X=X:XoXoXoX@X{.{.-X{.'.OX'.'.'.'.'.$X=X$X:X8X=X$X;X;X#X;X:X;X&X;X4X4XwXZXCX0X4XoX%X&X;X;X:X;X&X&X%XW.%X$X=X4X0X-X;X&X%X*X$X:X5X:X%X&X:X:X;X$X;X;X;X=X:X:X8XqX8X*X&X&X:X:X&X&X%X%X%X%X%X8X0XqX0X0XqXqXqX8X8X:X0XqXqX0X8X8X4X0X0X4X0XqXwXwXqXqXqX0XwXVXqXwXqX4X0XqX0XqXqXqXqXqX0XwXVXwXVXVXVXVXVXCXCXZXZXCXCXZXCXVXVXVXVXVXVXVXVXCXCXZXZXZXZXZXVXVXVXVXVXwXqXqXwXqXqXqXqXwXVXVXVXVXVXVXVXVXVXwXqX0XqXqX0X0X4X:X4X:X4X0XqXwXqX:X:X4XqX0X:X:X0XwX4X0X0X:X4X0XwXqX0X:X:X0X:X:X4X4X;X:X:X:X;X4X:X-X0XwXqX:X:X:X;X:X:X:X:X:X;X;X;X;X:X4X:X:X4X;X;X:X:X=X:X;X&X$X+XOX=X;X;X;X;X-X:X$X$X&X%XoX:X4X5X5X-XoXoX=X-X6X0X-X=X-X4X5X6XqX0X-X=X:X:X-X5X6X4X=X$X#X@X@X-X;X;X#X#X#X=X{..X-X-X3X5X5X-X{.}..X",
"..;.[ ;.,.-.,.:.h.F k.^.k.3.,.f.s.U.$X.X(.l.n.v.[.#X|. X8X1X}.k.].eXCXDXCX(.k.oX+X[.=X0X1X/.|.].[.^.^.^./.k.3.>.,.,.p.'.{.=X0XeXrX^.2.<.J.p.1.J.'.[.b.*XeXCXmX).3.`.[.[.|.|.^.).^.^.^..X.XeX1X_._.C.rXmXjXS._.eXrX(._.2X1X1XCXDXmX(.^.).^.^.|..X|.^.^.L. X:XqXqX|.[.=X|.^.|.[.'.|.^.[.H.D.k.`.'.].[.[.`.`.oX].|.|.|.^.[.k.k.b.[.v.[.[.p.@X=X].`.].{.|.{.|.{.{.{.].].{.'.oX].`.].=X.X{.{.|.'.[.`.oX#X@X].{..X.X|.|.=X].|.}.}.=X|.|.{.|.].'.{.5X|.}..X=X-X-X-X{.].].{.].^.|.|.|.0X.X.X.X|..X.X1X|.[.'.].].{.|.}.1X^.}.>X|.[.].].|.|.|.{.>X}.|.[.{.{.|.=X{.|.|.}.}..X4X{.{.5X.X}.5X5X1X1X.X|.-X#X].=X-X{.}.}.5X-X.X.X=X].{.{.|..X.X1X}.{.3X1XwX1X^..X-X5X}..X-X{.{.=X.X{.}.5X-X.X-X.X.X4X4X5X1X6X1X.X5X0X5X5X5X5X5X5X1X1X.X1X5X.X5X1X6X6X5X1X1X1X1X1X1X1X1X1X1X5X1X1X1X1X.X{.=X=X-X5X|.{. X{..X.X|..X.X1X.X]. X'. X{.|.{.].].].5X.X.X=X=X=X-X-X:X{.=X=X{.@X-X.X}.}.{..X{.{.|..X{.{.{. X.X=X{.=X.X=X=X@X=X X$X-X-X;X X$X$X].=X:X;X=X;X:X{.-X4X4X-X.X{.0XqX1X.X;X;X=X@X@X=X:X4X$XoX#X#X=X=X5X{.`.XX X'.'.XX'.'. X X=X-X.X.X=X:X#X1X0X=X$X4X5X4X5XeX2X4X=XOX%X%X%X&X&X&X%X%X%X%X;X:X8X4X8X;X;X&X%X*X$X:X5X;X%X&X:X:X;X*X*X&X;X;X:X&X8X0X1X:X&X&X&X8X&X;X&X%X%X%X&X8X:X0X4X0X0X0XqX0X8X8X8X4X4X:X:X:X:X:X4X4X0XqX0X4X0X0XqXwXwXqXqXqXqX0XqXwX0XqXqXVXwXqXqXwXVXVXVXVXCXCXVXVXCXZXCXVXVXCXVXVXVXVXVXVXVXVXVXVXVXVXVXCXCXVXVXVXVXVXVXVXwXqXwXwXqXqXwXqXwXwXwXwXVXVXVXVXVXwXqXqX0X0X0X0X4X0X0X0X4X0XqXwXqX0X8X0X0X4X8X8X4X0X0X0X4X4X0X0X4X4X0X0X:X:X:X4X4X4X;X;X;X;X;X:X:X:X4X6X4X=X&X%X%X=X:X4X:X;X&X;X;X;X:X4X4X:X:X;X&X;X:X:X:X;X&X%X+X&X;X;X$X=X:X$XoX=X=X:X:X;X;X;X=X=X=X@X:X:X@X5X1X{.-X1X6X5X5X6X4X5X4X:X4X6X6X5X.X$X=X:X.X-X:X@X@X&X+XXX].=X-X.X].#X5X5X-X#X@X}.",
",.;.[ ;.,.>.:.F { ;.[ ,.>.<.i.s.H..X1XrX2X2X1X-X.XeXCXCXmXrXrXCXVX_.(.(.rX_.^.=X:X].[.0XeX(.k.`.=X@X X-X.X^.^.3.>.1.>.p.v.].1XmXmX).]. X:X.X.X|..X1X^..X1XrXZXZX).}..X}.5XqXrX2X6XqXeXVXVXCXDXmXmX_.rXmXjXS.(.).).).l././././.rX(.z.k.].[.L.`.|.^.^.b.1.H.`.|.^.[.H.`.[.[.[.`.`.^.k.L.K.@X[.K.K.[.`.H.`.`.`.[.|./.k.H.H.L.L.p.`.[.H.[.[.[.'.[.].].{.|.[.].]. X{.].].].].=X{.[.[..X^.[.{.].'.'.`.'.$X$X].-X.X.X|.{. X].|.4X6X.X|.}.{..X].].@X4X}.{.{.|.{..X.X|.].[.[.{.].].|.|.5X.X/.{..X.X|.|.|.@X$X=X].].oX].{.[.{..X.X].].'.{.|.}.{.>X1X|.[.|.=X{.|.{.=X{.{.5X.X1X}.-X4X{.{..X4X1X.X{.{.-X}.].{.-X.X=X@X|.|.{. X.X-X.X4X{.{..X5X.X.X1X1X1X.X.X1X.X-X.X.X4X.X.X-X4X.X.X.X1X.XqX0X.X0XqX5X1X.X5X5X1X1X1X1X.X1X5X1X>X.X.X1X1X.X5X1XwXVX).1X1X1X1X1X.X}.1X1X1X5X1X1X1X1X=X|.|.}.}.=X{.].'..X.X.X{.|.{.{..X.X.X1X=X=X|.[.$X=X.X5X5X@X.X].{.5X=X=X$X.X:X-X=X-X.X-X.X{.|.{.-X{.=X{.{. X X X.X=X.X4X-X.X{. X X X-X=X.X X$X$X X;X:X=X{.@X-X-X4X-X-X@X].=X5X1X-X@X;X-X:X:X;X=X4X4X$X=X#X;X;X@X=X$X$X XXXOXOXOX;X X X$X-X=X=X;X@X0X0X0X0X{.oX5X5X4X4XwX6X:X$X&X%X%X%XQ.%X&X&X*X&X:X8X;X:X:X:X;X*X&X&X;X;X:X:X&X&X;X:X;X&X;X&X%X&X&X%X&X0X0XVXCX:X&X%X%X&X:X&X%X&X&X;X8X8X8X0X:X8X8XqX0X8X;X:X:X:X:X;X;X8X:X:X:X:X0X4X4X4X0XwXVXwXqXqXwXwXwXwXwX0X0X0XwXqXqXqXVXwXVXVXVXCXVXZXZXCXCXVXVXVXVXVXVXVXVXVXVXVXVXVXVXVXVXVXVXVXVXVXZXZXZXVXVXwXqXqXqXqXqXqXqXqXqXqXqXqXwXqX0XqXqXqXqXqX0X0X4X4XqX0X0XqXqXqXwXqX0X0X0X0X4X8X8X4XqX4X:X4X0X0X4X4X:X:X:X:X;X:X4X4X4X:X:X;X&X;X;X:X:X;X;X:X4X4X:X;X4X4X0X:X%XOX&X;X:X:X4X:X;X=X*X%X&X;X=X;X;X;X;X;X;X:X=X$X;X;XXXOX;X4X4X-X;X&XOXQ.%X&X-X:X;X=X-X-X-X=X-X4X4X5X1X6X1X5X5X5X6X1X1X.X.X;X:X-X=X@X@X;X&XOXOX@X-X4X5X-X}.3X1X5X-X{.-X",
";.;.;.>.3.2.2.:.{ ,.,.0.J.XX`.$X.X^./.).).l.^.1X).z.C.).eX_.c.^.).).,X1X.X1XrXrXVXBXrX_._.2XrX).2XeXeXCXrX).^.l.1.`.D.H.|.^.j.j.k.[..X5X2XrX).).^.).^.^.|.)._.2X).>X1X1X1XeX_.).2XeXCXCXmXnX_.rX_.^.1XrX_.z.^.[.D.D.`.D.`.1.2.[.^.^.[.[.k.b.b.[.|.b.b.1.K.H.`.[.`.K.H.[.`.b.1.L.'.1.b.p.[.[.$X`.p.L.H.H.K.K.`.`.D.H.`.L.D.p.1.L.=XH.H.[.H.D.L.K.].].].'.'.'.].{.{.=X|.[.].=X.X{.].[.[.@X{.oX'.'.'.R.'.].-X}.|.|.].].|.{.5X5X}..X}.{..X].].{.-X.X}.#X{.4X1X>X{.|.{.@X=X{.`.[.{.}.{.].].{.{.{.{.=X].$X=X].].oX].{.@X].{..X|.|.].}.[.].].].].[.]. X-X{..X.X{.].=X.X=X|.}.}.}.@X].].;X=X].@X=X=X{.{.=X4X-X-X-X1X}..X{.}.1X1X1X{.-X}.}..X}.1X5X.X=X.X5X}.}.=X=X-XqX5X5X-X=X.X.X}.=X.X.X1X5XqX0X1X.X.X5X5X.X.X-X.X.X.X}..X.X5X0X2X1X1X1XwX2X1X1X1X1X1X5X5X5X1X>X1X1X}..X1X>X}.|.{..X4X.X-X=X].].=X.X|.|.].].1XwX|.|.{.-X=X].$X=X.X.X.X4X4X.X-X.X.X=X$X{.-X-X=X=X.X.X{.{.{.@X=X:X5X}..X=X=X{..X.X-X-X.X=X=X$X X X]. X=XoX$X$X X$X=X:X=XoX=X5X-X=X-X=X{.-X5X}..X=X:X-X.X;X:X-X5X4X@X;X;X;X;X=X$X:X:X XXXOXOXOX;X$X*X$X X$X$X&X4X0X4X=X=X$X=X:X4X4XwXVX5X=X=X=X&X%X%X*X$X:X:X-XqX0X:X*X;X4X4X:X*X&X8X*X;X=X;X%X*X;X:X&X*X&X&X%X%X%X&X;X:X:X0X5X=X&X%X%X&X:X:X;X:X;X;X:X:X:X:X;X8X8X8X0X8X8X8X:X:X:X:X8X0X8X8X8X8X0X0XqXqXwXwXwXqXqXwXVXwXqX0X0X0X8X0XqX0XqXwXwXwXVXVXVXVXZXZXCXVXVXCXVXVXVXVXVXVXCXZXVXVXVXVXVXwXwXVXVXVXVXCXZXZXZXVXVXVXwXqXqXqXqX0XqXVXwXwXwXqXqX0X0X0XqXqX0X0X4X:X4X0XqXwX0XqXqX0X0X0X0X0X0X0X:X:X:X:X:X4X4X4X4X:X:X4X0X5X6X0X4X:X4X4X:X-X;X:X;X;X:X;X&X&X&X&X:X:X:X;X-X-X;X;XOXOX;X:X4X0X4X:X:X4X;X%X=X;X$X;X=XoXoX;X;X;X;X&X%X*X%XOX&X-X5X:X;XOXOXXXXX=X5X:X$X:X4X=X-X5X-X-X5X5X1X5X6X5X-X5X1X1X1X1X4X:X;X-X=X@X#X#XXXXX=X=X@X=X-X.X#X}.-X-XoX].@X",
">.;.;.,.>.>.>.3.3.3.>.>.p.[.k.k.^.^./.l./.k.2.k.^.k.j.j.k.^.l./.^./..XCXrX(._.(.(.(._.).z.x.^././.C././.l.k.^.^.k.1.1.H.].k.2.2.1.`.[.k.j.k.k.j.k.k.k.2.[.^./.l.^.1.D.k.k.k.k.1.[.}.1X^.z.j.j.k.k.k.k.j.k.k./.`.D.D.D.D.`.H.1.`.[.k.H.H.b.`.v.[.[.b.1.`.[.[.[.'.'.'.[.[.[.].K.`.].L.[.[.b.H.'.].'.`.K.H.L.L.'.'.H.L.`.`.L.L.`.H.K.K.`.].].'.H.L.].'.'.'.[.[.[.[.[.{.[.'.]..X|.[.].[.[.{.[.[.]. X'.K.K.K.[.{.{.{.|.|.|.|.|.|.{..X|.].{.].[.|.|.|.].].{.5X5X1X.X{.{.=X{.{.[.@X@X@X@X-X{.[.{.@X}.].`.].].'.'.'. X].oX].=X{.{.|.-X1X^.[.'.'.'.'.'.].].].|.-X-X|.{.[.|.|.|.}..X].'.'.$X=X=X@X=X=X{.{.=X-X.X1XwX1X>X-X5X.X.X1X1X|.|.=X=X{.|..X1X}.|..X|..X.X{.=X5XwXwX1X.X.X-X.X{..X.X0X5X5X5X5X1X1X1X1X5X.X=X.X.X.X1X5X1X{.}.1X1X1X1X6XeX1X6XwX1X1X}.}.1X.X.X1X1X1X1X}.>X>X.X|.}.5X4X-X=X.X{.{..X4X.X{.].].{.}.{.=X$X{.{.{.=X.X.X=X-X0X.X-X-X.X.X.X=X].{.{.}.-X}.{.{.].=X=X.X-X1X5X4X.X{.{..X=X4X4X@X{.=X X X X X X;X:X=X X X$X=X-X0X:X:X@X@X=X:X:X=X@X@X-X=X=X=X:X=X@X=X=X-X:X;X;XoX$X;XXXR.XX*X*X*XXXOXOX;X;X*X XQ. XXX=X0X4X4X:X=X$X;X;X:X:X0XwX.X-X0X:X:X*X*X8X:X4X0X-X0X:X$X*X:X:X4X:X;X&X&X*X;X;X*X&X8X;X*XQ.*X&X%X%X%X&X;X;X:X:X:X=X;X:X&X&X8X:X:X&X;X:X:X:X:X:X;X&X8X8X8X;X:X8X:X;X8X8X:X8X8X8X8X8X8X0XqXwXwXwXVXwXqXqXwXVXwX0X0XqXqX0X0XqXqXqXqXqXwXVXVXVXVXZXZXCXVXVXVXVXVXVXVXVXVXVXCXVXVXVXVXVXVXVXVXVXVXVXVXCXZXZXVXVXVXwXqXqXqX0X8XqXwXqXqX0X0XqXqXqX0X0X0X0XqX0X0XqXqXqXwXqXqX0X8X8X8X4X0X0X0X4X:X:X:X:X4X:X:X4X8X:X:X4X4X0X0X4X4X4X4X4X1X0X0X:X;X:X&X%X%X&X;X:X:X4X:X-X:X;X;X%X%X:X4X4X4X4X4X4X4X;X;X;X;X;X;X=X%X&X;X;X&X*X*X*X*X*X&X%X$X=X=X@XoX$X@X=X-X4X=X X=X:X=X=X-X5X5X5X4X4X4X5X3X-X4X4X1X1X4X4X4X@X@X#X#X#X$XQ.Q.oX=X=X@X{.@X@X].@X].'.'.{.",
">.>.>.,.,.>.<.2.:.:.;.,.3.k.j.:.S :.3.2.k.j.3.3.2.2.2.3.3.3.j.j.k.k.j.j.k.j.F :.:.:.3.3.>.2.3.>.3.3.;.3.1.1./.k.k.2.<.>.>.>.>.<.1.1.2.j.3.1.1.1.[.H.1.1.1.1.1.2.D.D.L.[.H.1.1.H.L.'.`.|.^.k.1.L.H.D.[.1.1.1.1.1.D.D.1.1.H.`.`.`.[.L.H.K.`.L.'.K.H.K.H.p.b.[.`.[.].^.|.{.[.[.`.'.`.`.L.L.H.'.]. X].].'.`.'.[.L.`.'.`.H.J.K.'.@X'.`.'.[.[.oX].`.`.H.H.'.].{.{.^.`.[.`.].].{..X^.].5X|.|.|.[.].{.=X'.'.'.'.].{.@X@X|.{.|.|.|.{.{.5X}.[.@X@X[.{.{.].'.'.$X{.{.{.=X].'.=X].].{.@X#X@X=X}.{.{.|..X5X].'.'.`.'.'.R.L.`.'.].[.`.oX].1X1X.X=X].'.'.].=X[.[.oX].].@X{.{.'.].]..X1X-X.X]. X.X{.{.{.-X.X=X{.{.{.{..XwX1X>X|.{..X}.1X1X.X].].=X=X|.|.1X}.1X1X|..X.X]. X1X1X5XwX1X.X-X-X{.1X1X1X.X1X1X1X5X1X.X1X.X.X}..X5X5XwX1X1X1X|.1X1X1X5X5X1X1X1X5X.X1X1X5X5X-X.X1X1X1X1X1X>X1X5X.X}.5X6X5X-X{.{.-X-X.X{.{..X.X=X=X.X X$X{.-X=X=X=X.X$X X-X4X-X@X{.=X=X.X$X X[.=X5X.X.X X'.XX@X0X5X-X.X.X=X{.{.=X@X-X:X@X@X X X X X$X&X;X:X=X XXX$X=X=X-X5X4X;X;X=X:X4X:X;X=X;X;X=XoX;X;X;X$XXX&X$X$X%XXX'.XXXXXX%X&X$X;X&X$X*X&X$X*X%XQ.*X$X;X:X-X4X:X$X;X;X:X:X=X0X0X:X.X-X0X4X$X;X$X$X X:X=X$X$X;X:X:X:X=X:X&X&X;X*X$X:X;X%X9X;X&X%X%X%XE.W.%X&X&X&X:X:X:X:X;X:X&X&X;X;X&X%X&X:X;X&X&X:X:X:X8X8X:X:X:X:X:X8X;X8X;X*X&X:X8X:X:X:X0X0X0XqXwXqXqXwXwXVXwXqXqXwXwXqXqXqXqXqXqXqXwXVXVXVXVXCXCXCXVXVXwXqXwXVXVXVXVXwXwXVXVXCXVXVXVXVXVXVXVXVXVXVXVXCXVXVXwXqXVXVXwX0X0XqXqXwXwXqXqXqXqXqXqXqXqX8XqXqX0X0XqXqXqX0X0X4X8X8X4X4X8X8X0XqX0X0X8X8X:X:X4X4X4X4X8X:X8X8X4X4X0X:X:X4X0XqX0X:X4X8X:X;X&X;X:X4X4X:X4X4X4X4X;X&X;X;X4X4X0X4X4X4X4X4X;X&X=X;X+XOX%XOX%X%X&X*X X*X*XXXOX%X X XoXoX=X:X4X5X5X-X-X;X=X-X;X:X4X-X4X4X4X-X4X5X1X4X5X5X6X6X5X1X5X-X=X#X@X=X=X X XoX;X;X@X@X=X@X=X-X$XXXXXoX",
",.>.>.>.>.>.>.3.:.;.;.,.;.;.3.3.1.;.,.,.;.;.>.>.1.2.2.>.>.>.;.F ;.3.3.>.3.k.3.>.,.>.,.>.i.p.1.2.>.>.>.>.>.>.2.3.2.D.<.,.-.>.<.<.<.1.2.3.2.1.<.1.D.D.1.1.D.1.H.1.1.1.1.k.k.D.D.1.L. X.X^.|.^.k.1.H.H.`.[.p.1.1.1.L.H.1.1.1.1.`.`.D.1.H.`.`.1.`.`.L.H.D.1.H.H.1.b.[.|.^.|.k.b.`.K.`.`.H.1.K.@X^.[.'.].].'.'.H.L.'.K.H.J.K.K.'.oX'.L.`.`.1.[.{.H.H.D.L.K.'.=X{.^.'.'.'.].].-X-X|./.[.|.5X}.|.=X{.{.'.`.'. X].|..X{.{.=X{.|.@X=X{.].{.|.@X-X{.{.{.@X=X@X=X{.=X=X{.].`.'.].{.{.=X-X-X^.|.|.{.=X{.{.].].'.H.L.`.XX'.$X{.{.].`.K.XX].}..X-X=X=X[.=X5X.X{.].XXXXoX=X{.[.'.'.=X.X.X5X.X.X.X].].{.5X-X{.=X@X-X-X.X1X>X>X-X=X|.}.4X1X}.].'.].=X=X=X5X1X1X.X.X.X.X].].-X}..X5X1X1X.X|.{.5X0X1X}..X.X4X-X}.{.1X.X5X1X5XwXeX1XeX1X1X}.1X>X1X1X1X>X1X5X.X}.1X1X1X-X=X}.}.1X1X1X1X>X1X4X{.}.1X1X1X.X.X}..X-X{.{.-X-X.X].$X X'.].].=X.X.X=X$X X].:X-X.X@X=X=X;X{.oX*X'. X{.{.{.@X=X].oX:X:X}.=X=X=X X$X;X@X=X=X=X=X$X X X X$X;X$X;X=X&XXX%X$X$X$X.X=X$X$X$X:X@X=XOXOX%X%X$X=XoXoX$X$XQ.%X$X8X&X%XXXJ.Q.XX&X:X;X:X:X;X;X&X%XXXQ.%X&X;X:X:X:X;X$X X;X;X:X-X4X5X:X;X$X*X;X;X&X&X%X*X%X$X$X*X%X&X:X:X;X&X:X%X*X$X0X$X&X&X%X*X&X:X0X&XE.W.%X%X;X*X&X:X:X;X:X:X:X;X%X%XW.E.E.%X&X%X%X&X;X:X:X:X:X:X8X8X:X;X:X;X&X&X8X8X:X:X:X:X:X8X8X4X0XqXqXqXwXqXqXqX0X0X0XqXqXwXwXqXqXqXqXwXwXVXVXVXVXVXVXVXVXVXwXqXwXwXVXVXqXqXwXVXwXqXqXVXVXVXVXVXVXCXCXVXVXwXwXwXqXVXVXwXwXqXVXwXqXqX0XqX0X8XqXwXqX0X8XqXqX8X0XqX0X4X0X4X4X8X:X0X8X8X:X4X4X0X0X8X8X:X8X0X4X4X4X4X4X4X4X:X4X0X4X:X:X:X:X;X4X4X4X-X;X;X;X:X4X-X4X6X4X5X4X:X;X&X;X:X4X4X4X5X5XwXwX;XOX+X#X+X%XOXXXXXOX&X%X&X&X*X'.*X%X*X*X%XoX;X-X=X-X5X4X4X:X;X=X=X;X@X=X:X4X4X:X4X5X5X4X5X4X5X1X>X.X4X:X=X@X@X=X=X=X;X=X@X@X@X#XoXoX].@XoX'.XX`.",
";.,.,.>.>.<.2.3.>.,.>.>.,.>.>.<.2.>.,.,.>.>.>.>.>.3.>.>.>.>.>.>.>.,.,.2.2.2.2.>.,.>.>.,.>.>.<.1.<.>.>.>.,.>.<.>.>.<.,.>.,.>.<.<.<.<.<.2.1.>.>.1.1.<.3.1.H.D.1.1.1.H.1.2.2.[./.2.2.L..X^.l.|.|.L.K.`.`.[.H.`.H.1.H.p.1.1.1.1.`.].D.1.1.H.L.1.H.'.'.H.L.K.K.p.H.`.].|.^.b.b.v.oX].{.[.1.L.[.b.2.b.[.'.'.'.`.H.K.`.'.'.K.`.`.'.'.`.H.`.`.H.K.'.L.H.H.K.oX=X{.{.|.].].].'.=X5X-X|.^.].^.1X1X|.{.=X@X=X].]..X{.@X.X|.}.{.{.{.{.].].{..X|.[.|.-X}.[.@X-X].=X@X'.oX=X-X{.{.-X-X.X|.-X5X|.{.[.[. X].[.@X@X[.].{.].]. X=X].].'.'.K.'.$X].{.].].].oX`.[.].{.].'.XX$X=X@X`.'.'.'.{..X.X|.|.{.{.$X=X]..X|.].{.3X-X-X{.|.=X X=X.X{.=X5X|.=X.X=X=X@X$X-X-X}.|.{.]. X'.[.-X.X.X}.1X1X1X}.1X5X.X.X.X|.1X0X=X|..X5X1X1X5X1X1X1X|.eX.X1X2XeXeXCXZXCX2X1X1X-X-X0X1X5X5X1X1X>X1X1X1X1X1X}.{.{..X4X0X1X=X.X{.=X=X{.=X-X.X^.]. X X=X=X{.-X0X5X.X[.'.$X$X$X.X-X$X$X;XoXXXXX X X X X X$X=X{.@X].$X@X@X#X@X$X;X;X=X;X$X$X;X$X X$X$X$X X$X:X=X$X$X&X&X&X$X=X;XOX&X$X;X=X$XOXXX%XXX:X0XoXXX'.XX*X X$X$X*X;X&XW.T.*X*X*X X=X:X;X=X*XOXXXXX8X-X=X=X;X0X0X$X&X$X&X=X:X0X-X$X$XOXOX%X*X%X&X;X&X*X&X*X%X%X$X8X0X:X*X*XXX%X*X;X;X$X*X*X8X0X0X:X*XE.%X%X%X&X*X&X8X8X:X:X:X:X;X%X%XW.E.%X%X9X*X0X8X&X:X0X8X;X;X8X;X&X;X;X:X;X;X0X0X:X:X:X:X:X8X:X:X0X0XqXqXqXqXqXqXqX0XqXqXqXwXwXqXwXwXqXqXwXwXwXVXVXVXVXVXVXVXVXwXqXqXVXVXwXqX0X0X8X8X0XwXVXVXVXVXVXCXVXwXwXqXwXVXVXwXVXVXwXwXwXqX0X8X8X:X8X0X0X0XqX0X0XqX0X0X0X0X0XqXqX0X0X0X8X0X0X0X8X4X4X:X0X0X8X8X0X0X4X0X4X4X0X:X8X8X:X0X:X:X:X:X;X&X;X;X;X:X:X4X:X:X:X:X4X4X4X5X4X5X4X:X:X;X$X&X=X:X4X5X4X$XOXOX&X%X%X%XOX%X&X:X=X=X:X;X$X@X&X*X*X*XXX$X=X=X.X:X4X-X=X@X@X;X;X;X:X:X-X:X;X-X5X1X5X5X4X:X-X=X.X-X:X;X;X;X#X@X.X-X@XXXXXoX+XoX@X].].@X@XoXoX",
",.,.;.;.;.>.>.;.>.>.>.,.,.,.;.,.>.>.;.,.>.>.>.>.,.,.,.>.>.>.>.>.>.>.>.>.>.<.<.>.>.>.>.>.,.-.-.>.2.>.>.=.=.,.>.>.<.>.,.>.<.>.>.>.>.>.>.1.D.1.>.<.1.2.>.<.1.1.1.1.H.1.1.1.1.1.D.1.p.H.k.k.k.[.[.'.`.D.1.p.H.H.L.D.H.H.D.H.p.1.H.[.K.K.H.1.H.H.H.`.`.D.K.`.H.K.1.K.'.|.^.v.[.v.[.{.{.[.H.`.'.[.b.p.`.H.[.`.'.H.K.K.].=X[.'.'.`.K.`.K.K.H.K.'.'.{.[.L.L.'. X'.{.|.'.'.`.K.`.].]..X[..X|.[.}.[.[.].].-X4X-X|.[.].{.=X-X{.{.oX@X].{.{.[.{.=X.X}.|.].{.|.'.].@X].XX;X-X5X.X=X}.{.{.].{.{.{.].].=X X'.oX=X{.|..X=X[.[.{.'.'.].].'.'.].'.=X].'.'.'. X].'.oX=X]. X-X-XoXoX=X=X=X{.{.}.|.{.{.|.].].=X-X=X{.-X#X{.-X=X{..X=X-X4X.X{.{.{..X{.{.{.[.].{.{.^.|.{.=X.X X=X.X{..X.X1X1X1X}..X.X}.-X0X.X1X4X1X.X1X5X1X1X1X1X1X.X.X|.1XVXCXCXZXMXJXDXJXJXDXCX1X.X.X5X5X>X1X,X6X1X1X}.}.-X.X.X4X4X0X-X.X.X{.{.=X{.}..X4X5X].'.=X4X-X-X.X1XqX{.].oX X X$X.X{.oX;X$X$XXXXX'.$X$X X XOXXX].=X=X$X$XoX#X@X=X$X X X=X$X$X;X$X=X;X:X$X$X=X$X X$X:X=X;X=X X;X$XOX;X$X;X;X$X+XXX%XXX:X1X].XX%X&X&X*X*XXXXX;XoXQ.Q.XXXXXXXX X$X;X$XXX*X*X*X8XqX:X$X:X0X5X-X:X=X=X:X=X1X4X-X:X:X;X$X$X&X&X;X;X*X&X%XW.*X*X8X:X;X*X&X&X%X%X&X:X;X%X%X&X8X8X*X&X%X%X%X8X&X*X8X:X:X8X8X8X:X&X%X9X%X%X%X%X9X;X:X&X&X8X&X&X&X;X;X:X&X&X&X;X:X:X:X:X:X:X;X:X8X:X4X:X:X4X0XqXqXqXqXqXqXqX0XqXqXqXqXqXVXeXqX0XwXwXwXVXVXVXVXVXVXVXVXwXVXVXVXqXqXqXqX8X8X8X0XqXqXqXwXVXVXwXwXwXwXqX0XwXVXVXCXVXVXqX0X0X:X8X8X8X8X8X8XqXqX8X8XqX6X0XwXqX0XwXwXqXqX0X:X4X4X0X8X:X4X4X0X0X8X:X:X0X0X4X4X4X4X8X:X:X4XwX6X4X4X4X:X:X4X;X;X:X:X:X4X4X:X:X:X=X;X=X-XwX0X4X:X=X*XOX+X=X#X;X&X+X+X%X%XOX;X;X&X&X*X;X@X@X@X@X#X@XoXOXOX*X X X X X=X-X:X;X;X=X;X;X=X&X-X-X=X=X;X=X5X5X6X4X4X;X;X;X@X@X@X#X#X#XoX@X=X=X$X+XoX'.'.].].'.'.{.@XoX@X",
"..,.,.[ ;...;.;.,...,.......;...,.>.1.>.,.,.>.>.>.-...>.>.1.>.,.>.>.>.>.>.>.>.1.<.2.>.>.1.H.<.>.>.>.>.<.D.<.>.>.>.>.>.>.,.>.<.>.>.>.2.>.<.<.>.1.1.1.1.1.1.1.>.2.`.L.1.H.L.D.1.1.K.'.`.[.[.[.L.H.K. X[.p.'.[.H.H.H.H.H.H.b.p.H.XX'.`.K.H.H.K.J.L.K.K.`.[.`.H.H.K.].].[.[.].L.L.{.{.[.H.H.'.].b.H.H.1.b.[.].L.K.'.'.].].].L.L.H.'.'.`.H.K.'.'. XL.H.'.'.].].].{.'.'.K.K.U.K.R.oX'.'. X'.=X].].-X{.].-X.X[.'.'.'.'.].'.'.'.].].{.{.].@X=X{.|.=X-X-X[.'.].{.@XoX@X{.}.-X.X}.{.;X=X'.'.'.'.].=X{.].].5X0X}.|.{.].`.`.'.[.|.{.].'.'.'.=X=X=X{.{.-X=X'.@X@X@X].].{.[.oXoX{.-X5X|..X=X=X@X|.=X{..X=X=X=X=X}.{.{.=X{.5X-X1X5X.X=X{.=X.X|.|.{.{.{..X.X^.|..X.X.X.X.X.X|.-X5X5X1X{.{..X.X|.-X1X.X1X4X5X1X1X6X5X.X.X.X.X.X}.1X2XCXmXnXmXnXnXmXMXSXPXPXZXmX).|.1X1X1X1X1X>X1X}.1X1X1X}.5X-X.X5X-X.X.X.X.X{..X.X-X4X=X]..X-X=X=X=X{.=X X=X;X;X X X=X=X{.=X X'.'.'.XX'.'.'. XXX X X X'.'.$X$X;X=X@X$X$X$X-X=X$X X$X$X$X;X$X$X$X X X:X8X$X$XXXXX;X*X*X$X$X;XoX].XX*X*X%X;X]. XXXXXXX*X%X%X%X X$X*XXX%X&X%X%X%XQ.Q.*X%X%X*X X X$X:X=X$X:X0XqXqX5X0X4X:X=X4X0X-X:X:X=X=X0X8XQ.*X&X&X&X%XE.8X0X8X;X%X%X&X*X*X;X*X&X*XQ.*X&X&X&X;X:X8X&X5XCX:X&X&X&X;X8X8X:X&X&X%X%XQ.%X9X%X;X:X*X%X%X&X%X9X%X%X&X;X&X:X:X%X:X:X;X;X:X;X:X:X8X:X0X0X0X4X0X0X0X4X0XwXqXqXwXwXqXqXqXwXVXwXqXqXqXwXVXVXVXVXVXVXVXVXVXqXVXVXqXqXqXqXqX8X0X8X8X0X0X0XqXVXVXwXqXwXqX0X0XqXwXCXZXZXVXwXqX0X8X8X8X8X0XqXqXqX0X8X0XqX6XqXVXwX4X4X6X0X0XqX4X:X4X4X:X4X4X:X0X0X4X:X:X:X4X0X0X0X0X0X4X0X6X6X6X4X6X5X4X4X4X:X:X8X:X;X;X-X4X4X=X;X:X4X4X4X5X-X4X:X:X&X;X;X&X%X%X%XOX%X&X&X&X;X;X&XQ.XX+X:X#X+X&X%XOX%XOX%X*X*X*XoX@X;X;X;X;X+X$XoXoX=X1X4X4X;X;X-X-X5X4X4X-X=X@X+X@X#X@XXX+XoX'.$X=X=X$X#X#X=XoXXXXXXXXX@X@X`.oX",
"<.p.1.>.,.,.>.>.>.....;.;.,.>.,.,.,.>.>.>.>.>.>.>.,.,.>.>.2.2.3.3.>.,.>.>.>.>.<.2.2.>.>.>.<.>.>.>.>.,.1.1.3.>.>.,.>.>.>.>.>.>.1.>.>.<.2.>.1.1.1.1.<.2.1.1.1.1.p.1.1.1.1.1.1.1.1.D.D.H.[.'.'.1.1.[.'.[.`.'.'.L.1.L.`.1.1.p.K.`.@X].'.K.`.L.J.K.L.'.'.`.'.[.[.K.].{.[.[.H.H.1.1.[.-X5X^.[.`.].|.[.K.K.`.].@X[.K.'.].{.].{.`.L.H.L.L.'.H.H.`.`.=XL.L.H.L. X].'.'.'.'.'.'.U.K.K.J.K.L.L.K.K. X.X4X4X|.|.].=X.X|.'.XX'.'.'.].].{..X|.{.=X.X.X{.{..X}.[.].{..X}.{.{.}.}.{.=X5X{.{.{.]. X X].{.{.].].@X}..X.X|.|.=X[.`.].].|.|.].`.K.K.'.].{..X5X{.=X].].].].].=X].].oX:X4X.X}..X{.[.].=X=X-X{.-X{.|. X:X5X}.}.{..X{..X.X.X{.].oX{..X=X|..X{.{.1X1X}.|.=X.X}.}.{.=X{.=X}.1X5X.X.X.X{..X-X1X|.}.5X}.}.>X1X1X.X.X{..X.X1X2XBXmXmXmXmXmXmXmXnXmXmXZXDXJXDXnX^.|.}..X}..X.X1X1X1X>X1X-X{.{.|.{..X-X4X.X}.-X=X{.=X=X X X X].=X*XXX X$X$X@X=X X'. X].].-X X$XXXXX'.'.XX X X'.oX$X:X'.'.XX*X$X$X;X;X$X=X$X:X$X X X*X$X$X$X$X$X;X=X.X$X X%XXX X$X*X X$X;X;X;X;XoX&X*X&X;X$XXXXX*XXXR.T.OXXXoX$X%XXX%X%XoXOX%XT.W.XX*X&X*X$X*X*X&X-X=X:X=X-X5X=X:X:X=X=X;X=X$X$X:X:X;X9X&X*X;X:X;X;X&X&X8X8X$X&X&X*X*X&X8X&X*X%XW.%X8X:X*X&X8X8X:X*X:XeX:X%X%X%X&X8X8X;X&X&X*XE.W.9X9X%XW.%X%XW.9X%X%X9X9X%X%X;X:X&X&X;X:X;X:X:X:X:X:X8X0X0XqXqX0X4X4X0X0X0X0XqXwXqXwXwXqXqXqXwXVXwXwXqXwXwXVXVXZXVXwXwXVXVXVXwXqXqXqX0XqXqXqXqXqXqXqX0X:X0XwXVXVXqX0X0X0XqXqXqXVXCXZXZXCXwX0X0X8X8X8X8X0X0X0XqXqX0X0XqXwXwXqX0X0X:X8X0X0X0X:X4X0X0X8X4X4X:X:X:X4X0X:X;X:X0X8X:X4X4X0X0X4X4X:X-X4X0X0X:X:X:X:X:X4X0X4X;X:X:X;X:X:X:X4X4X-X4XwX4X=X%X%X%XOXT.OX%XOXOX&X*X$X=X&X*X%XOXOX&X&XOXT.T.OXOXOXXXXXOXT.XX=X;X=X&X&XOXOX+X@X-X4X4X4X:X;X-X5X5X5X1X=X=X;X%X*X;X=XXXXX'.XX=X{.}.=X@X=X:X@XoX+X@X@X@X@X'.oX",
",.,.,.;.;...,.,.>.,.,.>.,.>.>.>.>.>.,.,.,.>.>.>.,...,.>.>.:.3.3.3.>.,.>.>.>.>.>.>.>.>.>.>.>.;.,.>.-.;.,.3.3.>.>.<.1.>.>.>.>.<.1.>.>.>.>.2.1.1.1.1.2.1.>.>.>.1.i.1.2.1.1.1.1.1.1.1.H.H.D.L.'.D.1.[.L.H.`.H.L.`.H.D.L.1.1.H.H.L.`.L.K.L.H.K.H.'.].K.`.K.L.L.[.H.`.`.H.L.D.D.H.'.[.[.1X^.^.].[.].].`.'.'.`.].].`.K.].{.].[.[.H.H.H.1.H.[.`.`.`.=X[.'.L.`.'.'.'.'.'.`.'.'.XX`.'.'.[.'.`.K.L.'.].|.[.[.[.`.].{.|.[.oX'.'.'.'.{.{.-X{.[.=X-X.X.X}..X}.{.=X.X5X1X.X-X.X-X{.{..X.X5X1X.X.X=X@X{.].].@X-X|.[.{.}.[.[.`.].{.{.{.{.{.[.[.].].].].`.].]. X[.'.'.K.].=X{.{.]..X-X.X}.5X5X{.oX=X=X=X{..X{.-X=X-X1X-X=X=X].'.$X.X=X[.'.].=X=X=X=X].].{..X-X-X>X}.|.}.}..X-X.X.X}..X}..X.X|.}.0X5X}.}.{.=X}.{.5X.X1X5X}.{..X1X).nXmXmXnXmXmXnXmXnXnXmXmXmXmXFXJXDXmX_.1X.X-X1X|.|.1X5X1X1X1X1X}.}.{.{..X:X{..X4X.X{.$X$X$X$X$X$X=X$X=X$X X X]. X$X$X X].=X:X X'.oX&X$X'.'. X$X$X X X:X$X$X&X&X=X=X;X=X=X:X=X$X$XXX*X&X&X$X$XXX$X=X$X X X$XoX$X.XoXXX X8X8X=X:X:X X;X=X;X;X$X XXX*XXXXXOX:X:XoX$X;XoX*XXX&X%XXXT.W.Q.Q.*X*X%X*X%X%X:X0X0X=X$X$XXXXX$X&X$X*X$X*XQ.;X;X*X*X&X8X8X;X;X;X&X&X$X:X:X$X;X&X&X%X%X*X%X%XW.W.%XQ.%X%X&X8X:X&XW.W.%X%X%X%X%X9X9X9X*X%X*XW.%X9X%XW.W.W.%X%XW.W.%X9X*X%X%X&X:X:X;X8X;X&X;X&X;X:X8X0X0XqXqXqX0X8X:X0X0X0X4X6XwXqX0X0XqXqXqXqXwXwXVXVXVXVXVXVXVXwXwXwXwXwXwXwXqXqXqX0XqXqXqXwXwXqXqX0X0XqXwXVXVXwX0X8X8X0XwXqXwXwXwXVXqX0X0X0X8X8X8X0XVXqX0XqXqX0X4X0X0X4X:X8X8X8X0X0X8X8X:X0XqX8X:X:X8X8X8X:X4XqX0X;X:X:X:X;X:X:X:X:X:X:X:X:X:X:X:X4X:X:X;X:X:X0X0X4X:X:X:X:X:X:X4X4X:X-X6X4X$XW.%X%X%X%XQ.T.OXT.XX$X;X&XXX+X@X+X$X&X;X&XR.R.OXOXXXXX*XQ.T.R.oX&XQ.R.%XOX%X&X:X4X4X4X:X:X4X4X-X:X3X-X-X4X:X;X;X=X=X*X&XoX&X=X#X-X-X.X-X3X#X#X@XoX+X@X+XXXoX",
"..;.,.;.;.;.>.,.,.>.,.,.,.>.>.>.,.>.>.>.>.>.,.>.>.,.>.>.>.>.>.>.>.>.>.>.>.3.>.>.>.>.,.>.>.>.,...,.>.>.>.>.>.>.<.>.<.>.>.>.>.1.1.2.>.>.>.>.1.K.H.1.1.1.1.1.1.<.2.b.p.<.<.1.p.1.D.D.H.`.H.H.'.L.D.1.D.K.`.'.L.L.K.1.D.1.1.L.H.H.K.:X.X/./.L.H.L.[.[.'.K.1.1.H.H.L.K.L.J.L.`.L.`.L.`.[.[.b.].'.D.[.'.'.K.`.[.v.].`.'.'./.H.[.L.L.oX`.L.=Xk.`.].{.|.].].`.K. X XL.`.'.'.'.@X'.'.'.'.].'.'. X].|.[.L.L.`.'.'.].@X].[.'.K.K.oX{.[.{.=X].=X{.{..X>X}.].].{.{.1X}.{.-X=X{.].=X{.{.-X}.|..X-X{.@X].'.].{.{..X}.1X.XD.`.'.@X].|.{.{.=X.X|.{.=X].`.`.J.L.oXoX'.K.K.'.{.{.{.{.|..X{.3X5X{.'.oX=X=X=X{.-X-X.X.X|.{.{..X X X$X{.].'.=X-X].{.{.].].{.{.|.{.4X1X|.{..X.X.X4X5X1X}..X-X=X].'.{.-X1X.X.X=X-X4X4X1X.X1X1X1X}.|.1X2XnXmXmXnXnXnXnXmXmXmXrXmXmXZXmXmXgXjXMX_.)..X1X.X-X5X6X2XwX6X1X2X1X5X=X{.=X].{.-X{.{.;X$X X]. X=X.X.X=X X X X X X$X$X X$X=X$X'.'. X X$X$X$X'.$X;X$X X X X$X$X=X=X=X:X=X:X:X;X;X$X$X*XXXXXOXXX'.Q.XXXXXX$X4X=X:X0X;XR.*X:X=X=X$X*X$X;XoX$XoX8X8XXXW.T.*X$X$X:X XQ.XXQ.K.*X*XXX&XW.W.Q.E.%X%XOX%X%X*X:X0X5X;X$XQ.W.OX%X%X*X$X:X;X&X&X$X&X&X*X$X$XXX+X&X%X%X*X:X8X$X&X8X:X%XQ.%XE.W.%XE.%XE.W.&X&X&X;X&X%XE.E.E.%X~.~.W.%X%X~.9X9XW.%X%X%X*X*X%X%X%X%X%X%XQ.W.%X%X%X;X:X:X:X:X;X;X:X:X:X;X:XqXwXqXqX0X8X:X4XqX0X4X0X0XqXqXqXqXqXqX0XqXVXVXwXVXVXVXVXwXqXwXVXqXqXqXqXqXqXqX0XqXqXqXwXwXVXwXqXwXwXVXVXVXwX0X0X0X0XqXqX0X0XqX0X4X0X0X:X:X0X8XqXVXwXqXqXqXqX8X8X8X:X:X0X0X4X4X4X4X8X:X4X0X:X;X8X8X0X8X:X4XqX0X;X:X8X4X:X:X;X;X:X;X;X:X:X:X:X4X0X4X4X:X:X;X4X-X5X0X:X;X:X4X5X6X4X4X4X4X4X;X&X&X%X$X&X%XY.Y.T.+X:X;X%X%X;X;X;X;X;X;X+XOX%X%XOX%X%X%XQ.E.Y.R.OXY.T.OXOXOX&X:X4X:X=X=X;X#X4X4X-X3X3X5X5X-X:X4X:X;X#X;X;X#X@X@X#X#X:X4X5X5X-X.X@X+X@X+XXX#X",
",.,.-.,.,.;.>.;.;.>.>.;.;.....,.>.>.>.,...,.,.>.,.;.,.,.>.>.>.>.>.>.>.>.>.>.>.,.,.,.>.>.>.>.>.,.,.>.<.<.>.1.1.1.2.<.>.>.>.>.>.2.1.>.<.>.>.>.1.D.1.1.1.1.p.H.1.1.1.L.:X.XD.D.L.H.H.1.H.`.`.'.`.D.1.H.J.H.'.L.1.1.1.D.H.D.1.H.`.`..XeX/.k.K.H.H.K.L.`.L.H.D.H.H.H.`.H.L.`.'.[.`.D.D.H.H.H.K.K.H.`.'.'.L.K.`.[.`.XX=X0X^.[.`.K.K.'.'.[.{.k.[.{.|.|.{.{.[.L.'. X'.K.K.].[.@X{.{.].`.'.'. X-X|.[.'.'.`.K.'.'.'.{.].].[.[.[.].].].{.:X$X].].].=X3X}.].].'.'.{.{.].'.].{.].$X'.'.$X=X{.[.{.-X}.{.].@X=X X-X.X.X5X[.'.L.K.].{.'.'.].=X=X].'.'.'.'.K.'.oX$X].XXXXoX@X@X|.{.|.}.}.|.{.=X].].{.@X-X-X{.}.5X.X=X].].=X].'.]. X X].=X-X].{.-X=X.X.X=X|..X0X>X|.=X=X.X{.}..X.X}.1X.X{.{.$X X{..X.X{..X-X-X.X.X5X0X1X1X1X1X)._.rXnXnXnXnXnXnXnXmXnXrXmXZXZXmXnXA.A.jXmX_.1X.X.X5X6X6XVXVX6X2X1X>X-X{.]. X].|.=X=X{.-X=X{..X X=X X.X=X X X X X'.$X$X$X;X:X X'.'. X X X$X=X X$X=X$X X X X$X X X.X-X4X-X=X$X$X;X$X*X$X*X X*XXXQ.!.Q.XXoX$X;X$X=X:X&X%XOX%XOX%XOXOX&X&X$X@X=X-X5X$XT.Y.%X*X X'.R.Y.Y.Y.Y.*X$X&X;X%X%X%X%X&X%X%XOX&X:X0X0X=X$X*XW.E.%X8X&XXX:X:X0X;XXX$X;X%XOX%X;X$X%XOXW.E.%X$X8X&X&X8X8X&X9X&X%XQ.W.W.W.W.W.&X&X%X%XW.%X%XW.E.W.~.W.W.%X%X%X9X9X%XW.%X%X%X%X%X%X%X%X%X%X%X%X8X*X%X&X&X&X&X&X%X&X;X8X:X;X:XwXVXVXqXqX0X:X0XqXqX0X0XqX0X0XqXqXqXqXwXqXqXwXqXVXVXVXVXwXqXVXVXwXwXwXwXwXqX0X8X0XqXqXqXqXqXqXqXwXCXCXVXVXwXqXqX0X0XqX0X8X8XqX8X8XqX0X;X:X8X0X0X0X0X0XqX0X8X8X8XqX0X0XqX0X4X0X0X0X:X:X4X4X:X:X8X8X0X0X0XqXwX0X:X;X:X8X4X:X;X;X&X&X;X:X:X:X:X:X4X4X4X:X;X:X4X4XwXqX:X:X4X6X6X6X6X5X4X-X=X:X-X:X;X=X;XW.Y.W.&X;X4X:X*X$X;X;X4X:X=XOXXX%XOXOXOX%XOXXXT.W.%X%X%XOX%XOX+X+X+X@X@X$X@X;X:X&X;X-X5X5X5X5X5X-X.X-X;X#X#X#X#X@X}.-X-X=X#X#X}.}.#X@X@X{.=XoXXX@X",
">.<.<.,.;.;.,.;.;.;.>.>.,.,.;.,.>.>.>.,.,...,.>.;.,.,.>.>.3.,.>.>.>.>.>.2.>.,.>.,.,.,.>.>.>.1.1.>.>.>.>.>.2.>.1.1.1.2.>.>.>.>.>.<.1.<.<.2.>.>.1.H.H.1.<.p.L.'.[.1.1. X-X/.1.H.1.D.J.`.[.H.H.[.|.D.H.J.L.'.H.1.H.H.L.'.`.1.J.K.`./.^.^.[.H.H.K.'.'.L.1.H.H.1.H.H.H.H.`.'.'.`.`.H.H.H.1.p.p.K.'.'.'.`.`.K.K.L.K.XX].1X|.[.K.J.oX'.].'.H.D.[.v.oX@X{.{.'.{.[.K.`.`.`.].@X.X-X|.v.`.'.].'.@X{.{.].[.].'.K.K.`.].].].{.{.].].'.'.'.].].'.'.'.oX.X}.].XX'.'.oX=X].].=X{.-X X XXX=X=X'.`.{.4X5X.X X=X$X`.H.K.'.$X:X=X].oX'.oXoX`.'.{.].].'.=X=X].].@XoX'.'.'.'.].=X=X{.5X-X.X}.{. X:X=X|.].$XoX=X=X5X5X.X.X].].=X].].oX'.].=X'.'.'.{.=X=X]..X.X=X{.-X{..X{.{..X.X.X.X{.{.{..X=X{.=X=X].=X.X.X5X}.|..X=X^.}.{.-X)._.nXnXnXnXnXnXmXnXrXrXnXnXrXmXmXmXmXrXZ.Z.P A.mXmX).1X.X1XwXVXVXVX2X>X.X].K.'. X X].].].=X.X5X-X$X X X'. X$X$X X X'.'.$X$X X$X$X XXXQ.$X$X X$X$X X'. X;X$X'.K.XX XoX0X1X4X-X X X$X;X$X*X&X&XXX*X*XQ.Q.!. X&X$X$X$X X%XXXQ.T.OXOXOXOX%X%X*X;X;X-X-X-X;X%XXX%XT.R.R.Q.%XQ.W.W.W.Q.&X%X%X%X%X%X*X&X%XOX8XVXCX.X$X*XQ.E.Q.$X:X*X%X*X=X4X:X*X*X$X&X*X;X0X4X:X$X*XW.W.%X&X&X*X&X&X&X8X:X&X%XW.W.W.E.E.E.%X%XW.E.%X%X%XW.E.E.E.W.9XW.W.*X%X%X%X%X%XQ.Q.%X*X%X%XW.W.W.E.%X%X%X%X%X%X%X%X%X%X%X8X:X:X0XVXVXwXwXwXqX:X0XqX0XqXqXqX0X4XqXqXqXVXwXqXqXqXqXqXwXVXVXwXwXVXVXVXVXVXVXVXqX0X8X0XwXwX0XqXqXqXqX0XwXVXVXVXqXqXwXVXwXqX8X8X:X8X8X8X8X8X8X8X8XqXqX0X0X0X0X8X8X8X:X0X0X8X4X4X0XqXqX0X:X0X4X4X0X0X:X:X:X0XwXwXqX8X:X:X:X:X:X:X:X:X:X:X:X:X:X;X:X:X:X:X:X;X;X:X4X4X6X0X4X4X4X6X4X4X4X4X4XoX+X;X-X4X4X-X;X*X$X;X;X:X4X&X%X$X=X@X=X=X+X+X&X%X%X%XT.T.T.R.XX%X*XT.T.&X;X;X:X:X=XoX%XOX%X:X:X;X#X=X4X4X4X5X4X4X.X=X;X#X;X@X#X-X1X5X4X4X=X3X#X3X}.}.}.1X.X].XX@X",
">.;.>.,...;.,.;.;.>.>.,.>.3.3.;.;.,.>.>.>.,.;.;.>.;.;.,.>.3.;...=.,.>.>.1.1.3.1.1.,.;.,.>.<.<.>.>.>.<.>.>.>.>.2.1.2.3.>.>.>.>.i.p.$X.X/.1.1.<.>.1.<.p.H.1.H.p.1.1.1.1.D.1.1.1.1.p.H.`.[.`.[.].[.D.1.p.$X5X{.[.L.K.H.[.[.p.`.`.[.[.b.k.1.H.'.`.L.oX[.p.p.D.H.`.L.H.H.H.H.L.].].'.'.'.`.H.H.`.`.`.'.K.`.oX].'.].].`.[.[.b.K.R.oX[.[.`.L.L.'.].'.'.].].`.[.`.H.H.H.L.@X@X[.|.{.[.K.'.].].].[.@X].`.'.'.H.K.`.'.oX[.[.].=X@X'.@X=X{.}.].].'.oX{.|.'.oX$X'.XXXXR.'.=X=X.X{.$XoX@X@X].oX@X-X@X].oX$X].$XK.L.K.'.].-X{.{.oX=X=X].[.].'. X X.X.X-X-X].'.].$XXX`.oX'.oX{.-X-X.X.X]. X=X=X{.$X$X].=X=X{.}.=X=X].]. X].=X=X+X].:X=X'.].{.].].'.{.{. X].'.'.=X=X]..X.X|.{.{.]. X X.X{.{..X|.|.{.-X5X}.|..X{.|.}.|.}.1XnXnXnXnXmXnXnXnXnX_.nXnXnXrXrXnXmXmX_.K U U U jXJXmX_.1X1X1XVXVX6X1X.X=X XQ.'.$X'.'. X$X=X.X-X:X].'.XX$X$X X'.'.].$X$X$X'.'.'. X X'. X$X&XXX XXXXXXXXXoXXX*X XQ. X$X:X-X=X=X=X=X;X;X;X*X%X$XXXXXXXXXQ.Q.'.*X$X=X=X;X;X*X*X&XR.T.W.Q.*X X$X;X8X:X=X:X&X%X$X*XT.E.Y.W.Q.T.&X%XT.T.Q.W.E.T.%X*X*X*X%X&X=X5XwX=X*XW.T.E.W.*X$X$X%XQ.*X&X;X%X*X&X;X;X:X5X5XqX=X*X%XW.E.%X%XQ.&X%X%X&X;X&X%X%X~.&X%XE.E.E.W.W.W.*X&XQ.~.~.W.%X%XW.E.%X%X%XW.%X%XW.%X%X%XW.E.W.%XW.W.E.E.%X%X%X*X%X%X&X%X%X9X;X;X:X0XwXwXqXVXwX4X:X0X0X4X0XqX0X8X0XwXwXwXwXqXqXwXwXwXqXqXwXwXVXVXVXVXwXVXVXVXwXqXqX0XqXwX0X0XqXwXwXqXqX0X0XqXqX0X0XqXqXVXqX0X8X8X8X:X8X8X8X8X0X0X0X0X0X0X0X8X8X8X8X:X0X0X:X:X4X0X0X0X:X0X0X0X:X4X4X0X0X0X0X0X0X4X:X*X;X:X:X:X4X0X8X:X4X0X:X&X:X4X:X:X:X;X;X:X4X4X4X4X:X:X4X4X5X5X:X;X:X:X&X&X;X;X:X4X4X-XoX:X0X-X:X;X%X%X&X;X$X%XoXoX-X:XXX*X&XOXR.XXOX&X&X%XOXR.=X:X4X5X:X=X$X*X+X%X=X;X#X;X;X;X4X5X-X#X:X=X@X#X@X#X@X3X3X2X1X1X5X#X#X3X5X1X1X1X3X|.'.oX@X",
"[ [ ......,.>.>.>.,.,.,.>.3.>.>.>.>.,.,.-.>.>.;.,.,...,.,.>.,...=.<.>.>.2.2.>.,.>.>.>.,.>.<.<.>.>.>.<.<.>.>.>.>.>.<.1.1.p.H.2.<.>.2./.k.3.1.1.>.>.<.p.H.1.L.H.1.H.1.1.1.1.1.1.1.1.D.1.[.L.p.`.[.1.H.1.D.[.[.|.`.K.D.H.`.[.`.D.H.K.`.b.`.L.D.D.`.[.b.v.p.1.1.H.H.H.H.H.L.K.L.'.'.'.[.[.p.H.L.J.L.`.[.[.].[.`.].].'.'.'.'.`.].@X|.|.].H.L.'.@X].'.'.'.].'.'.'.'.L.1.'.[.].{.oX$X'.'.'.].oX].oX'.H.'.'.`.K.`.'.'.L.L.'.].].].].=X1X1X{.].'.'.].].'.`.XX'.XXXX'.'. X X'.'.'.oX4X-X}.@XoX=X].]. X X'. X'.'.'.`.L.'.`.'.].'.].-X{.|.]. X].].`.]..X].].@X=XoX`.XX`.@X].].].=X.X.X-X{.].{. X{. X$X=X{.=X].].oXoX'.]. X].@X=X-X X'.].{.'.=X{.=X{..X$X X'.=X=X-X.X=X].[.]. X$X=X.X.X{.1X6X|..X3X.X|.{.|.{.].}..X.X1XmXmXnXnX_.rXrXnXnXrXrXnXnXrXrXrXrXmXnXZ.Z.Z.K A.GXJXmX_.1X|.1X1X|.|.|.{. X'. X X].$X$X$X X].{.=X].].XX$X=X$X$X X$X;X$X$X X X$X X X X XXX*X X XXXXXXXXXXX$X*X*X*X X*X*X X=X;X-X=X;X;X$X$X%X*X*X*XXXOXXX&XXX$X;X=X$X$X$X$X$X&XXXW.Q.Q.Q.XX$X:X:X:X=X&XOXXXOXXXR.*XR.T.W.Y.Q.*X%X X%XE.E.W.*X*X%X*X$X:X:X$X$X;X%XE.R.R.%XQ.*X*XQ.Q.Q.&X&X%X*X*X*X*X*X X=X0X$X%X%X%XW.W.%XE.%XQ.W.%XW.W.W.W.%X&X;X%XW.E.E.E.E.9X0X&X%X%X*X9X8X%X%X%X%X%XW.%X%XW.%X~.W.E.E.W.9X~.%XW.%X9X~.W.~.%X&X&X%X&X:X:X&X;X;X8X0X0X0X:X8X0X0XwXqXqXqXwXqXqXqXwXwXqXqXqXqXwXVXVXqXqXqXwXwXwXVXwXqXqXqXqXqXqXqXqXqXqXqXqXqXqXqXqX0X8X8X0X0XqXqXqXqXqXqXqX8X8X:X8XqX0X8X0X8X0X0X8X:X:X8XqX0X4X0X0X0X8X:X:X:X:X8X:X:X0X0X:X:X4X0XqX6X0X:X:X:X:X:X8XqXqX0X4XqX0X4X4X0X:X&X0XqX:X;X;X;X;X:X4X4X:X;X:X;X;X:X4X4X&X@X;XOX%X&X+X%X;X4X4X4X-X;X=X-X:X&X%X%X%X@X#X*X+X@X:X:X X$X&X+X;X:X&X&X+XOXOXT.=X4X5X4X4X:X:X:X;X%X%X@X=X;X=X=X-X4X-X-X:X$X@X@X@X=X@X}.1X6X6X2X1X>X@X#X3X3X>X}.@XoX`.[.oX",
"........;.>.>.>.>.;.;.;.;.,.>.>.>.>.>.>.,.2.>.>.>.,.,.>.>.>.,...=.,.>.>.>.3.>.<.>.>.>.>.>.>.>.<.>.>.>.1.<.>.>.<.<.<.>.<.p.L.2.1.1.<.3.>.>.<.1.1.1.1.1.1.1.H.1.D.K.H.D.1.1.1.1.H.1.D.D.H.1.1.1.D.D.H.H.H.H.1.H.L.H.K.K.K.`.1.1.D.H.J.`.[.[.L.1.L.H.H.[.H.1.1.p.1.1.1.1.`.'.`.'.'.'.`.`.[.H.H.`.K.H.K.'.'.`.`.'.'.'.'.`.K.K.'.@X{.|.'.H.H.K.'.`.K.'.`.'.'.`.K.XX'.K.'.].{.=X`.K.'.'. X X'.'.'.K.L.L.L.K.`.`.`.K.K.$X=X].].$X].=X=X=X=X].'.`.'.'.].XX'.XX'.'.XX'. X@X].].$X=X-X-X@X=X].{.{.'.'.'. X'.'.'. X X'.'.'.'.'.$X{.=X].{.=X X{.].'.$X=XoX].]. X`.`.'.[.oX'.'.'.=X}.-X}.{. X]. X X]. X=X-X-X=X=X-X{.-X$X'.XX=X=X=X X X X].'.$X=X{.{..X=X=X=X-X.X{.{.].].].=X-X=X=X{..X.X.X1X|.1X1X.X{.{.{.{.=X-X.X|.).BXnXnXmXnXnXnXnXnXrXrXrXrXmXrXrXrXrX_.K K U U P P hXmXnX1X|.1X1X}.|.{..X=X].'. X=X=X X X X{. X$X X X X$X$X'. X'.'.$X$X XXX'.$X;X;X$X X X*X X X]. XXXXXXX$X*X X=X XXX X=X.X-X:X;X$X;X$X$X*X*X*X&X*X*X$X&XXX*X*XQ.Q.Q.*X&X$X*XXX*X*XQ.Q.XX=X0X0X;X$XW.W.!.!.Q.K.*XXXW.W.Y.Q.*X XR.T.Y.E.Q.%X&X$X&X$X*X%XW.W.Q.Q.E.Q.$X&X%XT.OX%X*X8X8X*XE.W.%X%X*X X*X;X$XQ.E.%X$X*X%X%XW.E.E.E.W.%X%XW.E.%X8X:X&X%XE.E.E.W.*X$X%X%X%X%X9X0X:X:X&XW.W.%X%XW.W.Q.W.E.W.W.%X%X*X%X&X9X8X&X%XQ.*X%X%X;X;X&X;X;X;X&X8X:X:X:X8X8X0X0XqX0X0X0XwXwXqXqX0X0XqXqXqXqXqXwXwXVXwXqXqXqXqXqXVXwXqXqXwXqXqXqXqXqXqXqXqXqXqXqXqXqX8X8X8X8XqX0XqXqX0X0X8X8X:X8X8X0X8X8X8X0XqX0X4X0X0X0X8X8XqXqXqXqX8X8X:X:X:X8X:X;X:X8X:X8X4X:X0X4X4X0X:X:X:X8X0X0X0X0X0XqX4X0X4X:X;X:X4X4X:X:X:X;X*X:X4X:X;X:X:X;X:X5X4X4X;X&X&XW.%X;X;X#X#X-X4X4X:X#X=X=X;X&XOXOX+X@X#X&X%XOX%X X XXXOX$X:X:X&X%X%X%XT.W.$X=X:X:X;X;X4X5X;X&X&X;X;X;X$X:X5X-X=X-X-X-X=X$XXX X{.}.1X6X6X7X7X1X@XXX@X#X{.].'.'.`.`.`.",
";.>.>.,.,.....,.>.,.>.>.,.,.>.>.>.>.>.>.>.>.1.2.3.2.>.>.;.,.>.;...,.>.>.1.2.2.>.,.>.1.1.1.1.1.<.>.,.,.>.>.<.1.2.>.,.<.e.H.H.2.>.1.1.>.>.>.>.<.p.1.1.1.1.1.1.1.1.1.H.K.H.1.1.D.L.1.H.L.L.1.L.H.D.K.L.'.p.1.H.1.1.H.L.H.`.'.D.1.`.L.L.'.[.[.'.L.H.H.`.'.`.J.`.K.H.H.1.1.H.K.'.`.H.`.L.`.oXK.H.H.`.`.`.K.`.'.'.'.'.'.].'.H.K.K.$X{./.H.H.J.J.K.L.J.K.K.H.K.L.H.L.'.`.K.H.[.'.`.'.].'.]. X X]. XK.L.K.J.'.=X].'.'.K.'.$X=X{.].].{.].'. X X'.oX=X{.@XoX'.'.K.R.XX].@X:X=X]. X:X.X=X{.$X'.oX;XoX'.'.'.L.'.'.'.'.'.XX'.'. X].].].-X@X].].=X].`.'.oX'.`.'.$XXX].;X=X'.'.$X$X;X=X].[.oX X]. X XL.'.'.$X].'. X$X=X:X$X X X=X-X{.].'.oX=X=X X.X=X=X$X X.X-X-X}.1X{.`. X-X4X5X.X0X.X}.1X{.]..X5X1X.X-X{.|.{.{..X|.}.2XnXnXnXmXnXnXnXnXnXnXrXrXrX_.rX_.(.S.S.K K K K K P P gXjX(.^.1X6X.X].=X{..X-X X'.{.{.].]. X].$X X X X$X$X$X X'.'.'.'.'.XXXXXXXX$X$X$X'.'. X X=X{. XXXXXXX X$X-X4X X&X;X4X-X=X$X$X X$X;XoXXXXXXX XQ.Q. XXXXX*X*XQ.Q.J.Q.Q.Q.Q.*X&X*XQ.Q.*X=X8X].&X$X%XW.Q.*X&XXX%XOXOXT.R.Q.W.%XR.R.%XW.Q.$X:X0X8X%XT.W.E.*X*XT.T.*X$X$X&X%X%X&X:X8X:X XE.E.E.W.&X&X%X&XW.E.E.&X&X*X%XQ.W.Y.E.%XW.E.E.E.E.%X8X8X:X&X%XW.E.E.%X*X~.E.E.E.Q.*XQ.Q.E.E.E.W.W.9X*X%X~.E.E.9X9X&XqX8X%X%X;X:X8X&X%XW.%X&X&X%X&X:X:X;X=X:X8X8X8X:X:X0X4X4X0XqX0X0XqXqX0X0XqX0XqXqXqXqXqXwXqXqXqXqXqXqXVXwXqXqXwXqXwXwXwX0XqXqXqXqXqX0X0X0X8X8X0X8X0X0X0X0X;X:X:X8X8X8X8X8X:X8X0X0X0X4X0X0X0X:X:X8XqXqX0X8X8X:X:X;X:X:X&X&X&X;X&X:X:X:X:X;X:X:X;X:X:X4X4X4X4X:X:X4X4X4X;X&X:X4X4X;X;X:X0X:X&X;X;X;X:X4X-X:X4X4X4X4X4X4X&X%X%X&X;X=X@X;X;X@X;X4X:X@X+X&X;X@X@X;X;X&X&X&X%X%XOXXXXX&X:X-X&X&X%X%XOXOXOXOX+X+XOX+X@X:X=X XoX#X;X;X=X:X-X4X-X{.}.#X=X;X&XoX{.3X5X1X5X5X7X>X@XOX+X@X].oX+X'.'.'.'.",
";.;.;.,.,.;.;...,.>.;.,.>.>.;.>.>.>.>.>.>.,.>.`.:.;.,.>.,.,.>.>...=.,.>.>.2.1.<.>.>.<.>.>.<.1.1.1.<.<.,.,.>.<.<.1.<.<.<.<.2.b.1.<.<.>.>.>.>.<.i.1.1.1.1.1.1.1.1.D.1.1.1.H.H.H.'.`.1.1.L.H.H.D.H.L.1.$X=X1.1.H.H.H.`.H.L.L.D.H.H.L.K.L.H.`.=X`.1.H.`.'.H.H.H.L.L.L.H.1.H.'.'.`.1.H.b.b.`.`.H.1.L.`.K.J.K.'.`.'.K.`.'.XXK.XXK.`.].[.K.L.H.H.K.K.K.K.`.H.H.'.'.H.`.`.H.H.`.K.H.K.$X[.].].].-X-X'.`.R.K.K.$X{.L.L.K.K.'.].{.'.`.'.'.R.'. X X$X:X4X{.{.[.'.K.R.oX=X].@X@X{.]. X].'. X'.].].=X@XoX=X$X'.Q.XXXXK.`.'.'.$X$X=X].{.-X=X'. X=X'.`.'.XXXX'.K.XX'.'.].=XoXK.'.oX$X X'.K.K.'.'.$X=XXXXXR.K.K.'. XXX'.].'.oXoX$X=X=X@X].oXoX$X$X.X X X X X X X].1XwX.X X].=X-X5X.X1X.X.X1X-X$X4X}..X.X|.{.|.{.{.1X.X}.2XnXnXnXmXmXnXnXnXnXnXrXrXrXrXrXrXZ.K Z.K K K K K K K P gXjX)..X}.|.].@X{.|.|.{..X=X.X=X=X X].=X X X$X=X X$X X'.'. X'.'.XX'.XX$X X'.].$X$X X$X:X=X]. XQ.XX$X=X{.=X=X;X=X=X=X=X$X X$X=X;X;X$XXX X*XQ.Q.&X&X&X$X%X+X%XXX%XQ.W.T.*X*X XQ.*X*X'.'.XXXX'.%X%X*X*X$XR.*X%XXXOX%X*XQ.%X&X$X;X;X8X:X0X0X=XXX%XW.Q.&X$XoXOXOX&X$X:X&X%X*X;X:X$X XW.E.E.W.&X%XQ.T.W.E.E.%X%X%XR.$X8XW.E.W.Q.W.E.E.E.&X&X$X&X&X%X*X%XW.W.W.~.!.E.W.E.W.E.E.E.W.E.W.Q.9X9X%X~.E.E.W.W.%X8X*X*X%X&X;X:X:X&X*X&X&X%X&X;X:X8X0XqX0X8X8X&X&X;X8X0X0XwXVXqX0X0X0XqX0X4X4XqXqXqXqXqXqXqXqXqXqXqXwXqXqXqXqXwXqXwXVXqXqXqX0X0X0XqX8X0X8X8X8X0X8X0XqX0X8X:X8X8X;X8X8X8X8X8X8X8X8X8X0X0X:X:X8X8X:X0XqXqX0X8X8X:X;X;X&X*X&X&X9X%X:X:X;X&X%X&X*X;X:X0X0X0X:X4X8X:X:X:X:X:X&X;X4X:X&X;X-X:X;X*X&X;X;X:X0X0X4X4X6X6X6X6X4X=X%XW.OXOXOX%X&XOXOX%X=X;X&X%X;X;X@X@X;X#X;X;X;X&X+X$X=X;X&X;X4X:X;X*X&X;X;X&X%XT.OXOXXX$X=X=X$X;X#X@X;X;X;X#X3X5X-X-X=X@X#X;X@X#X5X5X5X}.3X3X3X@X+X+X[.].@X@XXX`.'.`.",
";.,.,.,.,.,.;.;.,.,.>.>.>.>.>.>.>.>.>.>.>.,.;.;.;.,.>.>.>.>.>.>.-.>.<.>.>.>.>.>.>.,.*.,.,.>.>.>.1.>.1.<.>.<.>.<.1.<.<.1.1.>.>.>.>.>.<.<.>.<.<.<.1.1.1.1.1.1.1.1.1.1.1.H.D.L.L.].].L.L.1.D.H.H.H.H.1.L.].[.p.H.XXK.L.K.p.1.L.'.[.H.H.J.1.D.K.H.`.L.`.].H.D.1.J.J.J.J.D.H.L.K.K.H.K.oX[.{.'.H.J.J.J.J.K.XX'.`.'.K.L.H.H.J.K.J.H.`.K.'.K.1.L.'.K.`.`.J.K.H.K.XXH.`.`.K.H.L.R.K.'.'.`.'.XX'.'.'.].].]. XL.H.`.`.[.'.'.K.'.'.`.`.'. X'.'.'.'.].].].=X|.=X X'.XX'. X'.].{.=X X'.'.K.K. X@X{.=X{.[.oX$X XK.L.`.`.XXXX'.'.oX{.{.{.].].'.oX.X].'.'.'.oXoX'.'.'.`.`.R.XXR.R.XX$X=X X'. X X'.'. X XK.K.R.%XoX{.$X'.=X=X'.'.L.'.'.;X=X'.'.'.].=X X'.].]. X=X=X=X.X-X.X{.=X.X.X{.=X].]. X{.4X4X[.[.{.].].=X{.|.}..X}.2XnXnXnX_._._._.nXnXrXrXrX_.rXrXS.Z.Z.Z.K K K K K K L K A.gX(.^.|.].].=X{.{.{.{..X{..X=X{.-X5X@X].=X.X=X XoX$X X X$X X XXXXX*X&X$X$X$X'. X X X$X$XXXQ.Q.%XXXXXXXXX;X$X X X'.$X*X$X;X=X X$X;X$X$X&X X X&X&X*XXXoX;X=X&X*XQ.Q.%X X XXXR.Q.Q.Q.W.OX%XXX%X%XXX%XXXXX*XT.T.OX$X;X$X*X;X;X;X$X:X.X-X:X$X&X$XXX*X%X X*X&X$X8X:X;X*X*X%X*X X*X&X:X*XQ.W.W.W.Y.T.%X%X%X%XE.E.Y.*X:XW.W.E.E.E.E.E.%X&XW.E.E.E.Q.%X&XW.E.E.E.E.E.~.W.E.W.E.E.E.E.E.W.~.W.E.E.E.%X%XW.E.E.%X%X%X%X%X&X:X:X:X&X%X%X;X;X:X8X4X0X8X:X8X:X;X&X;X0XwXVXVXVXqX0X0X0X8X4X0XqXqXqXqX0X0XqXqXqXqXqXwXqXqXqXqXqXqXwXVXVXwXqX0X0X8X8X8X0X8X8X8X8X8X;X0XqX0X:X8X8X8X0X8X:X8X8X8X8X8X8X8X8X8X8X0X0X:X8X0X0X4X0X0X8X:X:X;X&X&X;X8X&X:X8X8X&X&X;X;X:X:X:X:X:X:X4X4X4X4X:X:X:X;X:X:X:X;X;X:X8X:X;X:X:X:X4X4X4X:X:X4X6X5X4X;X*X%X%XOXT.OXOX*XOXOX%X&X*XOX+X;X;X@X#X#X-X;X;X;X@X;X:X5X=X+X@X=X-X:X;X;X:X&X&XOXOXOXOXOX%X*X#X$X&X&XoX$X;X;X#X-X-X:X-X-X#X-X-XXX@X3X>X@X{.@X#X}.{.oX'.'.@X@X@X'.XXoXXX",
",.;.,.<.>.>.,.;.....,.>.>.>.<.1.>.>.>.>.>.>.,.,.>.>.>.>.>.,.,.>.>.>.>.>.>.,.,.,.>.>.<.>.,.>.,.,.>.,.<.>.>.1.1.2.>.<.1.1.2.1.1.>.>.<.<.=.<.1.1.1.H.H.1.1.1.1.1.1.1.1.1.K.H.1.H.L.L.H.L.D.D.D.D.D.H.1.H.H.`.L.H.H.'.'.`.H.1.H.L.K.H.J.H.1.H.K.K.'.K.L.H.`.L.1.H.J.J.K.L.D.1.1.H.K.`.[.`.].'.H.K.J.J.J.H.R.XXXX'.'.K.H.L.K.L.L.`.`.H.'.R.H.K.K.H.K.'.K.L.K.K.K.K.oX'.'.L.J.K.XX'.`.`.'.'.'.'.'.`.'.].=X'.1.H.'.].'.'.K.'.'.'.'.'.$X'.'.'.`.`.K.'.=X=X{.].'.XX'.'.].=X{.].].'.oXXX X'.=X].].].`.`.'.L.K.`.`.K.XX$X'.'.'.{.{.@X=X].{.=X5X-X].'.].-X:X`.'.'.'.XXR.'.XXOXXX'.'. X'.XX'.oX].'.$X$XR.OXXX].]. X'.:X:X'.'.XX'.`.@X4X=X'.'.].=X].'.].].[.].].].{.=X=X.X4X}.-X.X.X]. X X].-X-X{.[.].].'.[.]. X].]..X2XmXnX_.).(.(.)._.nXrXrXrX_.rX(.U Z.Z.Z.K K K K K K P K P A.gX_.).=X@X{.{.{.{.=X{.{.-X-X-X5X.X{.'.=X=X].'. X;X$XK.K. X XQ.*X*XQ. X X X'. X&X X'. XXXQ.Q.XX%XXXXX$X&X X$X$X$X$X X$X;X;X$X$X*XXX+XoXQ.Q.Q.%X%XXXXX&X;X&X*XXXR.8X8XXXXXXX%XQ.!.Q.%XXXOX;X X$X*X*X*X*XY.Y.T.Q.&X&X$X$X$X*XXX*X$X:X;X$X$X&X;X*X%XOX*X&X;X$X$X;X&X&X;X$X*XQ.&X:X&XQ.W.E.E.W.%X%X%X%X%X%XE.E.%X&XW.E.E.E.W.%XE.W.Q.E.E.E.E.%X%X*X%XW.W.E.W.W.W.E.W.%X%XE.E.E.W.~.W.E.E.E.E.%X%XW.E.E.%X%X%X%X%X%X&X&X&X%X%X&X:X;X:X&X&X;X;X:X8X8X8X8X8X0XVXVXVXVXVXwXwX0X8X0XqXqXqXqXqXqXqX0XqXqXqXwXwXqXqXqXqXqXqXqXwXwXwX0XqXqX8X8X0X0X8X8X8X8X8X;X8X8X8X8X8X8X0X0X8X0X8X8X8X8XqX0X8X:X;X8X0X0X:X:X0X0X0X0X0X:X8X:X;X:X&X&X&X%X&X:X:X;X0X8X:X:X:X4X:X;X;X;X:X:X4X:X:X:X;X:X:X;X:X:X:X:X&X&X;X;X:X4X-X=X;X:X4X6X4X:X&X&X%X%X%X%X$XoX$X&X&X%X%X$X+X%X;X;X=X5X5X0X:X;X;X@X&X;X;X&X%X&X;X-X4X4X=X&XOX*XOXOXOXOX%X*X*X;X=XoXOXoX@X@X$X=X:X-X@X@X@X#X#XoXXXoX.X.X{.@X@X{.[.'.XXXXoX#X@X.X=X@X#X@X",
",.....,.,.>.>.>.>.>.>.>.>.,.>.<.>.>.>.>.>.>.,.,.>.,...>.,.,.,.>.>.>.>.>.2.>.,...,.>.1.1.>.>.-.<.<.>.>.>.>.<.1.2.>.<.1.1.>.>.2.>.>.<.=.<.,.1.1.<.1.L.L.1.1.H.1.1.1.1.H.H.L.K.K.R.'.].'.'.'.K.H.1.1.1.L.`.L.K.K. X].L.L.$XL.1.H.H.p.L.L.K.L.L.L.'.`.`.`.].`.H.H.J.L.`.'.`.H.H.H.`.[.L.J.K.'.K.`.K.K.L.R.`.oX;X`.L.].'.XX`.`.K.L.H.K.K.L.1.H.J.J.K.`.`.H.K.$X'.'.'.'.'.'.J.J.L.`.K.K.'.=X@X{.].'.+X[.-X-X[.L.'.'.K.'.`.'.'.'. X'.K.'.'.K.L.XXK.K.'.]. X X X$XXXoX-X-X.X-X-X].oX$X$X'.'. X'.oXoXXX$XXX'.'.'.XX$X=X@X].].=XoX].@X{.].].{.=X].'.oX-X-X[.'.$X$X$X$X'. XXX'.'. X X'.XX$X=XoX'. X$X*XXXXX=X'.'.$X$X X$X$X XoX$X'.].$X'.'.$X$X`.'.$X X].'.'.$X=X].'. X:X-X-X X].'. X X'.].{..X.X].@X$X X].`.`. X1XmXmXmXnX_.(._.rXrXrXnXmXZXrXrXS.Z.Z.Z.K L P K K K K K L P K gXgX(.^.|.|..X.X{.|.|. X$X:X.X-X].].'. X=X$X$X'. X X'.K.Q.XXXX XQ.K. X'.'. X X*XXX X*XQ.Q.XX X&X*X*X;X$X'.XX$X X&X$X'.$X;X;X;XoXoXXXXXQ.Q.Q.*X*XXXR.XX%X*XXXOXXX=X XQ.OXXXQ.Q.Q.&X&XXX&X:X:X$XXX%XXXQ.W.Q.Q.%X$X$X;X;X X*X%X&X:X8X$X$X;X:X:X;X&XOX*XoXOX;X0X:X%X&X:X;XQ.%X:X;X&X*X%XE.E.%X%X%X%XE.E.%XW.E.W.W.E.E.%XW.E.E.E.E.W.W.E.%XW.E.%X%X%X%XE.W.9X&XE.E.W.%X%X%XE.E.E.E.E.E.E.E.E.&X%XE.E.E.E.W.%XW.E.E.%X%X%X%XW.&X:X8X;X*X&X;X:X:X8X8X8X0X8X0XVXVXVXVXVXwX6X0X8X0XqXwXqX0X0XqXwX0XwXqXqXwXqXqXqXqXqXqXqXwXwXwXqX8XqXqX0XqXqX0X0X0X8X8X8X8X8X8X8X8X8X0X0X8X8X8X;X:X8X8X0XqX8X:X;X;X:X:X0X4X4X4X0X0X0X0X0X8X:X&X%X&X%X%X&X&X;X:XqXqX8X8X4X:X;X:X;X:X8X:X:X0X4X4X:X:X;X;X:X:X;X;X%X&X&X&X;X4X4X8X:X;X4X6X4X;X%X%X%X%X&X;X;X;X&X$X+X%X&X;X;X$X*X;X4X4X4X-X;X#X#X@X$X;X:X&X%X%X;X;X:X-X@XOXOXOXOX%X%XOXOX$XoX;X;X&XOX=X:X;XoX$X:X=X@X@XoXoX@X].$X;X@X@X@X#X#X@X`.XXXX'.@X-X.X.X}.oX+XoX",
"..,.,.;...,.>.>.3.>.>.>.,.>.<.>.>.>.>.>.>.>.,.,.>.,.,.>.,.,.,.,.2.>.>.>.2.1.>.>.>.,.>.1.>.>.<.1.<.>.<.<.>.<.<.<.1.<.1.1.1.1.p.2.<.<.1.1.>.<.<.>.>.1.D.1.1.H.b.1.1.J.J.J.J.L.'.'.'. X].[.`.`.L.H.H.L.`.'.L.XX'.].].L.1.'.`.1.H.L.H.'.'.'.`.H.1.[.oXL.].|.[.L.H.H.`.L.`.'.K.K.L.H.1.H.J.L.'.`.L.L.'.XX X'.].=X[.'.'.'.'.'.'.'.XXL.K.H.H.H.1.K.XXK.K.K.J.H.K.K.H.L.'.'.'.'.K.H.'.XXK.`.@X@X|.[.`.oX@X.X0X|.K.'.$XR.'.oX'.].'.'.'.'.'.'.XXK.K.'.'.'.oX X'.'.XX'.'.=X{.|.@X-X{.].'.'.'.'.XX'.oXXXK.XXXXR.'.'.'.`.{.=X].].oXoXoXoX@X]. X].=X.X].'.].@X@X'. X X'. X$X X X'.'.'.`.R.XX$X;XoX`.XXXX X'.$X=X'.`.'.'.'.]. X X=X X'.'.'.'.'.$X'. X X].$X=X]. X'.'.'.'. X=X-X{.'.'.'.'. XK.'.].-X.X{.'.].=X{.[.[. X1XrXmXnXnX_.Z.Z.S.S._.S.gXmX_.rXS.Z.Z.U K U L L L K K K K K K P gXgX).}.}.}.{.{.@X{..X X=X{.].=X$X-X=X=XoX$X'.*X*X$X*XQ.Q.XX$X X XXXXX X$X$XXXXX XXXQ.XX X XXXXX*X$X X'.XX*X'. X X X*X$X;X$X=X;X$X*X*X*X*X*X;X$XXXOXOXOXOX%X%XOXR.!.Y. XQ.Q.Q.&X XR.%X$X0X.XQ.J.Q.Q.W.Q.XX;X:X$X$X*X*X&X;X:X:X-X$X$X;X$X$X;X;X*X*X%X&X;X:X=X%X*X=XXXW.*X:X;X;X*X%XW.W.%X*X*X%XT.W.%XE.W.E.Y.Y.E.Q.Q.%XW.E.E.E.E.E.%XW.E.%X%X&X%X%X%X9X&XW.E.W.%X%X%X%XW.E.E.E.E.W.~.%X%XQ.E.E.%X%X%X%XW.E.E.%X%X%XE.W.9X&X;X&X8XqX0X:X:X8X:X:X:X:X0XwXVXVXwX0X0X0X8X8X0XwXVXwXqX0X0X0XqXqXwXVXqXqXqXqXqXqXwXVXVXVXVXqX8X0XqXqXqX0X0X0XqX0X8X8X;X8X8X8X8X8X0X8X:X:X8X8X8X0X0X4X0X0X8X:X;X:X0X0X4X4X0X0X4X4XwX0X8X;X&X&X%X%X%X8X:X;X&X:X4X:X:X:X:X:X4X0X:X:X;X:X:X4X4X:X:X:X4X:X;X;X;X&X%X%X&X;X:X:X:X&X&X4X4X4X;X%X%X%X&X*X&X%XXXOXOXOXOX;X:X4X*XXX@X5X:X=X=X;X;X#X;X=X:X:X:X%XT.&X@X#X#X@X%X X$XOXOX%X%XOX@X@X=XoX%XOX@X;X@X=X;X;X=X;X@X{.@X-X{.@X@XoX@X{.@X@X@XXXOXXX[.#X5X1X1X.XoXXX'.",
",.>.>.,...,.<.>.>.>.,.,.=.,.,.>.3.3.>.>.>.>.,.>.,.,...,.,.,.>.>.>.>.>.,.>.>.>.1.1.>.>.<.>.>.>.>.2.>.>.>.,.*.=.i.s.s.p.i.<.<.1.L.p.1.2.<.>.<.<.,.=.<.p.1.1.1.1.p.s.U.Y.R.*X*X X$X'.$X$X X'.L.'.`.L.`.].{.[.H.D.1.H.H.1.H.H.H.L. XH.H.`.'.'.`.H.H.K.L.'.H.`.L.H.K.L.K.`.`.K.L.K.L.H.H.H.H.L.'.L.1.L.XX`.L.`.].=X=X$X'.'.'.K.K.'.`.`.L.J.R.H.L.+X=X[.L.H.J.H.K.K.XXoX[.].].'.K.XX X`.K.XX=X{.`.].].=X=X.X{.K.K.XX'.oXXX`.$X=X=X{.=XXXK.'.XX'.`.XX$X$X'.'.XX*X X'.$X@X].'.=X=X$X$X$X X].'.'.'.`.K.XX'.K.XX'.XXK.L.XXoXoX].$X{.].{.].@X=X-X5X5X{.XX@X@X].$X'.XXXXXX XXX'.K.L.'.XX'.K.K.XXXX'.'.'.'.XX'.$X=XoX$X=X=X[.'.Q. X:X=X].=X$X XK.'.'.`.=X-X=X{.].].'. X X].].'.'.'.'. X'.'.'.'.].].'.'.].{.].[.].^.(.U U S._._.S.Z.(._._.Z.S.S.S.S.Z.K U K U U K L L L K L K L K K P A.(.).|..X{.=X=X.X-X.X{.].{.=X=X=X].'.XX X X$XXX X XXXXX$X;X$X$X X X X X;X=X X X$X$X$X=XK.XX X&X$X X'.Q.Q.Q.Q.*X*XXX*X$X$X$X$XXX$X$X$X$X X=X=X;X XXXT.W.%X%X%XQ.E.T.XXQ.Q.Q.Q.Q.XX*X$XoX%XK.Q.XX%XQ.Q. X*X*X&X:X;X:X0X:X#X;X;X;X;X;X%X;X$XXX%XoX=X;X&XXX$X%X;X&X*X;X;X*XQ.%XXXQ.E.W.%X%XW.%X*X;X%XQ.W.E.E.Y.W.Q.E.W.E.E.E.E.E.E.E.E.E.E.W.&X%XW.W.W.W.%X%XW.W.&X%XW.E.E.E.E.W.%XE.W.E.E.W.E.W.E.E.E.%X%X%X%X&X%XQ.9X*X&X%X&X:X0X0X8X&X*X%X&X;X8X0X4X4X6XqX0X0X0X:X:X0XwXwXqX0X8X8X0XqXqXqXqX0XqXwXqXqXwXVXwXVXVXwXqX0XqXVXwXqX8X8X0X0X0X0X&X%X*X%X&X8X8X:X&X8X$X;X8X8X0X:X:X0X0X8X8X:X8X0X0X0X0XqXqX0X0X4X4X4X:X;X;X&X%X&X:X;X*X%X;X:X:X:X;X;X:X;X:X;X4X4X:X:X:X:X;X;X:X:X;X&X*X;X;X&X%X%X&X&X&X&X%X&X;X;X&X%X%X%X&X=X%XOX+X$XOXT.T.OX$X-X4X;X&X;X=X#X#X#X3X5X-X=X:X#X+X%X%X%XOX&X#X#X;XoXoX;X@X+XOX$X&X@X&X=X;X&X%XOXOXXX$X].XX+XoXoXoX#X#X=X@X+XoX{.@XoX+X@X`.oXoX{.@X.X}.>X5X=XXX].",
">.;...-...,.2.2.>.>.>.>.<.2.>.>.3.>.>.>.,.,.>.>.,.,.>.,.,.,.>.>.>.>.>.>.>.>.<.1.>.>.>.1.1.1.>.>.H.<.>.>.,.=.<.<.s.i.I.9XeX(.I 2.1.1.H.1.1.<.,.i.G.p.1.1.1.1.1.p.s.U.T.&XCXDXCXeX1X.X X.X[.K.$X.X].'.'.{.=X X`.`.H.1.H.H.H.H.L.'.`.L.L.K.K.`.K.H.L.`. X'.'.`.K.K.H.`.`.`.'.K.H.H.K.'.K.H.L.K.'.`.`.K.`.L.K.'.`.'.L.L.XXK.J.L.K.H.[.K.'.].].].`.].`.1.H.J.K.XX`.XXoXoX=X].'.'.XX X'.K.'.].].'.'.].].=X].'.'.K.XX].`.K.'.'.$X=X].`.L.XX'.'.'.'.XXXXXX'.XX+X=X=X].$X=X$X'.$X].'.$X;X=X].'.XX'.XX`.'.'.'.XX'.'.'.K.XX;X;X{.].'.].].K.'.].=X.X-X{.].@X-X=X=X$X'.'.[.{.=X=X].XX*X$XK.K.J.K.Q.'.XXXX'.'.'.'.$X$X$X=X X].XX X$X;X X].].XX$X'.'. X X=X|.{.{.-X-X=X].'.=X$X'. X'.'. X X X X=X=X].'.'.'.].'.`.].^.C.K K U (.mX(.U _._._._.rXS.U Z.U K K K K U K K K K K L K K K K K U S.(.|.=X{..X.X.X=X{.{..X.X.X.X[.].'.K.Q. X X'.'.'.XXXX X$X X X X$X X'.oXoX'.'.$X$X$X$XR.XX*X*X X XXX*XXX X*X*X X X*X$X$X*XXXQ.Q.$X$X'.$X;X;X;X$X*XW.Q.Q.%X%X!.!.Q.%XQ.Q.Q. X*X&X%X;X%X%XQ.XXXXT.Q.%X&X&X&X=X0XqX0X-X=X=X:X;X:X;X;X;X;X$XXX+X=X;X;X;X$X;X&X$XXX$X$X%X*X*X&X%XW.W.W.Q.W.%XW.Q.*XW.E.Y.W.W.%X&XE.E.%XE.E.E.E.E.E.E.E.E.E.W.&X%XE.W.E.E.%X%X%X%XW.E.E.E.E.E.E.W.%XE.E.E.E.E.%XE.W.%XE.E.W.%X%X%X%X%X%X*X%X%X%X*X&X;X&X%X%X%X&X&X&X&X;X;X0X0X8X8X:X:X8X0X0XqXqX0X:X8X0XqXqXwXqXqXqXwXwXqXwXVXVXwXwXwX0X0XqXVXqX0X8X8X0X0XqXqX8X&X8X&X;X8X0X8X:X0X8X:X8X:X0X:X8X8X8X:X8X8X8XqXqXqXqXqXqX4X0X0X4X4X8X8X;X*X&X&X;X:X:X;X:X:X:X:X:X:X:X;X;X;X:X:X:X:X:X;X=X&X%X&X:X:X&X;X;X;X:X;X%X%X%X%X%X&X;X&XOX%X%X&X&X&X&XT.T.OX$X&X%X%X%X;X;X&X$X=X=X:X:X4X4X0X4X#X#X#X#X;X:X:X=X@X@X+X&X%XOX+X$X&X%X%X@X-X-X;X;X&X%XOXOX%XXXXXXX'.oXOX+XoXoXoX+X@X-X5X=X'.oX@XoXoXOXXX'.].].[.{.].XX'.",
",.,.%.8.=.>.>.>.,.>.>.,.,.>.2.>.>.,.>.>.,.<.<.2.>.>.>.,.,.>.>.>.1.<.>.>.1.<.>.>.>.1.<.<.1.<.>.>.>.>.,.<.=.*.<.>.<.i.i. XZXMXU k.1.>.1.1.1.<.<.s.G.H.H.1.1.1.1.H.i.U.OXqXJXKXLXLXJXDXMXrX^.'.$X].'.'.'.].[.'.'.L.H.1.H.K.H.L.L.`.'.'.H.1.H.L.'.`.`.K.'.'.'.L.H.L.H.1.H.L.'.'.'.'.K.K.K.XXXXK.oX].'.`.`.`.].=X].[.H.L.XXL.K.K.`.L.'.'.'. X8X].'.$X'.K.K.K.XX`.K.'.`.L.]. X'.'.XXoX'.'.XXoX].K.K.H.L.'.K.=XoXXX%X].].K.'.'.'.$X].[.H.U.;X=X'.`.`.K.Q.XXOX@X@X{.].oX].$X X X$X].'.].].XX`.%XXX+XoXoX'.K.K.K.L.K.XX`. X X=X].'.'.'.'.'.XX=X{.].].=X-X-X].]. X$X].].{.=X:X].XX XXXQ.$X$X'.'.'.XX`.'.XX$X$X$XoX'.'.'.'.XX X X X'.'.'.'.'.'. X;X;X=X-X].[.@X4X=X'.'.].$X X'. X X X$X].{.4X.X{.].'.'.].'.`.].|.C.K K K U rX(.K U S.Z.S.S.Z.K Z.K K U U K L L L L L 0 0 L L L K K Z.A.S.^.|.=X=X{..X=X{.{.{..X-X5X].4X-X'.Q. X X X'.'.XXXX'. X X X X X'. XoX'.'.'.$X$X$X XQ.*X*X XJ.Q.&X&X X X X X X XXXXX'.Q.XX*X&X$X$X X=X:X$XXXXX%X%XQ.Q.OX%XE.!.Y.Y.Y.W.W.*X*X&X*X XXXT.*X&XXX%XOX%X&X%X;X:X0X5X=X=X=X:X:X;X:X;X;X;X*XXXXX&X=X;X;X$X*X:X;X;X:X;XOX&X:X8X;XW.E.%X&X%X%X&XQ.%X%XE.E.Y.&X&X%XQ.Y.E.E.E.E.E.E.E.E.E.E.E.Q.W.&X%X%X%X%X%X&X&X%XW.E.E.E.E.E.W.W.W.E.E.E.E.E.9X%X%XW.E.E.E.%X%XW.W.%X%X%X%XE.W.%X&X;X;X%X9X&X;X:X;X%X%X;X:X0X8X=X:X:X8X8XqX0X0X8X8X8X8X4X0XwXVXqXqXqXwXwXqXqXqXqXqXqXqX0X8X0XqX0X4X8X8X8X8XqXqX8X8X8X8X8X8X:X8X:X;X;X:X:X8X0X8X;X:X8X8X8X8X8X0X0X0X0XqX0X0X4X0X0X4X4X:X:X&X&X;X*X&X;X:X0X4X4X4X4X4X4X4X;X:X:X:X;X$X;X;X;X;X%X%X&X&X;X:X*X$X:X&X%X&XW.T.%X%X&X%XOX%X%X%X%XOXOXT.OX%X;X&X%X%X%X&X+X*X$X=X=X-X-X4X4X4X4X:X;X;X:X5X5X5X4X4X=XOXOXT.T.OXXX X$X@X#X6XwX=X;X&XOXOXOXOXOXOXXX'.XXOXOX'.'.XX+XoX-X}.{.].'.@X#X+XXXXX'.oX=X].`.`.'.`.",
"2.3.;...=.,.,.>.,.>.>.,.,.>.>.>.2.,.,.,.<.<.,.>.>.>.>.>.>.>.>.>.>.1.>.>.>.>.>.>.>.>.>.>.>.<.1.1.2.>.*.i.*.*.1.1.1.2.<.<.1./.k.1.1.1.<.H.1.<.1.1.<.<.1.1.G.G.H.J.U.T.OXeXLXKXKXKXKXKXKXJXmX1X.X.X X'.'.'.].'.].'.L.L.L.'.L.D.L.`.K.K.'.H.H.K.'.'.].K.J.K.K.`.`.'.'.L.K.'.'.`.'.'.`.L.H.K.'.`.'.`.H.`.XXXX].{.|.[.'.'.XXK.XX'.K.K.`.`.K.R.'.L.`.`.L.L.K.K.'.K.K.K.oXoXoX'.'.'.XXoX'.oX+XoX$X X'.K.H.H.'.@X[.XXXX].'.'.XXXXJ.L.'.'.R.OX=X=X[.oXXXR.XXXXXX'.'.XX'.oXoXoX$X X X'.L.`.'.XXXXXX$X=X=X$X'.R.Q.Q.K.L.K.`.'.'.'.]. X].'.XX'.oX$X].].'.$X@X@X].]. X=X=X].].=X@X].'.K.R.Q.$X$X$XoX X$XXXK.XX*X$X'.'.L.'.'.XX X*X'.`.XXXXOX*X'.XX XoX=X{.{.$X'.].=XoX'.oX'. X XR.'.'.oX$X'.].}.}..X].'.{.{. X'.[.^.I K K Z._._.Z.K K U A.Z.U U K U Z.K K U U K L L L 0 0 L 8 L K L K Z.A.gXnX)..X{.{.{.{.{.-X}.4X.X}.{..X.X.X].'.'.'.XXOX+XXX'. X$X'. X XXXXX;X$X X X$X;X XQ.XX XXXQ.R.XX X*X X X XXXXX*XXX*X&X;X$X%X%X$X$X X$X$X$X$XXXoX*XQ.Q.T.*XQ.E.R.Y.Y.T.%X%XXX*X$X'.R.Y.W.*XOX%XXXOXOXXX*X:X-X@X*X&X;X:X$X$X;X;X;X;XQ.Q.OX$X;X;X$X$X*X;X=X4X0X;XOXOX;X:X$XW.E.W.*X*X$X*X*XW.Y.E.E.T.&X&X*XQ.E.E.E.E.E.E.E.W.W.W.%X%X%X%X%X%X&X&X&X;X:X*X%XW.E.W.&X9X*X%XW.E.E.E.E.!.E.%X*X%XE.E.E.W.E.E.E.W.&X%X*X9XW.W.*X;X:X;X%X*X;X:X:X;X*X&X:X8X0X:X:X:X:X8X0XqX8X8X8X8X8X8X0XqXwXwXqXqXqXqXqXqXqXqXqXqXqXqX0X8X8X0X8X8X8X8X8X8X:X:X:X:X8X8X8X:X:X8X8X:X:X:X8X8X8X:X:X8X0X:X:X:X:X4X0X8X4X0XqX0X0XqXwX4X4X:X:X;X*X%X%X&X;X:X4X4X4X8X;X;X:X4X;X&X%X&X;X;X;X;X;X;X;X&X%X%X4X:X*X%X%XW.%X;X%XW.%X%X%X%X&X%X%XOXOXT.OX&X%X%X%X&X%XOXOXOXOXOX$X:X4X4X4X5X4X5X5X5X:X:X4X4X5X-X-X:X=X;X&XOXT.OX$X X X+X#X#X@X@X=XXXOXOXOXT.T.T.T.R.T.XXOXT.'.].oX'.].{.{.=XoX@X@X`.K.U.`.'.XXXXU.K.'.oX",
"1X,Xj.;.,.,.,.>.>.>.>.>.,.,.,.>.2.3.;.,.,.,.,.>.,.>.>.>.>.>.>.>.>.>.>.>.,.<.>.>.>.>.>.,.i.<.<.,.,.,.=.<.1.1.<.2.p.2.<.1.1.<.1.1.1.>.<.<.1.1.1.<.<.*.<.G.G.H.1.G.G.U.OX8XJXKXKXKXKXKXKXKXLXJXmXmX1X.X'.`.[.].[.'.'.`.'.'.'.K.K.'.K.XXXXL.L.H.K.'.].`.H.J.K.K.K.K.'.K.'.].b.b.`.H.K.'.L.J.K.`.`.L.H.K.XX'.`.`.`.K.K.'.'.`.'.'.K.J.K.K.H.K.K.J.H.p.p.J.K.L.`.'.[.`.].].=XoX].XX`.XXXX'.$XoX X XXXR.K.`.'.'.`.L.K.R.'.'.XX'.R.K.XXQ.XXXX'.].].:X;X'.K.'.'.'.`.XXK.K.R.oX].'. X$X`.'.K.XX&X$X$X-X].H.R.XX$X$X X X X'.K.K.R.R.XX].'.'.'.'.oX@XoX{.@X=X:X{.].$X$X X XXXXX'.oXoXK.R.Q.XX'.$X$X'.$X'.K.XX%X'.`.:X].'.'.'.R.R.`. X'.oXXX'.]. XK.'.{.-X=X]. X'.$X`.'.'.XXXX'.XXL.K.].=X].].].{.].{.].}.{.=X|.[.|.S.L L Z.nXnXK 0 L L U U L K K L K L L U K 0 L 0 L L 0 0 8 L U P K U A.gXMXrX^.{.{.{.].{.}..X.X=X=X{.{.@X=X.X].'.XXXXXXXX'. X$X*X X X'.'.{.$X]. XQ.'.&X'.'.&X$X X X XQ.Q.Q. X$X$XoXoX&XXXXX%X$X$X$XXX$X;X$X XXX%X$X$XXXQ.XXQ.Q.Q.Y.Y.Y.R.T.T.Q.OXOX%X*X%XW.Y.Y.Y.E.W.W.%X%XOX;X=X$X:X-X:X;X$X%X%X%X*XW.E.Q.Y.*X:X&X%X%X;X*X%X%X&X&X;X*XXX&X&X%X%X:X&XXXXX%X%X*XQ.Q.%XE.Y.E.Q.Q.%XQ.E.W.E.W.%X%X%X%X%X%X&X&X%X%XW.W.&X;X:X&X%X%X%X%XW.%XQ.%X%XW.E.E.E.E.E.E.E.E.E.9X9XW.W.E.E.W.%X&X&X&X&X%X&X%X;X&X%X%X%X&X:X:X&X;X:X:X8X:X;X:X:X&X8X0XqX8X:X:X8X0X8XqX0XqX0XqXqXqXwXqXwXwX0X8X8X0X0X8X:X8X8X8X8X8X9X9X8X:X:X:X:X:X&X;X8X&X&X8X0X8X:X:X8X:X0X0X0XqXqX0X8X:X:X8X0X:X8X4X6XwXwX4X:X:X:X;X:X;X%X&X;X:X4X0X0X:X;X&X%X;X:X&X%X&X%X&X*X;X;X;X;X;X&XW.&X:X&XW.%X%X*X&X:X&X%X%X%X%X%X&XW.W.Y.Y.OX&X:X$XT.T.T.OXXXoX&X&X%X&X-X:X4X4X5X4X3X5X3X3X:X4X5X5X-X:X4X:X:XOXT.T.+X=X=XXXOX+X+X%X$XOXOXOXOXOXOXOXK.XXXXXXXXT.R.XXOXXXXXXX+X].oX@X[.+XXXOXXXK.K.U.R.XX'.].].",
"S :.3.,.>.>.>.>.>.,.,.>.>.,.,.>.>.>.>.>.>.>.>.>.>.>.>.,.>.>.>.>.,.>.>.>.>.<.>.>.>.>.>.,.<.i.<.<.<.<.>.>.1.1.<.<.H.1.2.1.1.<.>.<.1.>.>.<.H.H.1.i.D.D.1.p.H.1.p.G.J.XXOX9XDXKXKXKXKXKXKXKXKXKXLXGXjX(..X{..X X'.`.'.K.L.'.K.'.'.`.K.`.K.K.R.H.H.'.'.`.H.J.K.'.'.`.K.L.L.`.[.L.`.K.K.K.`.K.K.'.`.K.H.J.`.'.$X`.H.J.J.`.XX'.'.L.H.H.`.'.H.K.H.H.L.K.J.J.R.`.'.].].oX].].].].'.K.K.'.oXoX:X-X=X].K.'.'.'.`.`.oXXX`.K.XX$X X`.'.XXR.K.'.'.'.'.'.].oX'.K.K.K.XX XXXXXK.K.'.K.'.XX$X'.'.R.XX$X$X'.=X X'.R.XXK.`.'.'.'.'.`.XXT.J.L.$X&X'.'.'.'.@X;X].].$X=X{.]. X X'.'.XX X$X].4X.XH.K.XX$X$X X X'.'.'.'.$X X].=X.X X'.'.R.'.$X$X`.:X-X=X=X X X'.].=X=X].{.].].`.'.'.R.'.'.].L.'.$X.X.X|.`.'.'.]..X.X[.].{.].|.I K L U nXS.K 8 0 K K K L L L 8 8 0 L P K 0 8 0 8 0 0 0 0 0 K L K K K P gXS.(.|. X=X=X|.{..X{.[. X X].$X-X}.1X4X'.'.'.'.XX XXX XQ.XXXX X X X X XQ.'.'.'. X$X$X$X$X XQ.%XXXXX$X'.XX$X&XXXOXXX X$X$X%X$X;X$X X XQ.Q.XXXXXX%XR.Q.Y.T.R.XX&XQ.T.R.OX+XOXXXQ.Y.Y.Y.W.E.E.E.%X%X%X&X;X=X0X:X=X$X;X;X%X*X*XQ.E.W.T.%X$X*X*X$X;X XOX&X%X*X$X;X%X&X;X%X*X:X;XQ.!.E.W.!.Q.%X&XW.Y.E.E.%X%XW.E.E.E.%X&X&X%X%X%X%X&X:X&X%XE.W.&X;X:X&X%X%X%XE.E.E.Q.&X%XE.E.E.E.E.E.W.W.E.E.%X%XW.W.E.E.%X%X%X%X%X&X;X8X&X&X%X%X%X*X&X8X:X;X8X:X:X:X8X:X:X;X&X;X4X0X8X8X8X8X8X0X0X0X0X0XqXqX0XwXqX0X0X8X8X8X8X8X:X8X8X8X8X8X8X&X&X;X:X:X:X:X:X&X:X8X&X&X:X:X8X;X8X:X:X0X0X:X:X0X0X8X:X:X:X:X;X:X4X6XqXqX0X4X8X:X;X:X;X&X;X:X:X4X0X0X:X&X&X&X;X&XW.W.&X;X&X&X;X:X&X&X&X&XW.%X%XW.E.%X&X&X&X&X;X&X%X%X%X%XT.T.Y.T.%X4X4X4X-XT.Y.Y.W.&X;X;X:X:X:X-X3X4X4X-X;X-X4X6X6X4X#X:X4X:X@X:X:X&XXXT.T.OX$X;X$XOXOXOX%X*X*XOXOXOXOXOXT.OXOX+X+X+XOXOXOXOXXXR.XXoX'.'.].'.OXOXOXK.K.XXOXXXOXXXK.K.",
",.,.<.>.>.;.;.>.>.;.,.>.>.,.,.>.>.>.2.>.>.>.>.>.>.>.>.,.,.>.>.,.*.<.>.>.>.>.<.1.1.<.>.>.<.>.>.>.<.p.1.1.2.>.<.<.<.<.1.2.1.1.1.<.>.i.1.1.1.1.1.H.J.`.[.[.p.1.p.H.J.T.OXW.qXLXKXKXKXKXKXKXKXKXKXKXPXSX_.)..X=X X`.L.H.1.K.'.'. X`.H.L.`.'.'.J.'.'.'.H.H.K.K.'.'.K.H.`.`.H.L.H.L.`.XXK.'.K.K.XX'.`.K.K.XX].=X[.H.J.G.J.R.K.'.'.L.H.K.`.K.`.J.H.H.H.H.U.XXXXoX{.].R.`.K. X].'.'.K.'.=X@X@X@X{.].oX$X X'.`.K.'.K.K.=X].XX*X`.`.XXOX;XXX`.'.'.`.K.XXXXR. XXXQ. X X*X'.K.XXXXXX*X'.'.XXXXoXK.K.'.$X'.XXK.`.XXXXL.K.K.'.`.XXXXH.`.$XXX`.'.'.].].+X`.'. X$X].].$X$X$XoXoX].=X=X].'.`.'. X$X X$X;X=X$XXX'.'. X$X'. X'.'.'.'.$X;X$X'.=X{.{.oX=X$X'. X].'.'. X$X$X X`.'.'.'.=X-X{.{.].].5X.X[.'.[.'.=X].[.[.`.]./.I K U K Z.K K L 8 L K K L 0 0 0 8 8 L 0 P P 0 L 0 8 0 L L 8 0 L K K K U P gX(.^.].{..X.X{.{.].'. X'.'. X X{.{..X{.'.'.XXXXXX'.'.'.'.XX X'.`. X X XXX X X X$X$X$X*X*X$X X XXX X'.XX%XXXXX*X*XXX*X&XXX XXX*X%XT.Q.!.Q.Q.T.W.!.!.R.%X X X:XQ.T.Y.%X;X%X XQ.Y.Y.Y.Y.Y.Y.W.%X*X*X&X;X;X=X$X;X&X:X;X&X$X*X*XXX*X%X*X*X*X X=X0X$X&X;X%XOXOX&X+XoX&X%X*X$XXXQ.Y.Y.Y.E.E.E.Q.%XW.E.E.%X*XT.E.E.E.Q.$X XQ.E.%X%X&X;X;X%XE.W.%X&X%X%XW.%XW.E.E.E.E.%XW.E.E.E.E.E.E.W.~.E.E.E.Q.%X%X&X&X&X&X%X%X%X&X;X8X8X:X&X&X%X%X&X$X;X;X&X&X&X:X:X&X:X:X;X:X0X0X:X:X:X:X:X:X-X4X0XqX0XqX0X0XqX8X:X:X:X:X:X8X:X8X0X8X8X;X8X&X8X8X:X:X:X&X$X:X8X8X8X8XwXVX0X0X8X;X&X:X&X;X;X;X8X;X&X:X;X;X:X4X4X4X4X4X4X4X4X:X:X0X0X&X&X:X:X:X:X:X;X&X&X%X%X%XW.E.&X;X;X;X;X:X:X:X:X;X%XW.W.E.E.W.%X%X%X&X&X%X*X&X&X%XOX%X%X%X4X4X6X6X4X&XT.Y.E.T.&X;X=X:X;X#X4X-X;X=X:X4X3X4X6X5X#X;X;X=X+X@X:X$XXXOXOX%XOX%XXXOXOXOX+XoX$XXXXXXXOXT.T.OXOX+X#X;XoXXXOXOXOXOX=X=XXXXX'.XXOXOXXX`.+XoXXXK.U.U.J.U.",
"..$.e.>.,.;.,.,.>.>.>.>.,.>.>.>.>.>.>.>.>.>.>.>.>.>.>.<.=.>.>.>.*.<.<.>.>.>.1.1.>.>.>.1.1.1.1.>.>.2.1.1.>.>.>.>.>.>.<.>.>.1.1.1.>.i.i.1.H.D.<.1.D.H.`.H.H.H.H.H.H.J.U.W.9XJXKXKXKXKXKXKXKXKXKXKXKXKXGXjX(.1X.X].L.L.`.`.'. X'.`.'.`.`.'.L.J.'.'.`.'.K.K.'.'.`.`.K.L.`.K.H.H.1.K.K.H.L.L.`.'.'.`.K.J.'.].{.^.`.J.J.J.J.K.K.`.'.K.J.K.XX'.XXK.K.K.J.J.XXoX].].'.'.R.XX=X.X|.@X].`.$X X].].`.'.'.'.'.'.'.'.'.'.$X:X].XXOX X'.K.XX=X'.'.'.'.XXR.Q. XXX;X$X'.'.'.'.'.XXoX=X=X=X X X'.'.'.XXXX'.L.J.U.XX'.'.*X&XR.R.XXK.'.K.XXXXXXXX'.`.XX;X$X`.K.J.XX*X'.oX@XoX=XoX=X].=X].`.L.R.R.R. X].'.$X X'.'. X'.'.'.XX'.'.`.]. X X].'. X'.XX'.'..X:X X'. X'.'.'.$X$X].'.'.'. X'.$X'.'.'.].1X1X|.[.'.'.=X{.1X.X`.].|.I L K K K K Z.L 0 K K K 0 8 8 8 L 8 0 L 9 6 8 L 0 L L L L 8 8 0 K K K K P gXnX_.^..X=X=X{.{.].].].[.].=X X X'.].]. X$X X XXXXX'.'.'.$X'.'.'.Q. X XXX X X X$X$X$XoX$X$X$X$X X X XXXOX*XOXOXXXR.R.XX$X$XXXT.W.Q.%X%XQ.T.Y.E.Y.Y.XXOXXX X XXXT.!.XXQ.%X*XT.T.%XT.T.Y.T.OXQ.%X X;X:X:X;X;X&X;X;X;X;X;X;X&X*X;X=X$X$X&X*X$X=X=X$X*XOXW.E.OX%XOXOX%X*X%X%XW.Y.E.E.E.!.E.W.W.T.W.W.&X8X%XE.E.E.Q.0X:XE.E.%X%X%X%X*X%XW.E.E.T.E.E.E.W.E.E.E.E.E.W.W.E.E.E.E.W.W.W.W.E.E.E.W.*X%X;X:X;X*X%X%X%X&X:X;X:X0X8X;X&X%X&X;X8X;X%X%X%X;X;X%X&X8X:X;X8X:X;X;X:X:X:X;X&X:X8X:X:X8X0XqX0X8X:X8X8X8X8X8X9X8X8X8X8X&X%X&X:X8X8X8X&X&X;X:X8X8X8X:XVXCX0X4X;X%X*X;X*X&X;X:X:X&X%X&X;X:X4X4X4X4X:XqXqX4X4X:X:X0X0X&X%X&X:X;X;X;X&X&X*X&X&X%X&X;X;X;X:X:X=X:X;X*X=X:X*XQ.%XE.E.%X*X*X%X%X;X:X;X;X;X;X;X;X:X;X;X#X#X#X;X&XXX%XW.Y.T.*X%X$X;X;X;X;X;X;X;X;X#X-X1X-X;X;X@X$X%X+XoX&X+XOXOX%XQ.K.XXOXXXXXOX=X;X$XXXXXOXT.T.OXOXOX+X@X@XoXXXOXOXOX@XoXOXOXOXOXXXXX'.`.oXoX'.K.U.J.K.XX",
"%.$.$.%.%.=.%.....,.,.,...=.>.>.>.>.>.>.>.,.>.>.1.>.,.<.<.<.>.,.$.=.<.>.<.1.<.>.>.>.<.<.>.>.>.>.>.,.>.<.,.<.f.<.1.<.,.<.>.<.3.2.1.1.1.1.p.p.<.H.H.1.1.<.D.H.H.H.J.!.J.OX*XCXLXKXKXKXKXKXKXKXKXKXKXKXKXPXkXS.).|.'.K.'.'.`. X X'.].[.`.J.J.K.'.'.`.[.`.K.L.L.J.J.H.H.J.L.L.`.K.H.`.K.H.J.J.K.K.J.J.K.'.'.].[.`.K.`.K.K.K.p.1.K.K.J.K.XXoX$X$X'.L.J.H.L.XX`.`.oXoXXX`.`.[.].=X$XR.R. X X X].].].].'.].XXXXXX'. X X`.K.XXXXXXK.XXXXK.%X$X'.'.XXXX XXXoX'.K.`.`.`.].@X@X{..X=X].XXXX'.'.XXXXK.L.J.K.$X'.K.K.XXR.'.XXK.L.oX'.'.oX&X&XXXXXXX X'.K.XXXXXXXXoX].'.'.'.=XoX].`.'.R.L.U.R.XX$X$X X'.$X$X$X$X'.XX&XXX`.XXK.'.XXXX'.XX'.K.$X{.{.].`.K.K.XX'.K. X`.].`.K.'.'.K.`.'.'.=X-X4X1X|.'.].'.L.{..X=X[.'..X(.L 8 K K K K L K K K L L 0 0 L 0 8 L P 8 L 0 L 0 0 9 0 L 9 L L L K K L P P hXMX(.1X].'..X.X=X=X{.{.{.=X=X$X].oX]. X$X'.'.'.XXXX X X;X$X$X;X X$X$XXX'. XQ.Q.XX&X;X$X X%X%X*XXXXXXXXXQ.OX%XOXQ.K.XX%X%XW.!.!.W.R.T.OXR.Y.E.!.Q.*XQ.Q.&X%XXXR.*X$XL.*XXXXXQ.*X&XR.R.T.T.T.Q.*X$X;X:X:X;X&X&X&X;X;X:X=X$X$X$X&X&XXX%X&X%XoX$X*XW.W.%XQ.Q.*XXX%X&X$X%X%X%X!.Y.Y.!.!.E.Q.Q.Y.E.W.%X%XW.W.%X%XQ.9X&X%XW.*X;X&X%X&X&X%X%X%XW.W.E.W.%XE.E.E.E.E.W.E.E.E.E.E.W.W.Y.E.W.E.E.W.%X&X;X;X;X*X%X%X%X&X:X;X;X:X:X:X;X;X;X:X:X:X;X&X*X&X;X&X8X8X8X;X&X&X&X:X:X;X:X;X&X;X8X:X:X8X8X0X8X:X:X;X&X%X&X;X&X9X&X9X&X8X;X;X8X8X&X&X%X;X8X:X:X:X:X;X:X0X0X4X:X;X&X8X&X;X8X:X&X%X%X%X&X;X:X4X:X;X;X0X4X-X:X8X:X;X&X%X%X&X:X;X&X;X&X%X%X&X&X&X;X;X;X;X:X:X;X:X&XQ.%X&X%X%X&X%XW.%X$X;X;X&X:X:X;X&X;X4X4X:X:X&XXXOX&XOX+X&XOXXXOXQ.%X%XXX%X&X&X:X;X#X#X;X-X:X#X@X;X+X+X@X@X+XOXOX+X&X%XT.XXOX+X&XXXXXXX+X=X;X@X=X&X%XT.R.T.OXOXXXoX@X@XXX+X+XXXoXoXXXOXOXOXXX`.'.`.`.K.XXR.J.J.XXXX",
"%.%.$.$.=.*.%...,.,.....%.%.,.>.>.>.>.>.,.*.=.,.,.>.=.=.<.2.2.,.%.,.>.,.>.1.>.>.>.>.<.<.<.>.>.>.>.>.>.,.,.*.i.>.<.<.<.<.p.L.2.>.i.i.i.1.1.<.i.H.J.D.1.p.1.1.1.H.Y.Q.'.'.%X8XDXKXKXKXKXKXKXKXKXKXKXKXKXKXPXIXgX).{.`.L.'.'.'.$X:X=X{.'.K.K. X'.'.`.L.'.L.J.J.J.1.J.J.J.'.$X`.L.`.K.J.K.K.K.K.K.H.J.K.'.K.K.p.L.K.`.L.L.'.XXL.L.J.J.J.K.XXoX]. XK.H.H.J.XXXXXX`.oX'.'.`.'.'.'.'.'.R.'.'. X{. X X].].=X].'.XXXXK.'.XXK.K.K. X'.'.XXK.K.XX*XXX'. X XoX&XXX'.oXoXoXoXoX].].{.].K.K.`.`.XX'.'.XXK.J.J.K.H.K.J.J.K.'.K.K.`.XX`.'.XXoX'.K.XXXX'.'.K.'.'.'.XX&X$X'.`.K.XXXXXXXX$X$X'.K.XXXX X X X].oX].L.'.'.R.K.'.L.J.R.'.XX%XXX'.$X$X X=X].'.`.`.'.XX'.K.J.'.'.'.'.$X'.K.K.L.'.'.`.[..X^.].].'.'.'.'.'.'.`./.I L L 0 L K P K K L L L L L 8 0 0 8 0 8 8 L 8 L L 0 8 8 8 L U L L K K K P P A.gX_.).|.'.}..X.X{.{.=X].].=X;X=X].].'. X'.'. X$X X X XXX'.$X$X X'.$X$X$XQ.Q.R.K.$X$X XXXOXXXQ.'.'.`.XXOXOX%XOXK.%X*X*X%XXXQ.Q.W.T.T.OXT.Y.Y.!.J.Q.Q.Q.Q. XXXK.Q.&XQ.R.R.T.%XQ.Q.Q.Q.!.Y.Q.*X&X*X&X;X=X=X;X%X%X;X;X#X=X;X*X%XOXOXOX*X&X%XT.Y.W.%XE.%X*X*X*XQ.&X;X&X%XXX%XQ.Y.Y.Y.Y.Y.W.W.Y.E.E.E.E.W.Q.%X%X%X%X%X%XQ.%X&X%X%X%X%X%X%X%X%X%XW.E.W.E.E.E.E.E.E.E.E.E.E.E.E.Y.Y.Y.Y.W.%XW.E.%X;X8X:X&X%X%X%X&X:X:X:X:X;X;X;X8X:X;X;X:X8X8X8X&X&X9X9X:X8X;X%X%X&X:X:X&X;X;X:X:X:X:X:X8X0X8X8X;X;X8X8X&X%X&X0X8X*X%X%X&X&X;X8X8X&X%X%X&X:X:X:X;X:X8X0XqX0X4X:X8X8X9X&X:X:X;X;X&X%X%X&X&X=X:X;X:X:X;X:X:X:X;X&X%X%X%X&X&X&X&X;X:X&X*X%X&X&X&X;X;X;X;X&X%X&X;X&X%X%X%X%X%X%XE.E.T.&X:X;X;X:X;X*X&X:X4X6X4X4X;X&X%X%XOXOX%XT.Y.OX&X;X&X%X%XOX&X&X+X@X;X;X#X#X#X;X;X%X%X;X;X&X%XOXOXOXT.R.OX%X+XoXXXR.%X+X;X=XoX;X&XOXOXT.OX%XOXOX+X[.'.'.oXoX'.@X@X$XoXXXXX+XXXXX`.`.XXXXU.U.J.XXXX",
"....*.$.$.<.<.>.>.,.....$.%...>.>.>.>.,.=.=.$.*.=.,.-.-.=.>.>.>.>.,.>.>.<.3.>.>.<.>.<.<.>.>.*.<.<.<.<.,.*.*.*.<.<.>.=.*.<.2.2.,.e.i.<.1.D.H.1.1.1.D.H.1.1.1.H.J.T.*X=X^.XX%XVXLXKXKXKXKXKXKXKXKXKXKXKXKXKXKXcXS.^.[.'.'.'.[.[.=X{.[.'.'.'.'.'.'.`.`.'.H.H.K.`.H.H.K.K.L.$XK.L.L.L.L.L.K.`.K.K.K.K.H.K.K.L.H.`.L.H.1.H.L.K.K.J.H.H.J.K.[.'.H.H.K.K.J.U.K.L.'.'.'.`.'.'.'.].'.'.'.R.`.].].[.'.'.].oX{.[.[.`.K.J.R.'.K.J.J.K.XX'.$X$XL.L.XXXX'.$X'.oX=XoX].oX&X&XK.L.'. X:X].L.`.XXK.'.XXXXK.J.J.i.p.U.XXK.K.K.'.K.J.K.XXXX'.-X:X].'.XXoXoX$X'.`.'.'.XXXX X'.'.'.XXK.K.R.'.K.'.$XXXXXXXXXoX;X@X-X[.`.'.XXXX'.K.R. XXXK.K.XX'. X$X X[. XK.H.H.'.R.'.'.`.'.'.'.'.$X'.K.H.L.'.'.'.].-X{.{.=X{.-X'.'.'.L.D./.I h L L L K L K L L P Z.L 0 L 0 L 0 0 8 8 8 8 8 0 0 8 8 8 0 L 0 0 K K K K K U A.A.(.}.}.1X5X.X[.[.{..X=X X=X=X].].'. X'.].].'.'.Q.XX'.XX*X$X=X'.].;X'.'.*XQ.R.$X&XQ.Q.XXXXQ. XXXR.K.OXOXOX%X*X*X*X*X%X&X X X&XXXXX%X%X%XW.XXXXQ.Q.!.E.R.T.R.R.Q.!.R.W.T.T.Y.Y.W.W.!.E.Q. X*XXXXX;X$X=X;X%X%X%X&XoX$X*X%XW.Q.*X*X8X:XT.Y.Y.T.Q.*X&X*X*X*X*X&X$X*XW.Y.!.Q.E.Y.*X8XQ.Q.Q.E.E.E.E.E.%X%X%XW.W.W.Q.W.Q.%X%X%XQ.E.W.%X%X&X&X%X%X%X%X%XY.E.E.E.E.E.E.E.E.E.E.E.E.E.%X&X%X%X%X%X&X$X;X&X%X%X%X&X;X:X;X&X*X*X;X;X;X:X:X;X:X8X;X%X*X*X%X;X:X;X;X%X&X;X:X;X;X;X:X:X&X%X&X;X:X;X&X;X8X0X:X$X*X8X0X0X8X&X%X&X&X:X0X8X:X;X&X;X8X:X:X4X0X0XqX0X0X0X:X;X&X&X%X;X&X%X;X:X:X&X&X;X:X:X;X;X:X:X:X&X&X*XW.E.E.%X&X*X%X&X&X&X&X&X%X%X&X;X;X;X:X;X&X%X%X;X%X*X&X:X;X%XW.E.E.W.&X;X;X;X;X;X=X-X4X4X5X5X4X:X&XOXOX%X%XOXOXOX&X:X-X@X&X&XOXT.OXOX&X:X;X;X;X;X#X&X%X%X&X$X+X+XOXOXT.Y.Y.Y.R.'.XXOXU.U.+X;X&XOXXXXXXX&X&X%XOXOXOXXX`.`.oX;XoX'.oXoXoX].`.`.`.K.J.`.`.`.K.J.T.K.`.OX",
"..,.>...=.<.>.p.2.,...%.$.$...,.,.>.,.*.*.,.%.,.=.*.=...-.,.>.,.=.,.>.>.>.>.>.<.*.=.,.>.,.=.*.*.*.*.*.*.*.*.*.i.>.>.<.<.G.<.<.<.=.e.i.p.i.H.H.H.1.D.H.D.1.H.J.H.L. X$X].K.%X0XDXJXLXKXKXKXKXKXKXKXKXKXKXKXKXPXMX(.^.].'.`.'.'.'.].{.[.].`.'.{.'.].'.K.J.K.'.L.J.H.H.'.K.L.`.'.K.L.J.J.J.`.K.K.'.'.H.H.'.`.D.H.J.J.J.J.H.J.J.J.H.J.J.XXK.K.'.R.J.J.K.H.K.'. X$X'.`.'.'.'.].].'.'.oX'.].].|.].'.'.].'.'.].].K.R.R.'.'.K.J.J.XX'.'.'.XXXXXXXX$X@X].@X@X].].K.K.K.K.K.'. X'.K.U.K.XXXXXXXX'.J.K.K.J.U.U.J.K.'.K.J.K.U.J.R.K.`..X.X].'.'.'.'. X'.'.'.XX'.'.$X$X$X'.*XR.H.Q.$XK.'.$X'.XXR.XX$X=X.X=X'.K.'.XXXX X XQ.K.R. XL.'.'.'. X X X'.J.R. X XR.K.'.'.'.K.K.'.XXL.L.'.'.'. X X'.=X{.{.{.].].K.K.'.K.'./.j h L L L K K K K L K P P 8 0 L 8 8 0 8 8 8 8 L L 8 8 8 0 8 8 L L K L P P P A.A.gX_.^.|.>X|.{.|.|.].=X-X X X'.'.'.'.'.XX X@X'.'.R.XXXXXX'.$X$X'. X$X X'.*X X XoXXXQ.!.Q.Q.Q.K.Q.XX X%X%XT.R.Q. XXXXX$X$X'. X$XXXXX*X%X%XXX$X$XJ.!.E.E.E.Y.T.T.Y.T.U.W.OXT.W.R.Q.!.U.E.Q.*X&X$X*X%X;X;X=X&XOXXX*XXX*X%XOXW.E.Q.Q.8X XK.%XT.Q.*X;X;XXXXX*X;X$X$X*XQ.E.Y.W.%XQ.*X8X*X*XQ.E.E.W.&X*X%X%XW.E.E.E.E.E.W.%XW.Y.Y.E.%X%X%X%X*X&X&X&X;X&XE.E.E.E.E.E.E.!.!.E.E.E.E.E.W.W.W.%X%X%X%X*X*X%X%X%X%X%X&X&X&X*X;X:X:X&X&X;X:X*X;X8X;X;X0X0X&X:X:X:X8X&X&X;X;X;X%X%X:X8X9X9X*X&X8X&X%X&X8X8X:X0X0X8X:XqX8X*XW.%X%X&X8X:X8X:X&X&X8X8X:X:X:X0X0X8X8X8X:X:X:X8X;X:X;X&X:X4X:X:X;X;X:X;X:X:X;X:X&X&X:X0X*XW.W.&X&X*X%X&X%XW.W.%X%XW.OX%X&X;X&X;X&X%X&X*X X$X*X&X&X&X%X%XW.*X;X:X;X&X&X:X4X0X0X5X6X5X5X:X;X&XOXOX%XOX%X%X;X0X:X;X:X&XT.Y.OXOXOX$X#X#X;X;X&X%X%XOX%X=X%XXXOXT.Y.Y.Y.Y.U.U.OXOXR.XX=XoXXXXXOXXXoX#X#X=X+XXXOX+XoX#X#X@X'.XXXXXXXXXXXX'.`.XXK.XX'.'.OXOXXX`.XXOX",
",.,.,...,.<.,.>.3.>.....=.$...,.>.,.,.=.=.>.>.2.>.<.,...=.,.,.,.<.<.<.>.>.>.>.,.=.=.,.=.=.=.,.,.=.*.i.i.<.i.i.1.>.>.p.<.D.1.<.i.i.i.i.i.<.<.i.p.<.1.<.<.H.G.H.J.H.1.H.K.K.R.&XqXDXJXKXKXKXKXKXKXKXKXKXKXKXKXKXPXMX_.^.[.[.L.`.'.].[.'.'.H.`.].].].'.K.H.XX X`.`.J.H.H.L.K.L.H.`.K.p.J.K.`.`.H.`.=X[.'.$X'.H.H.K.K.J.J.J.K.K.K.K.K.J.XXR.K.'.'.K.L.L.K.R.K.K.XX].'.XX+XoX'.oX'.`.oX{.{.].].].oXXX'.oXoX=X=X'.'.%XoXXXL.J.J.U.XXOXR.K.'.oXoX'.].{.{.].{.@X].'.K.Q.Q.$X$X`.XXR.R.XX'.L.R.XXXXR.$X XJ.U.U.J.K.R.K.J.U.R.R.K.oX=X[.].oX'.K.R.'. XXX+X;XoX'. X XoXR.'.'.J.XX'.'.K.'.'.R.K.R.'. X$X$X XR.R.XXXX X`.L.'. X=X X'.XXR.K. X'.K.K.K.'.'.'.R.'.oXoX].'.].oX'.L.K.'.'.`.L.'.'.[.'.'.'.'.'.'.'.].[./.H L L h L L L L L 0 8 9 P 0 P P w 8 L 9 9 P 8 8 P P w 8 8 8 0 L L K U U L L K P gXMXnX).1X}.}.{.].{.=X{.]. X'.'.$X].'. X$XoX]. X'.'.XXQ.Q.'. XXX'.$X X X$X X$X$X XXXR.R.J.R.L.K.J.Q.Q.XXXXR.oX*XXXQ.*XQ.R.*X*X X'.$X%X&X*X$XR.J.Q.Q.!.Y.Y.Y.Q.T.Y.Y.Y.T.Y.Q.R.Y.U.U.W.%X*X$X*X%X%X;X=X@X*X%X%X*X%X*X%X%X&X%XXX*X$X*X%XW.R.%X;X$X X$X:X:X$X X;X&XQ.W.E.E.Q.T.U.!.Q.%XW.Y.Y.XX8X*XW.Q.9X9XE.E.E.E.E.Q.E.W.W.E.W.W.%XW.%X8X;X;X;X&XW.E.E.E.E.W.E.E.!.!.E.W.E.E.Y.W.Q.*X%X%X%XW.%XW.E.%X%X%X%X%X%X%X&X&X&X%X%X;X:X;X%X%X;X8X0XqX4X:X:X:X:X;X&X;X:X&X%X%X&X8X9X~.%X%X%X&X;X;X:X9X8X0X4X:X:X:X&X%X9X9X&X;X8X&X9X8X8X:X8X8X&X;X8X8X8X8X:X:X8X;X;X:X:X:X:X:X:X:X:X:X:X:X:X&X;X:X;X*X%X&X4X0X8X8X&X&X*X%X%X&X%X%XW.%X&X%XW.%X&X*X&X%XW.E.%X%X&X8X;X&X%X&X;X8X&X;X:X:X:X;X;X4X6X5X4X6X6X4X4X4X4X:X&XOX%XOXQ.XXXXoXXXOX+XT.Y.Y.OX%XOXOX+X$X$X=X&X%X%X+X%X&X$XXXT.T.Y.Y.Y.Y.Y.Y.R.R.Q.*XoXXXXXXXOXOX+X#X3X#XoXK.'.oXoX@X#X-X@X+X@X@X+XXXXXT.R.XX'.`.XX+XXXK.XX`.`.`.",
">.>...,.>.>.>.>.>.>.,.,.-.,.>.>.>.>.>.,.=.>.>.>.>.>.,.=.*.>.>.>.>.<.>.>.>.>.<.>.,.-.,.=.=.1.2.<.-.<.<.i.<.<.<.<.<.1.<.<.<.D.*.s.s.a.i.<.-.=.i.p.1.1.i.i.p.H.H.L.K.1.H.J.J.K.*X0XDXDXLXLXHXGXLXGXJXJXPXJXJXJXLXKXKXIXS.)..X=X'.'.].].`.H.J.R.`.].'.L.H.K.'.'.'.K.1.1.H.K.K.L.J.`.`.L.K.`.`.'.`.[.=X].'.].H.H.H.J.L.H.H.H.K.J.H.'.'.'.$X'.K.'.'.`.L.H.K.K.J.J.K.`.K.'.XXoX`.`.].`.'.=X{.[.`.oX@X`.K.oX@X{.].`.K.XX'.$X'.XXK.K.XXXXK.XX$X].oX`.].=X=X X].].[.`.`.K.R.'.'.`.'.K.`.`.'.'.K.J.XX X XoXR.XXL.R.K.L.'.J.J.Q. X X=X4X].].'.$XR.XX$X$X].oX=X=X'. X'.'.`.K.J.K.XX`.'.K.'.;X$X'.R.'.K.K. X X`.L.'.'.XX'.'.'.].'.'.XX XR.R.'.K.L.'.'.`.L.'.'.L.].].{.=X=X[.'.K.R. X'.]. X=X'.'.'.'.[.].].].{..X[./.G L 0 0 0 0 0 8 8 8 0 8 L L P L 0 8 6 8 9 w 8 8 9 P P 9 8 8 L K P K K L L 0 P P P gXjXS.1X>X1X{.].{.|.|.{.'.'.'.].]. X X X'.XX X'.'.'.Q.Q.`.'.*X X$X$X'. X X$X X X XK.XXK.R.K.!.J.E.Q. X*X*XoXXXQ.Q.Y.E.T.%X%X X:X=XXX&X$X XR.J.Q.Q.J.Y.Y.Y.Y.Y.E.Y.Y.Y.Y.Y.T.Y.E.Y.Q.%XT.Q.%X%X*X;X;X;X*X X*X%XXX%X*XT.W.T.%X%X&X&XQ.Y.R.*X*XQ.*X:X-X0X*XY.Q.W.R.W.E.Y.T.E.E.E.E.%X%XE.E.%X8X*XQ.Q.*X*XQ.W.E.E.E.E.E.%XW.E.E.E.E.E.%X8X:X:X:X&XT.Y.E.E.E.E.E.E.E.E.E.%X%XW.W.*X*XW.%X%XW.W.%X%XE.W.%X&X8X&X%X%X%X%X%X%X%X8X8X:X&X&X;X8X8X0X0X:X:X:X:X:X:X:X:X;X*X*X&X%XW.W.E.E.%X%X;X:X:X:X:X8X4X:X8X;X%X&X8X8X8X:X8X&X;X&X;X8X8X8X:X:X:X:X:X8X:X:X;X&X&X:X;X:X;X;X;X&X:X:X:X;X&X$X4X0X;X*X;X8X&X%X;X0X8X%XY.Y.W.&X:X&XW.E.%X%XT.%X&X&X&X%XE.&X&X&X&X*X&X&X%X&X;X&X*X=X:X;X;X;X:X4X5X4X5X6X4X5X4X4X4X4X;XOX%X%XXXXX%X%XT.T.Y.Y.T.T.Y.T.OXOXOXXXXXXXOXOXOXOXXXOX*X*XR.U.Y.Y.Y.Y.Y.Y.U.I.Y.J.K.'.XXK.K.XXXX#X3X#XoXK.XXoX@X@X-X-X$XoXoXoX'.K.R.R.XXXX'.'.XXXX`.K.'.`.`.'.",
">.>.,.,.>.>.>.>.>.,...<.<.>.>.,.;.,...=.=.*.,.>.>.>.>.=.*.>.>.>.<.>.>.>.>.<.<.>.>.>.>.=.e.p.1.1.<.<.1.1.<.,.=.*.<.<.,.*.*.*.<.<.<.a.E.Q.H.<.<.i.H.i.i.i.p.p.i.1.H.H.H.J.K.XX X XqXDXLXLXGXJXLXFXDXJXLXGXDXDXJXKXPXGXjX).|.].'.$X].].[.K.K.J.K.`.L.H.1.'.'.J.H.1.H.J.J.J.J.H.H.K.K.K.L.H.H.K.XXL.`.`.H.L.K.K.H.H.`.J.H.J.R.!.K.'.'.K.`.'.$X].L.`.L.L.K.XXK.J.J.J.K.'.XXoX[.=X=X].'.;X@XoX'.oXoX].'.$X$X].].'.oXoXK.$XXX&X$X'.'.'.`.XX=X'.]. X'.'.'.'.'.'.`.@X@XoX$X$X'.'.'.'.'.'.'.'.'.K.'.R.K.XX$X$X'.'.'.'.XXQ.K.K.K.'.'. X].'.XXXXK.R.'.$X$XoX@XoX`.'.XXXX'.Q.Q.J.R.XX'.K.L.'.$X$X].Q.J.J.J.K.$XXX'.XX'.K.oX;X X'.'.'.K.'. X`.`.'.'.'.L.L.L.K.L.'.].-X{.'.H.`.'.'.=X=X X X].{.].'.H.[.].[.[.|.[.[./.I K K K K P 9 8 0 L 0 L P w 9 L 8 8 6 8 8 8 8 0 8 0 w 9 8 8 L 0 9 8 L L L 0 K K P pXgXgX).}.{.{.].{.{.=X{.{.].].'.]. X X X$X$X'.'.R. XR.K.'.'. X X X'. X'.'. X X'.'.K.XXK.R.XXXX!.E.Q.*XXX X*XXXR.Q.J.J.R.T.Q.XX:X=X$XXXXXQ.R.U.R.U.T.T.Y.Y.Y.!.Q.Y.Y.W.W.Y.Y.Y.Y.Y.XX%XY.Q.*X%X X;X;X;XOXK.%X%X*X&X&X*XT.Y.Y.W.%XXXXXT.XX$XQ.!.Q.*X:X0XQ.Y.E.Y.R.XXT.Y.Y.E.E.E.E.E.%X%XE.Q.*X X&X&XQ.Q.Q.W.E.E.E.E.E.E.W.W.Y.E.E.E.%X:X4X:X;X&XW.E.!.I.I.E.Y.!.E.E.E.Q.E.E.W.W.W.E.W.%XW.Q.9X8XW.Q.%X&X:X:X&X&X&X&X&X%X%X;X:X:X:X;X&X9X&X:X:X;X;X;X:X8X8X:X:X8X;X8X9XW.W.W.W.W.%X&X;X;X:X:X8X0X0X0X8X8X:X8X8X;X;X:X0X:X:X&X*X;X;X8X:X:X:X;X;X:X:X;X;X&X;X;X&X;X;X:X:X;X:X;X:X:X;X$X:X0X=X*X&X%XQ.XX&X:X&X%XW.E.E.%X&X&XY.T.%X%X%X&X;X:X;X*X%X;X:X:X;X%X%X%X%X%X&X&X*X*X&X&X&X;X;X;X-X-X4X5X:X;X4X:X;X;X%XOXOX%X&X&XT.R.T.W.Y.Y.*X&XY.Y.OXOX%X%XOX%X%XOX%XOXT.OX%XOXY.I.I.Y.Y.R.Y.Y.Y.I.I.I.I.R.U.U.J.K.`.@X#X@X+XOXXX+X+XoXoX`.K.L.L.K.XXXXT.OXOXOXOXOXXX'.XXXXXXXXXXXX",
",.,.,.,.>.>.;.;.>.>.,...,.,...,...$.$.%.-.*.*.=.>.>.,.=.*.>.>.>.<.>.>.>.>.<.,.>.>.>.>.=.e.i.1.>.<.>.>.>.<.*.*.<.<.<.>.>.,.=.<.<.<.e.G.G.1.1.<.*.G.J.*X=XD.1.H.<.1.J.J.H.'. X'.*XqXDXDXIXDXLXKXGXDXLXKXLXJXJXJXLXGXIXMXrX^.]. X.X].L.H.`.K.J.J.R.K.H.1.J.K.H.1.H.J.J.J.J.J.J.L.`.L.K.XXH.H.H.K.H.L.K.H.K.XXK.L.1.K.J.J.R.;X8X`.'.$XH.`.'.$XoXL.`.K.`.XX'.'.K.J.K.'.'.`.`.'.=X-X{.].=XoXoX].oXL.[.'.'.'.'.'.$X$X'.'.'.K.oX$X'. X'.`.'. X].]. X$XXX X XoXoX`.oXoX=X$X'.'.'.XX$X'.'.+X'.].'.'.oXK.`.K.'.'.K.K.R.L.R.'. X[.K.K.K.K.K.K.H.J.XX'.'.XXoX@X'.K.K.XXXXXXXXXXK.J.K.L. XR.K.R. X XK.K.K.K.R.'.'.'.XX'.K.K.'.'.'.'. X'.].`. X'.].].].'.'.J.J.R.'.].].[.'.K.`.'.].oX'.'.'.'.].{.'.`.{.].H.`.'.[.[.^.I K K K L 9 8 8 8 8 8 0 P w 8 8 0 0 0 8 8 8 8 8 8 8 8 0 8 8 8 8 8 8 L 0 0 L K K V.P gXMX_.^.].[.]..X.X.X{.{.{.].].].'.'.'.'.$X'.'.'. XR.J.'.'. X X$X$X X X X$X$X'.R.K.XXK.R.OXK.!.Q.Q.OXXX'. XXXQ.Q.Q.Q.K.Q.*X&X=X X%XT.Y.Y.T.OXT.U.W.T.Y.Y.Y.Q.R.J.!.W.E.Y.Y.U.Y.OXXX*XT.%X X*XXX&X$X;XOXT.OXOX*X X$X;XOX*XT.Y.T.R.T.Q.&X&XQ.E.U.W.*XK.R.E.W.R.R.8XXXY.E.E.E.Q.E.E.E.E.E.W.*X*X&X&XW.W.E.Q.%X%XW.E.!.E.%XW.Y.Y.Y.Y.W.%X;X&XOXW.E.E.!.P.!.!.I.!.!.E.E.W.E.E.Y.Y.E.E.W.W.W.E.&X9XW.W.&X&X&X&X&X&X&X8X9X%X&X*X&X&X&X;X;X&X;X;X:X;X:X;X;X:X:X8X;X&X;X%X%X%X%X%X%X%X&X&X&X%X:X:X:X0XqXwXqX:X:X:X;X%X%X&X:X:X:X;X9X&X%X&X*X&X&X&X:X:X:X:X:X:X:X:X:X;X;X;X;X;X:X:X:X:X:X;X:X:X*X&X&X%X%X8X&X%X%X%X%X%X%X%X%XOXY.W.%X%X%X&X&X;X:X:X&X;X:X:X;X&X%X%X%X%X&X$XQ.W.%X%X%X&X*X&X;X:X4X4X;X:X4X-X;X%X&X&XT.R.T.T.Y.T.%XW.Q.%XT.U.I.Y.Y.OXT.OXOXOXW.Y.T.OXT.R.R.R.Y.Y.I.Y.U.R.Y.Y.Y.T.Y.I.I.Y.Y.T.XX'.'.oXoXOXXX`.`.XXU.XXXXXXU.K.XX'.K.R.U.U.`.'.'.'.'.XXXXXXR.XXXXXX",
"..;.,.,.,.>.,.,.>.>.>.>.>.,.,.,.,.*.*.=.=.=.=.=.=.,.>.=.=.,.,.,.,.<.>.>.>.<.<.<.>.>.>.,.<.i.<.>.>.,.,.<.i.i.<.<.1.1.2.>.>.>.<.1.i.,.<.<.<.<.i.G.G.H. X0X/.2.H.H.1.H.H.H.L.`.'.Q.8XDXDXIXZXJXKXPXDXDXJXKXKXKXLXLXJXIXMXmX(./.[.'.`.L.`.L.H.J.J.'.'.H.H.G.K.K.H.K.K.K.K.J.J.J.K.K.H.H.R.L.L.J.XXXXK.L.K.H.H.XX'.L.K.K.J.H.=X.XL.H.L.L.K.`.K.R.K.K.oXXX'.XX`.K.'.XX`.`.XXXXXX'.{.].'.'.'.oX].=XoX'.`.'.'.'.XXK.K.K.'.'.L.H.K.K.R.K.`.'.'.'.'.'.R.XXoX@XoX].].].`.'.'.`.XX`.XX XR.K.oX@X].`.`.`.XXXXK.L.K.K.R.R.J.K.'.$X$XL.R.K.L.H.L.K.K.XX X'.K.'.'.`.K.U.R.'.'.'.`.'.K.XXR.R.J.J.K.K.K.K.%XXX'.R.K.K.'.XX$X X'.`.'.oXXXQ. X=XL.L.'.'.].{.L.R.J.U.R.'.`.H.`.`.H.K.L.=X$X`.].'.'.'.].].].].].H.K.K.`.[.}./.L K K L 6 8 0 0 8 8 8 8 w 8 8 L K w 9 8 0 8 0 0 8 8 0 P 0 8 8 8 L K K L L K P U U gXMXjX(.].'.].].'.].].'.'.'.'.'.].'.K.'.$X X'.'.'.XXK.`.'. XXX$X$X XXX$X$X&X'. XXXQ.R.K.OXR.J.Q.Q.XXXXXXXX*X*XQ.*XQ.*XXX*XXX X*XQ.Y.Y.Y.Y.%XW.R.Y.Y.Y.Y.Y.Y.T.R.R.Y.Y.Y.E.U.T.*XOXXXY.W.XX*X;X:X$XXXT.W.OXOX*X$X$X:X&X;X*XT.T.*XQ.;X&XR.U.Y.Y.Y.T.T.Y.Q.Q.Q. X.XR.W.%X%XW.!.E.W.E.E.E.%X&XXX%X%XW.E.E.E.W.W.Y.Y.!.E.E.E.Y.Y.Y.E.E.W.*X%XT.E.E.!.!.E.!.!.!.!.!.!.E.Y.Y.E.E.E.E.E.W.W.W.E.W.W.E.%X;X;X%X%X8X;X&X%X%X&X;X&X;X;X&X:X:X:X:X:X:X:X:X:X;X:X;X:X;X;X*X%X%XQ.Q.9X%X%X&X&X%X%X8X$X8XqXqXwXqX4X:X:X;X&X%X%X:X8X8X8X9X%X&X;X&X9X&X;X:X8X0X4X4X:X:X:X:X;X:X:X;X;X:X;X;X;X:X:X4X:X&X&X&X&X&X;X&X%XE.E.E.W.Q.W.W.OXY.Y.T.W.%X;X&X&X:X;X$X*X=X;X;X;X%XW.E.W.&X*XQ.W.%X&X&X&X&X%X;X:X:X4X;X;X;X@X&X;X=X%XT.T.Y.Y.Y.T.*X*X*XY.P.I.I.Y.Y.T.T.OXOXT.E.Y.Y.Y.Y.U.OXT.E.Y.I.Y.Y.T.T.R.T.XXU.U.U.I.J.R.OX`.oXXXK.XXXXXX+X+XXXXXR.R.R.OX+XXX+XXXT.U.XX'.`.`.XXXXK.`.`.XX`.`.",
",.>.>.>.>.>.,.,.>.>.<.>.>.>.>.>.,.=.<.>.>.-.-.=.=.=.,.,.,.,.,.=.*.i.>.>.>.,.>.1.>.<.i.>.>.<.>.>.f.e.i.p.1.2.>.>.>.>.1.1.<.1.1.>.>.>.>.=.*.<.i.G.<.<.<.1.D.1.1.1.1.1.1.G.H.H.'.R.*XCXJXMXZXPXKXKXHXkXDXLXKXKXKXKXKXLXJXFXmX_.^.].'.'.$XL.H.K.L.K.'.L.H.1.H.L.'.'.H.H.H.1.H.H.K.`.`.L.`.K.J.H.`.'.K.H.H.D.H.'.[.`.XXK.K.H.K.K.L.J.J.J.H.J.J.K.XX`.K.L.R.'.'.K.K.K.K.K.R.XX'.'.'.'.'.'.'.'.'.=X'.K.K.XX'.`.K.R.K.H.'.'.'.K.R.R.K.XX]. X'.'.XXXX'.'.'.oX'.'.=X{.'.`.K.XX'.'.].=X'.J.H.'. X'.`.L.K.XXK.J.K.K.K.XXK.XXXX'.K.H.XXXXJ.J.K.XXXX'.'.'.XX'.'.R.R.U.K. XoX'.'.'.XX X'.K.K.'.XXU.J.Q.*X$X`.J.R.K.'.K.'.=X X'.`.XXXX'.K.].L.1.H.'.{.-X[.'.R.K.'.K.L.H.K.'.'.K.H.`.'.'.'.'. X XL.'.].'.'.`.'.K.L.`.^.z.K L 0 0 0 L K L 8 8 8 8 8 8 0 0 0 0 8 8 0 8 0 0 0 9 0 L 9 8 8 L K L P K 0 0 P U P B.jXMX_.^.].[. X].'.'.'. X X'.'.].'.K.`.'.'.'.'.'. X'.oXXX'. X X$X X X$X$X X'.$X XQ.$X$XK.K.Q.K.J.K.OX%X*X*X*XQ.Q.'.$X$XQ.U.R.K.Q.!.U.Y.R.!.Y.Y.Y.Y.W.Y.R.Y.Y.Y.U.Y.Y.Y.Y.T.%X%X%XQ.E.Y.E.XX-X=XXXOXQ.E.W.W.%X;X;X0X:X:X$X&X&XXX X:XXXY.Y.Y.E.W.%XW.E.E.I.Q.8X;XU.!.W.W.E.E.Y.T.%XE.Y.W.%X*XW.%X%XQ.E.E.Y.Y.Y.E.E.E.Y.!.E.E.E.E.Y.W.Q.E.!.!.!.!.!.E.E.E.Y.Y.!.!.Y.Y.Y.Y.E.E.E.E.%X&X%XW.E.E.W.%X&X&X%X%X&X%X%X%X%X&X&X&X:X:X:X:X8X0X8X4X;X;X;X;X&X:X:X:X8X8X&X&XW.W.~.~.%X%X8X&X%X%X&X$X:X8X0X0X0X8X8X:X:X&X%X&X;X;X;X&X%X%X%X%XE.%X&X;X0X0X:X:X4X4X:X:X:X;X:X;X;X;X;X;X:X;X;X:X:X;X;X;X;X;X%X%X%XE.E.E.E.W.*X%X&X%XE.Y.E.E.E.OXW.%X:X8X&XT.%X%X%X%X%XW.E.%X&X%X%X%X&X;X;X;X;XOX+X#X#X:X:X;X=X$X&X$X$X*X%XOXT.T.T.OX%X%XOXY.Y.Y.T.Y.T.T.T.OXOXT.T.Y.Y.Y.T.T.T.Y.I.Y.Y.Y.Y.Y.T.OXOXT.I.P.Y.U.U.R.R.oX:X%XJ.U.T.T.XX].@X@XoXXXXXXXR.U.XXOXR.G.U.U.XXXXXXK.K.XXXXoXoX'.",
",.>.>.>.>.,.>.>.,...,.,.,.>.>.>.,.>.>.>.>.,.>.>...%.,.>.>.>.>.>.>.>.>.<.>.>.>.1.>.<.p.2.>.>.,.>.<.*.*.<.>.<.1.<.<.>.<.>.1.1.1.1.1.<.>.<.*.i.<.<.1.<.H.<.1.1.1.1.1.1.1.H.1.H.'.'.'..XCXCXZXLXKXKXKXGXFXDXJXGXGXJXLXLXKXKXLXJXmX(.^.].$X X].L.1.H.K.J.J.H.H.L.`.'.H.H.H.H.K.K.J.`.'.`.'.`.K.K.`.`.'.K.K.'.`.'.H.H.R.K.'.XX XL.1.H.H.i.p.K.`.XXXX`.H.H.K.K.'.XX'.J.XXXXXX'.'.'.`.R.L.K.'.'.'.`.L.L.XX*XXX`.K.K.XXK.`.K.K.K.R.R.`.XX'.'.'.'.'.'. X'.`.'.'.XXoX'.'.'.OXXX'.$X=X@X].K.J.G.R.XX'.R.R.J.J.J.J.Q.R.K.R.XXXX*X'.$X=XoX`.`.K.K.XX'.XX'.'. X'.'.'.'.'.'.XXK.K.'.*X'.`.K.K.'.'.J.J.K.K.XX'.L.J.J.Q.L.K. X XXX`.`.`.`.L.K.XX'.`.'.'.].`.`.'.K.J.L.`.J.J.J.L.R.K.H.H.'.'.'.].].`.H.'.'.'.`.'.'.`.`.[.^.K 0 8 0 L L K L 8 8 8 8 8 8 0 L L L 8 8 0 0 8 8 9 9 9 8 9 P L K L 0 9 L P L K P P B.gXkXMX(.^.{.{.=X].'.'.'.'.'.'. X'.'.L.L.'.'.'. X X$X;X$X'.$X X X$X XXX'.$X$X=X$X X$X$XXX X$X XQ.Q.OXOX*X*X'.K.Q.Q.XXXXQ.Y.T.K. XXXK.R.T.%XT.Y.Y.E.W.Q.Q.%XOXR.R.Y.U.Y.Y.Y.T.%X%XR.Y.!.Q.*X;X$X'.OXQ.Q.Q.Q.%X%X$X$X XXXXX%X%XQ.Q.XXU.Y.Y.Y.E.E.%XE.E.Y.Y.T.XXXXY.E.W.Y.E.%X%X%X%XW.Y.Y.W.W.Y.W.E.Y.E.E.E.E.E.E.E.E.Y.Y.E.E.E.Y.Y.E.Q.E.!.!.I.!.!.!.!.!.!.Y.!.I.Y.E.E.E.E.E.E.E.%X%XW.W.E.W.%XW.%X&X%XW.W.W.E.W.%X%X%X&X;X:X&X&X:X4X4X4X:X:X;X;X;X:X:X;X:X8X;X&X&X%XE.E.W.&X8X&X%X&X%X*X8X*X$X;X:X8X8X:X8X&X9X*X*X*X%X%X%X%X%X%X%X%X%X&X0X8X:X:X:X:X:X:X:X:X:X;X;X;X:X8X;X&X%X&X&X;X;X;X*X*XW.%X%XW.E.E.E.E.W.W.T.W.E.E.E.E.E.E.W.&X:X:X:X*X*X%X%XE.%X&X%X&X:X;X;X;X;X;X;X;X&XOX&X;X;X@X@XoX$X-X:X;XOXOXOXT.T.%XOXOXOX%X%XT.Y.Y.T.T.OXOXY.T.&X&X%XOXOXOXOXT.Y.Y.Y.Y.Y.Y.Y.Y.Y.T.OXY.I.P.I.I.Y.U.J.'.oXoXoX=X+XOX+X@X#X#X@XXXOXXXK.J.K.U.J.i.J.K.XXXXXXXXXXXXXXoX#X`.",
",.>.>.>.>.,.,.>.,...=.>.>.,...-.-.;.,.,.,.>.>.>.>.<.<.>.>.>.>.>.>.<.<.>.>.>.>.>.,.,.>.>.>.,.=.>.<.*.*.<.>.=.=.*.e.i.<.<.<.<.1.1.1.1.1.<.<.1.1.1.<.G.G.H.1.1.<.i.i.1.1.H.1.H.'.`.`.D..XwXCXJXJXLXKXPXDXGXPXIXjXMXDXFXFXPXLXKXPXjX(./.'.'.'.K.H.H.H.H.J.K.'.'.K.K.J.H.J.J.L.L.K.'.'.'.'.'.'.K.H.L.K.L.K.K.'.'.L.G.G.K.'.'.K.1.H.J.K.J.J.L.K.L.K.'.`.K.K.`.`.K.K.J.K.XX'.K.`.'.'.'.K.K.'. XK.H.H.XXXXXX'.'.'.XXXX'.`.J.J.R.'.'.XX'.XX'.].@X].]. X X X X'.'.'.'.`.'.OXK.'.=X$X'.'.XXR.J.J.H.K.K.U.J.G.J.K.K.J.J.J.J.K.'.'.$X`.`.'.XX X XR.`.XXXX'.$X'. X'.$X$X'.'.J.H.'.%X'.K.'.XXXXL.J.J.J.J.K.'.K.J.J.J.K.$X XL.K.'.L.`.'.K.K.Q. X'.K.'.J.K.'.].K.R.K.`.H.J.J.L.'.L.K.'.K.`.'.].'.'.`.'.L.K.[.].'.D.L.'.^.I 0 0 L 0 L L P 0 0 8 8 8 8 8 8 L L 8 8 8 0 0 8 8 8 8 0 0 9 9 L K L 8 0 K K K K P P pXiXSXMX(.|.|.{.'.'.'.'.'.'.`.K.K.$X$X'.'.].'.'.'.$X=X$X].=XoX X$XXX'.$X:X@X@X@X X$X$X]. X'.$X'.K.Q.%XXXR.Q.U.J.J.!.R.R.Y.Y.Q.$X'.'.R.XXOXT.Y.U.Y.T.XX&X;X*XR.R.W.Q.Y.Y.U.Y.T.R.R.Y.Q.9X;X$X'.R.R.Q.%X%X%X%XOXQ. XK.XX%XT.U.Y.Y.Q.W.Q.E.Y.Y.E.W.Y.E.Y.T.*XXXR.Y.Y.W.OXOX%X%XT.Y.Y.Y.E.Y.Y.Y.E.E.E.E.E.E.E.E.E.E.E.Y.E.E.Y.Y.Y.Y.E.E.E.E.Y.Y.E.E.!.!.!.!.!.!.!.Y.Y.Y.E.E.E.E.E.Q.E.E.E.E.E.E.E.E.W.%X%X%X%XE.E.E.W.W.%X%X&X%X&X:X4X4X4X:X&X;X;X;X;X;X*X$X;X*X*X8X%X%XW.&X8X&X%XW.W.%X*X9X8X&X%X&X:X:X;X&X&X&X%X9X*X%XQ.%XQ.%X%X%XQ.%X%X*X&X&X;X:X4X4X4X:X4X:X;X&X;X:X:X&X&X%X%X%X;X:X;X*X%X%X%X%XW.E.E.E.W.T.W.W.W.E.E.E.E.E.E.T.%X;X&X;X*X%X%X%XW.&X&X%X%X&X:X;X;X;X:X;X*X*X$X&X+X&X%XOX&X:X-XoX+XOX%XOXOX%X%XOXOXOXOX%XY.P.Y.R.R.OX%XY.OX;X;X@XOXXXT.OXT.Y.Y.Y.Y.Y.Y.I.Y.Y.U.T.T.Y.P.I.I.I.U.U.K.K.XX@X-X-XoX{.3X3X5X3XoXOXOXOXU.XXR.U.U.J.oX@XXXT.R.K.J.J.K.+XXX",
"<.;.;.>.>.,...,.>.,.=.,.>.,.,.=.=...%.=.=.,.,.>.>.<.1.1.3.>.>.>.>.<.1.1.>.2.2.>.>.<.>.>.>.>.=.,.,.*.*.<.<.,.=.*.*.i.i.<.<.<.p.p.H.H.1.1.<.1.H.<.<.G.G.1.1.D.<.i.G.G.1.p.H.1.L.`.`.L.'.qXDXFXFXJXKXPXPXLXLXkXjXMXDXDXmXMXFXJXJXMX_./.[.`.[.[.'.`.J.L.J.H.oX'.K.K.H.1.L.`.L.L.`.`.L.`.`.`.'.'.'.'.K.L.J.K.`.K.H.J.U.'.'.K.L.H.G.J.K.'.K.H.J.J.H.H.`.'.K.H.K.K.L.L.XX`.'.H.K.'.'.$X'.[.`.XXK.K.K.XXK.K.K.K.`.XXXX`.L.H.U.%XoXXXXXXXXXXX'. X].'.'.'. X.X'.`.J.K.K.`.XXXXK.`.L.L.'.XX'.K.R.J.J.J.R.K.J.J.'.XXJ.L.J.K.K.K.L.J.L.XXXXXX'. X$XXXXX`.'.$X X'.'.=X$X'.'.R.XXXX$X'.'. XXXL.J.K.R.R.R.XXXX'.K.L.J. X$X'.J.Q.'.L.'. XK.L.L.K.R.H.L.J.XX=X].'.*XXXK.H.H.K.`.=X].'.].].{.].[.=X{.{.].[.{..X|.[.L.`.'.^.I L 8 0 0 L 0 8 L L 8 8 8 8 6 8 0 L 8 8 8 8 0 8 8 8 9 P P 9 8 L L K L 0 L K K L L P P pXkXGXjX).}.|.'.'. XoXoXXXR.R.R.$X$X'.].=X$X'.'. X].].{.=X X'.'.oXoX$X=X{.@X{.'.XXoX=X$X'.$X'.K.J.Q.R.R.%XT.J.J.Q.Q.Y.Y.R.*X$X X&X*X*XXXOXT.R.Y.T. X XXX'.OXY.Q.R.R.Y.Y.T.OXOX%XY.Q.$X XQ.Q.W.W.R.T.Y.E.T.T.Y.E.OX%XW.Y.Y.I.Y.Q.Q.W.T.T.E.E.W.Y.Y.Y.Q.$XK.Y.E.E.Q.*X&X&X%XT.Y.Y.E.E.Y.E.E.E.E.E.E.W.Y.Y.Y.Y.E.Y.W.W.Y.Y.Y.Y.Y.E.W.E.E.Y.Y.E.E.Y.Y.Y.E.E.!.!.Y.Y.Y.E.E.Y.E.Q.Q.E.E.E.E.E.W.E.W.W.%X&X%X%XE.E.E.E.E.W.%X&X*X&X:X0XqX4X:X&X;X;X;X&X%X%X;X8X&X%X*X&X;X*X&X&X*XE.E.E.E.*X&X&X&X&X&X;X;X&X:XVXqX&X%X%X*X&X&X%X%X*X~.Q.%X%X%X%X&X;X:X0X0X0X4X:X:X:X;X:X:X:X:X&X&X%X&X;X:X&X%X%X%X%X%XW.E.E.E.W.%X&X%X%XW.E.E.E.W.%XW.W.%XT.T.&X&X*X%X%X&XQ.W.%X*X&X%XOX+X=X;X&X%X;X:X&X+X&X&X;X=X+X%XOXoX&XOXOXOX%XOXXXOX%XW.U.I.Y.R.R.OXOXOX;X;X=X;X@X+XOX&XOXY.I.Y.Y.Y.Y.I.Y.U.J.R.XXT.Y.R.Y.I.Y.R.T.XXOXXXXXR.K.XX@X3X6X5X;XOXOXOXOXXXU.U.U.T.@X{.U.U.J.J.U.R.U.K.K.",
"8XrXI :.>.,.=.>.>.>.>.,.,.,.>.>.,.,.=.*.=.>.>.>.>.<.2.1.2.2.>.2.<.>.,.<.1.1.>.>.>.<.>.>.f.i.<.=.*.*.*.<.<.<.i.s.i.>.>.>.<.<.<.<.p.p.1.1.1.1.1.1.1.<.<.1.1.H.1.1.<.i.s.i.H.H.L.H.L.L.D.8XCXFXjXDXLXPXGXJXLXJXJXFXFXZXDXGXkXmXDXFXmX_./.[.'. X[.'.'.'.`.H.oX].'.'.H.H.`.K.K.`.'.`.L.K.K.`.[.[.K.'.`.H.K.K.L.H.J.J.K.`.H.J.J.L.J.K.J.K.K.H.G.K.K.J.`.'.`.J.XXXX'.].oXK.K.L.L.H.'.'.`.`.`.'.K.K.K.K.K.J.R.J.K.'.`.J.J.L.J.R.XX'.`.'.'.oX].'.].].'.].]. X'.`.K.`.K.K.K.'.K.`.`.R.K.XXOXK.J.!.G.H.K.XXH.L.L. XH.H.K.'.`.`.R.'.'.'.XXXXK.XXR.XXXX'.oX X'.K.K.'.'.'.'.'.XX'.'.'.'.XXXXU.J.R.!.G.J.K.&X.XK.J.J.'.K.J.K.K.J.J.!.J.K.'.'.L.H.L.L.R.K.'.`.'.$XK.J.J.K.L.K.'.`.`.`.`.=X].].=X{.[.'.[.|.^.^.[.'.].[./.I L 8 6 8 0 L 8 0 0 8 8 8 8 0 8 8 8 8 8 8 0 L 8 8 8 L L 0 9 8 0 8 9 L L K K L L 0 L P gXGXHXkX(.1X}.'.'. X{.=XXXK.'.'.`.J.Q. X'. X X X X'.'. X X].'. X{.$X X{.=X-X.X].XXXX'.'.'.'.XXR.Q.Q.Y.R.K.Y.E.Q.XXQ.J.Y.U.T.U.K.*X*X*X%XXXXXR.R.T.Y.Y.Q. X*XJ.R.Y.Y.Y.T.Y.Y.Y.R. XQ.J.!.J.R.%XT.Y.Y.Y.Y.Y.Q.Q.*X$XR.!.Y.Y.Y.Y.U.!.%XOXR.E.Y.Y.Y.U.Y.J. X X8XQ.Q.*X;X;X&X%X&X%XY.Y.E.Y.E.W.Y.Y.E.Y.Y.Y.Y.Y.I.I.Y.W.W.Y.Y.Y.Y.I.E.E.E.E.Y.Y.E.!.Y.Y.E.Y.!.!.E.!.I.Y.E.E.E.E.Q.:X%XE.E.E.E.W.E.E.E.Q.%X%XE.E.E.E.E.%X%X&X&X%X&X:X:X0X4X:X&X&X;X;X:X&X%X%X&X&X%X%X8X8X$X&X;X;X%XE.E.E.Q.&X8X8X8X&X%X&X&X$X0X.X*X%XW.%X8X&X%X%X9X9XW.E.W.%X%X&X:X:X:X:X:X;X:X:X;X:X:X:X;X;X%X%X;X:X4X:X&X%XW.E.E.E.E.E.E.E.W.&X&X%X%XY.Y.Y.Y.W.W.%X%XE.E.W.%X%X&X;X:X&X%X%X%X%X&X&XOX&X;X;X*X%X#X:X=X@X@X&XOXOXOXW.W.%X:X;XOXY.T.OXXX*X&XR.U.Y.Y.Y.U.T.T.XX%X;X=X=X#X@XOX%XOXY.Y.I.I.Y.U.R.Y.I.I.Y.Y.U.U.U.U.T.XXXX&X+XOXOXXXOXXXOX+X#X#X}.@X@X+XT.Y.T.R.U.U.U.J.J.J.J.G.G.R.OXXXU.R.",
"j.^.z.:.;...=.>.>.,.>.<.>.>.>.,.....>.,.<.>.>.>.,.>.>.>.1.>.>.>.>.>.>.<.2.1.<.-.-.=.=.=.e.i.<.<.,.*.*.=.=.*.e.i.i.<.>.>.=.=.<.i.i.1.1.<.1.1.<.i.<.<.G.1.1.<.1.1.H.G.i.i.1.H.K.H.L.K.1.L.eXmXjXmXDXDXDXDXJXLXJXMXCXZXLXPXjXmXDXLXPXIXS./.'.'.'.'.`.'.'.K.`.{.'.'.H.H.K.`.K.'.'.'.K.K.'.=X[.p.H.H.H.H.H.J.J.H.J.U.K.L.J.J.G.G.J.J.J.K.K.J.G.J.K.R.OX'.`.J.R.XX'.'.'.`.K.XXL.K.XX'.K.K.'.`.XXXXK.`.'.K.J.J.K.'.`.J.K.`.L.H.L.`.`.XX'.].].].=X].].].{.{.].`.'.XXXX`.K.'.$XXX'.R.K.J.R.oXJ.G.G.J.H.L.H.D.G.J.XXU.K.'.XXOXXX&X$X XoX'.=X=X'.].].-X=X].].oX$X'.K.`.`.'.'.'.$X$X'.'.R.T.U.K.R.G.J.XX&X;X'.J.K.XXK.H.K.XXK.J.J.J.J.R.$X'.J.L.K.'.'.'.XX'.`.H.1.J.J.J.K.K.H.L.K.L.`.`.`.].[.L.`.'.[.|.[.L.L.`.=X/.j K 0 6 8 8 8 6 8 8 8 8 8 8 8 8 8 8 8 8 L L 0 8 9 9 8 P P 8 8 8 8 8 0 L L P 0 K K P P jXIXlXkXmX(.}.].'.'.'.'.'.'.'. X`.J.J.'.'.'.'.'. XK.Q. X X X X X$X$X X{.{..X:X=X'.XX'.'.'.XXXXXXQ.!.Y. X*XQ.!.K.K.K.J.T.R.T.R.K.%XXXR.R.*XQ.Q.Y.Y.R.U.*X$XJ.U.U.Y.Y.Y.!.!.I.!.Q.8XXXR.U.Y.Y.Y.Y.E.!.E.Y.!.Y.=XVX8XJ.Y.Y.Y.U.W.!.*X8X$XR.I.I.U.W.W.E.!.Q. X XR.Y.Q.&X&X*X*X&X;X%XT.W.E.E.Y.Y.W.E.Y.E.E.Y.Y.Y.Y.E.Y.Y.Y.Y.Y.Y.Y.Y.E.E.E.Y.Y.I.I.Y.Y.Y.Y.P.!.P.P.P.!.E.E.W.%XT.OX%XW.E.E.E.E.E.E.E.Y.T.W.E.W.E.E.E.Q.%X&X%X%X&X:X;X:X:X;X&X&X&X;X:X;X%X%X&X:X&X&X;X8X8X9X;X:X&XQ.W.W.%X&X9X&X%X%X%X&X9X*X&X&X*X%X%X%X8X8X%X%X*XW.%XE.W.%X%X&X;X;X:X:X:X;X:X:X;X;X&X&X&X&X%X%X;X:X0X:X;X&X%XE.E.E.E.W.E.E.E.T.%X%X%XE.W.T.%X%X%X%X%XE.E.%X%X&X:X:X:X&X%X&X&X&X;X:X&X%X&X&X%X%X+X&X;X$X+X%X%XOXOX%XW.%X;X;X&XT.T.OXOXOXOXY.Y.Y.I.Y.T.%X%XOXOXOXOXXX$X+XT.R.U.Y.Y.Y.Y.Y.U.R.R.Y.Y.Y.Y.U.Y.Y.Y.OX+X=X&XXXXXOXXXXXOXT.T.XX@X5X3X3X#XOXT.T.T.R.U.U.U.J.J.J.s.s.K.K.K.XXXX",
";.;.;.>...%.=.>.,.,.>.>.........=.,.>.>.>.>.>.>.,.,...>.<.<.<.>.>.>.>.,.<.1.<.<.*.*.*.*.<.<.<.<.>.<.e.*.*.=.=.=.i.1.>.<.i.i.i.s.i.1.p.i.i.1.<.<.*.i.G.1.<.<.i.s.s.i.i.<.H.H.J.H.`.L.1.H.-XCXmXmXZXDXJXJXIXJXDXMXZXJXKXGXMXZXDXJXJXJXDX_.(.[.'.'.H.J.`.K.H.`.'.'.K.K.'.'.'.'.K.K.K.K.'. X'.H. X$XK.L.H.J.H.H.J.U.`.J.K.*XL.H.H.K.K.J.J.G.G.J.K.L.H.K.J.J.K.XX'.K.'.`.K.L.K.XXXXL.K.'.`.L.XXXXK.L.K.K.J.J.'.'.K.J.`.XXOX'.K.K.XXXX'.'.'.$X@X@X@X@X[.{.@X].oXXXXXK.J.'.$X$X].H.K.K.K.oXL.U.G.J.L.J.H.J.J.J.K.K.K.'.'.R.L.R.`.].].oX@X4X=X'.{.=X{.|.{.oXXX'.K.'.'.'.'.'.].$X'.K.J.XXK.K.L.J.K.K.XX$XL.K.K.XXXXK.'.XX'.K.J.J.J.K. XoX'.'.'.`.L.H.H.'.'.L.1.J.H.'.XXH.`.`.'.'.[.`.K.K.`.'.$X`.`.'.`.].].'.[./.I L 0 8 8 8 0 4 6 8 8 8 8 9 w 8 8 8 0 8 8 8 8 w w 9 9 0 0 8 L 8 0 0 0 K 0 0 L L L K P gXpXV.kXGXS.^.=X].'.'.K.'.'.'.'.`.K.R.'.'. X'.'. XR.Q. X].'. X'.'. X X$X{.{.$X X'.'.'.XXXXOXXX*XQ.Q.Q.$X$XL.J.OX&X$XXX%XT.Y.T.T.T.Y.Y.R.Q.J.Q.Y.U.J.U.Q.R.U.Y.Y.Y.Y.Y.T.Q.E.!.E.Q.R.Y.I.I.Y.U.T.E.U.E.Y.T.Y.oX.X`.!.E.E.W.Y.W.Q.!. X XT.Y.Y.Y.W.T.Y.Y.W.Q.J.T.T.Y.W.T.Q.*XQ.T.W.*X%XE.E.E.E.E.E.Y.Y.Y.Y.Y.Y.U.Y.Y.Y.Y.Y.Y.E.E.Y.Y.E.Y.Y.Y.E.Y.Y.Y.Y.Y.!.I.I.!.I.Y.E.E.&X&X%XT.W.%XE.E.E.E.E.W.E.E.E.E.%X%XE.E.E.W.&X&X%X&X:X8X8X;X&X&X;X:X;X:X:X;X%X%X&X;X&X%X*X&XW.Q.&X:X$X*X8X9X*X%X*X8X%X%X%X%X*X$X&X%X%X%X%X%X9X&X%X%XQ.Q.%X%XE.W.W.%X=X;X&X&X;X;X8X:X;X;X%X%X%X%X&X%X&X&X;X&X&X;X&XW.E.E.W.W.E.W.E.Y.W.W.T.W.&X%X%X%X%XW.%XE.W.%X%X&X&X;X:X&X%X&X:X:X:X&X&X%X%X%X%XOX@X:X=X4X:X;X%XOX%X%XT.OX+X+XOXY.Y.T.T.T.R.U.Y.Y.Y.OXOXoXXXOXOXOXOX&X;X&XT.Y.Y.Y.Y.I.Y.Y.T.XXR.T.T.Y.I.U.U.U.R.OXOX+X@XoXoX+X&X+XXXR.XX+X3X5X3X3X#X+XT.U.Y.T.T.J.J.J.J.J.J.G.K.K.K.K.K.",
">.>.>.>.,.,.=.>.>.,.,.,...,.*.$.*.i.>.>.,.,.>.>.>.<.,.,.i.1.1.2.3.>.>.>.>.<.>.,.,.<.e.<.2.>.=.,.<.p.<.<.<.*.<.<.*.i.i.i.i.<.e.i.d.i.i.d.i.i.K.L.<.<.J.H.2.p.s.s.p.H.1.i.H.D.L.D.D.1.D.D.=XCXmXjXjXmXJXDXFXFXDXJXLXKXLXIXmXDXJXMXMXDXLXGXjX^.^.`.`.H.H.`.K.L.`.`.`.`.'.K.K.L.H.L.`.`.[.'.XXK.L.`.L.`.`.`.H.H.H.K.XXL.K..X[.1.H.K.`.J.J.J.J.Q.XXH.1.J.J.Q.U.K.L.K.XX`.XXK.K.`.L.K.'.`.K.K.K.XX'.`.K.'.U.J.'.oXK.K.'.'.XXoXXX'.'.'.'.$X X'.].{.@X{.].'.].L.'.'.L.J.K.XXoX$X].J.J.K.K.K.J.J.H.p.J.R.G.XX$X'.R.J.J.`.`.J.J.XXoX[.K.'.'.'.K.K.'.].=X{. X'.L.'.'.K. X'. X X'. X'.J.L.`.$X:XL.K.XX`.'.'.'.K.J.XX'.'.].oX XK.J.R.R.K.R.J.L.K.'. XH.H.L.K.'.L.1.H.L.$X$X`.'.].=X[.].'.`.H.J.L.].].`.'.'.'.[.`.`.|.I L 8 8 L 0 8 8 6 8 9 8 8 w w 8 8 8 8 8 8 8 8 w P 8 9 9 L 0 L 8 8 0 0 P 0 8 L L 0 L P pXP pXGXPXgX/.|.].'.'.'.].].'.'.'.'.R.XXoX X'.'. X'.'.].@XoX$X].]. X X=X=X{. X X X X$X XXXOXXXK.Q.!.U.K.K.R.R.XX*X$XXXR.Y.Y.U.R.Y.Y.Y.U.!.Q.J.J.J.U.Y.Y.Y.U.Y.Y.Y.Y.Y.R.K.W.E.W.Q.Y.Y.U.Y.Y.K.&XE.U.Y.W.T.T.R.U.R.Y.Y.Q.U.Y.Y.U.I.E.T.T.T.T.Y.Y.U.Y.Y.Y.Y.T.%XW.W.Y.Y.T.W.W.E.E.W.T.Y.E.E.E.E.E.E.Y.I.Y.E.Y.I.Y.Y.T.Y.Y.Y.Y.Y.Y.Y.E.I.Y.Y.Y.Y.Y.Y.Y.E.E.E.Y.Y.Y.Y.W.%X;X*X%XW.E.E.E.E.E.E.E.E.T.E.E.E.W.E.E.E.E.W.%X%X%X&X&X:X:X&X%X&X:X;X&X:X:X:X%X%X%X%X*XW.W.Q.E.W.8X:X$X&X8X&X%XW.E.%X%X%X%X%X*X0X0X&X&X%X&X&X9X%X%X%X&X%X%X%XE.E.W.%X;X&X%X;X&X*X:X;X;X:X&X%X%X&X;X&X&X&X&X%X%X%X%XW.Y.E.W.W.%X%XW.W.W.T.W.W.%X%X%X%X%X%X&XW.E.%X%X*X%X&X;X;X;X&X;X;X:X*X%X*X%XOX%X+X;X4X5X6X6X:XOX+X&X%XW.OXOX%XW.Y.Y.I.I.I.!.U.Y.U.T.OX$X:X-X;X&X&XOX=X=X=XK.U.Y.Y.I.I.T.T.T.R.U.U.T.U.I.Y.Y.U.+X+X+XOXoX#X#X#X#X#X#X$X+X#X3X5X5X5X-XOXT.U.Y.U.R.Y.U.J.U.U.J.U.XXXXOXR.U.",
"=.,.<.>.>.,.-.,.>.,.%.%.-.-.=.=.%.$.<.1.<.,.-.-.<.1.>.,.i.<.1.H.k.3.>.,.=.>.>.>.,.=.*.<.<.<.<.<.<.e.*.*.=.1.1.<.=.*.e.i.p.1.<.s.s.e.e.i.p.1.1.D.1.>.i.i.<.i.i.p.H.H.1.p.H.1.1.1.D.H.H.L.8XmXmXmXmXmXFXMXjXmXJXKXKXKXKXGXFXJXGXmXmXDXLXLXGX_.l.[.`.`.`.L.H.L.L.K.L.K.'.'.K.H.H.L.XXXXL.H.XXXXK.K.H.H.L.J.J.J.J.L.H.L.K.H.K.L.H.H.H.L.L.J.`.K.R.J.p.J.J.K.J.J.J.J.J.J.J.'.XX'.J.J.XX`.H.K.R.K.K.'.K.R.XXK.'.XXR.K.XXXX'.'.K.'.XXXX'.'.'.'.oX{.|.].'.'.`.L.`.K.J.J.K.XX'.'.L.H.J.p.p.H.H.R.K.K.J.J.G.G.L.L.R.J.H.J.K.K.H.K.oXXXK.K.K.Q.K.XXXX'.{.].oX'.'.'.'.'.'.'.'.'. X'.$XXXL.`.$X$X`.J.K.K.J.J.J.J.G.R.XX'.'.L.L.K.K.K.K.K.G.J.K.H.L.L.K.'.R.H.H.H.H.G.J.K.`.L.H.K.].[.[.L.K.K.`.`.'.'.H.L.`.H.K.`.[./.I L L L L 0 6 8 8 9 0 8 8 8 6 8 8 0 0 8 8 8 8 8 8 8 9 L L 8 L L 9 0 0 L L 8 L L L 0 K P P iXGXvXkXS./.].'.`.'.].'.'.'.$X$X'. X'.'.'. XoX X X].{. X=X=X{.=X=X-X.X}.|. X X'.$X X'.$XXXQ.J.J.R.R.R.R.K.R.Q.XXQ.K.U.R.L. XQ.E.Y.R.!.Q.!.U.G.R.Y.Y.Y.U.Y.E.Y.E.OXR.R.Y.Y.Y.Y.R.T.U.Y.R.J.Q.!.G.T.%XY.U.Y.Y.Y.U.Y.U.Y.Y.E.E.E.Y.W.!.R.Y.Y.Y.E.W.Y.Y.!.Y.%XQ.OXT.Y.Y.Y.Y.E.E.Y.Y.Y.E.E.Y.I.Y.Y.Y.Y.Y.Y.!.Y.Y.Y.Y.Y.Y.Y.Y.!.!.!.P.I.I.I.!.!.I.I.Y.E.E.E.Y.Y.Y.Y.Y.W.&X%XW.E.Y.E.E.E.E.E.E.!.!.!.!.E.E.E.Y.Y.E.E.E.W.%XW.%X&X%X%X%X%X&X&X&X:X:X;X%X%X%X%XW.E.E.E.%X&X8X0X0X:X&X*X%XW.W.%X&X%X%XW.&X$X;X8X&X%X&X&X*X%X%X*X&X%X%X%XE.E.%X&X&X&X8X8X%X%X;X;X:X4X:X&X%X%X&X&X;X;X&X;X&XW.Y.E.E.E.W.E.W.E.W.%XOX%X&X%XW.E.E.E.%X%X%X%XW.W.%X*X*X%X%X&X&X&X*X%X&X%XW.W.%X%XOX+X;X4X6XwX6X:XOX&X&XOXY.T.OXT.Y.Y.P.P.Y.T.%X%XOXOXOXOX+X@X#X#X#X;X&X$X+XOXXX%XOXY.I.I.Y.U.T.T.U.J.R.Q.R.T.R.K.oX#X#X@X+X@X#X#X;X-X#X#X@X+X+X@X3X7X5XoXXXT.Y.U.U.R.J.J.U.U.U.XX@XoXXXR.XX",
"$...,.,.,...%...,.>.<.<.=.<.=.,.=.,.>.<.<.>.>.,.,.,.,.,.,.*.<.<.>.>.>.,.*.<.>.,.*.e.*.*.*.i.<.<.<.,.=.$.*.<.<.,.=.=.*.*.*.<.<.d.i.i.i.s.2.>.<.<.1.<.i.<.=.e.i.H.H.1.1.H.H.H.H.1.D.J.J.Q.8XrXCXDXFXjXmXmXmXjXFXDXPXLXPXKXLXGXfXjXrXCXJXJXDXJXS./.].'.].'.D.H.L.'.'.'.`.`.K.'.`.L.L.K.K.H.H.'.'.`.H.1.1.G.J.J.XX'.'.`.J.H.H.H.J.H.H.K.L.L.'.L.J.H.H.J.U.R.K.H.1.H.J.J.R.$X$X`.J.U.K.K.`.K.Q.XXK.'.L.H.J.K.K.'.K.K.XX X'.`.K.K.'.XX'.'.'.`.oX{.|.].'.'.XXK.J.J.J.J.J.L.K.'.R.J.J.H.H.U.XXXXK.K.p.G.G.J.XXH.J.J.J.U.K.'.`.K.K.'.].oX$X$X'. X].].oX'.`.K.'.'.'.`.K.'.XXXX].].=X=X X].'.L.J.L.K.R.J.K.R.J.R.XX'.K.L.'.'.'.'.'.'.K.K.K.'.L.1.H.H.H.K.H.J.J.J.J.J.J.`.`.L.K.`.L.H.H.H.K.K.`.'.'.L.H.`.L.'.oX[.^.I L 8 6 6 8 8 6 7 0 L 8 8 8 6 8 8 8 8 9 w 0 8 8 8 8 8 8 0 8 w P 0 L 0 0 0 8 L L L 0 K K P iXiXkXkXjXC./.].'.'.`.`. XK.'.'. X$X].'. X'. X X$X X X].$X:X.X-X5X1X1X1X{.].'.'.Q.Q.XX*XR.XXQ.R.Q.Q.J.XXK.J.R.Q.Q.J.J.R.*X&XR.R.T.E.Y.U.I.Y.U.Y.R.Y.U.Y.E.Y.Y.Y.T.Q.!.E.Y.Y.!.J.U.U.Y.G.G.Y.I.I.U.R.G.G.Y.Y.Y.U.I.Y.W.W.E.Q.Q.%X%X%XY.Y.Y.Y.W.E.E.Y.Y.Y.Y.W.Q.E.E.Y.Y.T.T.Y.Y.Y.E.E.E.I.P.I.Y.Y.Y.Y.I.P.Y.Y.Y.Y.Y.Y.Y.E.!.!.!.I.I.I.E.E.!.I.I.E.E.E.E.Y.Y.Y.Y.Y.Y.W.E.E.E.E.E.Y.Y.E.E.E.!.!.!.!.E.E.W.!.Q.W.W.W.%X&X&X&X&X%X%X%X%X%X&X:X;X&X&X%X%X%X%XE.E.W.W.&X;X;X:XqX8X*X%XE.E.W.%X*X*X%X%X%XW.W.%X%X%X8X:X&X%X&X;X&X%X9XW.E.W.%X&X&X;X8X$X$X:X:X:X:X:X&X%X%X%X%X%X;X;X&X&X%X%XE.E.E.E.W.E.E.E.W.&X*X*X%X%X%XW.E.W.%X%X%X%XW.%X%X&X&X%XE.%X&X&X%X%X%X%X%XW.W.%XOX+X#X-X4X6X5X+XOXOXOXOXE.T.T.T.Y.Y.I.I.T.%XXXOXOXOXOXOX;X;X#X#X@X;X&XOXOXOX+X;X&X%XY.Y.Y.J.s.U.U.U.W.%XT.T.R.OX+X+X@X#X@X#X=X4X4X5X4X;X;XOXOX#X3X3X#X+XXXR.U.U.U.U.J.J.J.I.J.XX@X@XoX`.`.",
"<.=.......%.=.=.>.>.>.2.>.>.>.>.,.,.,.;.,.>.,.,.,.....%.*.=.>.>.>.<.<.<.=.,.,.,.*.*.*.=.=.*.i.p.=X1.>.*.*.<.=.*.e.<.=.=.*.*.*.=.i.s.i.p.<.>.<.e.i.i.i.<.*.*.i.H.J.H.1.K.`.K.J.H.H.J.J.8XCXZXDXJXHXIXjXjXFXIXkXjXmXMXMXLXKXPXkXjXrXCXDXDXDXLXGXS.^.^.=X=X`.D.H.`.'.`.K.H.J.R.`.'.K.H.`.K.H.H.D.1.H.H.1.G.G.G.J.'.=XoXK.L.H.H.H.J.J.J.J.K.'.K.H.H.J.G.J.K.K.H.K.H.J.H.R. XK.H.J.U.J.J.K.J.U.U.J.'.`.L.K.K.`.'.`.K.`.'.XXXX'.'.'.XXK.K.XXXXoX{.|.].'.XXXXK.K.K.J.K.K.K.K.J.G.J.J.J.J.U.U.H.H.J.H.U.G.K.$XK.H.R.J.J.'.`.`.K.K.$X=X@X@X@XoX{.].{.`.'.'.K.`.'.'.K.J.K.'.XX=X.X].'.'.=XoXL.J.L.K.K.XXXX'.'.'.K.H.K.XX'.'.`.L.'.'.`.XXXXL.H.H.'.L.L.R.K.J.K.J.H.H.`.`.L.'.L.`.'.K.K.L.L.K.`.'.K.L.L.D.L.'.'. X].I L L 7 4 8 8 6 7 0 0 w 6 6 8 8 8 8 9 w P 9 8 8 8 8 8 8 L K 0 9 8 8 0 P w 0 0 L 9 L K K P V.pXhXjXgXA.(.^.].`.K.`.'. X'.'.'. X{.].].'. X'. X'.'.].].-X-X}..X1X1X.X@X@X$X XQ.'.XX'.'.XXQ.Q.R.J.J.R.L.G.R.Q.R.J.U.T.XXR.!.!.R.Y.G.G.G.U.U.!.!.Y.U.U.Y.R.R.R.Y.R.!.Y.Y.Y.!.Q.Q.R.Y.U.U.E.I.G.G.U.Y.Y.U.U.Y.Y.Y.Y.E.W.R.R.%X%XQ.Q.W.Y.Y.Y.Y.Y.R.Y.Y.Y.Y.W.Q.Y.Y.E.E.T.T.Y.Y.Y.Y.E.E.Y.Y.I.I.I.I.I.P.P.Y.Y.E.E.Y.I.I.Y.I.I.!.I.P.I.E.E.E.Y.Y.E.E.E.E.Y.Y.Y.Y.E.E.W.Y.E.E.Y.E.E.W.W.E.Y.Y.E.!.E.E.E.~.Q.Q.%X%XW.%X%X%X&X%X%X%X;X;X&X&X;X:X&X%X%X%XE.E.E.E.E.E.%X;X;X:X0X8X&X%XW.W.%X%X%X&X%XQ.E.E.W.E.W.W.%X&X%X%X*X&X&X%X%X%X%X%X%X%X%X&X&X;X:X4X4X4X4X;X;X&X%X%X%X%X;X;X&X%XE.E.T.Y.Y.Y.Y.E.E.E.T.*X%X%X%X%X%XW.E.%X;X&X%X%XE.%X%X%X%XW.E.%X&X:X;X&X%X%X%X%X%X%XOX&X#X;X4X4X#XOXOXOXT.Y.Y.Y.OXOXY.Y.Y.T.OX*XXXOXOXOXoX@X#X#X#X=X@XOXOXOXOXOX+X@XoXXXOXT.U.s.a.I.U.Y.Y.U.I.J.K.U.T.OX+X#X#X#X-X5X5X5X5X:X;X&XOX+X#X#X@XoX+XXXT.U.Y.U.J.J.J.Y.I.K.b.[.oX`.[.",
"....=.%.%.o.$.=.,.....,.<.<.>.>.>.>.>.>.>.>...$.$.=.=.=.*.>.>.,.-.<.<.,.=.-.,.*.=.=.=.*.*.*.*.<.k.:.>.,.*.*.e.e.i.1.1.<.=.<.i.*.*.s.i.L.1.<.*.e.e.=.<.1.<.<.i.<.1.H.H.D.D.H.H.H.J.U.U.qXLXJXJXPXPXGXGXFXFXMXMXjXjXnXNXDXKXLXxXjXmXDXDXFXmXJXKXFXS.^.{.{.[.`.K.`.K.K.`.L.J.K.L.K.XX'.'.`.`.H.1.1.H.K.J.G.G.G.J.L.'.'.'.'.K.K.L.H.H.J.H.K.'.`.H.R.Q.G.J.J.K.K.XXJ.J.H.J.K.K.J.J.J.J.K.J.J.J.J.R.XXOXOXXXK.K.L.K.R.U.K.OXOXXX`.'.XXK.K.`.K.oX=X|.'.'.'.K.J.K.L.K.K.J.L.J.G.G.G.G.G.G.J.i.p.K.'.K.XXK.K.'.`.H.U.U.J.R.'.`.K.K.'.oX{.].].-X|.|.{.].'.].'.'.'.'.'.K.K.K.K.K.'.`.J.R.XX'.L.K. X`.`.oX'.'. X$X'.L.R.$X`.L.K.K.XXL.J.J.J.K.K.'.=X`.`.K.L.H.'.K.H.1.K.K.L.'.`.K.J.K. X'.`.K.'.`.D.J.H.H.H.H.L.`.D.j.j K L 6 8 0 0 0 0 L P 8 6 8 0 8 8 9 8 8 8 8 8 8 8 8 8 9 9 9 8 8 8 9 P w w 9 w L L L L K q UXgXgXiXMXnX/.[.Q.L.`.'.'.'.Q.'.].{.|.{.'.'.'. X'. X{.{.=X X].=X-X.X.X{.{. X$X-X=X].'.XX XR.Q.Q.L.K.%XK.J.R.Q.Q.R.U.R.K.K.Q.R.U.Y.U.I.I.U.U.J.J.J.U.R.T.*XQ.*XQ.Q.Q.Y.Y.U.U.Q.T.U.Y.Y.I.Y.Y.Y.U.Y.Y.Y.U.I.I.Y.E.!.Y.U.R.*X%X*X XQ.Q.R.R.Y.Y.Q.E.E.W.T.W.%XXXQ.!.Y.E.W.Y.E.Y.E.I.Y.Y.Y.Y.!.P.P.P.P.P.I.Y.Y.Y.Y.Y.P.I.Y.I.!.!.I.I.I.Y.Y.T.Y.Y.Y.Y.Y.Y.E.Q.Y.Y.E.W.E.Y.Y.Y.Y.E.E.%XW.E.Y.Y.Y.I.Y.E.E.E.W.E.E.E.W.E.E.W.%X%XE.%X*X&X%X%X%X&X&X&X%X%X%XE.E.E.Y.E.%X;X:X8X0X:X*X%XW.%X%X%X&X;X%XQ.W.%XQ.E.W.E.W.%X%X%X*XQ.*X%X%X&X;X*X%X%X&X;X;X:X;X:XqXwX0X;X&X*X%X%X%X%X;X:X&X%XE.Y.E.E.E.E.E.Y.Y.Y.W.%X%XW.%X%X%XT.W.%X;X;X%XQ.%X%X*XW.%X%X%X%X%X%X&X%XE.%X%XOXOX%XOX&X;X:X4X4X%X%X*XT.Y.Y.Y.T.OXOXT.Y.T.+XXXXXXXOXOXOX$X;X;X#X#X=XXXOXOXOX%X+X@X@X=XoX+XXXR.I.I.P.I.Y.I.s.Y.U.XXR.Y.T.+X#X3X5X5X5X5X3X7X5X-X&XOX+X#X#X#X#X#X$XOXR.OXOXXXXXXXOXT.K.T.`.`.'.+X",
"..%.$.@.$.$.$.$.%.%...%.i.<.<.>.<.<.>.>.,.=.=.=.$.$.$.$.$.-.-.-.=.=.=.*.=.=.*.*.*.*.=.*.*.i.<.=.=.,.=.,.i.*.e.*.*.<.1.>.=.*.i.i.e.<.<.i.i.i.i.i.e.<.D.1.<.p.i.<.<.i.i.p.1.H.1.1.G.J.!.VXLXPXPXKXKXKXHXGXIXjXMXjXjXrX2XDXLXGXkXjXmXmXmXmXrXDXLXGXjX(.^.[.`.L.L.L.K.`.K.`.H.L.K.H.'.'.L.H.p.H.H.H.H.H.K.H.i.i.R.H.J.K.].'.L.K.K.H.G.J.H.'.oXXXL.R.R.J.J.L.R.'.'.R.K.J.J.H.H.K.R.J.K.J.K.K.H.J.U.U.J.K.'.XXK.J.J.J.J.J.R.U.R.K.J.J.R.XX`.H.`.'.`.'.'.`.K.K.K.L.R.L.L.L.J.s.U.G.G.G.G.J.i.s.J.G.U.K.J.J.R.'.K.J.R.U.'.'.`.XX`.[.`.'.K.'.].].'.K.'.'.'.`.'.`.'.'.K.H.H.U.XX'.J.H.J.J.J.J.XX'.L.L.$X$X'.'.=X].'.'.'.K.J.J.K.K.K.J.L.J.J.L.K.K.`.K.K.K.H.K.K.K.H.H.L.`.K.L.H.J.L.'.].'.H.K.K.H.'.K.H.J.L.K.H.1./.I L 0 8 6 0 A.8 8 8 8 8 8 8 9 6 9 w 8 8 8 8 8 8 8 8 8 8 9 w w 9 8 9 w 6 w w 0 0 L L 0 L q q V.Z.gXkXMXZ./.'.`.'.'.[.`.J.'.'.].=X X X X X'.=X=X=X{.=X=X X X{.{.].]. X X X-X{.'.$X XK. XQ.!.J.Q.%XJ.J.J.XXQ.Y.Y.Q.$XR.J.Q.J.R.Y.Y.R.Q.R.J.J.U.J.J.*X:X XQ.R.Y.Y.R.Q.U.!.U.U.I.I.I.P.I.E.Y.Y.Y.Y.!.U.E.I.I.I.I.!.Y.Y.T.J.!.Q.R.W.Y.R.R.T.E.E.E.W.W.%X&X%XQ.Y.Y.Y.Q.Y.Y.I.!.!.!.!.I.Y.E.E.P.P.P.P.!.Y.Y.Y.Y.Y.I.I.I.I.Y.E.Y.Y.Y.I.!.!.I.Y.U.Y.Y.Y.Y.Y.I.E.Y.Y.Y.Y.Y.Y.Y.E.E.W.E.E.Y.E.Y.Y.E.E.I.!.E.E.E.E.%X%XW.E.E.W.%X%X%X%X%X%X%XW.%X&X%X%X%XW.W.E.E.W.&X;X:X8X8X;X%X%X9X;X;X%X%X%XE.W.%X%XW.%X&X%XW.%X%X*X*XW.%X%X%X*X*X%X%X%X%X&X;X:X:X:X0XwX4X&X%XOX%X%X&X;X:X0X&X%XW.E.E.E.E.E.%XT.Y.T.:X:X&XT.T.%XOX%X%X%X%XW.W.%X%X%X%XE.W.%X%X%XE.Y.T.%XE.W.T.T.%X%X%X&X;X:X4X-X$XQ.R.T.T.Y.Y.Y.T.OXT.Y.T.OX%XOXOXOXOXOX;X:X;X;X#X;X$XOXOXOXOX+X#X1XwX6X.X-X;XOXU.I.U.Y.I.I.U.R.OXXXOXOX+X#X#X3X4X4X5X5X3X5X3X#X+X+X+X@X#X#XoX#X+XOXOXOX@XoXXX`.`.XXXXXXXX'.XX",
"$.$.$.$.$.$.=.=.=.,.>...%.%.%.=.>.>.,.,.,.,.,.,.=.=.%.=.=.-.,.,.>.=.*.=.=.=.*.*.*.=.*.*.*.*.*.*.*.*.*.=.=.*.*.=.=.<.1.>.,.*.e.i.i.1.<.i.s.s.s.i.s.G.G.1.1.p.p.H.p.i.i.i.G.H.1.D.H.J.G.0XJXJXJXKXKXLXvXkXjXmXMXjXjXrXCXJXIXjXmXjXmXjXgXrXmXDXGXMXFXmX).^./.K.`.'.`.K.XX'.H.L.K.H.K.'.].L.H.p.H.H.1.H.`.L.p.H.H.H.'.L.L.'.H.D.H.H.G.H.H.J.K.L.H.J.J.J.J.H.H.`.`.H.H.J.U.J.H.J.K.K.'.K.`.XXJ.J.J.J.H.H.K.K.XXXXK.K.`.H.H.J.J.J.G.U.K.K.K.'.XXK.K.`.`.`.K.K.K.J.J.H.H.J.J.J.J.J.J.G.G.J.J.G.G.J.Y.U.H.H.L.K.K.K.R.XX'.'.'.'.].[.[.].'.].'.'.'.`.XX'.K.'.'.'.XXXX'.K.J.K.&X'.J.J.J.K.K.U.`.L.`.'.'.'.'.'.'.'.J.K.J.H.J.L.H.J.J.J.J.L.H.H.J.J.L.K.J.J.1.H.H.R.'.$XK.K.H.K.`.`.K.K.H.=X=XL.`.K.K.'.K.L.`.K.L.1.^.I h 8 8 6 6 0 8 6 8 8 8 8 8 8 8 9 9 8 8 8 8 8 0 8 8 8 9 w 9 w 9 8 9 9 8 9 0 0 9 8 L L 0 w P P U gXiXkXjX/.[.`.'.K.K.K.J.K.'.'.].'.'.'. X X=X{.=X=X{. X X X]..X].'.'. X].@X].'.$X'.'.K.J.G.J.K.K.L.J.K.XXR.R.E.Q. XJ.Q.Q.J.G.Y.Y.U.J.J.Y.Y.U.T.R.XX*XQ.Q.XXT.Y.!.Q.!.%XW.T.R.U.Y.Y.Y.R.T.Y.U.W.W.Y.Y.I.U.U.!.Y.Y.Y.Y.U.U.Y.U.U.Y.Y.R.T.E.Y.Y.E.Y.Y.T.T.Y.E.Y.E.Y.Y.Y.Y.!.!.!.E.E.Y.I.P.P.P.P.P.!.Y.Y.Y.Y.Y.Y.I.I.I.Y.Y.Y.Y.E.!.!.I.Y.Y.Y.Y.Y.Y.E.Y.I.E.E.Y.Y.Y.Y.Y.Y.E.Y.Y.Y.E.Y.E.E.Y.Y.E.E.Y.E.E.E.W.W.%XE.W.%X%X%X%X&X%X&X&X%X*X*X*X&X%X%X%XE.W.E.E.W.&X8X:X&X%XE.~.9X;X8X&X%X%XW.E.%X*X&X8X;X%XW.W.W.;X;X%X%X*X&X&X&X&X%X%X%X*X%X&X&X;X:X:X;X%X%X%X%X&X:X;X%XoX*X%X%X%XW.OX%X&XOXY.Y.T.;X4X;X%XW.T.T.&X&X%XE.Y.E.W.W.%X%XE.Y.Y.%X%XE.E.T.%XW.E.Y.%X%X%X%X&X;X4X6X5X&XQ.E.T.W.Y.R.R.*XT.Y.T.OXOX&X&X+XOXOX+X;X;X;X;X;X4X;XOXOXOXOXOX@X3X1X1X1X6X6X@XR.Y.R.Y.I.s.I.i.J.`.XXXX+X#X#X#X5X1X3X3X3X3X3X3X#X#X@X@X#X#X#X#X+XOXOX+X#XoXXX+X@X@XXXXXXXXXXX",
"o.$.%.%.$.$.$.$.=.,.,...%.%.$.....,.,.,.>.>.>.<.f.<.,.,.-...,.<.>.<.=.=.*.=.*.*.*.=.=.*.*.*.*.*.*.*.*.*.*.e.<.*.*.,.<.>.<.i.i.<.<.<.i.s.s.i.e.*.d.i.i.1.1.1.H.D.1.p.H.1.H.1.1.1.L.K.D.U.0XDXLXKXPXvXGXPXIXMXMXMXjXmXmXMXjXmXDXGXjXjXmXjXnXCXMXjXmXmXrXrX/.D.H.`.'.`.L.'.`.H.L.H.L.'.$XK.H.p.i.H.H.H.H.K.L.J.L.K.XX'.K.H.K.H.H.H.J.J.J.J.H.D.H.G.J.K.`.`.`.`.K.J.K.K.J.J.J.J.J.H.K.K.J.J.J.J.K.K.J.J.J.H.R.XXK.'. X'.H.J.R.J.G.G.J.J.K.K.K.K.XXK.H.'.XXXXK.G.i.K.XXJ.J.K.H.G.G.J.J.K.J.G.G.s.G.U.L.L.J.J.XX`.K.L.`.$X'.`.=X=X{.|.{.].oX'. X'.'.'.'.$X$X].'.'.'.K.J.K.'.H.H.K.J. X$XK.K.*X'.L.R.K.'.$XK.L.G.G.G.G.L.XXK.H.J.J.K.K.J.1.H.H.H.K.K.K.H.H.L.R.`.XXK.H.L.`.`.`.K.L.L.].`.K.'.`.H.'.L.H.L.H.L.D./.I h 0 8 7 6 6 6 6 6 8 8 8 6 8 8 8 8 8 0 8 8 8 L 8 0 9 9 9 8 L 0 8 9 8 8 8 0 0 0 w 0 L L 0 L L A.A.pXlXkXS./.].'.L.K.J.J.`.'.]. X'. X$X X X X X'. X X=X$X'.'.=X].'. X XXX%XXX'.'.XXR.K.XXXXK. XXXXX*X*XXX'.J.!.!.Q.Q.Q.J.J.R.U.Y.Y.U.Y.Y.Y.I.R.Q.%XU.R.R. XR.R.W.R.R.*XXXXXXXXXW.R.U.T.%XT.U.U.E.E.Y.Y.Q.Q.Y.Y.Y.E.!.I.I.U.U.T.Q.R.E.Q.Q.W.Q.!.Y.Y.Y.Y.T.T.Y.Y.Y.Y.Y.Y.I.P.!.Y.!.!.P.P.P.P.P.P.I.Y.Y.Y.Y.Y.Y.Y.I.I.P.P.I.I.Y.I.!.I.I.Y.E.E.Y.Y.E.Y.E.%XW.Y.E.Y.Y.I.Y.E.E.Y.Y.Y.Y.E.E.Y.Y.Y.E.Y.E.E.E.E.E.E.E.E.W.%X%X&X;X%X&X8X;X;X:X:X;X&X%X%X%XW.E.E.E.&X;X&XW.W.W.W.%X*X%X&X&X&X&X&X*X*X8X:X X%X%XW.%X&X&X%X&X&X%X&X:X&X%XE.E.W.%X%X%X&X&X%X%X%X%X%X&X;X&X&X%X%X%X%X%X%X&X:X0X0X&XW.E.T.%X$X%XE.Y.W.Y.%X*X%XE.Y.E.E.Y.W.W.Y.E.E.T.T.T.E.%X%X%X%X%X%X%X%XOXOX@X:X4X:X&XT.Y.Y.Y.Y.T.%X&XOXY.OX&X&X;X;X:X:X@X;X;X#X#X#X;X:X;XOXOXOXT.OX+X#X3X3X3X6X6X4XOXY.U.U.I.P.I.I.G.G.J.K.`.].oX#X-X5X3X4X4X5X3X3X3X#X#X#X3X#X#X#X@XoXXXOX@X@XOXOX+X+XXX'.XXXXXX",
"%.$.$.%.$.$.$.$.%.....$.=.$.%...%.$.$.......=.*.$.>.>.>.,.%.....,.-.-.=.,.*.e.e.i.<.=.*.*.*.*.*.*.*.*.=.*.*.=.*.=.<.i.,.<.s.p.1.<.*.*.i.s.*.*.<.i.i.s.H.1.<.1.1.1.1.R.H.1.1.H.H.H.1.1.G.XXeXDXJXkXjXMXFXjXjXMXIXkXkXMXkXjXmXDXHXkXmXDXZXmXCXDXmXmXmXZXDX_./.`.K.'.L.1.L.`.`.'.'.'.`.H.H.L.H.H.H.J.H.K.'.'.H.K.`.K.'.'.L.L.H.J.H.b.J.K.K.K.K.J.s.J.'.K.L.`.K.J.J.R.XXXXK.J.J.J.J.J.J.G.G.J.J.R.XX`.`.K.J.K.K.K.`.L.K.J.J.K.J.R.XXJ.G.J.H.H.J.J.J.L.'.K.H.H.G.G.H.J.G.J.R.L.G.G.J.J.J.H.J.U.U.U.J.H.J.J.G.K.`.H.K.`.L.K.K.].{.].].`.'.oX'.'.'.'.'.'.'.=X.X'.K.R.K.J.L.'.$X'.K.K.K. XH.J.K.K.L.J.J.J.L.L.H.J.J.G.U.K.K.J.H.J.K.XXK.J.H.J.J.`.`.K.'.`.K.H.R.R.L.K.H.L.R.K.H.K.K.[.'.[.H.K.`.K.H.D.H.J.L.'.[./.I h L 8 0 0 0 4 7 7 8 8 8 6 6 8 8 8 8 8 8 8 8 8 9 w w 0 w 8 8 8 8 8 8 8 8 9 9 8 9 0 L 0 0 K P Z.K V.pXiXkXS./.[.'.K.J.J.'.'.'.'. X X=X{.[. X X X X X]. XXX'. X'.'. X X`. X=X'.`.XXR.R.%X'.XX XK.K.*X*X'.K.Q.!.U.*XXXJ.J.R.Y.U.R.Y.Y.Y.U.U.Y.Y.Q.XXU.U.Y.XXQ.J.U.R.R.Q.T.T.R.R.Q.R.R.Y.Y.I.Y.Y.Y.T.T.R.Q.Q.J.T.T.E.J.!.Y.U.J.*X*XQ.Y.Y.Q.%XQ.Q.T.T.T.%X%X%XT.T.Y.Y.Y.Y.Y.I.Y.I.P.P.P.P.P.P.P.P.I.Y.Y.Y.Y.T.Y.Y.Y.I.P.I.P.I.I.P.P.P.I.Y.I.I.Y.E.E.Y.Q.9XQ.I.Y.Y.Y.!.E.E.E.Y.Y.Y.Y.E.E.Y.Y.Y.Y.E.E.%XQ.E.E.!.!.!.E.E.W.%X&X%X&X;X;X&X&X&X:X:X;X&X%XE.E.E.E.W.&X%X;X;X*X%X%XQ.%X:X&X;X:X:X*XW.Q.Q.*X%XQ.%X%XW.%X%X&X&X&X&X&X&X%XW.E.E.%X%X%X&X&XW.%X&X;X*X&X&X%X*X%X%X%X%X%XOX&X4XwX0X&XE.E.Y.%X%XE.E.Q.W.E.E.W.W.E.E.E.E.E.E.E.Y.Y.E.Y.T.Y.E.%X%XOX%X%XOXOX%XOXOXOX+X+X&X&XW.Y.T.OXOXOXU.R.U.R.OX$X#X@X=X4X0X:X;X;X:X:X-X#X-X;X+X+XOXT.OXOX]..X3X3X3X1X=XXXT.T.s.s.I.Y.Y.U.U.R.XX'.`.'.oX=X5X#X#X-X4X5X3X3X#X#X#X3X3X#X#X#X@X].+X@X@XOXR.XXOX`.v.`.oX`.",
"%...=.*.,.=.$.$.=.%.%.$.=.>.,.*.$.$.,.,...%.$.$.,.,.>.<...%.$.=.=.,.-...*.*.<.<.1.<.>.,.*.=.*.<.<.<.<.i.e.=.e.<.<.>.,.*.e.i.p.i.<.=.e.i.d.e.i.1.p.p.i.s.i.i.p.1.1.1.J.H.1.D.H.<.i.1.p.s.H.H.[.^.(.^.).).(.(.rXjXgXjXjXjXjXjXmXIXMXmXFXMXmXDXLXJXZXDXDXDXFX_./.].XXJ.L.K.H.L. X'.H.H.H.L.L.p.H.K.`.K.H.'.R.J.K.L.H.H.L.R.H.H.K.L.p.J.J.`.`.L.H.G.J.'.'.L.H.L.K.K.K.`.].K.R.K.K.H.J.G.J.K.XXK.XXXX`.H.L.K.'.J.J.H.L.K.K.J.J.J.K.XXXXK.J.J.J.Q.R.H.H.'.H.H.H.J.K.'.K.L.H.H.R.U.G.U.R.K.H.J.G.G.J.K.R.K.J.J.K.XX`.H.H.K.J.J.K.L.`.XX'.oX].K.`.'.'.'.K.K.'.].].'.'.'.J.L.R.'.'.K.XX X'.K.L.'.'. XXXK.J.H.K.L.H.L.J.R.K.K.K.H.J.J.K.K.H.K.K.'.XXXX'.L.'.'.`.L.J.L.K.L.L.'.`.H.H.K.`.'.'.`.H.H.D.K.H.L.'.'.p.H.D.G h 0 4 6 0 0 8 6 L 0 6 8 8 6 6 8 8 8 8 8 8 8 8 9 L w 8 0 8 8 8 8 8 8 8 8 9 9 8 9 0 L 0 8 0 0 L L P V.V.kXjXC.^.].'.L.K.'.XX'.'.XXoX].=X-X.X].oX].].].'. X'.'.'.'.]..X$X.X=X'.'.R.R.R.K.R.XX$XJ.J.Q.XXXX'. XQ.Q.Q.Q.!.R.U.Y.Y.U.J.R.R.R.U.R.OXT.R.R.Y.Y.U.Y.R.R.U.J.J.XXXX*XK.J.!.!.I.I.I.I.Y.Y.Y.R.U.R.Q.Q.XXOXJ.Q.Q.I.E.E.W.!.Y.Y.Y.!.E.Y.E.Y.T.%X%XOXT.Y.Y.Y.Y.Y.Y.Y.I.Y.Y.Y.!.I.P.I.I.P.P.P.I.Y.Y.Y.W.Y.Y.E.I.P.I.I.I.Y.I.I.I.Y.Y.Y.I.!.I.E.Y.E.E.Y.I.I.E.E.E.Y.Y.Y.Y.Y.Y.Y.Y.Y.Y.Q.E.U.T.%X&XOXE.E.E.E.Y.Y.E.E.W.%X%XW.%X%X&X&X*X&X:X;X%XW.E.W.W.W.%XW.E.9X8XW.Q.%X%X&X%X%X%X;X8X&XE.%X%X8X8X*X%X&X&X*XW.W.%X*XW.W.%X%X%X%XW.%X%X&X&X%X%X&X:XqX8X%X%XQ.*X;X&X&X;X&X&X&X;X:X:X%XW.E.E.W.%X%XW.W.9X%XY.T.Y.E.E.E.!.E.Q.Q.Q.W.%X%X&X%X%X%XW.OX+X&X&X%X%XT.T.OXOXOX%X%XW.Y.T.%XOXT.R.U.Y.T.OXOX+XoX=X:X:X;X;X#X-X5X-X#X@X$X$X+X+X+XOXOXXX@X#X3X3X@X+XR.Y.I.U.Y.W.Y.I.U.R.K.K.oX@X$X@X#X#X#X#X;X:X:X:X#X#X#X3X3X#X#X#X#X#X@X#X#X#XOXOXXX`.[.+XXX+XXX",
"$.$.$.*.,.,.$.$.%.%.=.=.=.,.,.,.=.=.<.>.,.%.$.%.,.;.,.=.=.=.*.*.*.<.>.-.=.=.,.>.>.,.>.>.,.*.*.<.<.>.,.e.i.e.e.i.<.>.<.*.e.i.<.>.<.i.i.i.e.d.i.p.H.i.i.s.i.J.D.1.1.1.p.1.H.D.1.<.<.1.p.i.1.1.1.L.[./.1./././.C.C.K K K Z.A.gXA.A.nXmXjXjXmXDXLXLXLXLXJXJXLXFXrX^.D.K.`.K.L.L.'.K.H.H.1.H.K.XXH.H.H.H.H.K.p.<.H.J.H.H.H.J.K.'.'.L.J.J.L.`.K.L.J.G.J.K.XX'.`.'.`.K.K.K.`.H.`.`.`.K.J.J.K.'.K.K.K.XX'.`.K.K.K.K.J.J.K.`.K.J.T.T.J.J.K.K.J.J.H.J.J.J.H.L.J.J.J.U.XX=X=XL.1.H.J.U.G.G.J.J.J.J.J.p.1.H.R.J.G.J.K.R.'.K.H.K.XXXXK.K.K.'.'.'.$X'.`.'.L.`.`.K.`.'.$X$X'.`.L.H.K.'.'.K.K.`.`. XK.'.'.`.XXR.J.H.J.K.K.'.K.J.R. X'.K.H.L.K.`.L.K.`.`.'.`.K.`.'.`.L.H.J.J.L.K.H.L.K.J.H.H.J.K.K.`.`.`.H.H.H.H.L.`.H.[.|./.L 0 7 1 8 6 9 6 4 4 6 8 8 8 8 8 0 L 8 8 8 8 8 8 8 9 9 9 9 9 8 8 8 8 8 8 P w 9 P 0 0 K K 0 8 8 L P P q V.V.S./.[.'.D.`. X X'.'.XX'. X.X}.}.{.@X{.{.{.'. X X X].'. X{.=X.X]. X=X'.*XXXQ.U.K.'.R.J.J.Q.XX*X XR.L.L.J.J.Y.R.Y.U.U.Y.W.R.T.R.T.T.Y.R.R.Y.Y.U.R.W.!.J.J.Q.&X X*XQ.G.R.U.I.I.I.I.U.Y.Y.Y.Y.Y.Y.Q.%XT.G.!.U.G.Y.Y.Y.Y.Y.Y.Y.Q.E.Y.Y.Y.Y.T.OXT.Y.Y.Y.Y.Y.Y.Y.E.E.Y.Y.Y.E.Y.Y.Y.I.P.P.I.Y.Y.Y.Y.E.E.I.I.P.I.I.I.Y.Y.Y.E.I.Y.Y.I.I.I.I.Y.Y.E.E.Y.I.I.E.E.E.Y.Y.Y.Y.Y.Y.Y.Y.Y.W.%XW.E.E.%X%X%XE.E.Y.E.Y.Y.Y.Y.Y.W.%XE.%X%X;X;X&X%X%X%X%XE.E.E.W.W.E.E.E.Q.E.E.W.&X*XQ.Q.%X%X%X%XW.E.%X*X*X&X&X%X&X:X:X&X%X%X%XY.E.%X%X%X%X%X%X%X&X*X%X%X&X;X8X&X%X%X%X%X&X%X%X;X&X%X%XT.%X&X%XE.W.E.E.W.%XW.%X XR.W.%XW.E.E.E.E.W.E.E.%XW.W.E.OX%XW.Y.Y.OX;X;X&X&X%XOXOX%XOXOXT.%XW.Y.T.*XK.Y.Y.R.OXT.T.T.OX+X#X@X;X;X#X#X4X4X;X#X@X+XOXOX+X$XOXOXXX+X@X-X-XoXK.R.Y.I.i.I.I.s.s.U.U.`.oX+XXXXX$X;X@X#X#X#X3X#X#X@X#X#X3X3X#X#X3X3X3X#X#X#X#X+XXXXX`.`.XX'.`.'.",
"*.$.$.$.$.*.%.%.%.=.$.$.$.<.2.,...%.=.,.,.=.=.=.,.,.=.*.=.*.*.*.*.<.>.,.%.$.$.,.=.>.>.<.<.=.*.<.<.,.*.*.e.s.e.i.p.1.<.d.s.i.>.>.<.p.i.i.*.i.=.*.i.i.s.s.R.*X/.1.1.1.p.1.p.H.1.1.p.p.1.1.H.H.1.H.K.`.1.1.L.L.D./.(.Z.Z.Z.A.gXV.K S.mXjXgXA.mXDXJXJXJXLXKXKXGXjXrX^.^.`.H.L.L.H.D.H.L.H.1.p.H.1.1.H.1.L.K.H.1.1.H.H.1.H.J.J.H.D.H.H.H.J.J.H.J.H.H.U.H.H.'.K.`.'.'.K.K.K.H.H.`.'.'.K.K.K.L.J.K.L.L.'.`.K.J.R.`.J.K.K.'.K.H.T.Q.J.J.J.G.G.s.G.U.J.J.J.J.J.J.J.J.K.`.oXL.K.p.i.G.G.G.J.L.J.J.K.'.`.H.H.H.G.J.J.J.L. XR.`.$X$X'.'.'.'.'.K.$X].`.'.L.'.oXXX'.K.'.$X`.K.L.H.K.'.'.'.'.K.L.K.K.`.'.'.'.`.K.K.K.H.L.K.'.H.XXXXR.$X`.L.K.K.L.H.H.H.L.H.H.H.`.'.L.H.L.L.H.K.`.`.H.L.p.K.L.`.L.H.`.`.J.H.H.L.L.L.[.|.|.^.K 0 7 0 8 6 L P 6 6 8 8 w 0 8 8 0 L 8 8 8 8 8 0 w 9 9 9 8 9 8 0 8 8 8 8 0 P w w 6 8 q K K 0 8 8 w q q q P A.S./.'.`.'. X X'.'.'.].:X5X=X{.{.{.@X}.|.]. X X X[.'. X].$X X X XXXK.'.R. XR.K.Q. XR.J.R. XXX'.R.K.'.XXR.Y.J.U.J.J.E.E.G.U.Q.T.Y.Y.G.U.R.Y.Y.Q.Q.J.J.J.!.J.J.J.U.G.Q.*XY.Y.Y.I.U.Y.Y.Y.E.E.U.U.Q.U.Y.I.I.Y.Y.Y.R.U.Y.Y.E.Q.Q.T.T.Y.Y.Y.Y.Y.R.Y.Y.Y.Y.Y.Y.E.E.E.Y.Y.I.Y.Y.Y.P.P.P.I.I.I.Y.Y.W.E.Y.P.I.I.U.I.I.Y.I.I.Y.Y.Y.Y.Y.Y.Y.E.E.E.Y.Y.Y.Y.E.Y.Y.Y.Y.Y.Y.Y.Y.E.E.E.W.T.Y.Y.E.Q.%X%X%XE.Y.Y.Y.Y.Y.Y.W.%X%X%X%X%X&X;X;X&X%X%X%X%X%X&X8XW.E.E.W.Y.E.W.W.%X%XQ.%X%XW.Y.T.T.E.%X%X&X%XW.&X:X:X:X:X&X%X%XW.%X%X%X%X%X%XT.%X&X%X*X*X&X*X%XY.%X;X%X%X%X%X%X&X%XT.T.Y.W.%XW.E.Y.Y.Y.E.W.%X%X%X%X%X%XW.E.E.E.!.E.E.E.E.Y.E.E.T.W.Y.Y.T.OXR.OX%X%XOXOXOX%X%XT.Y.Y.Y.Y.OX&X$XT.Y.XX;X;XOXOXOX$X:X=X+X#X#X#X#X;X;X;X;X;XOXOXoX+X&X+XOXOX+XoXoXXXXXR.U.Y.I.s.s.s.I.Y.U.XXoXK.U.OXXXoX@X#X3X3X3X#X#X#X#X#X3X3X3X3X7X7X6X#XoX#X#X@X[.@XoX'.+X@X@X@X",
">.,.%.%.$.*.%...=.<.,.$.=.$.,.;...=.%.....%.$.$.%.$.=.=.-.=.=.=.<.>.>.=.*.*.*.=.=.-.>.<.p.>.=.*.*.*.*.*.*.i.e.e.s.<.=.e.s.p.>.<.1.>.<.*.*.=.*.i.s.i.*.i.i.K.`.1.>.1.1.p.i.p.p.<.1.p.1.1.H.L.1.G.J.H.1.1.D.D.H.8XFXgXV.Z._.A.P L U S.V.U Z.S.CXDXDXJXLXKXKXHXkXJXmX(.^.[.[.[.L.H.J.H.1.H.J.J.H.H.J.H.J.H.J.J.H.G.H.H.H.H.J.H.H.J.J.L.K.J.L.`.H.J.U.J.J.`.K.K.'.'.'.K.K.K.L.H.L.L.J.J.H.J.K.'.`.L.J.J.J.H.J.J.K.XXK.'.K.K.XXR.H.p.G.G.G.G.s.G.U.U.R.G.J.J.J.G.J.K.K.D.XXU.i.J.J.R.H.J.K.K.`.'.`.1.H.J.K.XXXXH.H.R.'.`.=X=X].{.'.`.XXR.'.'.].].`.L.L.L.'.`.`.'.L.H.'.'.K.`.K.R.L.$XoXL.'.`.'.'.'.K.J.`.K.H.J.XX`.H.`.`.`.'.H.1.L.J.J.H.H.H.H.H.H.H.K.L.`.L.K.'.K.H.L.H.].1Xk.[.L.'.H.1.K.K.K.L.H.H.`.L.L.^././.I L 7 6 6 6 7 0 8 6 6 8 0 8 8 8 6 0 8 8 9 8 8 L 0 8 9 8 8 8 9 0 8 8 8 8 8 w 9 8 8 0 w 0 0 0 8 8 9 P P P q gXMXC./.`.`.`.'.K.K.XX]..X-X].].3X-X{..X{.]. X X X].'.$X=X$X X'.'.L.K.$X'.$X$XK.J. XK.J.Q. X XXXXXXX'.XXU.U.J.J.J.J.J.G.G.!.Q.R.Y.Y.U.Y.U.I.Y.!.Q.$XXXU.U.G.U.Y.U.G.G.U.Y.Y.Y.U.U.Y.U.U.U.Y.Y.I.I.Y.I.I.U.Y.Y.Y.Y.Y.Y.Y.Y.R.Q.Q.R.Y.Y.Y.Y.Y.Y.Y.Y.Y.Y.Y.Y.Y.Y.Y.Y.Y.I.Y.Y.I.P.P.P.P.P.I.Y.Y.U.Y.Y.I.I.Y.~.Y.I.I.P.I.Y.Y.Y.I.I.Y.Y.Y.Y.Y.Y.Y.Y.Y.Y.Y.Y.Y.Y.Y.Y.Y.E.Y.E.W.W.Y.Y.Y.E.E.E.W.W.E.E.E.!.I.Y.W.%X%X%X%X%X%X&X;X&X&X%X%X&X:X;X$X&XW.E.E.W.W.%X%X%X%X%X%X%X%XE.W.W.W.%X%XW.Q.E.E.;X0X:X5X:X&X&X%XOX%X%X%X%X%X%XW.%X%X*X;X;X&X%XY.Y.T.*X%X%XW.W.%XW.E.E.Y.Y.Y.T.W.E.E.E.E.Y.Y.Y.Y.E.%X;X*XW.E.Y.E.E.E.E.W.E.Y.E.E.E.E.E.W.OXT.T.T.T.OXOX%XW.T.Y.Y.Y.Y.Y.U.XXoX$XOXOX+X;X;X=X$X%X;X-X$XOXOX+X#X@X#X#X#X;X;X+XOX+X$X+XT.OXOXOXOXXX+X+XXXR.T.T.Y.I.I.I.R.U.J.K.K.XXOXXXoX:X:X#X#X3X5X#X#X#X#X#X3X3X7X7XBXNX3X@X#X#X#X@X@X`.'.@X-X-X}.",
",.,.%.0.*.$.$.%.<.<...$.*.$.%.,...-.......%.=.,.*.*.=...-.$.=.-.,.,.<.=.$.=.*.,.<.>.,.,.,.%.=.*.*.*.=.*.*.*.*.*.*.*.i.<.<.<.,.<.1.2.<.<.e.*.i.<.i.<.<.*.*.<.D.D.<.,.<.i.s.i.i.i.p.p.H.<.p.H.H.D.H.1.D.1.D.H.D.D.rXV.P U Z.V.L L K K K K U Z._.mXMXmXMXJXJXJXJXLXGXmX_.^./.[.`.L.J.1.H.H.H.J.J.J.J.K.K.L.J.H.G.G.H.J.J.J.J.H.H.J.H.H.J.J.K.`.H.H.J.G.G.H.R.'.'.`.L.J.J.H.L.H.J.J.J.J.J.J.XX`.L.K.s.J.K.J.H.L.`.K.J.K.K.K.J.J.H.G.U.U.G.G.G.G.G.s.i.s.J.R.K.J.H.L.G.H.J.K.H.J.J.K.J.J.R.R.'.'.K.H.U.J.J.L.K.K.K.H.K.K.[.[.`.'.'.`.`.XX].`.XX'.K.K.K.K.J.J.K.K.`.H.K.XXXXK.H.R.K.'.$X'.{.'.K.L.'.L.H.K.K.H.L.XX'.K.K.L.].].`.H.L.H.H.H.H.1.1.H.H.H.J.J.K.K.K.K.`.`.L.D.`.].[.[.'.'.L.L.$X$X[.`.`./.H.H.L./././.H 2 6 6 4 6 7 4 6 8 6 0 6 4 8 8 4 8 8 8 9 9 8 8 8 8 w 0 8 8 8 6 8 8 8 9 6 6 9 6 6 0 8 8 8 8 8 0 0 L K P P pXgXS.^.[.K.K.'.'.K.R.]..X|.].].{.#X.X-X{.{.].].$X].=X:X=X=X X'.XXXX].=X X'.'.K.J.U.J.J.R.K.'.XXXX XK.K.K.U.R.Q.Q.J.J.J.U.J.G.G.J.Y.T.Y.U.I.Y.%XJ.R.L.G.U.R.U.T.Y.J.U.G.U.U.J.Q.!.Q.!.U.G.I.E.!.I.U.Y.W.W.Y.U.U.Y.Y.Y.Y.Y.J.R.R.U.Y.Y.Y.Y.T.T.Y.Y.Y.Y.Y.Y.W.T.Q.R.U.Y.Y.Y.I.P.P.P.P.P.I.I.I.I.Y.I.I.I.Y.Q.Y.I.P.P.Y.Y.Y.Y.Y.Y.T.E.Y.Y.E.Y.E.Y.Y.Y.Y.Y.Y.E.E.Y.Y.Y.Y.Y.W.E.Y.Y.Y.Y.E.E.E.Y.Y.Y.Y.!.E.W.W.%X%XW.%X%X%X%X&X*X%X*X&X%X*X;X*XW.E.W.W.E.Q.%XQ.*X*XW.E.E.E.Y.E.%X*X*XE.W.%XE.W.&X:X:X4X4X&X*X&X&X&X&X&X&X&X%X%X%X%X%X%X%X%X%XT.T.E.T.T.W.E.W.W.W.W.W.E.Y.T.W.T.T.Y.Y.W.%XE.E.Y.W.W.T.W.%XE.I.!.!.I.E.E.E.Y.E.W.T.E.Y.W.W.Y.Y.Y.Y.T.T.E.Y.Y.Y.T.T.Y.T.T.OXXXXXOXOXOX+X#X4X4X4X:X@X+XOX+X&X;X+X@X#X;X=X;X&XOXOXXXXXXXOXOXOXOX+X@X+X+XoXU.U.I.I.I.I.U.U.K.XX+X@XoXXXoXoX@X@X#X#X3X#X#X#X#X#X3X3X3X6XNXNX7X#X#X@X#X#X@X`.[.v.{.@X[.",
"....$.$.*.=.$.$.*...$.$.$.%.%.,.,.,.,.....$.%.,.>.$.*.$.$.=.*.=.,.=.*.*.*.*.*.<.>.>.<.*.*.$.$.*.*.*.=.=.=.*.*.*.*.*.e.<.,.,.*.<.<.1.>.>.i.i.i.<.p.p.<.i.e.*.<.<.i.i.*.G.H.p.1.i.i.i.1.D.H.1.H.1.1.1.L.H.H.H.1.1.C.L L K K L K K K K K K K K Z.jXjXA.jXjXnXmXJXKXPXJXMXS././.L.H.J.J.L.H.H.L.K.J.L.`.`.`.J.H.J.J.1.H.H.K.L.J.K.H.J.J.i.J.H.`.L.1.1.G.G.p.XX'.'.`.H.J.U.J.J.J.J.K.J.J.K.'.K.H.J.J.p.J.K.K.K.L.K.H.J.K.J.J.H.H.H.G.J.U.G.G.U.G.G.J.J.U.s.J.XX'.H.G.G.G.K.K.H.J.J.J.J.s.J.J.K.J.J.K.K.J.J.J.L.XX`.H.'.XXK.K.`.'.'.`.K.'.'.K.K.`.K.L.L.'.L.`.'.L.`.K.'.'.'.H.H.L.`.'.].=X}.[.'.`.K.K.K.J.H.H.H.H.K.K.`.K.'.[.`.`.`.L.J.J.J.H.H.K.K.L.K.K.L.H.H.J.K.H.D.H.H.H.1.L.'.K.L.`.].'.`.L.].^.[.L.`.'././.H 0 6 8 6 6 8 8 6 4 8 8 8 4 8 8 8 8 8 8 8 8 8 8 8 8 0 8 8 8 9 8 8 8 8 9 8 8 8 8 6 0 9 8 8 8 8 0 L L P q P P P jX_./.[.'.'.'.'.'.{.=X{.{.].'.{..X.X|.{.{.=X X].=X=X[.'.'.'.$XoX=X-X].'.XX'.K.J.J.K.J.J.K.XXXXK.XXXXJ.U.J.R.R.G.H.J.J.J.J.!.!.R.Y.Y.U.Y.Y.Y.G.G.Y.!.U.J.J.J.R.R.Y.U.R.T.XX:X*X$XR.Y.G.U.E.Y.Y.Y.Y.Y.T.Y.U.Y.Y.E.E.Y.Y.Y.Y.Y.Y.Y.Y.Y.Y.Y.Y.Y.Y.Y.Y.Y.Y.W.%X*XR.U.Y.Y.Y.Y.I.I.I.P.P.P.P.P.P.I.P.U.Q.Y.U.Y.I.I.I.Y.Y.Y.Y.Y.Y.E.E.Y.Y.E.Y.Y.E.Y.Y.Y.Y.Y.E.W.W.E.E.E.E.E.Y.Y.Y.Y.Y.E.E.E.E.E.W.%XW.%XQ.Q.Q.W.%X&X&X*X%X*X%XOX&X;X*XW.&X&XE.W.~.W.W.W.E.E.E.E.E.E.E.E.E.E.E.&X&XE.%X&XE.Y.%X&X:X0X4X:X&X&X;X;X;X&X:X&X&X%X%X%X%XW.%X%X%X%XT.W.Y.W.%XW.E.%X%X%X%XE.W.OXT.T.T.E.E.W.W.W.E.E.%XY.W.W.Y.Y.Y.E.!.W.E.W.W.E.E.%XOXT.Y.Y.Y.Y.Y.Y.Y.W.W.Y.Y.Y.Y.T.OXT.OXOXOXOXOXOXXX%X%X$X@X-X5X:X;X&X+X@X#X;X;X#X#X;X:X:X$XOXOX@X=X+XOXOXOXXX].oXoXoXoXU.Y.Y.Y.I.I.Y.U.K.OXoX[.`.XX'.'.XXOXoX@X#X#X#X#X#X#X#X#X#X#X3X7X3X#X#X#X3X#X@XXX#X#X@XoX@X",
"....,.%.=.$.$.$.$.%.%.$.%.%.$.%...=.,...%.=.=.,.,.$.*.=.*.=.$.*.,.,.*.*.*.*.*.=.=.,.*.=.*.=.*.*.*.=.$.@.&.*.*.*.*.*.8.8.e.e.e.*.=.<.<.<.f.s.i.f.i.i.*.s.i.1.1.i.s.s.i.e.i.p.1.i.i.i.<.p.H.1.1.1.p.H.L.D.H.J.H.1.G I K K K L L K Z.Z.K U U K K Z.Z.S.mXjXZ.rXFXJXLXGXkXmXrX/.D.`.p.H.K.K.1.K.`.H.L.`.H.K.J.J.K.L.1.1.J.J.J.H.L.H.J.J.H.J.L.H.H.H.H.J.H.H.J.K.K.K.J.J.R.K.J.J.G.J.J.J.K.K.L.H.J.J.J.J.J.J.K.K.'.L.H.J.J.J.J.J.J.J.J.J.G.G.G.G.J.J.J.R.J.H.H.H.H.G.G.G.J.H.G.J.H.H.J.J.J.J.J.p.H.K.`.K.K.H.H.XX`.H.`.oXoX'.'.'.'.'. X$X].`.K.K.`.`.`.XX'.'.'.L.J.J.K.`.'.'.].@X[.K.K.].=X].'.'.K.L.K.H.H.XX'.J.K.K.`.K.`.`.`.[.H.H.G.G.D.H.L.K.K.K.'.`.H.1.H.J.`.`.L.H.L.'.`.K.L.H.K.K.[.`.D.D.'.`.^.'.H.D.[./.I 0 4 8 8 6 6 6 6 4 8 8 8 8 8 8 8 8 8 8 8 8 8 8 8 8 8 8 8 8 8 8 8 8 8 8 8 8 8 8 8 w w 8 8 9 9 8 8 0 P q q q P gXMXS./.[.'.'. X X].'.'.{.{.=X{.{.=X{.`.'. X]. X X'.'.'.XX'.oX$X'.].].oX'.XXXXXXK.XXR.K.'.'.K.R.XXQ.J.J.J.R.R.J.J.R.E.!.G.!.!.!.Y.U.U.U.U.U.G.U.Y.Y.U.Y.U.G.J.G.U.E.%XT.K.R.L.'.K.T.G.U.Y.Y.U.Y.Y.E.R.U.U.Y.Y.Y.Y.Y.Y.Y.Y.Y.Y.Y.Y.Y.Y.Y.Y.I.Y.I.Y.Y.Y.T.W.Q.R.Y.Y.Y.Y.Y.I.Y.Y.I.I.I.I.P.P.P.I.Y.E.U.I.Y.Y.Y.E.Y.Y.Y.Y.Y.Y.Y.Y.Y.Y.Y.Y.Y.Y.Y.Y.Y.Y.Y.I.E.E.Y.Y.Y.Y.T.W.Y.I.!.Y.Y.E.E.Y.E.E.W.W.W.W.*X&X*X%X&X;X:X;X;X&X%X%X&X*X$X:X8X%X%X%XE.W.%XE.%XW.E.E.E.E.E.E.E.E.%XW.E.E.W.W.W.W.%X%X=X-X;X&X;X;X&X&X%X&X%X%X%X&X&X&XW.%XOX%X%X%X%XW.E.W.W.E.W.%X%XW.W.E.T.Y.Y.Y.Y.E.E.%XW.Y.E.E.Y.T.%XY.Y.E.Y.E.W.Q.E.%XE.E.OXOXOXOXT.T.Y.Y.Y.T.W.T.T.Y.Y.Y.OXOXOX%XOXOXOXOXOXOXR.T.OXXX@X#X#X#X#X@X#X;X#X;X#X#X#X-X#X+XOX].#X4X=XOXOXOXOXXX+X@X@X=XOXT.U.U.T.T.U.J.R.OXU.XX'.XX'.`.'.oX].XX@X#X@X#X3X#X@X@X+X].[.#X@X{.{.@X#X@XoXOX@X@XoXoXoX",
">.>.>.;.$.$.$.$.<.2.,.>.,.%.$.%.....%.$.%.=.=.>.,.*.=.$.$.*.$.$.*.,.>.*.*.*.*.*.*.*.=.$.=.$.*.*.*.=.e.&.&.e.*.*.*.*.*.e.w.e.*.*.*.*.i.f.<.i.i.<.i.*.*.s.s.<.<.*.*.i.p.i.s.1.1.<.G.G.s.p.1.H.1.p.i.1.1.1.D.J.J.1.3.G I K K L h L U Z.Z.Z.K K U Z.Z._.mXjXA.S._.CXLXPXkXIXFXmX(./.`.K.K.H.H.`.'.`.`.`.J.J.H.H.`.K.1.1.G.H.H.J.H.K.K.K.R.L.XX`.K.L.J.J.K.L.H.U.J.J.J.J.J.K.K.J.J.G.J.U.J.J.J.J.H.H.J.J.J.J.K.J.K.K.K.H.1.J.J.U.J.p.K.K.G.G.i.G.U.U.G.K.'. XL.p.s.J.U.U.G.G.U.K.H.J.L.K.J.K.R.'.oX'.`.K.H.J.K.`.`.H.`.`.R.'.'.'.'.'.].$XK.K.`.K.L.L.K.'.`.'.'.K.K.`.K.K.'.`.oX@X'.'.K.L.XX[.`.].`.H.J.H.J.'.'.J.J.J.K.K.`.K.`.K.H.H.J.J.J.J.J.J.K.`.K.K.H.H.H.1.H.K.L.K.'.'.].'.`.D.`.K.H.`.`.p.1.`.|.].L.D.H./.G 2 6 L 0 6 4 6 8 6 8 6 6 8 8 8 8 8 8 8 w w 9 8 8 8 8 8 8 8 8 8 8 8 8 8 8 8 8 8 8 9 8 9 w w 9 8 8 0 q q q q pXiXkXnX^.|.'.].'.`.`.'.'.{.{.{.=X'. X$X'.'.].].]. X.X'.'.'.'.=X4X{.'.$X$X'.'.'.'.'.$X'.XX%XXXJ.R.R.J.J.U.U.R.Q.J.J.R.Y.U.G.U.J.R.T.R.Y.I.U.U.G.G.U.W.U.Y.E.U.U.U.Y.U.J.J.U.J.*X:XXXR.R.Y.Y.U.U.Y.!.!.!.U.U.Y.Y.Y.Y.Y.Y.E.Y.Y.Y.Y.Y.Y.Y.Y.Y.Y.Y.I.I.Y.Y.Y.Y.Y.Y.Y.Y.Y.I.I.P.I.Y.Y.Y.Y.I.P.I.P.P.I.I.Y.Y.I.Y.E.Y.Y.Y.Y.Y.Y.Y.Y.Y.Y.Y.Y.E.Y.Y.Y.Y.Y.Y.Y.P.I.Y.Y.Y.Y.Y.Y.E.E.!.!.Y.E.E.E.E.E.E.Y.E.E.%X&X8X&XOX%X&X&X;X&X*X%X%X&X:X:X:X;X%X%XW.E.W.E.E.W.W.E.E.W.E.W.%XE.E.E.&X;X%XW.%X%XE.E.W.&X;X;X&X;X&X%X%X%X%X%X%X%X&X;X;X%X%X%X%X%XW.W.Y.Y.Y.E.Y.W.%X%XOXW.E.E.Y.Y.Y.Y.Y.Y.E.T.Y.Y.Y.Y.W.W.E.I.Y.W.W.Y.E.W.T.Y.Y.T.OXOXOXOXOXOXOXOXOXT.T.%XT.E.T.OXOX%XT.OXOXOXOXOXT.XX&X&X+X;X;X#X#X#X:X#X;X@X+X+X#X#X#X#X@XOXXXoXoXXX+X+XOXXX`.[.oX@XoXXXXX+X#X+XXXU.U.OXOXOXOX+X@X@X@X@X#X#X+X+X#X@X@X@X@X+XXXXX+X`.@X@X@X@XoX@X[.[.OX+Xv.[.@X[.",
",.>.>.>.=.=.%.%.<.p.2.,.,.<.=.=.,.,.%.=.=...-...,.=.$.$.$.*.*.$.=.,.,.*.*.*.=.=.=.=.*.=.=.*.e.*.$.9.9.&.&.8.*.*.*.,.=.*.e.*.e.=.=.e.i.<.i.=.,.,.i.<.<.i.i.<.<.<.<.1.1.p.H.H.1.<.i.G.s.i.H.J.H.H.H.H.1.D.D.G.H.1.2.tXC.Z.K K L K K K U Z.Z.Z.Z.Z.Z.nXnXnXjXgX_.CXJXLXGXIXZXJXFXS./.].'.`.`.`.'.'.`.L.H.H.H.H.H.H.H.H.G.H.H.J.H.K.J.J.H.p.L.K.H.p.H.J.U.L.i.U.U.K.H.J.J.J.J.J.J.J.K.U.J.J.J.J.J.J.J.J.J.J.J.J.L.H.H.J.J.J.J.J.J.J.J.XXJ.J.i.s.J.J.G.K. X`.K.G.p.H.J.G.G.U.XXK.H.H.L.K.K.R.XX'.'.R.L.L.L.K.K.L.K.K.'.XX`.XXoX=X].].].H.H.K.`.XXXXR.H.K.K.'.R.'.`.K.K.XXK.H.J.K.'.`.K.'.'.K.K.].].L.H.H.L.K.K.K.H.H.J.K.`.K.H.L.'.L.K.L.J.H.H.K.H.H.L.L.H.H.L.1.H.`.'.].].D.`.L.`.H.D.`.[.$X`.`.H.`.].[.].[.1./.I 0 8 6 4 6 8 6 8 6 6 6 6 6 8 6 6 8 6 8 w w 8 8 8 9 9 9 9 w 9 8 8 8 8 9 8 8 8 8 8 8 8 8 9 q w 9 8 8 w w w V.iXiXiXkX_./.].].'.[.[.'.'.$X X].$X'.'.'.`.K.'.].].].=X=X].XX X].=X.X'.'.XX'.XX'.'.'.$X$X$X X'.K.U.U.J.J.J.J.J.R.J.J.R.Y.Y.Y.U.J.J.R.Y.U.U.Y.I.I.U.!.T.U.J.U.W.Q.G.U.U.G.G.I.U.Q.XXK.R.Y.R.T.U.U.R.Y.!.T.Y.U.R.U.Y.Y.Y.Y.Y.Y.Y.Y.Y.Y.E.Y.Y.Y.Y.Y.Y.Y.Y.Y.Y.Y.Y.Y.Y.Y.Y.I.P.P.I.I.I.Y.Y.I.P.I.I.Y.Y.Y.Y.U.I.Y.Y.Y.Y.T.R.Y.Y.Y.T.E.Y.Y.T.W.T.Y.Y.Y.Y.Y.Y.I.I.E.E.Y.Y.Y.I.E.E.Y.Y.E.E.E.E.E.Y.Y.Y.E.E.E.%X%X%X%X%X&X%X%X%X%X%X%XXX*X:X=XXX;X%XW.E.E.E.E.W.E.W.E.E.W.W.Q.Q.W.%X&X&X*X%X*XW.W.W.W.*X;X;X&X;X&X%X%X&X%X%X%X%X*X&X*X%X%XOX&X&XT.T.T.T.T.E.E.Y.Y.Y.T.%XE.E.T.T.E.W.T.T.Y.Y.Y.T.T.Y.E.E.W.Y.I.!.Y.Y.Y.Y.Y.W.W.%X%XOX%XOXOXOXOXOXOXOX%X%X%XW.T.OXOXT.T.OXOXT.Y.T.OX&X;X#X#X;X@X#X4X4X#X#X#X@XOX+X#X@X#X#X#X+X+X@X@X+X+X+X+XOX'.XX+XoXoXXXXX@X@XXXR.U.T.+XoX+X+X+X+X#X3X3X3X#X@X#X#X#X@X[.oX+XXXOX@XoX@X#X@X#X#X@X@X@X+X`.v.].oX[.",
"..,.,.,...=.=.....%.%.....,.>.>.,.,...%.$.=.=.-.=.%.$.$.$.$.$.$.=.*.=.*.*.$.$.*.*.$.=.$.,.>.*.*.*.9.e.=.=.*.*.*.,.>.=.e.i.<.i.*.*.<.<.>.<.<.*.=.=.<.<.*.<.p.i.<.G.1.p.1.1.1.1.p.i.i.e.e.i.H.H.1.H.H.1.L.K.H.H.D.H.D.I K K K K K K K K Z.A.A.A.gXA.A.Z._.mXmXmXmXDXGXIXIXMXDXLXIXA./.[.'.H.L.'.`.'.L.1.1.H.H.H.J.H.H.J.J.J.J.R.K.J.H.i.G.H.J.H.J.H.i.H.J.p.H.U.XX'.K.H.i.H.J.K.'.'.K.J.J.J.G.J.J.H.J.J.J.J.J.K.J.J.G.J.J.U.J.J.J.G.T.U.J.J.H.J.G.J.K.H.H.K.J.H.G.G.G.G.U.U.p.H.J.G.J.K.XX`.XXK.J.J.H.L.L.K.L.K.J.K.`.`.`.`.'.K.K.'.H.J.XX'.$X'. X`.K.K.`.'.'.`.J.J.K.J.H.J.K.XX`.'.H.H.J.H.H.XXL.1.L.'.K.K.K.J.H.H.`.K.H.1.H.`.H.L.K.H.1.1.H.J.J.K.`.H.D.]. X1.H.[..X1X|.[.L.H.D.H.`.].H.1.L.'.H.D.D.L.H.1.|./.L 8 6 6 8 6 4 6 4 6 6 4 8 8 8 6 6 6 8 8 9 8 8 8 9 8 9 8 9 8 8 8 8 8 8 9 8 8 8 6 8 8 8 8 9 9 8 8 8 8 9 8 V.yXyXiXhXgXS.^.].'.[.].'.].].].].'.'.'.`.'.'. X X'.'.{..X{.'. X'.]..X X'.'.`.XXXXXX'.'.$X$X'.`.K.J.K.R.J.R.Q.Q.L.J.U.Y.Y.Y.U.J.J.R.OXR.J.U.Y.U.G.R.XXJ.Q.!.G.J.Q.U.U.R.*X!.I.U.E.!.U.R.G.R.&X!.!.J.U.J.G.G.U.Y.U.Y.Y.Y.Y.Y.Y.Y.Y.Y.Y.Y.I.!.I.Y.Y.Y.Y.Y.Y.Y.Y.Y.Y.Y.Y.I.I.I.I.I.I.P.P.P.P.P.P.Y.Y.U.%XT.U.Y.Y.Y.Y.I.Y.U.Y.W.OXOXY.Y.Y.Y.Y.Y.Y.Y.Y.Y.Y.Y.Y.Y.Y.E.E.I.I.!.E.E.E.Y.Y.Y.E.E.E.Y.W.E.Y.Y.E.E.W.E.E.%X&X&X&X&X*X&X%X%XXX%X*X*XXX%X%XW.Y.E.E.E.E.E.E.E.E.E.E.W.W.W.E.E.E.W.W.W.&X&X*X*X;X;X&X%X%X%X%X;X;XT.W.%X*X*X*XW.%X%X&X*XT.%X%XW.E.E.E.E.T.%XW.W.W.E.W.W.E.W.%XY.Y.T.OX&X%XY.E.E.Y.I.P.P.I.Y.Y.Y.T.%X&X%X%X%X%XOXT.T.OX%X*X;X;X&X&X&X%X+X+X+XOXOXOXT.Y.T.%XOX@X#X#X#X;X;X#X#X#X3X#X+XOX@X#X@X@X#X#X+X+X$X;X;X#X@X#X+XXXOXOXOXOXOX+X@XoXXXXXOXOXOX#X#X@XXX+X#X#X3X3X@X+X+X{.@X@XoX#XoX`.+X#X#X#X@X#X#X#X@X@X@X'.`.v.@X{.v.",
"....$.$.=.*.=.....$.$.%.,.>.>.>.>.>.,.,.,.=.,.,.>.,.=.$.=.=.=.*.*.=.=.*.=.*.*.e.*.=.=.*.>.>.*.*.*.e.s.i.<.<.*.,.,.=.*.*.e.1.<.*.*.i.,.<.p.1.<.*.*.=.*.i.i.i.i.i.G.<.D.1.<.1.1.i.s.i.i.e.<.D.<.1.H.J.H.J.L.H.J.J.H.2.G I K K K K K K S._.A.Z.A.gXA.Z.K Z._.ZXDXFXFXIXjXjXmXmXMXMXrX(././.'. X'.K.L.`.L.H.1.H.K.H.D.H.H.H.H.H.L.L.J.H.1.H.J.J.J.J.J.H.J.J.H.1.K.XXXXR.H.p.H.J.J.K.K.J.G.G.J.J.J.J.K.K.J.H.J.J.H.H.J.G.J.J.U.J.G.G.G.U.U.J.G.G.J.R.XXK.J.J.J.R.K.J.G.i.G.J.J.G.G.G.U.J.J.H.L.K.H.J.J.J.K.K.K.'.'.`.`.`.H.L.L.'.'.`.`.J.L.`.R. XL.`.K.K.K.J.K.'.`.J.H.H.`.`.H.K.K.H.K.L.H.H.H.H.K.K.H.H.`.'.L.L.J.L.D.K.`.'.K.L.`.H.J.K.J.1.H.H.1.H.H.`.`.H.`.'.D.H.L.|.^.[.L.L.p.L.`.`.`.L.`.'.[.L.L.D.D.[.[.^.I 0 6 6 4 8 8 4 4 6 6 5 4 8 8 8 8 8 8 8 8 8 8 8 8 9 8 8 8 8 8 8 8 8 9 9 9 9 9 9 6 8 8 8 8 w 9 8 9 8 9 w w pXV.pXiXpXV.jX_.^.{.{.{.'.'.].'.'.'.[.].'.].].'.]. X'.{.{.-X X].'.'.'.`.`.$X'.'.'.'.`.'.'.'.K.K.J.K.R.R.G.J.R.XXK.U.R.Y.Y.R.J.Q.!.R.R.R.R.J.U.R.J.J.J.J.Q.Q.!.!.R.G.U.Y.*XR.U.Y.Y.R.Q.$XQ.J.K.U.U.E.R.U.U.U.U.Y.R.Y.Y.Y.Y.Y.Y.Y.Y.Y.Y.Y.Y.Y.Y.Y.Y.Y.Y.Y.Y.Y.I.I.Y.I.Y.Y.I.P.I.P.P.P.P.P.P.P.Y.Y.I.U.T.Y.I.Y.I.Y.Y.I.I.W.T.%XXXT.Y.Y.Y.%XT.Y.Y.Y.Y.Y.Y.Y.Y.Y.Y.Y.Y.Y.Y.Y.Y.E.Y.Y.Y.Y.Y.Y.Y.Y.W.E.Y.Y.Y.Y.Y.T.%X%XOX&X;X;X;X;X;XXX=X;X%X%XW.Y.E.E.E.E.E.E.E.E.E.E.E.E.E.Y.Y.Y.E.%X%X%X%X&X8X:X&X%X%X%X%XOX%X%X%X&X+XOX%X%X%X&X&XW.OX%X*XQ.T.E.W.E.E.E.E.Y.T.W.T.OXOXT.Y.W.E.E.E.Y.Y.%X-X4X&XE.E.E.Y.I.I.I.Y.Y.Y.Y.T.%X%X%XW.OXOXOXOXOXOX%X=X:X4X:X;X;X:X;X;X;X@X+X%X%XOXOXOXOX#X5X:X#X;X#X#X#X#X3X3X#X@X#X:X#X#X#X#X#X&XOX+X+X@X#X+XOXOXOXOXOXOXXXXX+X+X`.`.XXOXoX@X@X@XoX+X#X#X#X@X+XXX+X@X@X@X`.[.'.`.@X3X3X3X#X#X@XoX#X@X#XoX].'.[.v.[.",
"....%.$.$.$.%.%.%.%.%.$...,.,.;.,.>.>.,...=.<.,...-...=.=.$.$.$.$...%.$.$.*.=.$.*.*.*.<.>.,.*.*.*.e.i.1.1.>.,.,.*.*.*.*.*.<.,.=.*.*.*.*.i.<.<.=.*.*.*.d.s.i.<.*.*.G.L.1.<.1.i.s.e.e.G.G.1.D.<.<.p.H.D.D.1.H.1.H.L.1.D.I I K U S.U K S.jXgXA.A.Z.Z.Z.U S.rXZXDXFXIXjXjXmXgXnXmXmXFXMXS./.^.L.L.L.L.L.'.`.`.'.'.L.K.H.H.R.K.1.<.H.J.H.1.1.H.J.J.J.J.H.G.J.J.H.H.H.H.J.J.J.i.J.U.U.J.G.G.G.J.J.J.J.K.J.H.J.J.J.J.J.J.J.R.J.G.G.G.G.G.G.U.J.<.G.XXXXK.K.H.G.G.L.`.H.J.U.J.U.J.J.G.G.J.G.J.H.H.U.K.J.J.H.H.L.K.'. X X X'.`.K.'.K.L.`.H.J.H.K.'.`.L.'.'.K.L.J.J.K.K.K.K.XX'.K.L.L.H.L.K.`.K.J.H.1.H.H.L.H.K.XX'.K.H.L.1.J.H.L.K.1.H.1.H.J.H.1.D.1.H.H.K.'.'.H.H.1.H.'.].].^.D.D.K.[.[.[.`.L.[.`.[.[.[.D.D.1.D././.L 8 6 8 8 6 6 8 6 4 6 4 6 8 8 6 8 6 6 8 8 8 8 8 8 8 8 8 6 6 8 8 8 8 w w 9 8 w w 9 8 8 8 8 9 9 8 9 9 8 9 q UXq q yXV.pXkXA.C.^.[.].].'.'.'.'.].{.=X X].].{.=X=X{.].].{.].'.'.'.'.'.].:X].'.'.'.'.'.'.'.K.K.K.J.U.J.U.J.L.R.J.R.R.U.!.Q.Q.J.R.J.J.U.R.U.R.%XR.J.J.J. X*XR.L.U.U.U.U.J.Q.R.U.U.Y.XX$XK.J.U.Y.U.U.G.U.U.R.Y.!.Y.Y.Y.Y.Y.Y.Y.Y.Y.Y.Y.Y.Y.Y.Y.Y.Y.Y.Y.Y.U.U.I.P.P.P.I.I.I.I.I.P.P.P.P.P.P.P.Y.Y.Y.Y.Y.Y.Y.Y.Y.Y.Y.I.I.T.OX&X$XT.Y.Y.T.;X$XW.T.Y.Y.Y.Y.Y.Y.Y.Y.Y.Y.W.W.T.Y.Y.Y.E.Y.Y.Y.Y.Y.Y.Y.I.Y.Y.E.E.T.&X;X*XOX&X&X$X%X*X&XXXqXqXXX*XW.!.E.E.E.E.E.E.E.Y.Y.E.!.!.Y.Y.Y.Y.Y.%X%X%X%X%X;X;X;X%X%X%X%X%X%X%X%X&XoX%X%X%X%XT.T.T.%X&X&X%X%X%XW.Y.Y.E.E.T.%XT.OX:X;XE.E.Y.Y.Y.Y.Y.Y.%X;X;X%XE.E.Y.I.Y.Y.Y.Y.Y.Y.T.W.*X*X%XT.T.OXOXOX&X&XOX+X;X:X:X;X;X:X;X;X#X#X$X+XOXOXOXOXOX@X-X:X;X;X#X#X#X#X#X#X3X-X#X:X#X#X#X+XoXOXOXoXoX@X+XOXXXOXOXOX+X@X@X+XOX+XoXoX+XOX@X-X-XoXoX#X@X+XoXXX[.+X+X+X+X+X'.+XoX@X#X3X3X4X3X#X@X[.@X@X@X#X@XoX].#X#X",
"......,.$.$.@.=.,...` $.....-.-...........$.$.*.=.-.-.%.%.....=.=.-.=.$.$.$.*.=.=.=.*.,.>.,.e.e.*.*.<.1.1.<.>.<.e.*.*.*.*.<.=.*.*.*.*.*.*.*.*.*.*.*.e.e.i.<.<.e.i.p.p.<.=.i.i.i.i.*.G.H.<.1.<.i.H.D.D.1.H.H.i.p.L.D.D./.tXI (.nXZ.K A.A.A.jXjXgXA.Z.Z.S.nXmXFXjXjXjXmXjXA._.mXDXDXJXMXrX^./.D.H.`.`.`.`.`.L.`.`.H.J.K.L.H.H.G.G.K.H.1.D.H.G.H.J.J.J.J.J.H.`.K.H.H.J.J.p.J.U.T.U.G.G.G.J.J.J.H.H.H.G.U.!.Q.J.J.J.J.J.J.J.G.G.G.G.G.G.R.U.H.G.K.L.H.K.J.G.H.p.p.1.H.J.J.J.G.J.R.K.H.G.G.J.H.p.H.J.J.J.J.`.XX'.K.J.J.J.K.`.K.XXK.`.L.K.H.H.K.'.K.K.'.L.H.J.J.J.H.XXXXL.L.K.'.L.H.K.`.L.K.K.J.H.K.H.L.H.H.`.K.H.H.K.H.H.H.H.1.1.H.H.H.K.J.H.H.H.H.H.L.H.H.L.R.H.L.L.K.L.[.K.L.].{..X/.H.[./.[.[.[.[.[.[.D.1./.I L 8 8 8 8 4 3 6 6 4 6 6 8 8 8 4 4 8 6 9 9 6 8 8 8 8 8 8 9 8 6 6 8 8 6 8 9 8 9 9 8 9 9 9 9 w w 9 8 9 9 9 q q q q pXV.lXiXpXZ.(.^.].|.'.'.L.`.].].'.'.'.].{.].{.|.].].'.'.'.'. X].@X{..X X].'.$XXX'.'.'.'.K.K.K.K.U.J.R.J.J.J.!.J.J.Q.Q.J.J.U.J.J.J.J.R.U.R.L.J.R.*X*XXXQ.H.J.!.R.U.R.T.W.Q.J.J.'.`.L.J.U.J.U.R.U.U.U.R.Y.Y.Y.Y.Y.Y.Y.Y.Y.Y.U.U.I.I.T.T.Y.Y.Y.U.U.Y.Y.U.I.P.P.Y.I.I.I.I.Y.I.P.F.F.P.I.Y.I.Y.Y.Y.Y.I.I.Y.Y.Y.Y.Y.I.T.+X;X*XW.T.Y.W.&X$X%XT.Y.Y.Y.Y.Y.Y.Y.Y.Y.Y.Y.T.T.Y.Y.Y.Y.Y.Y.E.E.E.Y.Y.Y.Y.Y.E.E.%X&X;X&X%X%X%X%X%XW.OXOX$X$X%XW.Q.!.!.!.E.E.Y.E.Y.Y.Y.Y.Y.Y.Y.W.OXT.T.%X%X%X%X%X&X;X=XOXOX%X&X&X&X%X&X;X;X%XOX%X%XW.Y.T.%X%X*X%XOX&XOXY.Y.W.W.Y.T.%X%XoX%XE.Y.Y.Y.Y.Y.T.W.E.W.OXT.E.E.Y.I.Y.Y.Y.I.P.Y.%XW.OX%XT.Y.Y.OXOXOX;X+XOX+X&X;X&X&X;X&X$X@X@X;X:X-XOXOX%XOXOX+X;X;X;X#X@X#X#X#X#X#X4X4X3X#X#X#X@X@X$X$X+X#X#X-XoXXX+X+XOX+X@X@X@X+X+X+X@X@X@X+X@X-X-X@X@X@XoXoXoX].@X#X@XXXXXOXXX+X[.[.@X#X3X5X3X3X#X@X@X#X#X@X[.`.@X3X#X",
"$.$.%.....$.@.%.,...%.$.%.%.=.-.-.$.=.$.%.$.$.$.$.$.$.$.$.$.$.=.,.=.*.$.$.$.*.>.>.=.$.*.=.=.9.w.e.<.>.1.1.1.<.<.i.*.*.*.=.*.*.*.*.*.*.*.*.*.*.*.i.i.=.*.*.*.*.i.s.i.<.*.e.i.<.<.<.*.G.G.<.=.i.i.<.i.i.i.i.G.H.H.H.1.`./.G I _.S.S._.S.A.V.gXgXA.S.S.A.A.A.gXmXjXgXgXmXjXA.Z.nXZXmXMXJXGXgXC.^.`.`.`.H.H.K.H.H.H.1.L.`.H.1.D.H.G.J.G.H.G.H.G.G.G.J.K.H.L.'.K.J.J.J.J.J.J.J.J.K.J.J.J.J.J.J.J.J.G.G.Y.R.J.H.J.H.G.G.J.J.H.G.J.U.R.J.J.J.G.G.U.R.$XK.K.K.K.K.G.s.J.H.H.G.G.G.J.J.J.J.H.J.J.K.H.J.H.H.J.K.].`.L.J.J.J.J.K.K.'.$X'.H.`.`.H.L.K. X'.'.'.'.L.J.K. X`.`.K.K.'.'.'.H.H.H.H.K.H.J.J.J.L.J.J.H.H.'.L.H.H.J.K.L.H.H.D.H.J.K.'.H.D.1.H.H.L.`.L.1.1.K.L.'.'.H.H.L.H.H.K.L.[.{./.D.L.L.H.[.[.D.L.[./.1./.I L 8 8 8 8 6 6 6 8 6 4 6 8 6 8 6 4 9 9 6 8 8 8 8 8 8 8 8 8 8 8 8 8 8 6 8 8 8 8 8 8 9 w w 9 9 w 9 9 w w w q q q q q pXiXV.P gXS.^.'.[.'.'.'.'.].'.'.'.'.{.].].{.].[. X X]. X'.].].].|.|. X].`.'.'.'.].'.'.'.'.XXK.U.J.J.J.J.J.J.J.J.J.J.R.Q.XXQ.R.U.H.J.K.J.J.K.R.XXXXK.U.J.Q.Q.J.R.Q.J.Q.!.U.T.XX'.Q.J.U.U.U.Y.U.Y.Y.Y.Y.Y.Y.Y.Y.Y.Y.J.J.Y.Y.T.I.!.Y.T.R.U.U.R.Y.Y.Y.I.P.P.I.Y.I.P.I.Y.Y.P.P.P.P.P.I.I.I.Y.Y.Y.Y.Y.I.I.I.Y.Y.Y.Y.U.R.OXOX*XOXT.OXOXOX%XOXOXT.Y.Y.Y.Y.Y.Y.Y.Y.Y.Y.Y.E.E.E.E.E.Y.Y.E.Y.Y.Y.Y.E.E.Y.E.&X&X&X&X&X%X%X%X;X;X;X&X%XE.Y.Y.Y.!.E.E.E.!.!.E.E.E.Y.Y.Y.Y.Y.T.%X&X%XE.E.&X;X&X%X&X;X*XW.W.%X;X;X&X&X;X;X%XW.%X%X%XOXT.%XT.%X%X&X:XoXW.T.Y.Y.Y.Y.E.E.Y.Y.Y.Y.Y.Y.Y.E.Q.*XE.Y.Y.Y.E.!.Y.Y.E.E.!.I.Y.Y.Y.R.Y.E.Y.Y.Y.T.T.T.OXOXOX+X@X+XOXOXOX+X#X#X#X#X#X#X+XOXOXOXOXOX@X#X#X+X+X#X#X#X#X3X5X5X3X;X#X+X+X@X$X+XOX@X#X#X@XOXOX+X@X#X#XoX+X#X#X#X3X#X@XoX@X@X@X@X@X#X#X#X#X=X3X3X#XoXXXXXoX+XoX#X#X#X#X3X3X3X3X3X@X@X@X[.b.`.v.v.v.",
"$.$.=.;.;.%.$.......%.$.%.$.$.o.$.$.$.$.$.$.$.$.%.#.$.$.$.$.$.$.=.=.=.*.*.=.$.,.<.$.*.=.=.%.8.9.e.p.1.1.H.1.1.1.<.>.=.*.*.*.*.*.*.=.*.*.$.=.*.*.i.*.*.*.e.e.*.*.i.i.<.i.i.H.D.<.i.G.G.G.<.<.i.i.<.<.i.H.i.p.1.D.D.D.H.D.C.I U U (.mXgXV.Z.A.V.K S.S.gXV.Z.S.S.gXA.S.mXFXkXA.S.rXmXmXDXLXJXmXS./.[.H.L.L.J.L.H.K.D.H.J.H.1.H.H.H.J.H.D.H.H.G.G.G.J.J.H.H.'.K.H.J.J.J.J.J.J.J.K.K.`.XXL.H.H.J.J.J.G.U.H.H.H.K.R.H.H.H.J.L.G.G.J.J.L.H.H.G.G.G.J.'.`.J.J.H.H.J.K.R.H.i.G.G.U.J.H.J.R.J.H.J.1.L.K.K.H.J.XX=X`.H.J.H.K.'.'.'.'.'.L.K.`.'.'.'. X XK.'.'.'.K.J.K.$X].L.H.H.K.R.H.K.J.H.K.`.H.J.J.H.K.K.J.1.H.K.H.H.K.L.`.'.1.H.H.L.L.J.'.L.1.1.D.J.L.'.`.H.D.H.D.H.K.H.1.1.H.1.1.D.`.`.1.D.`.`.`.D.D.1.`.[./.1./.I L 8 8 6 6 4 6 8 8 6 3 4 8 8 6 4 4 6 4 4 8 8 8 8 8 8 9 9 8 8 6 6 8 8 8 8 4 8 9 9 8 9 w q w 9 8 w q 9 9 w q q q V.q pXV.w q pXMXrX^.'.].{.].].].].'.`.].{.{.=X=X|.|.=X=X]. X].=X{.].].].].=X=X].'.'.'.'.'.'.'.XXK.U.J.J.J.J.J.J.R.XXJ.J.U.Q.K.R.R.U.L.$X XJ.J.U.R.U.K.J.J.J.Q.XXH.U.J.J.J.Q.T.U.R.R.J.J.R.U.U.U.G.U.U.Y.Y.Y.Y.R.U.Y.Y.J.J.Y.Y.T.Y.Y.I.Y.Y.Y.U.U.Y.P.I.P.P.P.P.I.P.P.I.P.P.P.I.I.I.I.I.Y.Y.Y.Y.Y.Y.Y.Y.I.P.Y.Y.U.U.U.R.OXOXT.T.OXOXOXOXOXOXOXOXT.Y.Y.Y.Y.Y.Y.Y.Y.Y.Y.Y.E.E.E.!.I.I.!.Y.Y.Y.W.E.Y.Y.W.%X%X%X%X%X%X%X%X;X:X4X&X%X%XW.Y.Y.E.E.!.P.!.E.E.E.E.Y.Y.E.E.E.Y.T.%X%XQ.%X&X;X;X%X%X&X&X%X%XOX&X;X%X*X;X;X%XW.Y.OX;X$X%X%XT.OX%X%X%XT.Y.Y.Y.T.T.E.E.Y.Y.Y.Y.Y.Y.Y.Y.Y.W.%XW.Y.Y.Y.E.!.Y.Y.E.I.P.I.Y.Y.Y.Y.Y.W.Y.Y.T.OX%XOXOX%XOXOXOXOXOXOXOX+X;X#X:X@X+X#X#X@X+XOXOX+X@X@XoXOX+X#X#X#X3X3X3X#X#X@X@XOXOXOXOXOX+X@X#X#X#XoX#X#X#X#X+X+XOX+X@X#X}.3X#X@X#X#X#XoXoX#X#X#X#X#X#X3X3X+XOXXXXXoXoX#X#X@X@X#X#X3X3X5X3X@X`.oXoX`.v.v.v.",
"$.$.....,...%.%.%.%.$.%.%.$.+.o.$.$.$.$.$.*.$.$.$.@.$.$.$.$.$.$.*.*.*.*.$.$.$.=.*.$.=.*.*.$.$.0.<.i.1.1.D.1.<.2.<.,.=.*.*.*.*.*.*.*.*.*.=.*.i.<.*.*.*.*.i.i.,.e.i.1.1.<.<.i.1.p.J.G.G.i.1.D.1.p.H.i.p.J.J.H.H.L.L.D.`.[./.G I C.S.MXjXV.A.Z.K U Z.A.A.Z.Z.Z.nXgXA.S.nXFXjXA.S.rXmXmXjXZXLXPXjXC./.`.H.H.K.H.`.`.K.K.J.1.D.J.H.L.J.H.1.1.H.G.G.G.J.J.J.L.`.H.1.J.J.J.J.J.H.J.`.'.H.H.J.K.K.J.J.J.J.H.D.J.J.J.K.L.'.R.XXK.G.G.J.J.`.K.J.J.J.J.J.H.H.J.K.R.K.R.'.L.p.s.s.G.G.R.J.H.XXK.1.J.p.i.H.L.H.L.L.[.L.H.J.K.'.'.'.'.].'.'.'.'.'.K.K.'.[.K.'.`.'.'.K.J.`.'.'.K.H.J.H.J.`.K.J.K.`.K.L.H.K.`.H.H.H.H.K.J.K.K.H.D.H.1.H.L.L.L.L.$XK.J.1.H.`.J.K.K.L.`.`.L.H.1.D.H.H.H.1.1.L.`.L.H.L.[.'. X[.[.1.H.[./././.K 8 8 8 8 8 4 4 4 4 4 4 4 4 4 8 6 6 4 6 8 8 6 8 8 8 8 9 8 8 8 8 8 8 8 9 w 9 w pXq 9 w UXpXw w 9 w w 9 w UXt t q q V.yXUXq q iXGXIXS.^.^.^.^..X.X.X].[.{.=X=X.X=X|.|.=X=X]..X{.{. X X X'.].{.].].`.'.'.'.'.'.'.K.U.R.J.J.J.R.J.R.K.K.J.U.J.J.J.'.'.XXK. X XJ.J.R.T.U.J.Q.J.J.J.J.U.J.R.Q.J.R.R.J.J.J.J.R.'.J.U.G.U.U.U.Y.U.R.Y.J.J.U.Y.U.U.U.Y.Y.T.Y.Y.Y.Y.Y.Y.Y.Y.P.I.I.P.P.P.P.P.I.I.P.P.I.I.I.I.Y.Y.I.Y.Y.Y.Y.I.G.Y.Y.P.Y.Y.Y.Y.Y.Y.T.T.Y.Y.T.OXOXOXOX%XOXOXT.Y.Y.Y.Y.Y.I.Y.Y.Y.Y.I.I.E.E.!.!.E.I.P.Y.Y.Y.E.E.E.E.%XW.%XOX%X%X%X%X&X;X:X:X$X&XT.Y.Y.Y.OX&XE.P.!.E.Y.Y.Y.Y.Y.E.E.E.Y.W.%X%X&X%X=X:X;X%X%X%X%X&X%X%X&X&X;X;X@X&X%XT.OX:X=XOX&XOXOXOX%XW.Y.Y.Y.Y.OXQ.E.E.E.E.E.Y.Y.Y.Y.E.E.W.W.T.Y.Y.Y.!.!.E.%XY.I.P.I.Y.Y.T.W.Y.T.Y.U.T.OXOXOXOXOXOXOXOXOXOXOXOXOX+X+X@X@X+X;X@X#X@X@X+XOX+XoX@X+X+X#XoX@X#X#X#X#X;X$X+XOXOXOXOXXX&X;X+X$X#X@XoXoX#X+XXXOXOXXXXXoX[.@X#X3X>X3X#X#X#X#X@X#X#X@X@X#X#X+XOXOXXX`.`.oXoX[.`.].].}.}.#X}.].[.@X[.v.v.v.v.",
"$.$.,.,.......@.%.%.$.%.%.$.$.$.$.$.$.$.%.*.$.$.$.$.$.$.*.$.$.$.$.=.=.=.*.*.*.,.*.$.$.*.*.*.*.,.=.*.,.<.<.>.>.<.*.*.*.*.*.*.e.*.*.*.=.e.e.e.*.<.*.*.*.*.<.>.>.*.d.i.<.<.i.i.H.i.H.i.s.i.1.D.1.i.s.p.J.J.H.J.J.H.H.H.K.H.1.3.G /.(.gXA.Z.Z.Z.A.A.gXjXA.Z.Z.Z.rXgXA.Z.rXmXgXZ.S.CXMXjXgXmXJXGXjXS.).^.D.D.H.H.K.L.1.1.1.1.1.G.J.L.H.H.1.D.D.G.G.G.H.J.J.K.`.J.H.J.J.J.J.J.J.J.K.K.H.J.J.K.`.H.J.XXK.J.D.H.J.J.K.K.L.L.L.J.G.G.J.J.K.H.H.H.J.J.K.L.J.J.K. X'.`.L.H.i.s.J.G.G.U.U.H.L.H.p.i.s.G.J.K.K.H.`.].H.K.XX'.`.'.'.].].{. X'.'.'.K.`.p.[.'.XX'.'.'.`.H.`.].].K.L.H.G.J.H.K.K.K.K.L.L.`.'.H.H.`.`.J.R.R.H.L.L.H.H.H.K.'.H.1.H.L.H.J.H.H.'.H.K.H.1.H.H.K.K.1.H.H.H.1.D.H.J.K.'.`.`.L.H.L././.D.D.[././.j.L 6 4 8 6 8 6 4 4 4 6 6 8 6 4 6 4 4 4 6 8 6 8 8 8 8 8 8 8 9 8 9 9 9 8 9 P P iXsXr q q UXq 9 9 w w q w UXyXuXyXyXyXiXyXq q UXlXvXvXgX_.^.^.^.^.|.=X{.{.{.{.{.=X.X].'.].]. X{.|.|.'.].].'.[.{.].[.`.'.'.'.K.'.'.K.K.XXK.J.U.J.R.%XXXJ.J.J.J.U.J.K.`.K.`.'.'.K.J.J.J.J.J.G.J.J.J.J.R.U.XX*XJ.J.J.R.J.J.R.$X$XK.U.G.U.U.U.U.J.U.U.J.Y.U.J.Y.Y.I.Y.Y.T.T.Y.I.I.I.I.Y.Y.I.I.P.P.P.P.I.I.Y.Y.I.Y.Y.Y.Y.Y.Y.I.I.Y.Y.Y.Y.U.I.Y.Y.I.I.W.T.Y.Y.Y.Y.Y.Y.Y.Y.OX%XOXOX%XOXOXT.R.Y.Y.Y.Y.Y.Y.Y.Y.Y.E.I.!.!.I.Q.Q.Y.I.Y.E.Y.Y.W.W.E.T.W.W.T.%X%X%XT.%X&X:X4X:X%XW.E.E.Q.;XqX8X!.!.E.Y.Y.Y.Y.Y.T.E.E.Y.E.W.&X;X;X:X;X$X%X%X%X&X;X&X%X+X&X&X;X=XOXOXOXXX%X*X%X&XOXOXOX%X%X%XY.Y.T.%X%XE.E.E.E.W.Y.Y.I.I.Y.E.Y.Y.Y.Y.W.Y.!.!.E.Q.!.I.I.Y.Y.Y.T.Y.Y.Y.T.T.T.OXOXOX%XOXOXOXOXOXOXOXOXOXOXOXXX$X+XOX@X#X#X#X@X@X@X#X@XOX+X@XoXoXoX+X$X;X;XoXXXT.T.OXOXXXXXXXXXXX+X+X'.oX@X@XOXOXOXOXOXOXOX+X].#X3X3X@X@X#X+X+X+X#XoX`.oX@X'.OXOXOX'.`.`.XX'.'.'.oX].{.@X@XoX#XoXv.v.`.`.`.",
"$.=.,.,.,...%.$.......%.%.%...%.$.%.%.$.%.$.$.$.$.$.$.$.=.$.%.=.*.,.,.=.*.<.,.=.$.*.*.*.$.$.$.$.$.$.*.i.i.>.,.*.*.*.*.*.*.e.e.*.=.$.=.*.e.e.,.*.*.*.*.,.<.>.>.=.*.i.<.i.*.<.<.G.s.s.s.p.H.H.i.s.p.D.H.D.i.H.D.1.D.1.1.H.1.1.G C.S.U K U U K S.S.A.A.Z.Z.K U Z.A.Z.S.S.S.gXZ._.ZXMXjXjXZXFXjXnXmXDXmXS./.L.H.L.L.1.H.J.H.1.G.G.H.H.J.J.H.1.1.J.G.H.J.L.K.`.L.J.H.J.H.J.J.J.J.J.K.'.J.J.K.H.1.H.J.J.K.L.p.`.K.J.J.G.H.G.G.G.G.G.i.G.G.G.G.H.H.K.K.J.J.H.G.J.H.J.J.H.G.H.H.G.G.G.s.s.p.1.H.J.U.J.H.H.H.L.R.K.XX'.'.'.'.'.'.'.'.'.K.K.'.'.$X`.`.'.K.J.L.`.XX`.].].L.J.J.J.J.K.J.H.L.K.L.L.H.H.`.K.'.K.L.H.[.{.`.L.K.H.1.H.1.K.L.1.H.H.H.H.J.L.H.H.D.H.H.1.H.K.K.1.H.D.1.H.D.D.`.'.L.H.H.L.D.`.L.L.D.1.p.D.I I L 8 6 6 4 8 8 4 4 6 8 6 8 8 8 8 8 8 8 8 8 8 8 8 8 8 8 8 8 8 9 6 8 9 w q pXyXsXyXq q t q q w q q q P q uXsXaXaXyXyXlXpXq r iXcXbXPXSXMXmXnXS.(.^.[..X-X{.{.|.{.{.{.].{.{.{.{.|.].]..X=X'.'. X X'.'.'.'.`.[.'.'.'.'.XX`.`.K.L.R.XXK.J.J.J.J.J.Q.J.J.L.L.K.J.H.R.XXR.R.J.J.J.J.L.J.J.G.R.Y.R.R.U.Y.U.J.R.K.'.K.J.U.U.R.R.Y.U.Y.R.XXOXOXXXY.U.U.Y.I.I.Y.Y.!.I.I.I.Y.T.U.G.G.I.I.F.F.I.I.Y.Y.Y.Y.R.T.OXR.U.Y.Y.I.Y.Y.Y.Y.U.I.R.T.T.Y.Y.Y.Y.Y.Y.Y.Y.Y.T.%XT.OX%XOXOXOXT.Y.Y.Y.Y.T.OX%X%XT.Y.I.P.!.I.Y.Y.Y.I.Y.E.Y.Y.Y.Y.W.%X%XOXOX&X%X&XT.T.;X0X0X:X%XT.W.E.E.E.8X:XE.E.E.W.W.Y.Y.Y.T.E.E.E.%X%X%X%X%X&X%XOX%X%X&X&X%X%X%X%X%X%X%X%XW.OXOX%X*X%X%X%XE.%X=X;X%XT.Y.Y.T.OX%XW.E.Y.Y.T.Y.Y.Y.Y.Y.!.I.Y.Y.Y.Y.Y.Y.Y.Y.Y.I.I.Y.P.I.Y.T.Y.Y.Y.Y.T.OX%X%XOX%X%XXXOXOXOXOX+X%XOXOXOXOXOXXXOX#X;X#X#X@X@XXX+X+XOXOXOXXX+X@X+X+XOXOXT.T.OXOXOXOXXXXXXXR.R.XX'.].@X@X{.@X@X@XoX@X+XOX+XoX@X3X#X[.XXXXOX+XOX+X`.`.XX+X`.`.OX`.v.v.].+X+X[.@X[.v.].@X#X[.@X#Xv.b.`.oX`.",
"$.$.$...%.%.........%.$.$.$.$.%.%.$.$.*.i.<.=.%.$.$.$.%.%.$.$.$.$.,.f.*.*.p.2.>.,.=.=.$.=.*.*.*.=.&.=.*.<.,.*.*.=.*.<.*.*.=.=.*.*.*.*.*.*.e.<.*.*.*.*.e.i.i.p.i.*.*.*.d.<.D.1.i.i.i.s.i.<.e.i.i.H.H.1.<.i.p.1.1.1.1.1.H.H.1.3.G I K K K K K K Z.Z.V.P K K K U U Z.Z.Z.S.gXZ.mXDXMXjXjXmXjXjXZXJXKXLXkXS.^.K.J.H.1.H.K.J.H.J.H.1.H.H.D.H.H.D.J.J.J.J.K.H.1.H.H.H.J.J.J.J.H.1.H.H.K.J.J.J.L.H.H.G.G.H.J.L.XXXXK.H.G.J.U.U.G.G.G.G.G.J.H.G.H.D.J.J.J.J.H.H.H.J.J.G.G.G.G.G.i.G.G.i.U.i.i.J.U.K.J.H.K.'.`.R.K.`.'.'.'. X].`.`.K.`.J.K.L.H.'.H.K.K.J.J.J.H.H.`.oXK.K.J.H.J.J.K.H.1.G.H.J.J.H.H.L.L.L.J.1.1.`.H.L.K.H.1.H.J.H.H.1.1.H.J.J.H.L.1.1.1.1.1.1.1.1.H.H.1.H.H.1.1.1.1.L.H.1.1.1.D.H.L.H.`.D.1.H.3.G j 0 8 8 6 4 6 6 4 4 6 8 8 8 8 8 8 8 8 8 6 8 9 8 8 8 8 8 8 8 8 w w w w pXyXyXsXuXt r iXyXq q w q w w q yXdXdXsXfXuXsXiXpXpXuXvXHXvXPXLXHXGXSXMXMXmX_.)..X^.|.^.].].|.|.|.{.{.{.].].{.=X|.[.].].].].'.'.'.`.`.'.'.'.XXXX'.'.'. X'.'.K.J.J.Q.J.L.Q.K.J.H.J.J.J.J.R.XX$X'.K.XXJ.U.J.Q.J.J.U.R.T.R.G.U.J.J.U.J.J.J.J.J.J.R.Y.Y.J.U.U.U.R.T.T.Y.Y.Y.Y.U.U.I.I.I.I.P.G.U.OXXXR.I.I.I.P.F.P.P.I.Y.Y.U.Y.W.OXT.R.Y.I.P.I.Y.Y.Y.Y.Y.W.XXY.Y.Y.Y.P.Y.Y.Y.Y.T.OXW.T.OXOXOXOXOXY.Y.Y.Y.Y.Y.T.E.%XT.Y.Y.!.!.I.Y.Y.Y.Y.Y.Y.Y.Y.Y.Y.E.%X%X%X&X&X%XT.T.W.;X0X4X;X%X%X%XT.!.E.W.%XW.E.E.W.W.Y.Y.E.W.Q.XX&X;X&X%X%XW.OX%XOXOX%X%XOXOXOX%X%X&X&X%X%X%XOX%X%X*X*XW.E.E.OX:X;X%X%X%XY.Y.%X%XT.Y.Y.Y.Y.Y.Y.Y.E.E.E.Y.E.E.Y.I.Y.Y.Y.Y.Y.Y.I.Y.P.Y.Y.Y.I.I.Y.Y.T.OX%XOXOXOXOXOXOXOXOXOX%X%XOXT.T.OXOXOXOXoXoXoX@X;X@XXXOXOXOXOXU.R.OX+X@X+XOXOXOXT.Y.T.R.+X@X+XXXT.OXOXOX@X#X@X].@X@X#X#X#XoXoXoXoX@X#X#X@XOXU.U.K.U.XXXXOXOXXX`.XXXX`.v.`.'.v.v.v.v.v.[.oXoX@Xv.@X#X@X+X+X#X@X",
"$.$.$.$.$.$.%.>.,...%.$.$.$.*.=...=.$.$.=.,...%.$.*.=.....=.*.=.$.=.$.$.*.<.>.>.>.,.$.$.*.*.,.*.*.=.$.*.*.*.*.*.*.*.<.=.*.=.=.*.$.*.*.e.*.*.=.*.*.e.e.e.i.s.i.i.*.*.=.i.p.D.i.e.*.i.d.e.*.e.G.i.i.J.i.i.i.G.p.1.D.D.D.H.H.D.1.3.G I Z.K K K K Z.Z.Z.K K K U U K Z.Z.Z.nXgXZ._.mXjXjXjXjXjXZXDXJXPXPXGXjXC./.[.D.1.H.K.`.K.J.H.H.1.<.1.H.J.H.p.R.U.J.H.1.H.H.1.H.J.J.J.J.J.H.H.J.J.J.J.H.L.K.H.G.G.G.J.J.K.J.J.H.G.J.K.J.G.U.J.H.i.G.J.R.R.L.J.J.1.H.K.U.H.H.J.H.G.G.G.G.G.i.G.J.J.J.H.H.G.H.H.'.`.L.'.XXK.K.oX$X`.].'.'.$X'.`.J.K.K.`.'.K.K.R.J.K.H.H.L.K.H.H.K.K.J.R.J.K.J.J.G.G.H.L.`.H.K.'.L.H.H.K.H.L.L.L.'.H.1.H.K.H.H.L.1.1.H.K.K.1.1.1.1.H.1.1.1.1.1.1.1.H.K.L.D.1.H.H.1.H.H.1.1.H.1.1.1.1.D.I j 2 7 8 8 8 8 8 8 8 8 8 8 6 9 8 8 8 8 8 8 8 8 8 8 8 8 8 8 8 8 8 9 q r t aXaXdXaXy y sXdXpXq q q q q q yXsXcXzXdXdXsXkXfXuXaXdXHXbXdXvXKXKXPXHXLXKXPXSXFXmXmX).^.|.}.|.|..X=X|.[. X$X.X{.|.|.|.|.{.'.'.'.'.[.'.'.'.'.'.XX X].].'. X X'.J.J.J.Q.L.XXK.J.J.R.J.J.K.H.L.XXoX'.XXU.U.!.!.J.J.K.J.R.R.G.G.J.R.U.R.J.J.R.U.J.J.U.Y.J.J.U.Y.Y.Y.Y.Y.U.Y.Y.OXT.I.I.I.P.P.I.U.%X*XXXY.I.I.P.P.P.P.P.I.I.I.U.E.T.Y.Y.Y.Y.P.P.I.Y.Y.I.I.Y.K.Y.Y.Y.Y.Y.Y.Y.Y.Y.T.T.Y.T.OXOX+XOXOXT.Y.Y.Y.I.I.Y.Y.Y.Y.W.W.E.!.I.I.Y.Y.Y.E.Y.Y.Y.E.E.E.W.W.%X%XOXOXOXOXT.&X;X;X;X%X%X%XOXQ.Q.Y.OXW.Y.Y.E.E.Y.Y.Y.Y.Q.*X:X:X&X%XOXT.%X%X%X%XOXOXOXOX%X%X%X%X%X%X&X&XOX&X*X&X&X%XOXOXOX$X&X&X&X%XT.Y.%X%XT.Y.Y.Y.Y.Y.Y.E.E.Y.E.E.Y.I.P.I.Y.Y.Y.Y.Y.Y.Y.Y.P.I.Y.Y.Y.Y.Y.Y.T.OXOXOXOXOXOXOXOXOXOXOXOX%XOXT.Y.OXOXOXOXR.XXOX+X+XOXOXOX+XOXT.T.U.K.XX+XOXOXOXOXXXT.OXOX@X&XOXXXOXOXOXOX#X@XoX@X;X;X#X#X#X#X#XoXoX@X{.@X#X+XXXOXR.XX$X+XXXR.U.XXOXXX'.'.XXOX].oX`.+X+X+X@X#XoX[.@X#X#X@XoX].oX",
"$.$.$.$.%.%.....,...%.$.$.$.$.,.,.-.%.$.$.%.%.$.@.*.=...,.*.*.=.=.$.$.*.*.,.,.,.*.$.$.*.*.*.=.=.*.*.*.=.=.*.*.*.*.=.=.*.*.=.=.*.*.*.e.s.e.=.=.*.*.*.e.*.i.s.*.*.*.*.*.i.<.<.=.*.<.i.*.*.e.s.s.G.s.s.i.i.<.G.G.L.L.1.H.D.H.H.1.1.D.C.Z.Z.P K K K Z.K K Z.S.Z.U K Z.Z.S.mXjXA.Z._.jXgXgXjXMXDXFXjXgXmXDXJXMXS.^.^./.`.L.`.K.K.K.J.H.G.G.D.H.H.H.U.K.H.H.J.H.1.H.H.H.H.H.H.L.J.J.K.J.J.J.H.K.H.<.G.G.G.G.J.J.H.J.G.s.J.XXH.H.U.G.G.G.J.J.L.H.H.H.K.L.H.L.L.H.J.J.H.J.G.G.G.G.G.J.J.H.H.H.K.H.K.'.'.H.H.'.H.H.H.K. X[.[.K.`.-X{.'.K.XX].@X{.'.'.'.L.L.K.L.L.`.`.p.J.H.H.XXJ.H.J.K.L.H.H.K.H.1.H.`.L.H.H.L.J.J.H.H.L.H.D.H.H.1.H.H.1.p.J.`.`.1.1.1.1.H.H.1.1.1.1.H.H.K.`.H.1.1.H.H.1.H.`.L.1.H.1.1.1.D.D.I 0 6 6 8 8 8 8 8 8 6 6 8 8 8 8 8 8 8 8 8 8 8 8 8 8 8 8 8 9 8 8 w pXuXy aXdXdXzXyXy aXcXdXpXq UXUXq q q yXsXvXzXdXaXdXxXaXuXfXGXPXkXaXxXHXHXbXHXKXLXHXHXPXLXPXMXS._._._.^.^..X^.^..X.X{.|.|.|.}.|.|.].'.'.'.'.'.'.'.'.`.'.'.{.{.'.'. X'.J.R.Q.J.`.XXK.J.J.J.K.K.J.J.K.'.'. XR.R.I.G.U.J.J.K.R.J.J.J.J.Y.Y.U.G.J.J.U.U.J.U.U.J.U.J.U.Y.Y.U.U.I.I.Y.R.R.R.Y.Y.I.P.P.P.I.R.'.U.Y.I.P.P.P.P.P.P.I.I.P.P.I.U.U.Y.Y.Y.I.I.U.Y.Y.I.I.U.R.Y.Y.Y.Y.U.Y.Y.Y.Y.Y.Y.Y.OXOXOXOXOXOXY.E.Y.Y.I.I.I.Y.Y.Y.Y.E.Y.I.I.Y.Y.Y.Y.E.Y.Y.Y.Y.E.E.Y.Y.W.W.T.E.%X%X&X;X%XOX%XW.W.W.T.Y.Y.Y.T.%XT.T.T.*X%XE.Y.Y.E.%X$X&X%X%XT.Y.W.%X%X%X%XOXOXT.%X%X%X%XW.W.%X%XXX;X;X%X&X%X%XOX%X%XOX%XOXOXW.Y.W.%XT.Y.Y.Y.Y.Y.Y.Y.Y.Y.Y.Y.Y.I.I.!.Y.Y.Y.Y.E.Y.I.P.P.P.P.P.I.I.P.P.U.T.T.OXOXOXOXOXOXOXOXOXOX+X+XOXOXOX+XOXXXR.OXOX@X+XOX+XOXOXXXR.XXR.U.`.OXOXOXOXOXXXOXXXOX'.R.R.U.T.OXOXOX#X@XXX+X@X@X#X#X3X#X@X@XoX].|.{.@X+XOXOXXXOX+X@X+XR.K.XXOXXXOXOX'.`.XX+X`.[.[.v.[.].oX#X#X#X#XoXoX@X+X",
"%.%.$.$.%.....,.,.%.$.%.%.%.,.,.,.....$.$.=.$.$.@.$.*.=.<.i.$.$.$.$.$.*.*.=.,.<.*.$.$.*.*.=.=.=.e.,.*.*.=.<.<.,.=.$.$.$.=.*.=.=.*.*.*.e.<.<.=.*.*.*.*.*.i.i.=.=.*.i.i.i.=.*.=.i.i.*.=.*.i.p.H.H.G.i.i.G.H.1.D.K.H.1.H.1.1.1.1.H.D.D.C.Z.V.P K K K L K (.S.A.Z.Z.Z.K Z.nXjXA.A.A.S.mXmXMXFXFXIXjXgXnXDXJXLXMXS.(.|.[.`.'.'.K.H.H.p.J.J.1.G.G.G.G.H.H.1.J.J.1.H.J.J.J.H.1.H.H.J.H.H.H.G.J.K.H.1.H.G.J.H.H.J.J.G.G.s.s.U.J.H.K.K.J.G.J.J.1.1.J.H.J.L.H.G.G.D.G.J.H.H.G.G.*.<.G.G.L.'.`.L.'.K.L.'.`.K.XX X].L.1.H.XX'.H.L.`.{.{.K.K.=X:X{.[.'.'.'.[.`.oX'.`.`.`.L.H.L.H.K.H.H.H.K.'.H.1.K.H.1.1.H.`.].[.D.H.H.1.1.1.1.H.H.1.1.1.H.1.p.J.H.1.1.1.1.H.H.H.H.1.1.H.H.H.`.L.1.1.1.1.1.1.L.[.H.H.L.D.1.1./.C.L 8 8 8 8 8 8 8 8 8 8 8 8 8 8 8 8 8 8 8 9 9 8 8 9 8 8 9 8 w q yXsXdXdXaXaXaXdXaXyXaXsXcXaXr q yXt r t aXdXvXHXzXdXdXxXcXsXsXcXLXGXaXdXvXcXxXzXvXLXKXKXHXxXHXKXGXkXGXSXMXnX_.(.).).^.|.|.|.|.>X>X|.|.@XoX'.'.'.'.].].].'.'.'.].].'.'.'.'.'.oXoXJ.L.'.`.K.J.J.K.L.J.J.K.K.K.R.J.J.J.J.G.J.J.K.R.J.J.K.J.J.J.R.J.J.R.Y.Y.K.'.R.!.Y.Y.R.R.U.U.J.Y.I.U.U.J.U.Y.Y.P.P.P.P.I.I.Y.I.I.P.I.P.P.P.P.P.I.I.P.P.P.U.Y.Y.U.Y.Y.I.I.U.R.T.G.U.Y.Y.Y.Y.Y.I.I.I.Y.OXOXY.OXOXT.T.T.T.Y.Y.Y.Y.I.P.I.Y.Y.Y.E.I.I.Y.I.I.I.Y.Y.I.T.OXY.Y.E.W.T.%XOX%XOX%X%X%XE.%X%XW.Y.T.E.E.T.Q.Y.Y.Y.W.T.OXT.W.&XW.Y.E.I.Y.E.W.%X%XT.Y.E.Y.Y.E.E.W.OX%X%XW.OXOXOXT.T.OXOX%X&X%XW.%X&X%X%X&X&X%XOX%X&X%XOXOXY.Y.Y.Y.Y.Y.Y.E.I.P.Y.Y.Y.Y.Y.E.E.Y.Y.T.%XY.Y.Y.I.P.P.P.I.Y.Y.I.P.I.Y.T.OXOXOXOXOXOXOXOXOXOX+X+XOXOXT.R.OXXXU.OXOXXXOXOXOXOXXXR.OXR.U.U.K.oX].XXOXOXOX+XOXOXoXXXT.Y.Y.T.XX`.oXoX`.XX+XoX#X3X3X#X#X@X@X@X@X@XoXOXOXOX`.oX@X@X#X+X+X+XXXK.XX`.`.[.[.v.v.v.[.[.[.`.[.oXoX[.@XoX].].[.",
",...%.$.$.$.....,.=.=.%.%.$...,.....$.$.o.+.$.$.$.*.=.%...$.$.=.=.=.*.*.*.=.=.=.*.e.e.*.*.=.=.*.*.,.,.<.<.1.<.=.*.=.$.$.$.*.=.=.*.=.*.*.*.*.*.*.*.e.e.*.*.=.*.e.*.i.i.1.<.<.<.i.e.e.i.*.G.i.1.i.i.G.s.G.H.1.1.H.H.1.H.H.H.L.H.1.1.1.3./.S.w 0 K L L K Z.Z.Z.Z.Z.A.A.A.A.A.Z.jXrX_.ZXFXjXjXjXIXjXgXmXmXMXDXDXFXmX(.^.[.K.'.J.H.1.1.H.J.H.1.H.G.<.H.J.H.H.J.1.K.K.J.J.H.H.1.H.J.H.D.J.J.J.K.J.J.H.G.J.H.G.H.J.H.p.J.p.H.J.J.J.J.J.G.G.H.p.p.H.i.p.H.J.J.G.G.G.G.H.H.G.G.G.G.i.G.H.K.H.1.L.K.H.K.L.D.p.L. XL.H.J.K.K.H.K.`.[.L.J.K.'.].H.1.H.XXXX'.'.`.H.L.'.'.L.'.oXH.1.H.J.H.H.[.H.H.`.H.1.H.D.1.L.[.H.1.1.1.H.'.H.1.K.D.H.H.K.L.D.H.1.1.1.H.H.H.H.H.J.1.1.H.H.1.H.1.D.H.1.H.`.D.H.`.D.`.D.[.D.D.I L 0 6 8 8 8 8 8 8 8 8 8 6 6 8 8 8 8 8 8 w w 8 8 8 w 9 9 w w t dXvXcXdXaXaXy uXdXyXuXaXdXzXy r y yXr y zXvXbXbXxXcXxXcXbXbXxXdXvXLXHXvXPXvXdXdXzXbXLXKXKXHXHXPXLXKXPXHXcXkXGXcXhXjXMXMXnX_.(.^.).^.^.^.@X].[.].{.].].'.'.XX`.'.'.'.'.'.'.'.'.K.'.K.`.'.K.J.K.K.J.J.H.K.J.J.K.K.'.K.K.L.R.U.J.J.J.J.J.J.J.J.J.U.Y.R.Y.Y.Y.T.K.U.Y.Y.Y.Y.R.U.R.J.U.Y.Y.I.U.R.Y.I.P.P.P.P.P.P.P.I.I.P.I.P.I.I.P.P.I.P.P.P.P.Y.Y.Y.I.Y.Y.I.I.Y.R.OXT.Y.T.T.T.T.Y.Y.Y.I.Y.T.T.Y.OXOXY.Y.Y.T.Y.Y.Y.Y.I.I.Y.Y.Y.E.E.!.E.Y.I.I.I.I.Y.I.Y.T.Y.Y.Y.T.%X%XT.W.OX%X%XW.E.E.T.Y.%XW.E.%X%X%XW.T.W.W.W.%XT.Y.%XW.Y.Y.I.Y.Y.T.T.Y.Y.Y.Y.Y.E.W.Y.Y.OXOXE.T.T.OXOXT.OX%X%X%XE.W.%X%X%X%X%X%XOXOXOX%X*X%XOXT.Y.Y.Y.Y.Y.Y.Y.Y.Y.Y.Y.Y.Y.Y.Y.Y.Y.Y.Y.Y.T.Y.P.P.P.I.P.Y.Y.Y.T.Y.Y.Y.Y.Y.T.OXOXOXOXOXOXOXOXOXOXOXOXXXT.J.T.OXOXOXOXOXOXOXOXOXOXT.U.U.T.T.XX+X@X@XOXOXOXXXXXOX+XoXOXY.Y.Y.Y.U.XXR.XXXXoX#X#X#X5X3X#X#X@X].@X#XoXOXOX+X@X#X3X#X@XXXXXU.K.K.`.`.`.`.v.v.v.v.v.].].`.v.v.oX@X+X[.v.b.].",
"........$.$.$.....=.*.,.%.%.$.i.%.%.$.$.+.$.$.%.=.*.$.%.%.$.$.e.=.,.,.%.=.=.*.*.*.e.e.*.=...=.=.*.*.,.<.1.>.,.*.*.*.=.*.e.e.i.<.*.=.=.*.e.*.<.*.*.e.e.*.*.*.=.*.i.J.1.<.i.i.i.<.i.i.i.i.i.e.i.s.s.s.s.G.1.1.1.H.H.H.J.H.H.K.H.1.1.D.<.G C.Z.L K K L L K Z.Z.S.S.gXjXpXw L K Z.S.rXmXmXjXA.gXjXgXA.jXjXA.S.mXFXFXmX).^.[.H.H.K.L.1.D.H.1.1.1.H.H.1.H.1.H.H.K.K.J.J.H.H.1.H.H.H.H.H.H.J.K.K.H.K.K.J.J.G.G.G.J.J.G.J.J.J.J.H.H.H.G.G.G.J.J.H.J.J.J.G.J.J.p.H.G.G.G.p.J.G.H.H.G.G.H.H.1.D.J.J.J.'.'.H.H.H.H.H.H.K.XX'.H.L.K.H.H.J.J.J.K.`.J.H.XXXX`.`.'.`.H.L.'.'.K.H.1.1.H.H.H.`.K.D.H.H.H.L.K.H.H.1.D.1.H.H.1.1.K.'.H.1.1.1.H.H.L.D.1.1.1.1.1.1.XXK.1.1.1.1.L.H.1.H.1.D.L.D.].[.1.[.[.1.D.D.k././.I 0 6 4 8 8 8 8 8 8 8 8 8 8 8 8 9 9 9 w 9 9 w 8 8 8 w UXpXyXyXvXLXvXaXy aXy y dXdXy y y dXdXy y yXy yXzXxXzXHXHXvXbXvXvXbXvXdXaXdXvXHXbXbXxXxXcXcXvXHXKXLXKXKXLXPXHXHXbXHXPXHXkXcXHXLXHXGXkXgXS.S.S.S.S.).).).1X1X|.|.[.[.`.'.'.'.'.'.'.'.'.`.K.'.'.K.K.J.K.'.`.K.J.H.J.H.H.XXK.'.'.$XL.R.XXJ.J.U.J.K.K.K.K.K.U.Y.U.U.U.J.U.K.U.T.T.Y.R.!.R.Q.R.Y.U.U.Y.Y.U.G.I.P.P.I.P.P.I.P.P.P.P.P.I.I.U.Y.Y.I.I.I.P.P.I.I.I.Y.I.Y.I.I.Y.T.XXOX%XOXOXOXOXT.U.Y.Y.Y.Y.Y.R.U.T.T.Y.OXOXT.Y.Y.Y.Y.Y.Y.Y.E.E.Y.Y.I.Y.Y.Y.Y.Y.Y.Y.Y.Y.Y.%XW.E.W.Y.W.%X%XW.E.E.Y.E.E.%X&X%X%X%X%XQ.%X%X%XW.Y.Y.E.Y.Y.E.E.I.I.Y.Y.Y.Y.Y.Y.Y.Y.E.W.T.T.T.Y.Y.E.%XOXT.%X%X%X%X%XW.E.W.OX%X%X%X%XOXOX%X%X$X*X%XT.T.T.OXW.Y.Y.Y.Y.Y.Y.Y.Y.Y.Y.Y.Y.E.Y.Y.Y.Y.Y.Y.Y.Y.Y.I.P.Y.T.T.%X%XY.Y.Y.Y.Y.T.OXOXOXOXOXOXOXOXOXOXOXXXOXXXOXOXOXOXOXR.R.XXOXOXXXR.U.U.U.T.OXOX$X+XOXOXOXXXXXOXOXOXOXT.I.s.s.s.s.J.XXXX[.oX@X#X@X@X#X@X@XoX@X#X#X+XOX@X#X3X3X#X+XOXT.J.T.+XXXb.`.`.K.`.`.v.v.#XoX[.v.`.].[.oX[.v.v.+X",
"$.$.$.$.$.$.......%.=...%.$.$.$.$.$.$.$.$.$.=.%.$.*.=.$.$.8.$.i.<.,.,.,.=.*.$.=.*.$.=.*.>.,.*.=.*.e.e.=.<.,.=.=.*.*.*.*.e.d.i.<.<.*.*.*.i.i.i.*.*.*.*.*.*.*.*.e.s.H.1.<.G.i.<.i.G.s.s.s.i.e.i.i.s.s.s.i.1.1.1.J.1.H.H.1.H.H.1.1.H.H.1.3.G C.Z.Z.Z.Z.K K Z.S.nXmXjXiXpXq U Z.K K _.mXjXA.Z.S.S.Z.Z.Z.Z.Z.A.mXmXjXZXZX)././.H.p.H.H.1.1.1.H.H.H.J.J.H.1.1.H.K.K.J.J.J.J.J.H.J.G.G.G.J.J.H.J.J.K.J.H.J.G.G.G.G.J.J.i.J.J.J.H.J.G.G.G.G.G.J.G.J.H.G.G.J.J.p.<.G.J.H.1.G.H.H.H.G.J.G.G.G.G.G.H.J.H.`.L.H.K.L.H.J.K.oXoXR.XX'.H.K.L.H.J.J.J.J.H.H.'.].H.`.K.L.`.`.K.H.H.H.D.L.K.`.H.1.H.J.J.H.`.`.'.L.H.H.1.H.H.1.1.L.L.H.1.1.H.H.1.1.1.1.1.H.H.H.1.D.D.1.H.1.1.L.H.1.H.H.1.1.1.`.`.H.[.H.D.1./././.I 7 4 4 6 8 8 8 8 6 8 8 8 8 8 8 8 8 8 9 w w 8 w 9 w q yXkXdXxXHXKXHXsXuXaXy y y aXy t y aXcXzXaXsXaXaXaXdXdXcXPXKXHXxXzXzXcXdXuXyXzXHXHXzXxXHXvXdXzXzXcXHXPXPXKXKXPXHXbXbXPXKXPXxXxXPXKXLXHXGXkXgXgXhXhXgXgXA.gXgXgX_.).^.^./.^.^.[.'.'.'.'.'.`.'.`.`.K.J.J.K.`.K.L.J.U.J.R.R.J.J.J.R.'.'.'.K.J.J.J.J.R.'.'.'.'.XXU.R.T.R.K.'.'.XXXXOXT.R.!.!.T.R.U.J.G.Y.Y.Y.G.I.P.P.P.I.I.G.P.F.P.I.I.I.U.E.U.I.I.G.I.P.P.P.P.I.Y.I.Y.Y.I.U.R.R.OXR.Y.T.T.T.T.R.Y.Y.Y.Y.Y.Y.Y.Y.Y.Y.OXT.T.Y.Y.Y.Y.Y.Y.Y.Y.I.I.Y.Y.I.Y.Y.Y.Y.Y.Y.Y.I.Y.%XT.E.E.Y.Y.W.Y.E.E.E.E.Y.E.%X*X*X%X%X%X%X%X%X%XOXW.Y.E.Y.Y.E.E.!.I.Y.I.!.!.Y.Y.Y.Y.Y.Y.T.%XT.Y.Y.T.OXOXY.Y.%X%X%X%X%X%XOXOXOX%X%X%X%X%X%X+X#X&X%XOXOXOXOXT.E.I.Y.Y.Y.Y.Y.Y.E.E.Y.E.E.Y.Y.Y.Y.Y.Y.Y.Y.I.I.Y.T.OXOXOXOXY.I.P.Y.Y.Y.Y.T.T.OXOXOXOXOXOXOXOXOXOXOXOXXXXXT.OXU.OXOXOXOXT.R.U.I.I.I.R.OXoXXXOXOXOXOXOXOXOXXXXXR.a.a.s.U.U.U.K.`.'.].OX+XoX@X@X+X+X#X@X@X#X+X+X+X#X3X3X#X@XOXR.U.OX+Xv.b.b.R.J.J.b.v.v.@X].`.`.v.`.`.`.v.v.`.`.",
"$.$.$.$.$...........%.%.%.$.$.,.,.......%.%.o.%.$.$.$.$.$.$.$.$.=.-.=.=.=.=.*.*.*.=.$.=.*.=.$.=.*.*.*.*.*.=.=.=.=.*.*.*.e.=.*.=.*.*.*.*.*.*.e.*.e.d.<.*.*.*.*.e.e.i.i.G.G.i.e.i.s.i.i.<.<.G.H.i.i.i.i.G.1.<.H.L.1.1.1.1.p.H.1.H.H.D.D.1.3.I Z.Z.K U K K K Z.A.jXiXV.P K K Z.U K S.jXA.Z.Z.S.S.Z.Z.Z.Z.Z.Z.S.A.S.mXDXZXS./.D.1.H.J.1.1.1.H.H.H.J.J.J.J.J.H.H.J.H.L.K.H.J.J.J.J.G.H.H.J.<.H.J.H.H.H.G.i.G.G.G.G.J.J.J.K.L.J.H.i.i.G.G.G.H.H.G.G.G.G.J.J.H.p.i.H.i.H.G.G.H.<.G.H.G.H.G.G.H.H.H.J.K.L.H.H.`.L.H.L.H.'.K.'.H.H.H.H.H.J.H.K.K.L.L.'.`.H.L.L.H.K.`.H.H.H.H.`.'.H.1.1.p.H.H.H.L.K.H.H.L.J.K.L.H.D.L.K.L.1.1.H.H.L.H.1.1.H.D.1.H.H.1.1.1.1.1.H.1.D.J.H.1.D.H.D.H.H.1.H.L.D.2.L.H././.I 7 6 8 8 8 9 w 8 8 6 8 8 8 8 8 8 8 8 9 9 9 w 8 w q iXfXxXxXvXHXHXHXxXzXxXaXy uXaXy r r uXxXHXvXzXsXaXaXdXdXdXvXcXvXdXyXsXxXdXuXaXaXcXHXxXdXcXvXdXzXxXsXdXvXbXvXPXKXKXKXHXHXLXKXKXPXvXvXHXKXLXKXHXcXkXkXkXkXkXhXhXhXkXjXgXS.S.S.S.(.^.^./.[.'.'.'.'.H.K.K.K.J.L.H.L.`.'.'.K.R.R.J.J.H.L.`.'.'.J.K.J.J.J.K.K.`.'.XXXXK.K.R.R.XXXX`.`.'.XXR.R.Y.R.U.U.G.U.U.U.U.U.U.I.P.P.P.P.I.I.P.P.P.I.I.I.I.I.I.I.U.Y.I.I.I.P.I.Y.Y.Y.Y.Y.Y.U.XX&XXXK.U.Y.Y.Y.T.T.T.Y.Y.Y.T.T.T.Y.Y.Y.T.U.Y.T.T.OXT.Y.Y.W.Y.Y.Y.Y.Y.Y.I.I.Y.I.Y.Y.I.I.Y.Y.Y.Y.Y.T.OXT.OX%XW.%XW.Y.Y.W.W.W.%X&X&X&XT.W.%X%XW.R.T.%XT.Y.Y.E.!.!.E.Y.I.I.Y.W.!.Y.T.Y.E.Y.Y.Y.T.T.T.Y.Y.OX%XW.E.W.OX&X%XOX%X%X%XOXOXOX+X=X;X&X%XOXOXOXT.Y.W.W.W.Y.Y.Y.Y.T.OXT.Y.Y.Y.Y.Y.I.I.Y.Y.Y.I.I.Y.T.OXOXOXOXT.I.Y.Y.T.T.Y.Y.T.OXOXOXOXOXOXOXXXXXOXOXOXR.XXOXOXOXT.U.T.T.T.Y.J.I.U.J.U.R.XXT.XXOXOXOXOXOXXXXXXXXXJ.a.s.U.R.R.K.].oX+XOXoX+X#X+XOX+X#X@X@X@X{.XXOX+X@X].v.K.U.U.s.U.J.b.K.J.p.b.b.b.v.`.[.`.'.`.v.[.oXv.b.v.@X[.",
"8.8.$.%.%.%.........%.$.$.$.$.%.>.,.,.%.$.%.o.$.$.$.$.$.$.+.$.$.$.$.$.$.$.=.=.*.*.=.$.*.*.$.*.*.*.=.*.*.*.*.*.*.*.*.*.*.*.*.*.=.*.*.*.*.*.*.e.*.e.e.*.*.*.*.*.*.*.*.*.*.*.*.i.e.e.=.*.<.G.H.i.i.s.i.=.D.1.1.D.H.H.H.H.1.1.1.1.1.1.D.1.1.1.G C.K K K K K K U A.jXpXq P K K K U A.A.Z.Z.Z.K Z.S.S.A.V.Z.Z.Z.Z.Z._.mXmXJXFXA.j.D.D.G.G.H.H.H.1.H.1.J.J.J.L.K.H.H.K.K.L.D.H.L.H.H.J.J.H.J.H.H.J.J.H.H.G.U.G.G.G.G.i.p.J.`.L.G.G.G.*.i.s.s.H.p.H.J.G.H.H.K.`.D.J.H.i.i.G.G.i.i.G.D.=.<.G.H.J.J.H.J.J.H.J.L.K.'.H.K.L.H.L.H.J.L.H.H.K.K.L.`.'.'.'.`.H.H.J.K.`.`.`.H.L.oX'.L.K.H.1.1.H.K.K.H.`.K.1.1.1.H.L.`.L.L.'.L.1.1.1.D.K.H.1.1.1.p.D.H.1.1.1.1.1.1.1.H.H.H.1.1.1.H.1.1.1.1.1.1.1.1.1.D.D./.I L 4 6 8 8 8 8 0 8 9 8 8 8 8 8 8 9 9 w 9 8 w q q pXfXxXcXxXHXPXvXdXdXaXdXaXaXaXaXaXyXyXdXGXPXPXxXsXaXdXzXxXbXvXdXaXaXsXkXvXHXdXiXiXkXcXvXdXuXuXsXaXsXdXdXzXzXxXvXPXLXKXKXbXHXHXHXHXHXLXPXPXKXKXKXKXHXxXxXkXkXkXkXkXxXxXxXkXhXhXlXlXgXgXjXmXmX(.^.^././.].[.].'.`.`.[.[.'.[.'.K.L.J.J.J.L.R.L.J.K.`.J.J.J.J.J.J.K.'.R.J.J.J.K.XX'.'.'.R.U.J.U.Y.U.J.U.U.Y.U.J.G.G.Y.G.P.P.P.P.P.P.G.P.P.P.P.P.I.P.I.I.U.I.I.P.G.I.U.Y.U.U.Y.Y.R.XXOXOX'.XXT.T.Y.Y.Y.Y.Y.Y.Y.Y.T.OXY.Y.Y.Y.T.T.Y.Y.OXOXT.Y.Y.Y.Y.Y.Y.Y.Y.Y.Y.I.Y.I.I.P.P.Y.Y.Y.Y.Y.Y.T.%X%X%X%XW.OXOXT.Y.Y.E.W.OXOX%X%XY.Y.T.OXT.Y.%X%XT.Y.E.W.E.!.Y.Y.Y.Y.Y.W.W.Y.Y.Y.Y.Y.Y.Y.Y.Y.Y.Y.Y.%X%XW.T.%XOXT.W.%X%X%X%X%X%X%X%X%X&X&X%X%X%X%XOX%X%XW.%XW.W.Y.Y.T.T.T.E.Y.I.I.Y.Y.Y.Y.Y.I.P.I.I.Y.T.OX&X&XOXY.Y.Y.T.OXOXT.OXOXOXOXOXOXOXOXXXXXOXOXOXU.U.T.OXOXT.U.Y.Y.Y.I.P.I.s.U.U.T.OXXXXXOXXXXXOXOXXXXXOXOXU.s.s.s.s.U.K.`.].].XX+X@XoX@X+XOX#X@X#X3X#XoX`.K.K.K.p.J.Y.U.s.a.s.J.J.J.b.v.b.b.v.[.@X`.XX`.v.v.oXoX@X@X#X@X",
"#.$.%...%.$.........$.$.$.$.$.%.%...%.$.$.=.$.=.=.=.$.$.$.$.*.*.$.%.$.$.$.=.*.*.*.*.*.=.=.=.=.*.*.*.*.*.*.*.*.*.*.*.*.*.*.*.*.$.$.*.*.*.*.*.*.*.*.*.*.*.*.*.*.*.*.*.*.*.*.*.i.i.*.*.G.<.i.H.<.<.s.i.G.G.1.1.1.1.i.H.H.H.J.H.H.1.D.K.L.D.<.-.G I K K K K K U gXgXV.V.V.K K K K Z.A.V.V.U Z.Z.S.mXgXV.Z.Z.Z.Z.Z.S.S.gXjXMXjX_.^.D.H.G.J.H.H.H.H.H.J.J.K.`.'.'.K.K.L.D.D.D.H.H.1.H.J.J.H.H.H.H.H.H.G.G.G.G.G.G.G.G.H.p.H.D.G.G.G.G.i.s.J.J.J.J.J.H.i.1.`..X[.J.1.i.i.G.G.d.G.G.<.G.G.G.i.i.J.J.J.H.1.H.%X'.L.H.`.`.J.L.K.J.K.XXK.'.`.L.H.H.H.H.1.1.H.K.K.`.'.`.H.H.`.'.L.1.H.H.D.H.H.J.H.1.1.1.1.H.H.1.1.H.H.D.H.H.1.1.1.D.1.1.1.1.<.J.H.1.H.1.1.1.1.1.1.H.1.1.1.1.D.1.1.1.1.1.1.1.1.1.D.3.I 0 8 8 8 8 8 8 8 8 8 w 9 8 8 8 8 9 w q w 9 w pXiXkXcXcXzXxXvXHXzXaXy y y aXy aXsXy aXcXHXPXPXHXxXdXzXdXxXvXHXHXvXcXbXvXGXPXKXKXvXGXGXPXbXcXzXxXcXxXxXkXdXdXdXxXzXcXbXcXHXKXPXvXzXdXsXzXvXvXHXHXHXHXLXPXbXbXbXvXkXhXkXzXvXHXHXkXhXhXhXzXcXvXHXcXgXA.A.Z.C.(.^.^./.L.`.'.K.H.K.'.'.`.L.J.J.J.J.J.J.J.L.H.J.J.J.J.J.J.`.K.J.J.J.J.K.`.XXQ.!.J.J.!.R.U.R.OXY.Y.U.U.G.U.U.G.G.G.G.G.I.P.P.P.I.P.I.I.I.P.I.I.I.P.P.P.s.J.J.Y.Y.U.R.OXXXR.OXOXXXOXOXOXR.U.Y.T.T.T.Y.Y.Y.Y.Y.Y.Y.Y.T.T.Y.Y.OXOXY.Y.Y.Y.Y.Y.Y.Y.Y.Y.Y.Y.Y.I.P.F.F.Y.Y.Y.Y.Y.Y.OXOXT.OXT.W.%XW.%XW.Y.Y.T.OXT.W.W.Y.Y.Y.T.Y.Y.W.W.W.E.E.Y.E.E.Y.Y.Y.Y.Y.U.Y.Y.Y.Y.Y.Y.Y.Y.Y.Y.Y.Y.Y.T.%X%X%XOX%XT.Y.%X;X&X%XW.E.%X%X%XOXOX&X%XOXOXT.W.T.T.%XT.T.Y.Y.Y.Y.Y.Y.Y.Y.Y.Y.Y.Y.Y.Y.Y.Y.Y.I.Y.Y.R.OX+XT.Y.T.T.Y.T.Y.Y.T.T.OXOXOXOXOXOXOXOXOXT.OXXXK.U.U.T.OXOXY.Y.Y.I.P.s.I.Y.Y.T.T.+X=XXXoX`.XXOXOXXX+X+XT.P.J.i.i.s.J.K.'.`.`.oXoX@X@XOXOXoX[.#X3X3X#XXXY.s.i.s.s.U.U.U.s.J.U.U.U.K.v.b.[.[.}.|.].XX[.v.v.v.[.@X@XoX@X",
"..,.,...%.%.....%.%.$.$.$.$.$.%.o.%.$.$.$.$.=.=.-...$.$.$.*.*.*.$.$.$.$.$.$.$.$.$.=.=.$.$.$.*.*.*.*.e.*.*.*.=.*.*.*.=.*.=.=.*.i.i.*.*.*.*.*.*.*.*.*.=.=.*.*.i.*.=.*.*.e.i.*.*.i.i.s.i.1.1.1.G.G.i.G.J.H.H.H.1.<.i.i.1.D.H.D.H.D.1.H.D.D.D.<.;.G I K L K K K A.gXA.Z.Z.K K K K Z.Z.V.P K K Z.S.jXA.Z.Z.Z.Z.Z.A.A.A.gXA.A.gXjXS./.D.J.L.D.1.H.H.H.L.H.H.H.H.H.H.J.H.D.G.H.J.J.J.J.H.i.J.J.H.H.1.H.G.G.G.G.G.G.G.J.G.p.H.J.G.G.G.G.G.G.J.J.J.H.H.J.J.1.H.p.H.`.H.i.G.i.i.s.s.s.s.i.G.G.G.i.p.G.1.H.H.H.H.K.'.L.H.J.J.H.H.L.`.'.].].`.`.K.H.L.`.H.K.L.H.H.L.`.`.L.1.1.1.D.1.H.H.K.[.L.L.L.1.1.H.1.1.1.1.1.H.H.`.K.H.D.H.1.H.H.1.H.D.1.H.H.1.H.1.1.D.1.1.1.1.1.1.1.1.D.1.1.D.1.D.1.1.1.1.3.I L 8 8 9 9 9 9 0 8 0 w 9 w 9 8 9 8 w w q q yXkXvXxXcXcXzXsXdXxXdXaXyXuXaXsXsXaXaXyXaXxXHXPXHXvXzXdXxXHXcXbXPXbXcXvXbXHXHXLXKXPXHXHXLXLXHXbXbXbXHXHXvXxXdXsXsXzXxXxXvXxXzXbXPXHXdXsXaXsXdXzXzXzXcXbXHXvXbXbXHXHXLXGXkXkXdXdXxXvXHXHXcXGXPXHXHXHXkXiXiXiXiXgXgXA.Z.S.(./.^./.H.K.'.'.].`.K.R.J.J.J.J.J.J.J.J.J.H.J.J.K.`.K.K.J.J.J.J.U.XXK.U.U.U.J.U.U.`.XXT.U.R.T.G.G.G.G.G.G.G.G.I.I.I.P.G.I.I.Y.I.P.P.P.I.I.I.I.U.R.K.U.Y.U.R.OXOXR.XXXX%X%XOXR.J.U.Y.Y.OXOXOXT.Y.Y.Y.Y.T.OXT.U.Y.Y.OXOXY.Y.Y.Y.Y.Y.Y.I.I.Y.T.W.Y.P.P.P.P.E.Y.Y.Y.Y.E.XXOX%XT.Y.Y.E.E.Q.W.Y.Y.W.%XOXE.Y.Y.Y.Y.Y.Y.Y.E.E.E.Y.Y.Y.T.W.Y.Y.Y.Y.Y.Y.Y.Y.Y.Y.Y.Y.Y.T.OXT.OX%XOXOXOX%X%X%X%X%XT.T.%XOXT.E.E.W.%XOXT.%XOXOXOXOXT.Y.T.W.%XT.Y.Y.Y.Y.Y.Y.Y.Y.Y.Y.Y.Y.Y.I.Y.Y.Y.Y.Y.Y.Y.Y.T.T.Y.Y.T.T.Y.T.T.T.T.OXOXOXOXOXOXOXOXT.Y.U.R.OXT.Y.Y.Y.T.OXY.Y.Y.I.G.I.I.Y.U.U.T.XXXXXXXXoX+X+XOXOX+X`.U.s.s.s.J.s.U.J.K.'.XXoX#X#XoXXXOX+X+X#X5X6X5XXXI.s.s.s.a.i.K.'.oXoXU.U.J.J.K.`.@X3X7X3X#XoXoXv.v.v.K.K.b.b.v.",
">.,...%.........%.%...%.@.$.$.o.#.$.$.$.%.$.=.%...%.$.$.$.$.$.$.=.$.#.$.$.$.$.=.*.*.*.*.$.e.*.<.,.,.<.,.=.*.,.=.$.8.8.*.=.=.*.i.i.*.*.*.=.*.=.*.*.*.=.@.e.d.s.i.e.*.i.=.=.*.i.i.i.i.i.G.<.<.*.G.i.G.i.G.G.G.i.G.i.<.<.i.i.<.D.G.1.1.1.1.H.H.<.G C.S.K K U Z.Z.A.Z.Z.Z.K K K Z.Z.Z.V.K K K Z.S.A.A.S.Z.Z.Z.Z.A.gXjXgXZ.Z.S.jXjXrX(./.D.H.H.L.D.1.1.1.H.G.G.H.G.J.G.G.J.K.H.L.J.H.J.H.U.J.J.G.H.G.G.G.G.G.*.*.G.G.H.G.G.J.J.G.H.G.H.G.H.H.H.D.J.U.J.L.H.G.H.L.L.G.G.<.i.H.J.i.i.s.K.G.H.H.p.H.J.G.G.G.H.`.K.1.H.H.H.H.H.H.H.`.].[.L.`.'.H.H.`.`.`.K.'. XoXH.`.`.H.1.1.H.D.D.H.K.'.K.H.1.1.H.H.H.1.1.1.1.1.H.K.H.1.H.H.1.H.J.H.H.K.H.<.H.1.<.1.1.H.D.1.1.1.1.1.L.H.L.D.1.D.L.'.H.1.1.3.H h 8 0 P P w 9 w w w 9 w w q w w w q yXfXdXxXvXHXvXdXdXxXsXuXdXvXxXaXdXvXbXcXdXaXdXdXzXcXHXHXHXcXzXxXHXcXdXxXvXzXdXdXxXdXdXbXHXxXxXvXbXcXcXbXbXHXHXHXvXzXfXdXdXdXxXvXvXxXvXbXbXcXaXaXuXzXxXxXzXdXxXbXHXdXsXxXvXHXLXHXvXxXdXfXaXsXxXPXKXKXPXPXHXcXlXiXiXiXsXiXsXsXfXkXjXgXA.S.(.^./.^.|.].'.'.R.J.J.L.H.L.J.J.H.H.L.R.R.K.J.K.J.J.J.J.U.K.K.K.'.R.J.J.J.XXXXXXK.R.T.J.G.G.G.G.G.G.G.I.I.I.I.I.P.I.U.Y.P.P.F.P.I.I.I.Y.*XXXT.T.U.U.Y.T.OXT.R.OX%XOXR.U.Y.Y.Y.T.OXOXOXT.Y.Y.Y.T.OXT.Y.Y.R.T.T.Y.T.T.T.T.Y.Y.Y.P.I.Y.T.I.I.P.P.I.E.Y.Y.I.Y.T.%XOXT.Y.Y.Y.Y.E.W.Y.Y.W.%X%XOXY.Y.Y.%X%XR.I.E.E.T.Y.Y.Y.Y.Y.T.W.Y.Y.Y.W.T.Y.Y.Y.Y.Y.Y.Y.T.OXOX%X*XOXOX%X%X%X&X&XOXOXOXOX%X%XW.Y.T.T.T.T.%XOXOX%XW.Y.Y.T.T.R.Y.T.T.Y.Y.Y.Y.T.T.R.Y.Y.Y.Y.I.I.I.Y.Y.T.Y.Y.Y.I.I.P.P.I.I.U.T.OXOXOXXXOXOXOXXXXX+XXXR.Y.U.T.XXT.U.T.T.T.R.Y.Y.T.Y.I.P.P.I.I.I.Y.Q.XXXXOX#X@X+XOXOXT.U.U.I.s.s.s.i.s.U.s.J.K.oX@X@XoX+XOX+XOXXX@X3X5XXXI.I.I.s.p.v.@X3X5X-XXXK.'.'.K.`.[.3X7X7X#X].K.[.v.`.K.K.`.v.v.",
",.....$.....%.%.*.>.,.%.+.$.$.$.$.$.%.%.%.$.$.%.%.$.$.$.$.%.$.=.=.=.$.=.*.*.*.*.*.$.$.$.*.e.<.<.>.>.>.=.=.*.<.=.$.8.9.*.*.*.*.*.e.e.e.i.,.=.=.*.*.*.*.*.*.e.*.s.i.e.J.<.=.*.<.p.i.i.G.G.=.=.*.G.<.<.i.G.G.i.i.G.p.D.<.i.<.=.G.G.H.1.1.1.H.K.D.3.I C.K K K Z.Z.Z.Z.Z.Z.V.Z.Z.Z.Z.Z.L L K K Z.A.P U Z.Z.Z.Z.Z.A.gXA.A.Z._.rXjXjXmXmX_.C.D.`.L.D.H.H.1.H.G.G.G.G.J.G.G.s.H.D.H.D.H.G.G.i.H.H.H.G.G.G.G.G.G.G.G.G.G.J.G.G.J.J.H.H.J.J.H.H.G.H.H.p.i.i.H.H.H.H.L.J.<.G.G.G.H.J.D.i.s.J.G.<.1.H.J.J.H.G.J.J.`.L.1.H.K.J.H.H.H.1.H.`.`.L.D.K.L.H.H.'.K.D.K.`.L.L.`.K.H.1.1.1.<.H.H.1.D.D.1.1.L.`.1.D.H.1.1.J.H.H.K.1.1.1.1.H.H.H.H.1.H.H.1.1.1.1.1.1.1.1.1.1.1.1.1.L.L.H.D.L.D.D.D.1.3.G H h 0 8 L P P q w 9 w q w w w q q P pXdXvXcXdXdXdXdXdXcXxXdXaXxXHXPXvXbXHXHXcXdXuXaXsXdXxXvXPXHXbXxXdXdXdXuXzXxXsXaXuXdXvXaXaXcXbXHXHXxXsXdXvXbXbXcXcXHXHXxXdXfXaXsXcXcXxXvXbXbXbXdXaXaXaXcXcXxXxXzXcXbXxXsXsXdXzXcXbXxXcXvXxXfXkXdXcXLXKXKXKXPXdXaXsXsXiXsXdXkXkXdXcXxXlXlXiXpXgXgXZ.S.(.(.^.^.].`.`.L.H.J.J.J.L.L.`.'.XXK.J.J.J.J.J.J.J.`.`.'.XXXXK.K.R.T.XXXXK.U.R.J.J.G.G.U.G.G.G.G.G.G.P.I.I.I.G.I.P.P.F.F.I.E.U.R.*XK.U.U.Y.Y.Y.T.OXT.Y.Y.R.T.Y.Y.Y.Y.T.OXR.OXOXT.Y.Y.Y.T.T.OXOXT.T.T.Y.Y.T.OXOXT.Y.Y.Y.Y.P.P.I.Y.Y.I.I.P.P.Y.I.P.Y.T.OXOXT.Y.Y.Y.Y.Y.E.Y.Y.Y.T.T.%XE.Y.U.*X8X&XY.Y.E.E.E.E.Y.E.Y.Y.T.Y.Y.I.I.Y.Y.Y.Y.Y.Y.W.W.OXOX&X&X*X&X&X%X%XT.T.%XOX%X%XOX%X&X%XT.T.T.%X%X%XOXOXT.Y.Y.Y.Y.E.W.%XT.OXT.Y.Y.T.T.OXOXT.Y.Y.Y.Y.I.P.I.Y.Y.Y.Y.Y.Y.P.P.P.P.Y.Y.T.T.T.T.T.T.T.T.OXXX+XR.R.T.T.OXOXT.U.T.XXT.OXY.Y.T.T.I.P.P.s.P.P.I.Y.T.OXOX@X@XOXOXOXR.K.J.K.K.'.'.XXU.U.s.T.K.`.oXoXoX@XOXU.J.s.K.oX].J.s.I.I.s.p.@X5X6X6X5XoXU.+X+XXX`.v.@X3X3X@XK.J.v.`.'.`.`.v.v.v.",
",.,.........%.$.,.,.....$.$.$.$.%.%.$.$.e.$.=.%.%.$.$.=.=.$.$.$.$.$.$.$.*.*.*.*.$.$.$.$.*.*.*.,.>.>.>.,.=.*.*.$.&.8.e.*.*.*.=.$.e.i.i.p.>.=.=.*.*.*.*.e.*.*.e.e.i.e.G.i.=.*.i.i.*.<.G.*.*.=.G.*.i.G.e.i.i.*.*.<.i.H.<.<.i.p.H.D.H.H.H.H.H.L.D.2.tXtXI L K K K K Z.Z.P P U U Z.Z.Z.L K K U A.gXZ.U K K Z.Z.Z.S.gXA.Z.Z.S.jXjXjXjXMXDXmXZ./.D.L.'.'.H.1.H.H.H.D.H.J.p.G.H.H.1.D.J.J.G.H.J.H.1.H.H.H.G.G.G.G.G.G.G.!.!.G.<.i.H.H.H.J.H.1.D.G.H.<.G.G.G.G.G.G.K.L.<.G.G.G.<.D.<.G.G.G.G.s.H.J.J.H.1.H.H.D.L.H.H.'.K.H.H.L.H.1.H.H.L.'.H.L.`.H.H.K.H.1.J.1.1.K.H.L.'.K.H.1.1.H.H.1.1.H.J.1.L.'.H.1.p.1.1.1.1.H.H.H.H.1.H.J.H.D.1.>.1.1.1.1.H.H.1.1.1.1.1.D.1.1.1.1.1.1.1.D.2.D.D.G I I 0 w P q K L q w w P P q q q pXpXyXiXkXcXzXaXyXaXdXxXvXvXdXaXsXbXHXvXxXvXdXaXaXaXaXaXaXdXdXvXbXxXdXzXaXaXaXzXdXuXt y aXcXvXzXzXvXbXHXdXuXdXcXxXvXbXdXaXHXPXxXdXaXsXdXxXxXcXbXbXHXcXuXuXaXdXvXcXzXzXxXbXvXdXaXdXzXzXxXcXzXxXvXcXxXxXcXHXbXPXKXKXHXdXhXfXdXdXdXdXdXdXzXvXdXfXlXiXyXyXiXiXpXgXgXgXS.(.^.[.L.J.J.J.J.L.K.K.K.`.`.K.K.J.J.J.J.`.'.'.XXXX'.'.XXOXXXU.R.K.K.R.R.J.G.I.U.G.U.J.J.J.G.I.I.Y.I.G.G.G.I.P.P.I.U.U.G.G.G.Y.U.U.U.Y.T.XXR.Y.T.OXOXT.Y.R.R.%XOXU.T.OXOXT.Y.Y.Y.Y.OXOXOX&XT.Y.Y.T.OXOXT.Y.T.T.Y.Y.I.Y.Y.Y.P.P.P.P.P.P.I.T.%XOXOXT.Y.Y.Y.Y.Y.Y.Y.Y.Y.W.T.Y.Y.Y.W.W.Q.T.Y.Y.Y.E.E.Y.Y.Y.Y.Y.Y.Y.Y.I.I.I.Y.Y.T.OXOX%XOXOX&X:X=X$X$X%XT.Y.T.T.OXOX%X%XOX%X%X%X%XOX%X%X%X%XOXOXOXT.T.OXT.Y.W.%XT.Y.Y.Y.Y.Y.Y.T.OXOXY.P.I.Y.Y.Y.Y.Y.Y.Y.Y.Y.Y.Y.P.I.Y.Y.Y.R.U.U.T.T.Y.Y.Y.R.OXOXU.XXT.Y.R.T.T.U.U.OXT.U.Y.Y.Y.I.P.P.P.s.P.P.I.Y.Y.R.U.'.XXXX`.XX`.v.[.[.}.3X6X5X%XY.T.OXT.U.K.K.XXXXK.J.s.s.s.s.J.U.T.I.s.s.p.].-X6XNX2X@XU.J.K.v.v.v.v.[.}.[.K.J.XX'.`.v.b.v.v.v.",
",.>.,...,...%.$.$.%...%.$.$.$.$.%...$.*.i.=.=.$.$.$.$.*.*.=.%.$.=.=.$.$.$.$.$.*.=.%.$.$.e.d.*.=.<.>.>.,.*.*.=.=.=.e.e.*.*.*.*.$.*.*.*.s.<.$.e.*.*.i.i.i.*.*.e.*.*.*.=.=.*.*.s.s.i.i.e.*.i.G.G.i.e.i.s.i.i.G.G.i.i.<.<.<.p.H.L.D.1.1.H.H.D.D.D.1.3.G j L K K K K Z.P L K K K K U K L K K A.jXgXA.U K K Z.Z.S._.A.A.A.A.A.jXjXjXjXmXFXDXMXZ.tX`.K.H.H.H.L.1.G.G.G.J.J.J.J.L.H.H.H.H.J.J.J.J.1.1.1.H.H.G.J.J.G.G.U.G.G.G.G.i.G.G.G.J.1.H.D.G.G.G.G.G.G.H.D.H.H.H.<.D.D.G.G.G.G.G.G.J.1.H.H.H.s.p.H.`.[.`.K.p.H.H.L.1.1.L.XXH.1.H.H.H.H.'.'.H.K.L.H.H.L.1.H.K.H.H.H.H.J.H.H.1.H.K.H.1.1.1.1.K.L.<.<.1.1.1.1.1.1.H.K.1.H.L.1.1.H.1.1.H.1.2.H.`.D.L.H.1.1.L.L.1.1.1.D.j.G G I I I I K P q q q q V.V.V.q pXfXiXyXuXdXcXkXkXkXdXsXaXaXsXdXxXvXdXaXaXsXdXdXdXdXdXsXdXdXsXaXaXaXdXdXsXzXcXzXzXdXuXaXxXcXsXyXy aXxXvXxXdXsXsXzXvXzXdXdXvXxXvXcXdXdXPXvXaXsXdXsXdXxXcXbXvXvXHXdXuXaXuXdXvXcXxXxXvXHXxXdXsXsXdXdXzXzXdXzXxXvXvXxXcXcXcXHXKXKXPXdXfXdXdXdXdXsXsXzXvXxXdXfXuXyXyXuXiXiXyXyXiXkXkXjXgXS.C././.`.`.H.L.'.].].].'.'.K.J.K.K.'.'.'.'.'.'.'.XXXXXXJ.J.K.&X&XXXJ.U.Y.G.G.U.Y.R.U.U.I.G.I.P.P.I.P.I.G.I.I.G.I.Y.I.Y.U.U.J.J.J.J.K.K.U.K.XXOXOXOXXXOXOXOXOXOXOXOXOXY.Y.Y.Y.OXOXOX%XW.Y.Y.T.W.Y.Y.Y.T.OXY.Y.Y.T.Y.Y.I.P.P.P.P.P.Y.T.*X*X%XT.Y.I.P.I.I.I.Y.Y.Y.Y.Y.Y.Y.Y.R.Y.I.I.Y.I.Y.Y.Y.Y.T.Y.Y.Y.Y.Y.Y.Y.Y.I.Y.T.OXOXOXT.OXOX;X;X$X&X&XT.Y.Y.Y.T.OXOXOX%X%X%XOXOXOX%X%XOXOX%X%XT.OXW.%XOXT.T.T.OXT.Y.Y.Y.Y.Y.Y.T.OXT.Y.P.P.P.I.Y.Y.Y.Y.Y.Y.Y.Y.Y.Y.Y.Y.Y.T.T.OXOX%XOXT.OXT.T.OXOXY.T.U.J.U.Y.Y.Y.R.T.T.U.Y.OXY.P.P.s.P.P.P.P.P.I.Y.U.R.XX+X@X`.`.[.#X3X3X7XNXNX6X-XXXU.U.Y.Y.U.U.R.J.J.U.s.I.P.s.s.U.XXU.Y.U.XX@X@X3X7X6X@XU.J.p.v.v.v.v.v.[.`.J.K.U.v.v.].].v.v.`.",
",.,.>.,.,.,.%.$.+.%.%.$.$.%.%.%...%.%.%.%.....$.$.$.$.*.,.,...$.$.$.8.$.$.$.$.*.=.%.$.@.*.<.*.<.<.<.<.,.*.*.=.*.*.e.*.*.i.=.<.i.*.=.$.e.e.e.e.=.=.*.i.f.*.*.*.*.=.e.e.e.e.*.d.i.G.s.s.i.i.G.i.<.i.i.i.<.s.G.G.G.*.=.<.1.1.1.1.p.1.1.1.1.<.<.D.1.1.D H h L K K K V.P L K K Z.U K K K K Z.gXjXV.P K K U Z.Z.Z.Z.Z.Z.A.gXA.gXjXgXgXmXmXMXJXFXrX^./.1.H.K.K.H.G.G.G.J.J.H.H.1.L.K.H.1.H.L.J.H.1.1.H.J.H.H.J.J.G.G.U.J.H.G.G.G.G.i.H.K.J.H.H.H.G.G.H.i.H.D.1.D.1.1.<.D.J.G.G.H.K.H.J.XXH.H.H.1.p.L.`.{.[.L.L.H.L.H.H.1.p.H.H.H.H.J.J.H.J.'.L.H.H.1.1.H.K.H.`.L.1.H.H.H.J.H.H.2.p.`.D.H.H.1.1.1.L.<.<.J.H.1.1.1.1.H.L.1.H.`.1.1.H.1.1.D.D.L.`.`.1.H.L.1.1.D.[.2.j.I I I I I K K K K L P P P iXiXfXfXsXaXdXxXdXdXxXbXbXcXdXaXdXdXdXxXcXxXxXdXaXaXdXxXxXuXy sXzXzXzXaXaXsXsXdXsXaXzXbXbXzXdXaXyXdXxXdXaXy yXdXvXcXdXsXdXdXxXxXxXcXcXzXaXzXxXcXHXHXsXsXdXdXdXdXxXvXbXcXHXcXaXuXaXaXsXzXvXcXcXHXHXsXdXdXdXdXdXzXdXdXdXcXHXvXxXxXzXcXHXKXKXHXxXdXsXdXdXsXaXdXxXzXdXdXiXiXuXuXiXiXyXuXaXfXdXkXhXhXhXjXnXS./././.[.|..X.X{.[.'.K.K.'.`.'.'.'.K.'.XX'.'.`.K.K.R.K.R.XXXXJ.G.G.I.G.G.U.U.J.U.G.I.P.P.P.P.P.P.P.P.I.I.Y.U.I.Y.U.K.K.U.K.J.XXXXXXXXXXOXOXOX+XOXXXXXOXOXOXT.T.Y.Y.Y.Y.T.OXOXOX%XT.Y.Y.W.W.T.Y.T.T.T.Y.Y.T.T.I.P.P.P.P.P.P.Y.OX;X%XOXY.Y.I.I.Y.E.E.Y.Y.Y.Y.Y.E.E.Y.Y.Y.Y.Y.Y.Y.Y.E.W.W.%XT.Y.Y.I.I.Y.Y.Y.Y.Y.T.OXT.OXOXOX&X=XoX&XOXOXT.E.Y.T.W.T.Y.T.T.W.%XW.OXOXOXOXOXOXT.T.Y.OX%X%XOXOX%X%X%XT.Y.Y.Y.Y.Y.Y.Y.T.T.Y.I.I.P.I.Y.I.Y.Y.Y.T.T.T.Y.Y.Y.Y.T.OXOXOX+X+X+X+XOXXXXXOXT.T.Y.U.U.Y.Y.U.T.T.OXT.R.Y.T.U.I.I.s.s.a.P.P.I.P.I.U.U.R.XXoX'.'.oX#X3X6XNXNXNXNX<X@XOXR.T.T.Y.Y.U.J.J.i.s.I.s.s.s.T.XXi.U.U.J.XX].[.@X-XXXR.U.J.XX[.`.`.`.v.`.K.'.XXb.b.`.'.v.v.b.",
",.,.,.,.....%.$.%.%.%.%.$.=.$.$.$.$.#.*.=.%...%.+.@.$.*.,.%.$.$.$.$.e.*.=.=.=.*.=.=.=.*.,.<.*.e.<.<.<.*.=.>.=.*.*.*.=.*.s.*.<.*.$.=.=.*.*.*.*.=.=.*.*.*.*.*.*.*.*.s.s.e.*.*.=.e.i.e.i.d.i.G.*.*.<.<.<.*.i.G.i.D.i.i.1.H.H.1.1.<.i.s.i.1.G.<.<.1.1.-.S j L L K K K K K K Z.U K K K K K Z.gXpXP L K K K K Z.Z.Z.Z.Z.Z.Z.gXgXA.Z.A.A.mXMXMXDXDXmXC.3.L.L.D.H.G.G.J.J.J.1.H.J.J.H.H.J.J.H.H.H.H.1.1.1.1.H.J.J.J.G.G.L.D.H.G.G.H.1.J.H.1.1.1.1.H.H.J.H.<.H.p.H.D.D.1.1.1.1.<.1.D.<.<.i.K.K.J.H.H.'.'.[.].].'.`.'.H.1.1.L.K.H.H.H.J.J.H.H.L.L.1.1.H.J.K.`.K.L.1.1.H.H.<.1.1.D.1.1.D.1.H.D.1.1.1.1.<.<.1.1.H.D.<.1.L.L.1.1.D.1.1.1.1.1.1.D.H.[.H.1.D.`.D././.C.I L L K K P P P P P P w q pXkXcXfXyXy aXdXzXdXxXcXvXbXbXcXdXxXxXdXdXcXbXbXxXdXdXxXcXcXzXyXaXvXbXdXsXaXaXaXaXaXaXzXvXcXxXaXy sXzXzXaXy y y dXvXvXvXzXzXcXdXaXuXxXbXcXy y sXxXbXHXdXsXdXdXdXdXzXxXbXbXHXbXiXuXuXaXaXuXsXxXcXbXPXHXdXkXsXdXdXzXxXdXsXzXHXHXcXxXzXzXzXcXHXKXbXxXdXdXdXsXaXzXvXzXsXaXsXaXaXaXaXaXaXaXsXsXsXsXfXhXkXkXkXkXiXgXgXS.S._.2X1X1X^.'.R.K.'.'.'.'.'.'.'.XXXXK.`.K.R.J.J.J.J.J.J.J.G.G.G.G.G.G.I.G.I.P.F.P.P.I.I.I.I.I.I.I.Y.J.J.U.U.U.U.R.R.K.R.'.%XXXXXOXOXOXXXXXOXXXXXOXOXT.Y.Y.Y.Y.Y.T.OXOXOXOXT.Y.Y.T.OXT.Y.Y.Y.Y.Y.Y.Y.I.I.!.P.P.P.I.Y.Y.T.XX*X%XY.Y.Y.Y.Y.!.!.I.P.P.Y.Y.Y.E.Y.Y.Y.Y.Y.Y.Y.E.Y.Y.Y.E.Y.Y.Y.Y.Y.W.T.Y.Y.T.OXT.T.T.OXOX%XOX;X;X%XOXT.E.W.OXOXOXOXOXT.T.W.W.T.Y.T.OXOXOXOX%XT.OXOXOXOXOXOXOXOXT.T.Y.Y.I.P.I.T.OXOXY.Y.Y.P.I.Y.Y.Y.Y.Y.T.OXOXY.Y.Y.T.OXOXOXOXOX@X#X@X+X@X+XOXOXT.U.U.U.U.I.U.T.OXOXOXT.Y.Y.U.U.Y.P.P.P.F.P.I.s.s.U.U.`.XXXXXX`.`.[.3X7X6XNXNXNX7X#XOXR.XXT.U.U.R.R.s.s.s.I.s.s.s.U.J.J.U.s.J.J.K.K.K.J.s.J.s.b.v.v.b.K.J.K.b.`.`.K.J.J.s.s.K.K.K.",
"............%.$...%.$.$.$.$.#.$.$.$.$.#.o.%.%.o.#.&.$.$.-.$.$.*.,.,.,.*.*.*.*.*.e.*.=.=.>.>.*.i.i.>.>.,.<.>.>.>.,.=.=.*.e.*.e.e.i.i.*.*.*.*.*.*.*.e.e.e.*.=.*.=.*.e.i.e.*.*.e.*.*.i.i.e.i.i.e.i.G.G.G.G.i.H.K.1.i.J.H.D.H.D.D.D.i.i.i.<.D.D.1.1.1.1.<.G I K U Z.K K K K Z.K L K K K K S.gXV.P h L K K K U Z.A.Z.Z.Z.Z.A.A.Z.U Z.A.jXmXmXDXDXDXMXS././.H.L.H.D.H.J.H.H.J.J.J.H.H.K.`.H.1.H.H.1.L.L.D.1.H.J.H.D.H.G.G.1.H.H.D.J.J.H.H.1.1.H.H.H.J.J.1.H.D.1.1.1.G.<.1.H.H.H.G.G.*.<.J.J.J.H.H.K.L.`.].|.{.].].K.H.D.L.L.1.H.J.J.L.1.1.1.K.L.D.H.1.L.[.[.`.H.H.J.H.1.H.1.1.1.1.H.1.1.1.1.H.1.1.<.1.1.1.1.1.1.D.`.`.1.1.1.D.H.1.D.1.1.1.1.D.D.3.I I I U Z.V.K K P P P q q P pXiXhXhXkXxXxXsXt t uXaXuXaXdXvXbXbXbXbXvXcXvXzXuXy aXdXzXdXdXzXcXdXdXzXzXHXHXxXaXsXsXuXy y y aXdXaXxXcXaXsXxXzXaXy y y aXxXxXzXcXzXxXdXuXy dXvXcXuXy y dXHXHXcXsXdXdXdXsXdXzXcXHXbXHXdXyXyXuXaXaXaXsXzXbXbXPXvXdXsXsXdXzXxXdXsXzXHXHXzXzXdXdXdXdXdXcXLXbXdXdXxXxXzXdXvXcXsXaXaXsXaXaXaXaXaXaXsXdXdXaXsXdXxXcXdXkXkXfXkXkXhXhXgXAXmX_.(./.[.Q.'.'.'.'.'.'.'.XXXX'.'.K.J.J.J.J.J.J.J.J.G.G.G.G.G.G.G.G.Y.!.P.I.I.s.U.Y.Y.G.G.G.I.U.J.J.J.R.R.J.R.OXXXXXOXOXOXOXOXXX`.XXOX%XXXOXOXY.Y.Y.Y.T.OXOXOX+XOXR.Y.Y.Y.T.T.Y.Y.Y.Y.Y.Y.Y.P.P.P.P.P.P.P.P.I.Y.T.OXOXY.Y.Y.Y.T.Y.Y.I.Y.Y.I.P.Y.Y.Y.Y.Y.Y.Y.Y.Y.Y.T.Y.Y.Y.Y.Y.T.T.Y.Y.Y.T.T.T.T.OXOXOXOXW.T.E.E.%XOXOXOXT.W.%XOXOXOXOX%X%XOXOXOXT.Y.Y.W.T.%X%X%X%X&X%X%X%X%X%X%X%X%XOXT.Y.Y.Y.Y.Y.OXT.Y.Y.Y.Y.I.I.I.I.Y.Y.Y.T.T.Y.Y.Y.T.OXOXOXOXOX+X@X+X+X+XXXOXOXT.R.U.U.Y.Y.Y.Y.T.XXT.Y.Y.I.G.I.I.I.P.P.P.a.P.a.s.Y.U.OXXX`.XXR.J.[.@X3X7XNXBXVX5X+XU.U.U.U.T.U.R.U.Y.I.s.Y.s.s.s.s.i.s.U.J.J.J.U.U.J.i.J.J.K.+X+Xv.`.XXJ.J.J.p.b.K.J.J.i.J.J.J.J.",
"%...%.........$...%.$.$.0.=...%...$.$.$.=.=...%.$.=.$.$.$.$.$.*.,.>.<.=.$.$.$.=.e.e.=.=.>.,.*.*.>.>.,.*.*.>.>.>.>.,.-.%.$.*.*.*.*.*.*.*.*.*.=.=.*.i.i.d.*.e.i.*.=.*.*.e.*.i.s.i.*.G.G.i.*.i.s.s.G.G.G.G.G.i.i.<.i.G.D.1.H.1.D.D.G.G.H.D.<.1.1.1.<.1.D.3.G C.Z.U K Z.K P P L L L K K Z.A.A.P L h L K K K K Z.Z.Z.Z.Z.Z.Z.Z.Z.Z.A.gXgXgXmXFXDXDXLXJXmX(./.D.J.1.1.H.J.J.H.D.H.J.K.`.'.`.H.1.1.H.oXoXK.J.H.1.1.<.<.G.G.G.J.K.K.L.D.H.1.1.1.1.1.1.1.H.1.<.D.H.1.1.G.G.D.D.H.H.G.<.G.G.i.H.H.H.H.H.1.L.`.].].{.{.`.J.H.H.D.1.1.H.H.K.H.1.1.H.'.H.D.H.`.-X.X[.`.1.`. X'.K.H.H.`.L.1.H.H.K.H.1.1.1.1.1.2.1.1.H.H.L.D.D.1.1.1.H.L.1.2.2.2.2./.C.I I I K K K w P q pXpXP pXyXpXUXyXiXxXvXcXsXyXyXaXuXuXy y y sXdXzXvXbXvXcXzXaXy t y yXyXaXsXuXaXaXdXcXcXvXxXdXaXsXaXaXy t yXaXdXsXaXdXzXy aXdXdXaXy uXsXdXzXxXvXcXzXcXaXuXdXHXbXdXyXyXuXxXHXbXvXzXdXdXsXaXzXdXcXPXbXdXyXyXyXuXaXaXaXaXsXvXbXHXcXlXaXdXdXzXdXaXdXHXvXdXdXdXdXdXaXaXaXdXPXHXxXdXcXbXvXvXbXzXsXaXaXaXaXuXaXaXaXaXdXdXdXdXdXdXcXdXdXcXcXxXdXsXsXsXhXhXhXgXgXA.C.^.^.^.[.].'.'.'.'.`.'.'.`.K.K.K.J.J.J.J.J.G.G.G.I.P.P.J.G.s.G.G.G.G.G.U.R.U.G.G.G.I.I.U.U.U.J.U.U.U.R.R.OXU.R.T.OXOXOXXXXXOXOXOXOXOXT.Y.Y.Y.OXOXXXOX%XOXR.Y.Y.Y.Y.Y.Y.Y.Y.Y.Y.Y.Y.I.P.P.P.F.P.P.I.Y.Y.%X%XT.Y.Y.W.OXT.I.I.Y.Y.Y.Y.Y.Y.Y.Y.Y.Y.Y.T.Y.Y.W.%XY.Y.Y.I.Y.T.OXOXT.Y.OXOXT.T.OXOXOXOXOXT.T.Y.OXOXOXOXOX%X%XOX%XOXOXOXOX%XOXOX%XW.W.E.E.T.OXOXOX&X%XOXOXOXOXOXOXOXT.Y.Y.Y.Y.Y.Y.T.Y.Y.Y.Y.Y.Y.Y.Y.P.P.P.P.Y.Y.Y.T.R.OXOXOXOXOXOXOX+X#X+XOXXXOXOXOXOXT.Y.Y.U.U.Y.R.XXOXT.Y.I.I.I.I.I.I.I.I.P.P.s.s.Y.U.R.OXXXXXR.U.`.`.].3X<XNX6X@XOXU.U.R.OXOXXXJ.J.U.Y.U.U.s.s.s.s.s.s.s.i.i.s.s.i.J.XX+XXXK.`.v.K.J.K.p.i.J.J.`.K.J.J.J.K.K.K.K.",
"$.$.$.$.' ' %.$.%.%.$.$.*.,.,.....%.$.$.$.,.,.,.%...=.,.=.8.$.=.=.=.=.$.8.e.$.$.$.*.$.*.i.*.*.*.,.,.=.*.=.=.,.<.,.=.=.=.$.*.=.*.*.*.*.*.*.*.*.*.*.*.*.*.e.i.i.*.*.*.*.e.e.e.s.i.i.<.*.*.*.*.i.i.i.G.G.<.i.i.*.i.i.i.i.H.D.D.1.H.G.G.G.G.i.<.1.i.i.J.H.<.S G I K K U V.P L L L K K U A.A.P K K L K K K K K Z.Z.Z.Z.A.Z.Z.Z.S.nXjXgXgXjXmXMXFXIXJXJXFXMXS./.K.J.H.1.1.H.H.1.H.J.J.`.'.`.L.1.1.D.p.D.H.G.G.D.<.G.D.G.G.G.i.K.K.D.H.G.1.D.H.1.1.1.D.H.i.H.D.<.1.<.G.G.1.1.1.<.i.H.D.1.i.p.J.L.1.H.H.H.K.K.K.`.].[.D.H.`.K.D.H.H.p.J.H.p.H.H.'.D.1.H.L.[.{.1.1.1.L.[.`.1.1.L.'.L.1.1.H.K.1.1.1.1.1.H.1.D.D.L.H.D.1.1.1.1.1.D.1.2.I C.C._.A.V.V.V.P P P P P pXpXyXpXpXiXiXr r yXdXvXcXsXyXiXlXaXiXyXy y uXsXdXzXvXcXzXaXyXy t yXyXyXy y yXyXt aXcXvXxXsXaXsXdXsXuXt y y sXdXzXdXdXaXr yXdXdXdXdXaXdXbXbXxXcXcXdXxXzXaXdXvXLXbXcXkXfXdXHXvXxXbXxXdXaXaXdXcXdXxXPXvXaXuXyXyXuXaXaXaXaXaXvXbXbXxXiXsXdXdXdXsXdXvXxXsXdXdXdXdXaXaXaXaXxXHXbXcXxXxXxXcXvXcXdXsXaXaXyXuXsXaXaXaXaXdXdXdXdXsXdXbXcXvXbXHXcXdXsXsXhXhXuXuXyXiXpXgXgXS.(.^.^.'.].'.K.K.'.'.`.`.`.`.K.J.J.J.J.J.G.G.I.P.U.J.s.s.a.G.G.i.U.U.i.s.U.U.G.G.I.U.Y.U.J.U.Y.U.K.U.T.U.U.T.OXOXOXXXXXOXT.OXOXOXOXY.Y.T.OXOXR.U.Y.Y.Y.Y.Y.Y.Y.Y.Y.Y.Y.Y.Y.Y.I.Y.P.P.F.P.P.Y.Y.Y.Y.R.Y.Y.Y.Y.%X%XT.P.P.I.Y.Y.Y.Y.Y.Y.Y.Y.Y.Y.T.Y.T.T.OXT.%XQ.Y.Y.T.OX%XT.T.OXOXT.T.OXOXOX%X&XOXOXT.%X%X%X%XOXOXOX%X%XW.T.T.W.%XOXOX%XOXOX%XT.W.%XOX$X&X&X%XOX+X+XOXOXOXY.Y.P.I.Y.Y.Y.Y.Y.Y.Y.Y.T.Y.Y.I.I.P.P.P.Y.Y.T.OXOXOXXXOXOXOXOXOX+X+XXXXXK.R.T.U.R.U.Y.Y.Y.Y.T.T.OXOXXXU.Y.I.a.s.s.P.G.U.U.P.a.s.U.s.s.U.J.s.G.K.XXU.`.@X3X}.[.p.U.U.s.U.T.R.XXU.J.i.s.J.J.s.s.s.s.s.s.s.s.s.s.s.i.U.oX@XR.K.v.v.J.J.R.U.s.i.J.p.K.p.K.K.b.b.v.b.",
"$.$.$.$.%.%.$.$.%.%.%.%.$.%.....,.....$.%...%...-.%.$.*.*.$.$.*.=.>.=.%.$.*.*.=.$.8.e.*.*.*.*.*.*.$.$.=.*.e.*.,.,.=.*.*.*.*.*.*.*.*.*.=.e.e.*.*.$.$.e.*.=.*.*.e.s.i.<.i.*.=.e.i.p.<.=.e.i.d.i.1.<.i.s.i.*.e.d.i.s.i.i.i.=.=.=.i.i.=.*.*.*.i.s.i.<.i.H.<.-.G I K K Z.Z.P 9 L L L K K Z.Z.P L K K K K K K K U Z.K U Z.Z.Z.Z.S.MXmXjXjXmXMXIXDXFXIXDXJXLXGXS./.K.`.H.1.H.L.H.H.G.H.L.H.H.L.H.1.H.H.1.D.J.J.D.<.<.G.G.G.G.G.G.G.G.J.i.G.G.s.H.1.H.L.D.G.H.D.<.1.<.G.D.D.1.1.p.H.L.L.H.H.H.H.J.H.L.K.H.K.`.`.`.[.[.`.`.L.1.1.`.K.J.H.p.i.H.L.H.1.1.H.H.1.H.H.1.1.H.H.L.L.1.H.1.1.H.1.1.1.1.1.1.1.1.1.D.D.D.`.D.1.1.1.1.D.D.G I I Z.A.jXhXpXq q P q P iXpXiXiXiXyXuXiXlXt r uXkXvXzXaXuXfXkXdXaXuXyXy aXdXdXdXzXcXzXdXuXt y y aXaXy y y uXaXsXcXbXxXaXy aXdXaXyXy r t aXzXdXdXzXsXt aXvXcXdXdXsXuXdXPXHXxXcXxXvXxXaXaXdXxXHXvXvXcXvXvXHXxXcXvXdXaXaXaXcXxXdXzXHXxXuXyXyXyXuXaXaXuXuXaXvXbXbXxXiXdXdXdXdXzXvXvXdXsXaXaXsXaXuXuXaXaXxXHXbXbXbXcXcXvXcXdXdXsXaXdXaXsXdXaXsXdXdXdXdXdXfXsXdXPXHXvXvXvXdXsXaXaXuXyXyXyXyXy yXyXiXiXgXA.A.(./.[.`.`.'.`.K.'.K.K.K.J.J.J.G.G.G.s.G.G.G.G.G.I.P.G.G.a.P.I.s.I.I.I.G.J.U.J.U.U.U.I.Y.Y.T.OXOXR.U.T.T.OXOXXXT.U.R.OXOXOXT.U.Y.Y.T.T.U.Y.Y.Y.Y.Y.T.T.U.U.Y.Y.Y.Y.Y.Y.Y.I.P.P.P.I.P.I.P.Y.I.Y.Y.I.I.W.&X;X%XI.I.I.P.Y.Y.Y.I.Y.I.Y.Y.Y.Y.Y.T.T.OX%X%X%XOXY.OXOXOX%X*XXXOXOXT.OXOXOX@X@XOX%X%X%X%X%XOXOX%X%X%X%X%XOXOXOXOXT.Y.Y.Y.Y.Y.T.E.W.%X+XOX&X&XOX&X&XOXOXOXOXY.Y.I.I.P.P.Y.I.P.P.P.T.Y.I.P.P.P.P.P.Y.Y.T.T.T.R.U.T.T.OXOXOX+XOXOXXX`.U.T.U.T.I.P.Y.Y.U.T.T.T.R.U.U.Y.I.s.P.P.P.P.I.J.s.I.U.J.i.J.J.J.s.J.U.U.J.K.`.oX`.L.J.U.Y.s.s.U.U.J.U.U.U.U.U.U.U.J.s.s.s.s.s.s.s.s.s.s.U.K.`.`.v.`.J.s.s.s.s.s.i.s.s.s.s.s.i.U.K.K.K.",
"8.$.%...,.,...$.........%.$.%.,.,.,...%.%.o.$.$.$.$.$.$.$.$.$.=.*.*.=.%.$.*.*.$.$.8.9.$.$.%.$.*.*.e.e.$.$.*.*.*.,.*.*.*.*.*.*.*.=.*.*.*.i.e.=.*.*.*.*.*.*.*.*.e.s.i.<.i.*.i.e.J.1.<.e.e.s.s.s.i.s.s.i.*.=.e.a.i.i.*.=.*.*.*.D.i.i.G.*.=.<.i.i.1.1.i.*.-.-.3.D C.Z.Z.V.q 9 h h K K P V.P K K K K K U U K K K K K U Z.Z.S.nXmXmXjXjXjXMXMXDXDXIXIXIXDXLXKXIXA./.^.H.J.J.L.1.1.G.H.H.H.1.1.H.H.1.1.D.1.G.G.D.<.D.D.D.G.D.<.G.G.G.G.<.G.<.i.H.1.1.1.H.L.H.1.<.<.*.=.<.G.1.H.K.'.L.H.L.L.H.<.*.1.J.H.1.H.J.'.'.`.H.H.H.1.1.1.1.H.1.1.p.H.L.K.H.1.1.1.1.H.H.H.H.1.D.H.`.|.k.D.D.1.'.L.<.2.1.1.1.1.1.1.D.1.1.D.1.2.3.3.G I I K Z.A.gXkXkXyXq q UXV.pXiXiXiXlXyXyXuXaXsXsXyXaXdXvXcXaXuXsXdXdXdXaXy yXaXdXzXdXxXvXvXzXdXyXr r sXdXuXyXyXuXuXdXvXxXdXaXy dXzXdXuXy y r y sXdXaXaXaXsXdXcXbXxXdXsXy sXvXHXbXvXbXbXbXdXy aXdXzXbXzXaXzXHXvXvXcXbXzXsXaXaXdXvXdXsXzXbXdXuXyXyXyXaXaXyXuXaXdXvXbXHXxXfXcXdXdXzXcXcXzXsXaXsXaXaXuXyXuXaXsXvXPXbXbXvXvXvXzXdXdXdXsXaXsXdXdXdXdXdXdXdXdXdXsXaXdXxXHXHXbXxXdXdXdXaXaXuXyXuXaXaXuXyXyXyXiXpXgXgXgXA.S.^.^.[.'.'.XXK.J.J.J.J.J.G.G.J.J.G.G.G.G.G.G.G.s.i.P.P.P.P.I.I.G.G.G.R.J.U.Y.U.J.J.U.U.T.OXR.R.T.U.T.XXR.OXT.OXOXOXOXY.U.Y.Y.Y.Y.Y.Y.Y.Y.Y.T.OXT.T.Y.Y.U.I.Y.Y.I.I.I.P.P.P.I.Y.Y.Y.Y.Y.Y.Y.P.P.Y.OX$X%XY.I.P.F.I.Y.T.Y.Y.Y.Y.Y.Y.Y.Y.T.OXOXOXOXOXT.Y.T.%XOXOX&X&XOXOXOX+X&X+X&X&XOXOX%X%X%X%X%XOX%X%XOXOXOXOXOXOXOXY.Y.Y.Y.Y.Y.Y.E.W.%XOXOXOXOXOX%X%XOXOXOXOXOXY.Y.Y.I.Y.Y.I.P.P.P.Y.Y.Y.I.P.P.I.I.Y.U.T.R.T.OXOXT.U.XXOXOX%XOXR.XXXXOXR.J.U.P.I.Y.Y.U.Y.Y.Y.U.U.s.Y.I.s.P.P.P.P.s.J.Y.Y.U.U.U.J.U.Y.J.J.U.U.s.i.s.J.K.K.J.U.I.P.I.I.J.K.XX+XXXOXU.U.s.i.s.s.s.s.s.s.s.s.i.i.i.J.J.J.K.K.J.J.i.i.s.s.s.s.s.s.s.s.s.XXXXXXK.",
"8.$.<.1.>.,.,.=.,.;...%.$.$.$.*.<.>...%.+.o.$.$.$.$.$.$.$.$.$.$.=.$.$.$.$.$.8.e.$.$.=.*.i.,.%.$.$.$.*.$.$.=.e.*.*.e.i.*.<.>.<.*.*.*.=.*.*.*.*.*.*.*.*.*.*.*.*.i.i.i.i.i.e.i.G.R.H.<.i.a.s.s.s.s.s.i.*.=.=.i.s.i.<.=.*.*.*.=.*.i.i.D.*.*.*.*.*.i.D.1.<.*.G.H.3.(.A.P P P L h L K P q P K K K K K K K Z.K K L L K U Z.A.rXmXmXjXjXjXjXMXMXFXFXIXIXIXIXJXLXLXGXjXC.3.H.K.D.H.H.G.J.J.J.1.D.1.1.1.H.1.1.D.G.H.1.1.1.1.1.H.H.D.D.D.1.<.<.H.i.<.<.1.H.1.D.D.1.<.*.*.=.<.=.1.D.L.L.<.<.<.1.H.*.G.H.J.H.1.H.J.`.`.L.H.D.H.H.H.H.H.K.H.1.1.1.1.H.J.H.L.H.1.1.1.H.L.H.1.D.K.`.[.L.L.2.1.1.1.1.1.1.1.1.1.H.D.3.3.3.G I C.Z.U P P pXiXfXkXaXt q V.iXiXiXfXiXyXfXiXyXuXaXaXdXdXkXxXzXvXcXdXsXdXzXdXsXyXy fXkXxXzXzXcXvXcXzXaXr r iXdXsXsXdXsXsXuXaXdXaXt y aXdXdXaXuXuXuXy uXdXzXsXy sXvXcXzXcXdXsXaXaXdXcXbXHXHXvXcXxXdXdXzXaXxXHXdXuXdXxXxXbXHXvXsXdXfXyXxXxXaXdXxXcXzXaXyXyXaXaXaXuXaXaXzXbXbXHXxXzXvXzXzXvXvXdXdXaXaXsXaXuXuXaXaXaXsXcXLXHXvXxXvXxXsXdXdXsXaXaXaXaXsXdXzXdXdXdXdXdXaXaXdXHXHXHXvXsXsXsXaXuXuXaXaXaXaXaXaXyXyXyXyXyXyXyXyXiXgXA.S.C././.H.K.K.K.K.J.J.J.J.J.J.G.G.G.J.G.G.s.s.G.P.P.P.G.s.a.G.G.J.J.G.G.G.J.J.J.J.J.J.XXOXOXOXOXOXOXOXOXOXOXOXOXT.Y.Y.OXT.Y.Y.E.Y.Y.Y.Y.Y.Y.Y.Y.Y.Y.Y.Y.W.T.Y.Y.I.Y.I.P.I.P.I.Y.Y.Y.I.P.P.P.I.Y.T.T.E.Y.I.P.I.E.W.I.I.Y.Y.Y.Y.Y.Y.T.OXOXOXOXOXT.T.W.%XOXOXOXOX+X$X=X#X;XOX%X&XOXOXOXOX%X%X%X%XOXOXOXOXOXOXT.T.T.Y.Y.Y.Y.T.OXW.Y.T.W.OXOXOXOXOX%XOXOXOXOXOXOXOXT.Y.Y.Y.Y.P.P.P.I.Y.Y.Y.Y.I.P.Y.Y.Y.Y.T.T.T.T.OXOXOXOXOXK.U.R.R.XXOXOXU.R.G.I.Y.Y.Y.I.s.I.I.I.I.s.I.s.s.s.s.P.P.P.I.U.U.U.s.I.U.J.U.J.J.J.s.s.s.i.U.J.R.K.i.s.a.P.s.J.K.OXXXb.`.T.R.s.s.s.s.s.s.s.I.s.s.s.s.s.U.U.s.K.R.s.i.i.i.J.s.s.s.s.s.J.s.s.U.K.J.J.",
"$.$.=.>.,.;...%.....%.$.=.$.$.%.....%.$.$.$.$.=.%.$.$.$.$.@.$.%.8.e.=.$.$.$.8.8.=.*.<.<.<.>.$.=.=.$.=.*.$.$.@.=.=.*.*.*.=.=.*.*.*.*.*.e.e.i.=.=.*.*.*.i.i.i.<.1.1.1.i.G.*.*.*.<.D.=.=.i.s.s.s.i.s.i.*.=.<.i.i.i.1.<.i.G.e.=.*.*.i.G.G.=.*.i.i.i.1.D.D.G.G.D.1.I Z.K K K K K K Z.P V.K L K K K K U K K K K L K K U Z.A.S.gXmXjXjXjXmXjXmXIXIXIXIXIXjXMXFXGXPXkXjX^./.D.D.D.D.G.G.J.L.D.H.J.H.H.H.1.1.H.G.D.1.1.1.1.1.H.L.D.L.D.D.H.D.H.D.<.=.<.H.G.<.<.G.G.<.<.D.1.<.D.D.H.1.1.i.G.i.D.<.G.H.H.D.1.H.J.H.1.1.H.J.J.H.1.H.K.K.K.H.1.H.L.K.D.1.H.H.1.1.H.1.1.1.D.[.H.D.H.2.p.H.D.`.D.1.1.<.1.1.1.k.j.I C.C.Z.A.gXV.pXiXlXkXkXkXiXr P P hXkXkXlXyXt t t t yXyXuXaXsXsXzXxXcXvXxXdXdXzXzXdXsXuXdXxXdXzXzXcXcXxXxXaXr r yXkXdXsXzXdXdXaXuXy y y t uXaXaXaXuXsXdXaXuXdXcXxXaXyXdXzXsXaXaXsXdXdXaXdXcXcXvXcXxXcXvXxXxXsXyXzXbXcXdXdXsXxXbXbXzXzXvXaXdXvXdXdXzXcXcXcXdXaXaXaXaXaXaXaXsXcXvXvXbXcXcXcXvXbXvXzXsXuXaXaXaXaXaXaXaXuXuXaXcXKXPXvXxXzXdXdXdXaXaXaXaXaXsXdXzXzXdXdXsXaXaXaXdXbXLXLXHXcXsXaXaXuXaXaXaXaXaXaXaXuXyXyXpXpXyXyXyXyXpXpXpXpXpXA.Z.C././.[.L.J.J.J.J.J.J.G.U.J.J.i.G.G.U.I.G.G.G.G.U.U.U.U.J.G.P.G.G.U.U.J.U.Y.U.XXXXXXoXXXXXXXR.U.T.OXOXOXR.Y.Y.OXT.Y.Y.Y.Y.Y.Y.Y.Y.Y.Y.Y.I.I.Y.T.XXOXOXT.I.I.Y.Y.I.P.P.I.Y.I.P.I.I.P.P.I.Y.I.P.I.I.Y.I.P.P.P.I.Y.Y.Y.Y.T.Y.Y.T.OXOXOXOX%XW.OXOXOXOX+X+X+X@X:X-X;X+X+X@X+XOXOXOXOX%X%XOX%X%XOXOXT.OXT.Y.Y.Y.Y.T.T.T.T.T.Y.T.T.E.W.%XT.OX%XOXOXOXOXOXOXOXT.Y.Y.Y.Y.I.P.P.P.I.U.Y.U.I.P.I.Y.Y.Y.U.Y.Y.Y.R.R.XXT.XXOXU.U.Y.T.OXOXOXOXU.J.U.U.Y.I.a.I.P.s.a.s.U.s.a.s.P.I.I.I.I.s.J.U.Y.I.Y.U.s.J.U.J.i.s.U.s.s.K.R.J.s.a.P.P.s.J.`.OXU.L.v.XXOXR.s.s.a.a.d.a.a.s.s.s.s.p.`.U.i.J.I.I.s.s.s.J.b.p.s.i.J.J.J.K.s.s.s.s.",
"%.$.%.%.$.$.$.%.$.$.$.$.*.%...%.%...%.%.$.$.$.$.$.$.$.$.8.$.$.$.%.%.$.$.$.$.9.$.=.*.<.>.>.,.*.*.e.*.$.*.*.*.=.=.$.$.&.$.=.=.$.e.*.*.*.i.f.>.,.*.e.e.<.p.p.D.1.=.*.*.e.G.p.i.e.=.*.*.=.=.i.s.s.i.<.1.<.<.*.*.<.i.i.D.D.L.1.>.=.*.i.*.=.*.<.D.i.i.<.<.H.i.i.1.1.3.I K K K K K Z.Z.V.P 0 K K K L K K L K K K K K K K Z.Z.Z.S.jXjXjXMXMXjXjXMXIXIXIXjXjXjXjXjXMXMXDXJXmX/.1.L.D.D.D.H.H.1.1.J.H.1.1.1.1.1.1.1.1.1.1.1.1.1.1.1.D.D.H.G.<.=.i.H.D.D.G.G.<.=.*.<.=.<.1.1.s.H.H.1.<.<.<.1.<.<.<.G.G.J.H.1.D.L.H.H.H.H.H.H.J.1.H.H.H.H.H.J.H.`.'.1.1.H.1.1.1.H.1.H.L.1.1.D.L.L.1.<.<.1.D.1.1.1.2././.I K K Z.A.gXgXhXiXuXyXiXSXSXxXuXq t iXkXxXxXdXpXq q q q pXyXuXuXyXy sXzXvXbXxXdXdXzXxXxXzXaXsXxXxXdXxXvXvXxXxXdXt t y dXcXcXxXdXdXsXaXuXyXt t yXyXy uXuXsXdXaXyXaXsXdXaXaXdXzXzXaXy y aXaXy aXxXxXaXsXxXvXPXKXLXvXiXaXaXxXcXxXdXaXvXvXcXxXbXcXaXHXvXzXzXzXzXcXbXcXdXdXdXdXaXaXy sXvXvXvXbXcXzXzXHXLXxXaXuXyXaXaXuXuXuXyXyXy y aXHXKXHXzXdXaXaXaXsXaXaXaXaXsXdXdXdXdXsXaXaXaXdXdXHXPXHXcXdXvXzXaXaXaXaXaXaXaXaXaXaXaXuXyXyXyXyXyXyXyXyXyXiXiXuXiXkXkXjXnXnX_./.L.H.J.J.J.H.H.J.J.G.s.J.J.U.U.G.G.G.J.J.J.R.U.G.P.I.U.U.J.J.J.J.U.OXXX+X$XXXXXOXK.T.R.XXOXOXY.Y.Y.Y.Y.T.T.Y.Y.Y.Y.Y.Y.Y.I.I.I.I.P.I.U.I.Y.Y.U.I.Y.Y.I.P.I.Y.Y.Y.I.I.Y.Y.P.I.Y.I.P.P.I.I.I.Y.I.P.I.Y.I.Y.OXOXT.Y.Y.T.OXOXOXOXOXOXOXOXOXOX%X%X+X@X#X:X;X#X#X+XOX%X%X%X%XT.XXXXOXOXOXOXT.T.T.OXY.Y.Y.Y.Y.T.T.Y.Y.T.OX=X;X%X%X%XW.W.OXOXOXOXOXT.T.T.T.T.Y.Y.Y.I.I.I.I.P.P.P.I.Y.U.Y.Y.R.T.T.OXT.Y.U.U.U.I.U.U.U.Y.U.J.J.i.s.s.s.Y.I.a.a.P.I.P.s.Y.P.a.s.s.s.I.s.s.a.s.U.Y.s.J.J.s.s.s.J.i.i.s.J.U.R.U.J.i.s.s.s.s.s.U.U.K.b.v.v.`.U.s.s.a.a.a.a.y.a.s.s.s.s.i.s.s.s.G.J.`.b.p.J.K.J.s.s.s.i.J.`.K.J.J.K.",
"+.$.$.$.O.+.$...%.%.%.....%.............$.$.$.$.$.$.$.$.w.i.*.$.$.8.$.$.$.8.$.$.=.=.,.,.,.,.,.i.i.=.$.*.*.*.=.*.*.@.&.&.&.&.@.*.*.*.*.e.>.>.<.e.i.*.=.<.<.1.<.i.i.i.i.<.<.i.*.*.*.*.=.*.*.d.s.i.i.p.<.<.<.*.=.i.G.L.D.1.1.<.i.<.i.*.=.*.*.<.<.G.G.1.1.G.G.<.1.3.G I K K K U A.Z.A.P 0 K K L K K K 0 L K L L K K K Z.A.S.jXmXMXMXMXMXjXjXMXkXjXjXjXjXjXjXjXjXmXJXKXPXjX(./.D.H.L.1.1.1.1.1.D.1.1.1.1.1.1.1.1.<.1.1.1.<.<.<.<.<.<.<.=.<.<.1.D.H.1.<.<.G.<.*.=.G.L.1.i.H.<.<.<.1.i.i.G.<.<.i.p.J.D.1.H.[.L.H.H.1.H.J.K.L.1.1.1.1.1.H.1.1.H.1.1.1.1.1.1.1.1.D.H.1.1.1.1.1.1.1.1.1.1.D./.C.C.C.Z.K P A.gXgXkXGXcXkXhXfXcXvXxXsXpXpXlXxXxXxXdXt w q q q r iXkXfXuXyXuXsXxXPXxXaXsXzXxXxXdXdXaXdXzXdXzXbXbXbXcXxXsXyXaXdXvXbXcXdXsXdXdXdXaXy y y y yXy y aXxXzXuXuXaXaXaXaXaXaXsXdXaXy yXaXy y aXcXdXaXzXzXxXbXPXHXcXiXuXaXxXxXzXuXzXcXdXxXvXHXdXdXHXxXzXsXdXdXxXbXbXzXdXsXaXy y y zXbXbXHXcXxXzXcXPXHXsXuXaXaXaXaXyXyXyXyXyXy y dXLXLXxXaXaXyXyXyXaXaXaXaXaXdXdXzXdXdXsXsXsXsXzXcXbXvXvXxXxXxXaXyXuXaXaXdXsXaXaXaXaXaXaXuXyXyXyXyXyXyXiXiXhXfXdXzXHXPXHXLXLXPXmX^./.[.H.H.J.J.H.J.G.G.G.i.G.U.G.G.G.G.G.J.U.U.G.I.I.Y.U.J.J.J.J.J.K.'.OX%XXXXXXXK.U.J.K.OXT.U.Y.Y.Y.T.OXOXT.Y.Y.Y.Y.Y.Y.I.I.Y.I.P.P.Y.I.Y.Y.Y.Y.Y.Y.I.P.P.Y.Y.Y.Y.I.I.I.Y.Y.Y.Y.I.P.I.I.I.I.I.P.I.Y.I.Y.OXOXT.Y.Y.OXOX+X+XOXOXOXOXOXOXOXOXOXOX+X$X&X;X@X;X&XOX%X%XOXOXOXOX%X%XOXOXOXY.T.OXT.Y.Y.I.Y.Y.T.T.Y.Y.T.OX;X;X&XOX%X%X%XOXOXOXOXOXOXT.U.U.T.Y.U.I.Y.Y.I.P.P.a.P.P.I.U.R.Y.U.U.R.OXOXOXT.U.U.Y.Y.Y.Y.U.U.U.J.J.s.a.s.I.Y.J.s.s.a.P.P.I.a.P.P.P.P.P.s.s.I.s.s.J.J.J.J.s.s.s.s.s.J.s.s.J.s.s.s.s.s.s.s.s.s.s.J.J.L.b.b.J.i.s.s.s.s.s.a.y.a.d.a.s.s.s.i.s.s.s.J.`.].XXK.L.p.p.p.i.s.J.K.J.s.s.J.",
"%.$.$.$.$.%.%.,.....,.....,.%...,.........$.$.$.$.$.$.$.$.<.=.$.o.$.$.$.=.$.$.*.i.i.>.>.>.<.>.>.=.$.$.8.e.*.*.$.$.=.@.@.&.&.=.*.*.*.*.,.>.>.*.*.*.*.=.*.=.*.*.s.i.p.H.1.1.i.*.*.*.D.G.i.*.e.s.i.e.i.i.G.1.<.*.e.i.H.1.1.p.i.i.*.G.<.*.=.=.=.*.G.H.H.D.<.=.<.<.3.-.G L K Z.Z.Z.A.jXV.0 K K L K Z.K L K K K K K K U Z.S.jXjXMXFXIXMXjXMXMXIXjXjXjXjXjXjXjXjXjXjXmXFXPXGXjXZ./.D.D.1.H.1.1.H.J.p.1.1.1.1.1.<.D.<.<.H.H.<.<.<.<.<.1.1.<.1.D.1.D.D.H.1.<.<.H.<.*.G.L.<.1.J.1.1.<.<.1.<.D.2.2.2.1.1.1.D.1.H.L.1.H.H.J.H.L.K.H.1.1.H.1.1.H.H.H.H.H.1.1.1.1.H.1.1.1.D.1.1.D.D.D.D.3.D.C.C.Z.Z.A.A.P q V.hXhXfXdXvXxXkXkXcXbXxXaXt r hXvXvXzXdXy q q q q q y xXvXfXiXyXuXdXvXxXuXaXaXdXzXdXsXaXaXdXdXzXvXbXbXbXxXzXdXaXsXzXvXvXdXdXdXzXxXzXaXy yXyXuXaXyXaXxXvXdXuXuXaXaXuXuXyXy aXaXuXyXyXyXy y dXzXdXxXzXaXsXvXbXHXxXyXyXaXzXzXdXuXzXzXdXzXvXbXsXxXvXdXsXuXsXdXdXvXxXaXsXuXy y yXaXvXbXbXbXdXcXcXvXPXkXuXaXaXaXuXyXyXyXyXyXyXy uXbXKXvXuXuXy yXy y y y y y aXdXzXxXdXaXaXaXdXdXxXxXxXcXbXvXvXdXyXyXuXuXaXaXaXaXaXaXaXaXyXuXyXyXyXuXaXsXsXfXuXuXdXvXPXHXGXvXPXPXMXnX_.(./.D.D.H.H.H.H.G.G.i.G.G.G.G.G.G.G.J.G.G.G.U.G.U.U.J.J.U.J.J.J.XXOX+XXXXXXXU.T.U.Y.T.Y.Y.Y.Y.Y.Y.T.T.Y.Y.Y.Y.Y.I.I.Y.Y.Y.I.P.P.I.P.I.I.Y.I.I.Y.P.I.Y.I.I.Y.Y.I.I.Y.Y.I.I.Y.I.P.P.P.P.I.P.I.I.Y.I.Y.T.OXY.Y.T.OXOX@X@X+XOXOXOXOXOXOX%XOXOXOXOXOX&X+X;X&XOXOX%XOXOXOXOX%XOXOX%XT.Y.T.T.Y.Y.Y.Y.Y.Y.T.T.Y.Y.Y.OX%X&X&XOXOXOXOXOXOXOXOXOXOXT.T.Y.U.U.Y.Y.P.P.P.P.P.P.P.P.Y.W.Y.Y.U.U.XXOXOXOXOXT.U.U.U.T.T.J.s.s.s.s.s.s.s.s.U.U.Y.U.I.P.y.P.P.I.P.P.P.P.s.I.Y.I.s.U.U.J.J.s.s.s.s.U.U.R.U.s.d.a.P.s.s.s.s.a.a.s.J.J.J.J.J.s.a.d.a.a.s.s.a.a.a.a.s.i.s.s.s.s.s.s.p.K.oXoX`.v.v.v.v.p.i.i.J.s.i.s.J.",
"$.$.$.$.,...' ....,.>.>.,.,...............$.$.$.$.$.$.$.$.%.$.$.$.@.$.$.*.*.*.*.f.>.>.>.<.1.2.,.=.=.$.8.9.*.*.*.$.*.e.$.$.=.=.*.=.*.*.,.>.=.*.*.*.*.=.*.*.*.*.d.s.p.H.1.D.H.*.*.G.G.=.i.i.e.i.i.*.*.*.G.1.1.i.*.i.i.<.<.i.i.s.*.D.1.=.=.e.*.*.G.<.<.1.i.i.i.i.<.<.-.G Z.Z.Z.V.P q w 0 K K L U Z.Z.P K L K K K K K Z.gXgXgXmXmXMXkXjXIXkXjXjXjXjXjXjXjXjXjXjXjXjXjXIXJXGXjX(./.D.H.H.D.D.H.J.1.1.1.1.1.D.<.<.1.1.1.1.D.G.1.D.1.D.D.D.1.1.<.1.H.H.1.1.1.1.G.*.G.H.1.<.1.1.1.<.S H I U (.).l.1.1.1.D.<.1.H.1.H.L.D.1.H.'.H.1.1.1.1.1.K.`.1.H.'.L.1.2.p.1.1.H.1.1.1.`.L.H././.(._.jXgXpXV.pXyXpXq yXiXyXuXsXdXvXvXvXvXzXuXt t iXcXvXxXsXyXq q q pXpXq dXxXaXuXyXy aXzXzXuXaXaXuXaXaXaXsXaXsXxXcXbXbXvXbXcXzXzXaXaXzXxXxXxXdXaXdXzXzXsXyXuXdXdXiXy uXxXbXxXaXy y y yXy r r yXuXy yXyXyXyXyXy dXdXdXdXaXdXxXvXbXHXsXpXr y dXsXy uXdXaXdXzXvXcXuXxXxXaXaXyXaXdXdXcXdXiXuXy y t t aXvXbXvXdXsXvXbXHXvXuXyXuXaXuXyXy y y y y y y xXLXPXfXyXuXy y y y yXuXuXyXaXdXcXxXsXaXaXaXdXdXzXdXdXbXbXHXcXsXuXuXaXaXuXy yXyXyXyXyXyXyXaXuXyXuXaXaXuXyXt yXkXHXHXkXfXdXcXHXbXcXMXkXjXA.Z./.D.D.H.J.U.J.J.G.G.G.G.G.G.G.G.s.G.G.J.s.G.G.G.G.J.J.J.U.U.`.XXXXOXK.K.R.U.Y.Y.I.Y.Y.Y.T.OXOXOXT.T.T.U.I.I.P.Y.T.T.Y.I.Y.Y.Y.Y.I.I.I.I.U.I.Y.Y.I.P.P.P.I.I.I.P.I.Y.Y.I.P.P.P.P.Y.I.Y.T.T.I.I.Y.T.Y.Y.OXOXOXOX+X%XOXOXOXOXOX+XOXOXOXOXOX+X@X#X;X&X%XOX%XOXOXOXOX%XOXOXT.Y.Y.T.OXY.Y.Y.Y.Y.Y.Y.Y.Y.Y.Y.T.T.OXOXOXOXOXOXOXOXT.T.OXT.Y.Y.U.Y.Y.Y.Y.I.I.I.P.P.I.s.I.I.U.I.s.U.T.OXOXOXOXOXOXOXT.OXOXT.U.I.P.P.P.P.I.I.I.R.OXT.i.s.P.a.P.P.a.y.P.P.y.s.I.Y.I.s.U.U.J.s.s.s.s.s.s.J.J.s.s.a.y.F.a.s.s.s.F.P.I.J.J.J.J.J.s.d.t.t.d.s.s.s.s.s.s.U.J.s.s.s.s.s.s.s.J.v.v.v.v.v.v.v.s.s.s.s.i.s.i.J.",
"..$.$.$.%.$.%.%...%.,.>.,.,.......%...=.,.%.%...%.%.$.$.$.$.$.$.$.$.$.$.=.$.$.=.=.=.<.=.=.<.<.=.*.=...8.e.*.,.<.i.*.*.$.@.&.&.$.$.=.*.*.=.*.*.e.i.*.*.*.*.i.,.i.a.s.1.<.*.i.s.p.G.*.*.*.*.*.*.i.i.e.=.<.i.i.i.i.e.i.<.*.*.*.e.i.*.<.<.=.i.i.i.1.<.=.<.p.1.p.<.1.<.<.G C.U P P 9 8 L L L L K Z.V.V.K L L 0 L K K K U S.gXgXjXjXmXMXkXjXjXjXjXjXjXjXjXmXjXgXjXjXjXjXMXIXIXjXmXS././.H.1.H.H.J.H.1.1.1.1.1.1.1.D.D.G.G.G.G.<.<.<.1.2.1.1.1.<.1.D.1.1.D.1.1.1.*.H.L.1.<.1.1.<.G j 0 0 0 P Z.S.^.D.D.H.1.1.H.1.H.H.D.L.K.H.1.1.H.H.1.1.D.H.1.1.D.H.D.1.H.1.1.1.1.1././././.S.nXMXhXiXV.P q pXyXt pXyXyXyXyXiXzXbXvXcXzXaXt yXuXdXvXzXaXyXt t q q yXy yXfXuXy y y yXdXdXaXaXaXyXaXaXaXaXaXuXsXcXbXbXxXzXxXdXdXsXaXdXzXxXxXxXaXaXzXxXdXy yXaXzXdXt uXxXvXcXdXt r t r y r r yXaXy y aXyXiXyXy uXdXsXxXkXdXzXxXzXHXGXt q q t aXyXr aXsXyXdXcXHXdXaXcXdXsXiXuXaXsXxXxXiXyXyXt t r t aXcXcXxXy zXbXHXPXfXy y yXyXy y y y y y t y dXPXKXbXuXaXuXy y uXaXaXaXaXaXsXdXxXdXaXaXsXdXdXdXdXsXxXHXHXbXzXsXaXaXaXaXuXyXyXyXyXyXyXy yXaXuXyXaXaXuXyXaXdXHXPXcXdXhXkXvXbXbXbXcXkXhXhXhXhXgXS.(.j.1.J.J.H.J.H.G.H.G.G.s.J.J.i.J.J.J.U.U.J.G.G.P.I.I.U.K.L.U.R.U.K.XXOXXXK.J.U.Y.Y.T.OXOXOXOXT.Y.I.I.I.I.Y.Y.T.T.OXT.Y.Y.Y.Y.Y.Y.U.R.U.U.I.P.P.P.Y.Y.Y.I.P.F.P.I.P.P.P.P.I.I.I.T.W.T.Y.I.Y.Y.U.Y.T.OXOXOXOXOXOXOXOXOXOX&X+XOXOXOXOX+X#X#X;X;X&XOXOXOXOXOXOXOXOXT.Y.Y.Y.Y.T.Y.I.Y.Y.Y.Y.Y.Y.Y.Y.I.Y.Y.Y.T.OXOXOXOXOXOXOXT.T.Y.Y.Y.Y.Y.Y.Y.Y.Y.Y.I.a.s.I.P.P.P.I.Y.I.I.T.OXXXoX+X+XXXOXOXXXXXOXY.I.s.s.a.P.I.I.I.U.T.Y.s.s.U.I.a.F.y.a.P.y.F.a.d.s.s.s.s.s.i.i.s.s.s.s.G.J.I.P.I.s.a.d.a.d.d.s.y.F.F.i.J.i.s.U.s.s.a.y.a.s.s.s.I.s.s.i.s.s.s.s.s.s.s.s.p.K.K.[.'.XXXX`.p.i.s.s.s.i.s.s.",
"%.$.+.$.$.$.$.$.$.%...,.,.........$.%.$.$.$.$.$.$.%.$.$.$.$.$.$.$.$.$.$.$.*.$.$.$.$.s.d.i.<...%.=.*.$.8.e.*.<.,.*.*.*.=.$.5.@.$.$.$.$.*.*.*.*.e.<.=.e.*.*.*.i.e.e.s.i.<.=.i.i.i.*.*.*.=.*.*.*.i.i.e.<.<.i.i.i.i.*.=.=.*.i.i.i.s.i.*.*.G.i.i.G.D.<.i.<.1.<.<.1.1.1.<.3.G K K L 8 L L h h L Z.A.V.q K K K 0 0 K K K Z.Z.gXgXjXjXmXjXjXjXgXjXjXjXjXjXjXjXgXA.A.A.jXmXMXjXjXjXMXmXS./.D.1.1.1.J.D.1.1.1.1.1.1.1.1.1.D.G.G.G.G.D.D.>.>.1.1.1.1.1.1.1.1.<.1.1.1.<.1.1.1.<.<.<.-.j h h 2 7 7 < L K C./.D.1.1.1.1.H.D.D.1.1.1.1.H.p.1.1.1.1.H.1.1.H.L.1.1.1.1.2.2.2./.C.Z.gXjXjXkXlXpXq q V.yXyXt q UXpXpXyXyXiXkXcXzXsXt t yXyXiXdXdXaXy y yXyXUXq r t uXuXt q q yXsXdXaXaXaXyXsXaXyXuXyXyXyXdXbXbXxXzXdXdXuXy aXsXdXdXxXzXaXy dXxXdXy r yXsXsXt t dXdXdXdXyXq q r r r r y uXuXt yXyXaXiXt t sXzXvXHXcXdXaXaXdXHXdXr q t y y t t aXy uXdXvXvXaXsXcXdXzXsXaXaXaXcXxXuXt t r q t yXzXvXxXdXdXvXHXKXvXuXyXuXuXy y y t y y y yXaXHXLXHXdXyXaXaXyXy aXaXaXaXaXaXaXsXdXaXaXaXsXdXdXdXsXdXHXHXcXzXdXaXaXaXaXuXy y y yXyXyXyXy yXyXyXuXaXdXdXzXvXHXHXcXdXxXxXvXbXbXbXvXkXhXhXhXiXiXiXgXgXS.S./.D.D.J.J.J.J.J.J.J.J.J.J.J.J.i.U.U.J.J.G.G.I.U.J.J.K.U.U.U.R.OXOXT.U.J.U.Y.Y.U.OXOXOXOXU.U.I.I.Y.Y.Y.U.U.T.OX%XT.Y.I.I.Y.I.I.Y.Y.Y.Y.P.I.P.Y.Y.Y.P.P.F.P.P.P.P.P.I.I.Y.I.Y.I.I.Y.Y.T.OXT.Y.Y.OXOXXXOXOXOXOXOXOXOXOXOXOXOXOX+X#X#X#X;X#X+XOXOXOXOXOXOXOXOXT.Y.Y.Y.T.T.I.I.Y.Y.P.I.Y.Y.I.Y.Y.Y.Y.Y.T.T.OXOXOXOXOXT.Y.Y.Y.Y.Y.Y.T.Y.Y.Y.Y.Y.I.I.s.P.s.s.P.J.Y.R.U.T.XXXX@X@X+XOXXXOXOXOXOXU.s.s.s.I.P.Y.I.s.s.I.Y.U.U.Y.I.I.P.P.s.P.F.F.F.a.a.y.a.P.I.U.R.I.s.s.J.U.I.P.I.I.s.s.s.s.y.y.a.t.F.F.a.a.d.a.s.s.Y.I.y.a.s.s.s.d.a.s.s.s.s.s.a.s.s.s.s.s.s.i.K.`.'.b.v.K.J.s.s.J.J.i.s.",
"$.$.$.$.$.$.$.$.$.%...>.>.,...,...$.$.$.+.o.$.$.$.$.$.$.$.$.$.$.$.$.$.$.$.$.$.$.$.$.$.$.e.=.=.=.=.$.$.@.&.$.$.$.$.*.*.*.=.e.e.=.$.=.=.*.*.*.e.G.i.*.*.*.e.i.e.i.i.e.i.<.*.*.*.=.=.*.*.i.i.i.<.<.i.*.=.*.e.e.s.i.*.*.*.*.d.s.s.J.i.=.*.G.i.G.G.G.=.i.p.<.,.<.1.1.1.1.<.S h h h h h h L L K A.V.P P K L K L L L L U Z.A.gXgXgXjXjXjXjXgXgXA.A.jXjXjXA.A.Z.Z.Z.gXjXjXjXjXjXjXjXjXgXA.C./.1.1.1.1.1.1.1.1.1.1.1.1.1.1.H.G.G.G.D.D.1.1.<.-.-.<.<.D.D.<.=.1.1.H.1.<.1.1.1.<.<.A f 1 < < : 7 - 1 2 L K C.C.D.2.1.1.D.D.1.1.1.H.H.1.1.H.1.2.1.H.1.1.D.1.2.2.3.C.C._.nXjXjXkXkXfXyXyXpXpXq UXpXt q q q pXP pXyXlXkXdXuXr r y yXiXlXaXy t r pXuXpXq q q q t yXq w q iXdXaXyXuXuXaXdXuXy y yXuXsXxXcXxXdXdXsXyXy uXyXy aXzXaXy t aXdXaXt r y aXsXy r uXuXaXaXy r q q q r r yXyXy yXyXuXdXzXuXy sXxXvXHXvXaXy y aXxXcXr q r uXyXy r yXaXyXsXdXzXxXaXdXdXdXdXuXuXaXaXvXdXyXy y t t uXuXzXvXxXsXxXbXPXHXsXuXuXuXyXt y y y y y y y cXPXbXxXyXyXyXyXyXy y aXaXyXaXaXaXaXaXyXaXdXdXdXdXdXdXcXHXvXdXdXsXaXuXyXyXy y y y y y y y yXuXyXaXsXdXdXzXzXvXcXdXzXxXcXbXbXbXbXvXkXhXiXiXiXyXyXyXyXyXiXgXgXS.S./.D.D.H.K.K.J.J.J.J.J.G.G.J.J.J.J.J.J.J.J.J.J.U.R.R.R.OXOXR.R.Y.U.U.U.U.U.OXT.R.T.Y.Y.Y.I.I.I.Y.Y.U.Y.T.T.T.Y.Y.P.P.P.P.Y.I.I.I.I.I.P.I.I.I.P.P.P.P.P.I.I.I.P.P.P.I.I.I.P.I.Y.T.OXOXY.Y.T.OXOXOXOXOXOXOXOXOXOXOXOXOX+X#X@X@X=X;X#XOXOXOXOXOXOXOXOXOXT.Y.Y.T.Y.Y.Y.Y.Y.Y.I.P.P.I.I.Y.T.OXT.Y.Y.Y.Y.T.OXOXT.Y.Y.Y.T.T.Y.Y.Y.Y.Y.Y.Y.Y.Y.P.P.a.a.P.P.I.T.OXXXXXOXOX+X+XOXOXXXR.R.XXR.J.U.I.s.s.s.Y.Y.I.I.P.Y.T.OXOXY.Y.I.P.P.P.P.F.F.P.y.F.F.a.s.i.U.s.s.s.s.s.I.U.R.U.J.R.OXU.P.P.F.F.F.y.y.y.t.F.I.s.I.s.y.d.s.s.d.t.y.s.s.s.a.s.a.a.s.s.U.I.I.G.K.`.`.v.v.b.K.s.i.J.K.J.J.",
"$.%.%.%.$.$.$.$.8.$.%.,.,...,.,.;.....%.%.$.$.%.%.%.$.$.$.$.*.*.$.$.$.$.$.$.$.$.e.8.$.=.=.,.*.*.=.%.$.4.q.@.e.*.=.8.*.$.$.$.*.$.$.$.$.*.*.*.*.e.p.<.e.*.*.e.*.*.*.*.*.*.*.*.e.e.*.*.i.i.i.p.1.1.1.<.i.i.e.i.i.*.*.e.s.i.i.i.e.i.*.=.*.s.i.=.*.*.i.s.i.p.i.1.1.<.D.1.1.3.J g h h h h L L K K P P K Z.U K K K K K U Z.A.gXgXgXpXA.A.gXgXA.A.A.jXjXA.Z.Z.Z.Z.A.jXjXjXkXjXgXjXgXA.jXmXgX(./.2.1.D.1.1.<.1.1.1.1.1.1.D.D.G.G.<.1.1.1.1.<.-.-.-.=.D.D.*.*.D.1.H.1.-.<.<.D.1.<.J g 1 - < < : 4 : 2 L K Z.S.(./.2.H.K.D.D.H.1.1.1.1.1.L.1.1.1.1.1.1.1./.C.C.S.A.jXMXkXkXkXkXsXt t yXyXyXUXq q q q q V.pXP yXiXkXfXy q q t yXiXiXyXt t q q pXyXq w q q q r w 9 q iXfXaXyXyXyXuXdXsXyXy y yXaXdXdXaXdXsXaXy q t t r t uXaXr r yXaXaXt q r yXaXy r t t r y t q q q q r yXyXyXy y y y dXcXdXy aXdXxXbXcXuXr y aXdXcXdXr r y uXyXt yXsXaXaXaXaXxXzXaXaXaXzXdXy y y dXvXaXyXt y y y y uXzXvXxXdXcXHXPXdXyXaXyXy r r t y y y y y dXPXbXbXfXyXyXy y y y y y y yXaXaXaXaXaXaXdXzXzXdXdXdXzXbXbXzXdXsXaXuXy y y y y yXyXyXyXyXaXuXyXaXsXdXdXdXcXHXvXdXdXxXcXbXbXbXvXbXcXfXiXyXyXyXyXyXyXpXpXyXyXiXhXgXgXS.C./.`.J.J.J.J.J.J.G.G.U.J.G.J.J.K.K.J.J.J.J.J.J.J.K.'.K.U.Y.Y.U.U.U.T.U.Y.U.J.Y.I.U.U.Y.I.P.Y.Y.I.I.I.Y.Y.Y.P.P.P.P.I.Y.I.P.P.P.P.Y.Y.Y.I.P.P.I.I.I.I.I.P.Y.Y.I.P.P.P.Y.R.OXOXOXT.T.+X+XOXOXOXOXOXOXOXOXOXOXOX+X#X#XoXOX&X;X$XOXOXT.Y.OXOXOXOXOXT.T.OX%XT.Y.Y.Y.P.I.Y.P.P.I.I.W.OX%XOXY.Y.Y.I.Y.Y.T.T.Y.Y.Y.T.OXT.Y.Y.Y.Y.Y.Y.Y.I.a.s.s.s.Y.U.I.I.U.R.XXXXOXOXOXOXOXOXT.T.XXK.R.OXY.I.s.s.I.s.s.s.s.U.R.OXOXK.J.Y.I.F.P.a.P.F.F.F.a.a.a.s.U.s.s.s.i.s.P.I.U.J.R.XXXXXXU.P.y.y.F.F.t.t.y.t.y.I.I.U.s.F.y.a.s.a.y.y.s.i.K.U.s.d.d.i.J.XXJ.s.J.v.[.v.v.v.`.K.i.J.b.b.b.v.",
"%.%.$.%.+.o.$.%.%.%...........%...;...%.%.%.%.....%.$.$.$.=.=.$.+.+.$.$.$.$.$.$.=.$.$.$.%.$.$.$.%.$.$.@.8.8.e.0.$.@.8.e.8.8.e.8.$.*.=.*.e.*.e.i.<.i.d.9.e.*.*.*.*.*.*.i.=.*.*.e.i.*.e.i.G.i.<.<.i.H.i.d.s.i.s.i.i.i.e.e.i.G.*.=.e.i.i.H.H.<.=.G.i.e.i.p.'.L.1.<.<.<.1.<.;.J h h h L L L K K K K K K U U K K L K K P Z.A.gXgXV.q V.A.Z.U Z.S.jXgXA.A.Z.A.gXjXjXjXjXkXjXjXjXjXgXjXMXmXmXS.C.3.1.1.1.1.1.1.1.<.1.D.1.D.L.J.H.<.<.1.1.1.1.1.1.<.=.D.*.<.G.D.1.1.1.1.1.D.<.3.J h 2 - 1 1 1 7 7 f h L Z.gXjXnXZ.3.D.1.D.D.1.<.<.1.1.1.1.1.H.1.k././._.rXgXjXkXkXcXxXxXkXsXy q q V.V.q w q q q w q pXpXpXuXlXkXyXq q q yXiXlXyXt t UXq q V.q w q q 9 w w 8 9 pXfXsXy yXyXyXuXuXuXy t pXyXaXsXy y uXyXy r q q q q r t r q r uXaXyXq q q yXuXr t t q r y r q q q q t yXyXy y yXyXaXxXxXaXy uXaXaXdXdXy yXuXdXzXxXaXq t yXy yXt aXdXuXuXy sXxXaXyXyXdXxXyXr r y dXxXuXaXaXyXyXy t dXxXcXzXcXbXLXGXuXyXaXuXt q q r t t t t aXvXbXbXcXuXyXyXy y y y r r r y aXaXaXaXaXaXdXzXzXdXdXdXxXHXxXdXaXuXyXyXyXy y y y aXuXuXaXaXaXuXuXaXdXzXcXbXPXvXdXdXxXvXbXbXbXcXbXbXxXhXiXuXyXyXyXyXyXyXyXyXyXyXyXiXhXhXgX_.(.D.H.J.G.G.J.J.U.Y.U.J.J.J.K.U.J.U.U.R.R.OXT.K.K.J.U.Y.Y.U.T.R.T.R.Y.I.P.P.I.U.R.Y.Y.P.I.I.Y.U.U.Y.Y.I.I.P.I.I.I.I.I.Y.I.P.P.I.I.P.P.I.Y.Y.Y.Y.U.U.Y.I.I.Y.Y.I.I.I.I.Y.T.T.Y.XX+X#X+XOXOXOXOXOXOXOXOXOXOX+X@X+X+XOX+X+XXXOXOXR.T.T.OXOXOXT.Y.Y.T.OXT.T.T.Y.Y.I.I.P.P.P.P.I.I.Y.Y.I.I.P.I.Y.Y.T.T.Y.Y.Y.R.R.T.T.U.U.Y.U.Y.Y.Y.U.s.s.I.Y.Y.P.I.U.T.R.XXOXXXXXOXOXOXU.U.T.R.U.U.Y.Y.I.I.I.s.s.s.I.U.T.OXOXR.U.Y.P.F.F.P.F.y.t.a.s.s.P.s.I.J.i.G.I.s.s.s.U.R.OX@X@XXXXXI.y.y.t.t.y.t.y.t.d.a.s.s.s.d.a.a.s.a.y.y.i.[.}.@XJ.s.s.U.U.s.s.s.s.p.v.v.v.v.v.U.U.K.b.K.p.p.",
"%.%.$.$.$.$.$.%.............%.$.%.....%.%.$.=.....$.$.$.$.$.*.=...%.$.$.$.$.$.=.=.$.$.$.%.$.$.$.@.8.$.$.e.e.=.$.$.@.@.$.$.9.9.9.$.*.*.*.*.e.i.<.<.e.0.9.e.*.*.*.*.=.*.i.e.e.e.*.*.e.i.*.=.<.*.*.*.<.i.e.e.i.i.i.i.e.*.*.i.G.*.*.i.s.1.1.H.<.=.G.i.*.<.D.H.D.1.1.1.1.1.<.-.S j h h L K U Z.P L K K K K K K K K K K K Z.Z.A.V.V.V.P V.K K Z.A.A.A.Z.Z.Z.S.mXmXmXjXjXjXjXjXjXjXjXjXmXMXFXMXA.C.D.D.D.1.1.<.1.1.1.1.1.1.1.1.D.<.<.1.<.<.-.<.1.-.-.=.<.G.H.H.1.1.1.1.1.D.1.3.J 1 1 : h f g 0 8 h h L K U gXMXmXZ.G 3.1.1.1.<.<.<.1.1.1.3././.(.nXmXjXjXkXkXkXIXxXkXkXaXyXq q q w w q q q w w q q UXV.yXiXkXiXq q q pXuXiXuXt q q pXq q q w q w w q w 9 9 pXfXsXt t t r t yXt t r w r yXuXyXy y r r r q q q w q r r r r yXsXaXr q q yXyXt t yXt q q q w q q q r yXy r r y yXaXdXxXdXyXt t t t aXsXt y aXdXdXzXy r yXyXy y y dXaXy y y dXzXuXy yXdXsXt r r yXxXaXyXyXaXuXyXy aXxXxXcXvXHXPXPXkXyXyXiXyXq q t t t r r y zXbXbXvXdXuXyXyXy y t t t t t uXaXaXaXaXaXaXsXxXzXdXdXdXbXbXdXdXaXaXuXyXyXyXyXyXuXaXaXaXaXaXaXaXdXzXxXcXHXHXcXdXdXcXbXbXbXvXcXcXbXcXxXhXsXuXyXyXyXyXyXyXyXyXyXyXyXyXyXpXiXjXjX_.(./.D.H.J.J.H.J.J.J.J.J.J.J.J.J.J.U.T.OXR.K.XXR.J.U.U.J.T.OXT.Y.I.P.P.P.I.Y.Y.I.P.P.P.P.Y.Y.Y.Y.Y.P.P.P.I.Y.P.P.P.Y.Y.I.P.P.P.I.P.P.I.U.Y.Y.Y.R.T.I.P.I.Y.P.P.P.P.Y.U.U.Y.OXOX+X+XOXOXOXOXOXOXOXOXOXOXOXOXOXOXOX%X%XOX%XOXOXOXW.OXOXOXT.Y.Y.Y.Y.Y.Y.Y.Y.Y.I.P.P.P.P.P.F.P.I.P.P.P.P.I.Y.Y.Y.U.U.Y.T.T.Y.Y.Y.I.I.Y.U.Y.T.T.T.Y.s.s.s.I.I.I.U.Y.T.OXOXXXXXOXOXXXJ.J.T.R.J.i.U.U.Y.I.P.s.I.s.I.Y.T.OXOXOXY.I.a.F.F.a.a.d.a.s.s.s.P.I.I.i.i.s.s.s.I.P.I.U.K.oX@XoXXXJ.y.t.t.t.t.t.y.t.y.s.s.s.s.s.s.s.s.s.s.s.s.{.>X{.J.s.s.s.s.s.s.s.s.s.p.p.b.L.p.s.s.b.b.K.J.J.",
"%.%.$.$.$.$.$.%.,.......%.$.%.$.%...%.$.$.%.%.....$.$.$.%.+.$.=.>.%.$.$.$.$.$.*.*.$.=.=.%.$.&.@.+.@.$.$.$.*.$.$.$.w.8.$.$.$.e.*.*.*.*.*.*.e.i.>.,.e.w.e.*.*.*.=.*.*.*.i.d.d.a.J.i.i.H.i.G.G.*.i.i.<.i.i.=.=.=.*.*.*.*.*.e.G.=.<.i.G.D.1.<.*.*.e.i.i.p.J.H.1.1.1.1.1.<.1.<.<.H h h h L Z.A.w 8 L K K K L L K L L K K Z.Z.Z.V.Z.V.P L L L K Z.Z.Z.Z.K K S.mXMXMXIXjXjXgXgXgXgXjXjXjXMXFXFXjXS.C.tXtXD.1.<.<.1.1.1.1.G.D.1.1.G.D.-.<.1.1.<.-.-.-.<.D.1.1.1.1.1.1.1.<.<.1.3.s 1 < - 1 < f h 0 0 L L L U gXjXmXmX_.I 3.D.D.1.1.1.G C.C.C.S.nXMXkXhXlXlXkXkXcXkXkXfXiXt w 9 9 w w w q w 9 8 w P q V.pXyXdXfXr q q V.yXiXuXt q V.V.V.q q q q q 9 9 q w 8 w sXfXt q q q q UXr q q 9 w t pXt t t r q q q q w 9 w q q q r yXyXaXt w q r yXt t yXyXyXUXw 8 w q q q t yXr q r y uXdXxXzXaXr q r t r aXyXyXuXaXaXsXaXr t aXy yXy aXdXy t t aXzXdXy y aXsXy q r r dXzXt y y y y yXy sXzXdXcXbXLXLXbXdXyXyXyXt q q r r q r r dXvXvXbXzXaXyXyXyXy y t yXuXy uXdXdXaXaXsXdXdXdXvXzXdXzXxXPXvXdXdXaXaXaXaXyXyXuXaXaXaXdXdXdXaXdXdXxXcXvXHXvXxXzXcXbXbXbXcXxXxXxXcXvXcXxXfXsXsXuXuXyXyXyXyXyXyXyXyXyXyXyXyXyXyXiXhXjXgX(.^./.H.K.R.R.J.J.J.J.J.J.U.U.U.U.T.R.K.K.R.J.J.J.J.U.T.Y.I.P.P.I.I.I.Y.I.P.P.P.P.I.Y.Y.U.U.I.P.F.F.P.P.Y.I.I.P.I.P.P.P.I.I.P.P.I.I.I.I.T.%XW.Y.Y.I.P.I.I.P.P.Y.Y.U.U.OX+X@X+X+XOXOXOXOXOXOXOXOXOXOX%XOXOXOXOXOXOXOXOXOXT.T.OXT.T.T.Y.Y.Y.Y.Y.Y.T.Y.Y.P.P.P.P.P.F.F.P.P.P.P.P.I.R.T.Y.Y.Y.U.Y.T.U.P.P.I.P.P.I.U.OXOXOXT.U.Y.U.Y.I.I.I.U.Y.T.OXOXOXOXOXOXXXJ.U.T.U.U.U.J.s.I.I.I.s.P.P.P.I.Y.OXOXT.Y.Y.I.F.F.a.s.s.s.s.I.I.P.I.s.s.s.s.s.s.I.s.s.s.J.K.`.'.K.i.y.t.t.t.t.t.t.t.t.s.s.s.s.s.s.s.s.s.P.a.i.oX:X=XK.s.s.s.s.s.s.s.s.s.i.p.p.p.p.s.s.v.b.K.J.J.",
"%.%.%.%.$.$.%.%.,.....%.$.$.$.$.%.%.$.$.$.$.%.....$.*.i.,.%.$.=.>.%.$.$.$.$.$.*.*.=.=.>.%.$.#.#.+.$.*.*.*.*.*.$.$.8.9.$.$.=.*.*.*.*.*.e.e.*.*.,.*.*.e.=.*.*.*.=.e.i.*.*.e.e.s.J.G.*.=.=.*.i.*.*.i.1.<.d.*.*.*.*.*.*.e.e.G.J.G.<.e.G.G.D.<.*.=.i.i.i.H.J.H.1.D.1.1.1.>.<.<.-.S h h h L U Z.q L K K K K L L K L L L K K U U Z.V.P P K K K K Z.Z.Z.U K Z.gXjXMXIXkXjXgXgXgXgXjXjXjXjXjXMXjXjXjXjXC.tXtX2.1.1.D.1.D.L.!.G.D.1.<.D.-.<.<.1.1.<.1.1.1.1.1.D.1.1.1.1.1.1.<.<.:.g g < - < 1 h h L K L 8 0 K A.jXMXkXkXjXS.C.I I C.C.Z.A.A.gXjXkXkXsXaXiXhXkXkXxXkXlXyXyXq 8 8 8 w q q w 8 8 9 w P UXyXyXuXfXt q q q q yXyXUXq q pXV.q q q q q 9 9 w q 9 8 q uXt 9 w w 9 w q q q w 8 w yXUXt t q q q q q q w 8 w q w q yXyXuXyXq w q t t t yXy yXyXq 9 9 q q 9 q y y r q y uXsXzXxXsXt q r q r y yXaXuXuXaXaXaXt t uXyXy uXyXdXaXr r y aXzXaXy y aXuXr q r y zXaXr r y y yXyXy sXdXdXcXPXPXvXcXdXyXyXyXt q r r r r t aXcXbXcXxXaXy yXyXy y y y yXyXyXdXxXdXaXaXdXdXdXcXvXcXcXxXbXHXcXkXfXaXaXaXaXaXaXsXaXsXdXdXdXdXdXzXxXvXbXbXbXcXvXbXHXbXbXbXcXcXxXxXcXcXxXxXkXdXsXsXaXaXuXuXyXyXyXyXyXyXyXyXyXyXyXyXyXiXhXMXnXS./.k.H.U.J.J.J.J.J.J.J.J.J.J.J.J.J.U.XXJ.J.J.U.J.J.I.P.P.P.P.P.Y.P.P.P.P.P.I.Y.T.R.U.I.P.P.P.P.P.P.I.I.I.P.P.P.P.I.Y.I.P.I.I.P.a.I.Y.T.Y.Y.Y.P.P.I.Y.Y.P.I.Y.OXR.OX@X#X#X+XOXOXOXOXOXOXOXOXOXOXOXOXOXOXOX%XOXOX%X%XT.Y.Y.Y.Y.Y.Y.I.P.Y.Y.Y.T.Y.Y.I.P.I.I.I.P.F.F.F.P.P.P.P.Y.OXT.T.Y.Y.Y.I.I.P.P.P.P.P.I.K.XXOXOXXXT.Y.I.I.I.a.s.s.U.T.OXOXOXOXOXOXOXXXT.T.T.T.Y.I.a.a.I.I.P.P.F.F.P.U.U.T.Y.Y.Y.Y.P.P.P.s.s.s.s.I.I.s.P.P.s.s.s.s.s.s.s.s.s.i.J.J.J.i.y.y.t.t.t.t.t.t.t.t.U.T.I.s.s.s.s.a.d.y.t.y.p.J.R.s.s.a.a.s.s.s.s.s.s.J.b.b.v.[.K.J.K.K.J.i.i.",
"%.%.%.%.$.$.$.%.......%.%.$.$.*.=.=.=.o.o.%.%.%.%.$.0.<.=.$.$.$.%.%.%.*.=.$.$.,.>.,.%.,.$.$.8.$.$.$.$.=.=.$.$.$.$.8.e.$.$.*.*.$.$.=.=.e.e.*.*.*.*.*.=.<.*.*.i.e.e.i.i.i.i.i.G.H.<.=.i.i.=.i.i.<.*.<.i.d.i.i.i.i.*.=.w.e.i.i.G.G.i.i.<.=.<.G.i.H.1.p.H.p.i.*.i.1.1.1.1.1.<.<.-.D G j L Z.Z.V.P P P K L K K K P P L K K K K K P P K L K K K K K K K K S.gXgXjXjXlXlXgXgXjXjXjXjXjXmXIXkXjXjXjXjXS.C.C.G 3.3.1.1.<.L.~.!.D.<.<.<.<.1.1.1.1.1.<.1.1.1.1.D.1.1.1.1.1.<.<.<.-.H L h 2 2 1 7 0 0 L 7 6 K Z.jXkXMXkXfXiXiXpXA.V.A.gXgXjXkXkXkXfXuXuXiXiXhXkXkXkXsXyXq w 9 8 9 w w 9 w w 9 9 w q q yXpXpXuXr w w w q q t t q q UXpXq 9 9 q q w 8 w w 8 8 9 q q 9 6 8 8 9 w w w 9 6 9 q r r y r q q w w q w w w q w w r t t y t q w r t r yXyXt uXyXw 8 w q w w r r r r t yXsXdXdXsXt q q r r t y y aXaXyXyXaXyXt uXuXy uXy aXaXr r t yXdXsXy y y aXt q r y sXdXr q q t y yXr yXdXsXzXHXLXvXzXzXaXt y y y t t r r r y dXcXcXzXdXyXy y yXy y t y y y dXxXdXaXaXdXdXdXdXcXbXvXvXvXHXbXcXkXfXaXaXaXaXsXdXdXdXdXdXdXzXzXcXvXbXbXHXvXcXbXbXHXHXvXbXbXvXcXcXxXvXvXxXdXdXsXsXaXaXaXaXaXaXuXyXyXyXyXyXyXyXyXyXyXiXiXiXhXlXjXjXnX(././.H.J.J.K.J.J.U.U.U.U.U.J.K.U.J.G.Y.T.U.J.I.I.I.I.U.Y.I.I.I.Y.I.I.Y.Y.U.R.Y.Y.I.Y.Y.U.Y.I.P.P.P.I.I.P.P.I.I.Y.I.U.U.I.G.I.I.I.I.I.I.P.P.I.P.I.Y.I.T.XXU.OX+X+X+XXXOXOXT.OXOXOXXXOXOXOXOXOXOX+X$XOXOXOX%X%XOXT.Y.Y.Y.Y.Y.P.P.Y.Y.I.I.Y.Y.I.P.I.I.I.P.P.F.F.F.P.P.P.Y.T.Y.Y.I.I.I.P.I.I.P.P.P.I.I.I.U.XXOX+XOXY.s.s.I.a.s.s.Y.U.T.XXXXXXOXOX+X+XR.J.U.T.Y.Y.I.I.Y.U.P.a.F.F.P.J.U.I.I.I.I.I.P.P.I.I.s.s.s.s.s.s.s.I.s.s.P.y.a.a.P.s.s.s.s.a.a.y.F.y.t.y.t.t.t.t.t.y.s.s.s.s.s.s.s.a.a.y.y.y.d.y.y.y.y.d.d.s.s.s.s.s.s.K.b.|.3X3X].J.i.i.s.i.i.",
"%.%.%.%.$.$.$.$.........%.$.$.$.%...%.$.$.$.%.%.$.$.+.$.o.@.$.$.$.$.$.$.$.$.$.,.>.,.$.$.$.$.$.$.$.$.e.=.=.$.$.=.$.$.e.*.=.*.=.$.$.$.$.*.*.$.=.*.*.*.i.,.e.d.s.s.s.i.=.=.*.=.e.i.*.*.e.i.<.i.*.<.i.*.*.e.e.d.i.i.*.=.e.=.*.*.*.*.*.*.*.*.i.s.<.1.1.1.<.<.<.i.i.<.<.<.<.<.<.G.=.-.G I U Z.V.P P q q P K K K U A.V.P K K K K K K K L L K K K K K K K Z.rXgXjXjXjXgXA.A.gXjXjXjXjXjXmXIXjXjXjXjXMXkXjXgXS.I tXD.D.<.G.G.!.!.G.-.-.<.-.<.1.1.<.-.1.H.1.1.1.<.1.1.1.1.<.<.=.-.tXZ.K h h 0 8 8 8 0 L U A.jXkXkXkXsXuXyXpXV.pXiXiXiXiXiXhXfXiXyXyXyXyXiXlXlXfXiXt q 9 8 8 8 9 q 9 8 9 w w w q q q pXpXpXt w 8 8 8 w q q q q q UXUXw 8 8 w 9 8 8 9 8 8 8 8 w 9 6 8 8 8 w 9 9 w 8 9 q q r yXpXq q q 9 w q w 9 q w 9 w q r r t q w q r t t t r y yXq 8 9 q q 9 w r q r t yXyXaXaXaXt w w q q q t y aXaXy y y aXy y uXuXaXaXuXsXt q r y y aXr t y uXuXt q r uXdXy q q q r y t r aXsXsXvXLXvXzXdXdXyXt y yXy r r t r t sXxXvXcXsXaXy y yXaXy y y y y aXzXdXaXyXaXaXaXaXaXdXbXPXbXbXbXcXxXdXdXsXaXaXaXdXdXdXdXdXdXzXxXcXvXbXbXbXbXbXbXbXbXbXvXbXbXvXxXxXxXvXbXcXxXdXdXsXaXaXaXaXaXaXuXyXyXyXyXyXyXyXyXyXyXyXhXiXyXiXiXlXgXhXMXMXmX^.D.H.K.J.J.J.U.U.U.J.K.XXR.Y.I.I.Y.U.J.I.Y.Y.J.J.U.Y.R.U.Y.I.I.Y.Y.J.Y.Y.Y.Y.Y.T.U.Y.P.P.P.I.I.I.P.I.Y.Y.Y.Y.Y.T.Y.Y.Y.Y.I.P.I.I.P.P.P.P.I.Y.Y.T.OXU.T.OXOXOXOXOXOXOXOXOXOXOXOXOXOXOXOX+X#X#X$X+XOXOXOXOXT.T.Y.Y.Y.Y.I.I.Y.Y.Y.I.Y.I.I.P.I.I.I.P.P.F.F.F.P.P.Y.P.P.P.P.P.P.P.P.I.Y.P.P.I.s.I.P.J.R.XXXXJ.I.a.a.a.a.I.s.U.U.T.XXXXXXOXOXoXoXXXK.Y.Y.Y.Y.Y.Y.Y.U.s.s.P.P.P.U.U.s.s.s.s.s.s.s.s.I.s.s.s.s.s.s.s.s.s.s.P.F.y.s.s.s.s.s.a.a.y.t.t.t.t.F.y.t.t.t.t.y.a.a.s.s.s.s.s.s.a.s.a.d.d.t.t.y.d.s.s.s.s.s.s.a.a.s.b.[.3X7X@XK.i.s.s.i.i.",
"........$.$.$.$.%.%.%...%.$.$.$.%.....%.%.$.%.$.$.$.$.=.$.$.$.$.$.=.$.$.$.$.=.=.,.*.*.$.$.$.$.$.$.8.*.$.$.$.$.=.=.$.$.$.*.*.$.$.*.e.e.*.*.=.=.*.*.i.s.<.*.<.<.i.s.i.*.*.*.*.*.e.*.*.e.i.i.e.e.i.e.*.e.*.i.e.e.e.e.<.<.<.=.=.e.s.e.*.e.i.i.s.i.1.1.1.1.<.=.i.G.H.p.*.=.*.<.<.G.-.-.C.S.A.P q P q P K L L K K A.V.V.V.K K K K L L L K K K K L L K Z._.gXA.gXjXjXA.Z.A.mXjXjXjXjXjXjXjXjXjXjXjXjXMXIXkXjXZ.I 2.D.<.1.D.D.!.J.-.<.1.<.<.1.1.<.-.<.1.<.<.<.<.1.>.1.1.1.1.3.G H U K L L L 8 8 7 L K gXjXkXkXfXiXyXyXyXpXyXiXiXiXuXiXlXiXiXyXyXV.V.pXiXiXiXpXUXq w 8 8 8 8 w q 9 8 8 8 9 9 w q q q UXV.w 9 9 8 8 w q w q q q q w 9 8 8 8 8 8 9 8 4 6 8 8 8 8 8 8 8 8 9 8 9 w 8 w q q t y q w w 9 9 9 9 8 w w 8 8 w q r t q w 9 q q r t r r y r 9 8 w q w 6 w q q t yXyXy uXyXr q w q q q q t uXaXaXy r y uXt y yXy sXaXsXaXr q t y uXyXr t yXaXt q q r aXaXr q q q q r r r aXaXdXHXHXdXdXdXfXr t yXy y r q r y aXxXcXbXdXy t r t y y y y yXuXaXdXdXaXy y y y yXaXaXzXPXPXHXbXvXzXdXsXaXyXaXdXzXzXdXdXdXdXxXxXxXcXvXHXbXbXbXvXcXvXcXcXvXbXvXxXcXcXvXvXbXcXxXdXdXdXsXaXaXaXaXaXaXyXuXyXyXyXyXyXyXuXuXiXiXiXyXyXyXiXhXhXkXSXPXJXmX).L.L.K.U.U.U.K.K.XXOXOXY.Y.Y.Y.U.U.I.I.Y.U.G.G.Y.Y.U.Y.Y.Y.Y.Y.J.Y.Y.Y.Y.Y.Y.Y.I.P.I.P.I.Y.I.a.I.Y.Y.Y.I.Y.R.Y.I.I.I.P.P.P.I.Y.I.I.I.P.I.U.R.OXT.Y.T.OXOXT.OXOXOXOXOXOXOXOXOXOXOXOXOX+X+X+XOXOXOXOXOXOXT.Y.P.P.P.I.Y.Y.T.T.Y.Y.I.P.P.I.I.P.P.F.F.F.P.P.P.P.P.P.P.I.I.P.I.Y.Y.Y.I.I.Y.I.P.s.s.U.U.U.U.P.F.P.P.F.P.I.T.T.Y.OXOXOXOXOXXXXXOXOXY.Y.U.Y.R.J.U.I.a.a.P.P.I.U.Y.I.s.s.I.I.I.s.s.s.s.s.s.U.s.s.s.a.a.a.P.P.P.a.a.a.s.s.s.P.F.F.F.t.y.y.t.t.t.t.t.t.t.y.a.s.s.s.s.s.s.s.s.a.a.a.a.I.I.d.s.s.s.s.s.s.a.s.p.v.[.{.oXK.i.s.U.U.s.",
"........%.%.%.%.$.%.$.%.%.%.$.$.$.%.....%.$.$.$.$.$.$.*.$...%.$.=.=.%.$.$.=.*.=.$.$.$.*.$.$.$.$.$.$.$.$.$.$.$.$.$.$.@.$.$.$.=.*.*.e.e.*.*.*.*.*.*.d.s.1.p.i.<.>.<.*.*.*.*.*.*.e.*.*.*.=.=.e.d.i.=.*.*.G.i.s.i.i.i.H.<.<.*.*.s.s.i.i.i.i.i.i.<.1.1.<.1.1.<.i.D.1.<.<.=.*.*.*.*.=.-.3./.Z.V.q q q q K L 0 0 L K P V.Z.P K L 0 L L h L K K K K L L K S.A.A.gXgXA.Z.Z.Z.mXjXjXjXjXjXjXjXlXgXgXjXjXMXIXIXkXjXZ.C.3.<.D.D.<.D.D.-.<.1.<.-.1.1.<.<.1.1.1.1.1.1.1.1.>.-.<.<.H h h 0 L K L 0 8 0 L Z.gXjXkXlXiXyXyXuXuXiXlXiXyXyXyXyXyXyXyXyXpXUXP V.yXyXyXyXq q w 9 8 8 8 w w w w 8 8 8 9 w q q q q q w 9 q w 8 8 w w 9 9 w q 9 8 8 8 8 8 8 8 8 6 6 6 8 8 8 8 8 6 8 8 8 8 8 8 9 w q q r r w w w 9 8 8 8 8 w 9 8 9 q q q q 9 6 9 q q q r q r t q 8 w q q 9 9 9 q q t y y y t r w q r q q q r y uXaXyXt r yXy y yXyXuXaXuXuXt q q r y uXr r y aXuXr q r y sXy q q q q q q q t aXsXcXbXzXdXdXdXyXq t y t r r r r uXdXxXvXzXyXr r q r t y y y yXaXaXdXaXy y y y uXuXaXaXcXHXbXbXbXvXcXzXzXzXxXxXxXzXzXdXdXzXcXbXcXxXvXHXHXbXvXcXxXcXvXvXbXbXcXzXxXcXbXbXxXxXxXzXdXdXdXaXaXaXaXaXaXaXuXyXuXuXuXyXyXiXaXsXhXhXiXiXyXyXiXhXhXhXhXxXHXLXJXCX).|.H.`.'.'.'.XX'.XXJ.Y.U.J.U.I.I.U.R.U.G.I.I.Y.Y.Y.Y.U.U.Y.U.Y.R.U.T.Y.Y.R.U.Y.Y.U.s.I.I.I.Y.Y.Y.I.P.Y.Y.I.I.Y.I.P.I.I.Y.Y.Y.T.I.P.P.I.U.T.T.Y.T.OXT.Y.OXOXOXXXXXOXOXOXOXOXOX+X$XOXOXOXOXOXOXOXOXOXY.Y.P.P.P.P.P.I.Y.Y.I.I.I.I.I.P.P.F.F.F.F.F.F.F.F.P.P.I.I.U.s.P.I.U.U.Y.Y.Y.R.U.P.P.I.a.s.J.I.a.a.P.I.P.a.Y.T.Y.Y.T.T.T.T.XXOXOXOXR.R.U.U.OXXXJ.I.P.I.I.I.I.I.Y.I.I.s.s.s.U.I.a.s.s.U.J.s.J.s.P.a.F.y.y.a.y.P.a.F.a.s.a.s.a.y.t.t.t.t.t.t.y.t.t.t.t.t.y.a.s.s.s.s.s.s.s.a.y.y.a.s.s.y.t.d.s.s.s.s.s.s.s.s.b.v.v.K.i.s.s.s.s.s.",
"%.%.^ ..^ ..` %.+.%.$.%.%.%.$.%.%.%.....%.@.$.$.$.$.=.=.<.<.,...%...%.$.=.=.-.%.$.$.$.$.$.%.=.=.$.8.$.$.9.*.e.*.$.=.@.$.$.$.e.*.*.*.=.*.*.=.*.e.e.e.i.<.1.<.i.i.,.*.*.e.e.*.=.e.e.*.*.=.*.=.d.i.=.e.i.<.i.i.i.i.J.L.1.,.*.*.d.i.<.i.i.i.i.i.<.<.<.<.<.<.=.=.=.<.<.1.<.=.*.e.e.*.-.-.G C.V.V.q q P L L K L K U V.P V.P L 0 0 K L h L K K K K L L K U K Z.A.gXZ.Z.A.A.jXjXjXjXjXkXjXlXlXgXgXjXMXFXIXIXIXkXgXC.3.<.D.1.<.1.<.-.,.<.<.<.1.1.1.D.D.<.1.1.1.1.1.1.1.1.<.3.h 7 0 8 0 L 7 7 0 L Z.gXjXhXlXyXiXiXiXiXuXiXiXpXpXpXpXpXyXpXpXV.q q q pXpXiXpXq q w 8 8 8 8 9 w 9 9 w 9 8 w q q q q q q 9 8 9 q 9 9 9 8 8 8 8 w 9 8 6 6 6 6 8 6 9 6 4 6 8 8 8 8 8 8 6 8 8 8 6 6 8 w q q q q q 9 9 9 8 8 8 8 8 8 8 8 8 w w q q 8 6 e r q q q q q q 9 8 9 q w 8 9 8 w r r y y y r w q q q r r r y y aXaXy r t uXt yXyXuXaXuXuXyXq q q t uXuXr t uXsXy r q q y aXr q q q q q q r uXuXdXcXcXdXdXdXfXr r yXt r q q q r dXzXcXvXyXq w w q q r y yXyXy aXaXaXy y y y yXyXuXaXdXHXbXbXbXbXHXHXbXbXHXcXzXdXdXdXzXcXbXbXcXxXbXPXbXbXcXxXcXvXvXvXbXbXxXzXxXvXbXbXvXxXdXdXdXdXdXdXaXaXaXuXaXuXyXyXyXuXsXiXiXyXiXiXsXfXkXiXyXyXuXiXhXlXiXhXhXfXcXHXHXFXCX(.^.[.`.XXXX'.K.K.R.R.U.I.I.Y.Y.U.J.U.U.P.P.I.I.U.G.U.U.U.U.U.U.Y.T.T.U.Y.Y.T.U.I.I.I.Y.I.I.I.I.Y.Y.U.J.I.U.I.I.I.I.I.U.T.T.U.I.I.Y.U.Y.Y.U.T.T.R.T.OXOXXXXXXXOX+XOXOXOXOX+X+XOXOX+X+XOXOXOXOXT.Y.Y.I.P.P.P.F.P.I.I.I.I.I.Y.I.P.F.F.F.F.F.F.P.P.P.F.F.P.I.U.I.P.Y.U.U.U.Y.Y.U.U.s.a.P.a.s.I.P.P.a.P.P.s.s.s.I.U.Y.U.U.U.J.J.R.OXXXK.J.s.U.OXOXU.I.I.U.J.U.U.T.Y.I.I.Y.I.Y.U.s.s.I.U.J.J.U.J.s.I.a.F.y.y.y.y.a.a.P.P.a.d.y.F.F.y.y.t.t.t.t.y.t.t.t.t.y.y.a.s.s.s.s.s.s.i.s.y.y.y.d.d.t.t.a.s.s.s.s.s.i.s.s.p.p.p.p.i.i.i.s.i.i.",
"$.$.' ' ' ' ' ..%.%.$.+.o.%.%.%...-.%.%.o.o.$.$.$.$.=.>.>.>.,...#.o.$.$.*.,.,...$.$.*.=.=.<.>.>.$.=.$.$.*.*.$.*.$.$.=.=.$.*.*.*.$.*.*.*.*.*.<.*.*.e.i.1.<.<.i.e.*.*.i.i.s.i.=.*.e.*.e.*.*.*.*.*.*.s.s.e.*.e.i.i.p.1.1.*.*.*.i.e.<.i.i.p.p.i.p.1.1.i.<.*.=.*.*.*.i.<.D.<.=.G.G.*.=.-.3.I Z.V.q q 0 0 L K Z.A.V.q q P P L 0 8 L h h h L L K K L K K K K U Z.A.Z.Z.A.gXjXjXjXjXjXlXgXgXA.A.gXjXjXMXIXkXkXIXkXgXC.3.1.<.<.1.1.1.<.>.<.<.1.D.D.1.<.<.<.<.1.1.1.<.1.2.G j 0 8 8 8 8 8 8 L K A.jXhXlXiXyXiXhXlXlXuXpXpXV.UXV.q V.pXP q q q q P pXyXiXpXq q q q w 8 8 8 8 9 8 8 w w w 9 w q q q q w 8 8 9 9 8 9 8 6 6 8 8 8 4 6 4 4 4 4 8 6 8 6 3 4 8 8 8 8 6 4 8 8 8 8 6 6 8 9 9 9 q w 8 8 8 8 8 8 8 8 8 8 8 8 8 9 9 q 9 8 8 9 q q q q q q w 8 9 w 9 8 8 8 8 w r q t y r w 9 q q r t r t y aXaXuXt r uXyXr yXaXaXuXuXaXt w w q t uXt r t aXyXr q q r uXyXq q q q q q q y y aXzXxXxXdXdXdXyXq t yXt q q q q y dXdXvXsXq q w w q q r uXaXyXuXaXaXyXy y yXyXuXuXaXsXvXPXvXvXbXbXbXbXbXcXzXdXdXdXzXcXbXHXHXvXvXHXPXbXvXcXcXbXvXcXcXbXbXcXxXxXxXcXcXvXcXzXdXdXdXdXdXaXaXaXaXsXsXaXuXuXyXuXsXiXiXuXaXiXaXaXaXaXiXiXiXiXiXiXiXlXhXhXhXkXvXvXSXGXMXrX^.[.`.K.`.'.XXK.Y.I.J.U.Y.I.I.P.P.P.I.I.P.I.Y.R.U.G.U.U.Y.Y.T.R.Y.Y.Y.U.G.I.P.P.Y.P.P.I.Y.Y.Y.Y.U.Y.Y.Y.Y.I.I.Y.U.R.U.J.U.Y.Y.Y.I.Y.Y.Y.U.Y.U.T.OXR.T.OX+X@X+X+XOXOXOXOXOXOX+XOXOXT.T.Y.Y.Y.Y.Y.P.P.P.P.P.P.I.P.P.I.Y.Y.P.F.F.F.F.F.F.F.F.F.F.F.P.I.P.P.P.I.U.J.J.Y.Y.Y.Y.I.P.P.P.I.a.y.y.F.t.y.a.s.s.P.I.I.I.P.I.J.J.J.U.T.J.J.s.J.U.R.U.I.U.U.XXOXR.OXOXR.Y.Y.I.I.U.J.J.U.J.J.J.R.U.U.I.a.s.s.s.a.F.F.a.a.F.y.d.y.F.F.t.t.t.t.t.t.t.t.t.t.t.a.s.s.s.s.s.s.s.p.XXU.s.d.e.w.t.t.y.s.s.s.s.s.s.i.s.i.s.s.s.s.s.s.s.s.s.s.",
"%.$.%.%.%.%.%.%.=.%.$.$.%.%.$.$.%...%.$.$.$.$.$.$.$.%.=.....%.$.$.$.$.$.$.=.=.$.$.$.$.$.=.,.,.,.%.$.$.%.$.*.$.*.*.=.*.*.*.*.*.*.e.*.=.*.*.*.e.*.e.d.i.<.i.s.s.i.i.e.=.i.i.e.*.*.*.*.*.e.e.*.*.e.*.e.*.e.d.i.s.i.*.<.*.*.*.e.G.i.i.<.f.p.<.p.H.1.1.p.1.1.<.i.i.*.e.*.D.<.<.<.*.*.=.-.-.G Z.V.w P 9 0 K K jXjXyXq q q P L 8 0 h h h h h h L K K K K K K K U K U Z.Z.A.A.jXmXjXjXgXA.Z.Z.A.gXjXjXkXkXjXjXjXkXjXZ.I 3.3.<.<.1.D.H.<.-.-.1.1.1.1.1.1.<.1.1.1.1.<.3.H j L 8 8 8 8 0 L U A.gXjXlXlXiXiXlXlXiXiXyXpXq q q q q q P q q q P P q pXiXyXpXUXq w w w 9 w 9 8 8 8 8 8 8 8 9 8 9 w q w w 9 6 8 6 6 4 4 4 4 5 4 8 4 3 3 3 3 3 4 6 8 6 3 3 4 8 6 6 6 4 3 6 8 8 8 8 8 8 8 8 8 w 8 4 8 8 8 8 8 8 8 8 8 8 8 8 w w w 8 8 8 8 w r q q q w 8 8 8 9 8 8 8 8 9 q q q r r q q w q r yXr r y yXyXuXuXr r uXyXt uXaXaXuXaXuXr w w r t t q q y yXr q q q r uXt q q q q q q r t t dXxXcXvXzXdXdXt r t y r q q q r yXaXdXdXy r q q q w q yXaXaXaXaXuXy yXy y yXyXyXuXaXxXPXPXbXbXbXvXcXcXcXzXdXdXdXzXvXbXHXLXHXHXPXHXvXcXxXcXvXcXcXvXbXbXxXzXdXzXxXxXxXxXxXxXxXzXzXdXdXdXdXsXaXsXaXaXaXaXaXaXaXaXuXaXaXaXsXaXsXfXsXhXhXhXhXhXhXhXiXiXiXhXkXGXcXSXPXJXmX_.).^.[.'.XX`.U.J.J.Y.I.G.G.I.P.I.U.P.I.U.J.U.Y.R.U.U.Y.Y.Y.U.Y.Y.Y.U.I.G.I.I.P.P.P.I.U.Y.Y.Y.Y.I.I.I.Y.Y.Y.Y.Y.J.U.R.U.Y.Y.Y.I.Y.T.T.T.Y.U.U.U.U.OXOXOXOX@X@XOXOXOXOXOXOXOXOXT.Y.Y.Y.Y.Y.Y.Y.I.P.P.F.F.F.F.P.P.P.I.I.P.F.F.F.F.F.F.F.F.F.F.F.F.P.P.P.P.P.I.s.I.Y.Y.I.P.P.P.P.P.P.F.y.y.y.a.y.a.s.s.s.s.s.s.a.s.J.U.J.J.U.U.s.s.s.I.I.I.Y.T.OX+X+XXXOXOXT.Y.Y.U.J.J.J.U.U.J.J.J.J.U.U.U.I.s.s.s.s.F.F.F.y.F.t.d.y.F.F.t.t.t.t.t.t.t.t.t.t.t.a.s.s.s.s.i.i.J.J.J.s.s.y.t.y.t.w.y.y.s.s.s.s.s.s.s.s.s.i.J.i.s.s.s.s.s.s.",
"..%.%.$.%.%.%.%.....$.%.%.$.$.$.%...%.$.$.$.$.$.$.$.o.$.$.+.+.@.$.=.$.$.$.$.$.$.$.=.$.=.=.=...$.$.$.$.$.$.9.*.*.*.*.=.=.*.*.*.*.e.e.e.*.*.*.=.*.*.*.i.i.s.i.*.e.e.*.e.*.*.*.e.s.i.*.*.*.*.*.*.e.d.e.e.e.e.d.s.i.=.i.i.e.e.e.i.i.s.i.1.1.<.p.H.1.1.D.D.1.p.p.<.*.*.G.D.<.L.D.=.*.*.*.=.A H L L K L L K Z.mXiXUXV.gXV.w 8 8 L h h h h h h L K K K K K K K K K K K K Z.Z.gXjXjXA.A.Z.Z.Z.A.gXjXjXlXpXA.gXA.gXA.V.P I I 2.<.<.1.1.1.<.<.>.1.1.1.1.<.1.1.1.1.L.D.G h L w 9 9 9 L Z.A.jXjXlXiXiXiXiXlXiXpXV.V.q q q q q q q P P q q w q q q pXyXV.q q q 9 9 w 8 9 9 8 8 8 8 8 8 8 8 8 8 9 9 9 8 6 6 4 4 3 : : 3 5 : 4 8 4 3 3 3 5 3 4 4 6 6 3 4 6 4 3 4 3 3 3 4 6 6 8 8 8 8 6 8 8 6 6 8 8 8 8 8 8 8 8 8 8 8 8 8 8 8 8 8 8 8 8 8 w w 9 8 8 8 8 8 8 8 8 8 8 9 q q q q q w 9 w q r t r r t yXyXyXt q y aXuXyXaXaXaXaXsXt q q q r y q w q yXr q q q r y yXq q q q q q r r y aXzXcXbXxXdXdXyXq r r q q q q q t t uXdXyXy t q q q q r uXaXaXaXuXy y y y uXuXy y y aXHXLXHXbXvXcXvXxXxXxXzXzXxXvXbXbXbXHXKXLXHXvXxXxXzXcXvXcXcXbXbXvXxXdXdXdXzXxXxXxXzXxXxXxXxXxXzXdXdXdXaXaXiXuXuXuXuXyXuXuXuXaXsXdXsXfXfXdXkXdXfXhXhXiXiXhXiXuXiXhXhXhXkXvXkXxXHXGXMXAXnX).^.|.`.J.J.J.U.G.G.G.I.I.G.G.G.G.J.J.U.R.U.R.T.Y.Y.Y.Y.P.I.I.I.P.I.Y.Y.I.I.Y.U.U.R.Y.Y.I.P.s.P.I.Y.Y.Y.T.XXR.U.U.Y.Y.Y.Y.T.OXOXOXT.U.R.T.R.OXOXOXOX+X+X+X+XOXOXOXOXOXT.Y.Y.Y.Y.Y.Y.Y.Y.Y.I.P.P.F.F.F.P.P.P.P.P.P.P.F.F.F.F.F.F.F.F.F.F.F.F.F.P.P.P.P.P.P.P.P.P.P.P.P.s.I.P.y.F.a.a.P.P.P.a.y.a.s.a.d.a.s.s.I.I.s.P.I.s.s.s.s.a.I.U.R.XXoX@X@X@X+XT.Y.T.U.K.K.J.K.K.J.J.J.J.J.J.J.J.R.Y.I.P.y.y.F.F.F.y.a.y.F.y.t.t.t.t.t.t.t.t.t.t.t.a.s.s.s.s.s.s.J.i.i.s.s.y.t.y.y.y.d.d.y.a.s.s.s.a.s.s.s.s.J.s.s.I.I.s.s.s.",
"..' +.%.%.%.%.%.%.` %.%.%.$.$.$.%...%.$.$.$.$.@.$.o.$.$.$.5.O.5.+.o.+.$.$.$.*.*.*.=.$.*.*.=.$.=.$.@.$.$.$.8.*.$.$.=.$.$.=.,.=.=.$.=.=.*.*.*.$.=.*.i.i.s.s.i.<.*.*.*.e.*.*.*.d.s.e.*.*.*.*.*.i.e.e.w.w.w.e.e.i.*.<.*.s.s.i.*.*.*.<.1.1.1.<.i.i.G.<.1.1.i.i.H.<.=.G.*.D.G.D.<.=.*.*.i.-.-.J j h L K L K Z.jXpXq V.V.V.w 8 h h h L h h h h L K L L L K K K K K K K K Z.Z.Z.A.A.Z.Z.K Z.Z.A.gXjXjXiXpXA.A.A.Z.A.V.q K C./.3.<.1.1.1.1.1.>.<.1.1.1.1.<.1.D.D.D./.C.K V.V.P V.V.A.A.A.A.iXiXiXyXiXiXpXV.q q q q q q q q q P V.w w w w q q q V.q w w q 9 8 9 9 8 8 8 8 8 8 8 8 8 8 6 6 8 6 4 8 4 5 6 6 6 5 4 4 3 3 4 5 4 3 3 : 5 : 5 6 4 4 6 3 3 3 4 6 4 3 3 3 4 3 3 4 6 8 6 4 6 8 4 4 6 8 8 8 8 6 6 6 8 4 4 8 8 8 8 6 8 8 8 8 8 8 8 8 8 8 8 8 8 6 6 8 8 8 9 w 9 w w 9 8 8 w r r r q r y yXyXt q r aXsXy uXuXy y aXuXq 8 9 w r q w w pXq w q q r r uXt w q q q w r t y y dXcXbXxXdXdXfXt q r q q q q q r y y aXaXr yXpXq w q q t uXaXaXuXy y y y uXaXyXy uXaXvXLXHXHXbXxXcXcXxXxXxXcXvXbXbXvXcXHXKXLXvXxXcXxXxXxXcXcXvXbXbXcXxXxXzXxXdXdXzXxXxXdXzXxXzXzXdXdXdXdXdXdXsXsXaXaXaXuXuXaXaXaXaXsXaXaXaXsXsXsXuXuXiXiXiXyXiXiXiXiXiXiXhXdXvXGXkXGXPXSXMXhXnXnX(./.`.J.G.J.G.G.G.Y.I.G.G.G.J.J.U.R.XXR.T.R.T.Y.Y.Y.I.P.I.I.I.I.Y.U.I.I.Y.R.U.U.U.I.I.I.I.I.I.Y.U.Y.U.U.U.U.U.U.R.Y.Y.T.R.U.U.R.U.OXOXOXXXOXOXOXXXXX@X@XOXOXOXOXOXT.Y.Y.Y.Y.Y.Y.Y.U.Y.I.I.P.F.F.F.F.P.P.P.P.P.P.F.F.F.F.F.F.F.F.y.F.F.F.F.F.F.P.I.I.P.P.P.s.s.P.P.P.a.F.y.F.a.d.a.P.P.y.y.P.s.d.t.y.a.s.P.I.s.P.s.s.s.s.s.s.J.J.U.+X@X#X#X#XoXR.R.R.'.XXXXK.K.K.K.K.J.J.J.J.J.J.U.Y.P.P.a.s.a.F.F.P.a.P.y.t.t.t.y.y.y.t.t.y.y.y.y.y.d.s.s.d.d.s.s.d.s.s.s.y.t.t.t.y.s.a.y.y.s.s.a.d.a.s.s.s.i.s.s.s.s.s.s.s.",
"o.$.%.%.%.%.......%.$.$.$.$.$.$.$.$.$.$.$.$.$.$.$.$.$.$.$.+.+.$.@.+.@.$.$.@.$.$.$.$.$.$.$.$.$.$.$.$.$.$.$.8.*.=.=.$.$.=.&.$.$.$.*.=.$.=.*.*.*.*.*.*.e.e.e.i.<.*.*.*.=.*.*.*.i.i.*.*.=.*.*.*.i.i.=.*.e.e.w.8.=.*.<.<.s.i.*.*.i.*.=.=.e.a.s.s.s.G.G.D.<.<.<.<.G.D.<.<.G.G.G.D.G.*.*.G.=.-.-.H h h L L K P V.q q w 0 P 0 0 h h h h h h h h h h L 0 K K K L 0 L K K K U Z.Z.Z.Z.Z.Z.K Z.Z.A.gXjXjXpXV.V.gXA.A.gXiXpXA.A.C.G >.<.1.1.1.1.1.1.1.1.1.1.1.1.1.H./._.jXjXjXgXlXiXpXw q pXiXiXyXyXyXpXV.V.q w q q q q q q q q q UXw w w q q q q q q 9 w q 9 8 8 8 8 8 8 9 9 8 8 6 8 8 4 3 3 6 4 4 3 3 3 : : 4 6 6 4 4 8 4 5 5 4 : : 5 3 4 6 4 4 3 3 3 4 4 6 4 4 3 3 3 3 3 4 6 4 3 4 8 4 3 3 6 6 4 4 6 6 6 6 3 4 8 8 8 4 4 6 8 8 8 8 8 8 6 6 9 9 8 8 8 8 8 8 8 9 8 8 8 8 8 8 w q q q q q r yXuXt q q r aXyXr y t y y aXt q 9 9 q q q q q q w w q q r r uXq w w q q q r y y dXcXcXxXaXdXdXuXq q q q q q q q y y yXsXt t yXy pXw q r yXuXaXuXy y y y yXyXyXyXyXuXxXPXPXHXHXxXzXdXzXxXxXcXvXPXbXbXvXHXLXHXvXcXxXxXxXcXvXbXbXbXbXcXxXxXxXxXdXdXdXdXzXzXdXdXsXdXdXdXdXhXsXsXaXaXaXaXaXaXaXaXaXaXaXuXyXuXaXaXaXaXyXyXyXyXyXyXyXyXyXyXyXyXiXuXdXvXbXHXvXbXHXSXkXAXAXgXA.(./.H.U.J.J.J.I.P.I.i.U.R.J.J.U.R.K.J.R.XXU.U.Y.U.G.G.Y.R.U.Y.U.I.I.I.I.I.U.U.I.I.Y.T.T.T.R.U.Y.I.Y.Y.Y.Y.U.U.Y.U.U.Y.U.J.T.T.R.Y.T.R.R.OXXXOX+X@X+XOXOXOXOXOXOXT.Y.Y.Y.I.P.Y.G.U.Y.I.P.F.F.F.F.P.P.P.P.P.P.F.P.F.F.F.F.F.F.F.F.F.t.t.y.F.P.s.P.P.P.P.s.s.a.F.F.y.t.P.P.s.P.P.P.a.a.s.I.I.a.a.y.y.a.s.s.s.s.s.s.s.s.I.J.J.J.K.OXXX@X#X#XoXXXR.XXXXXXoXOXOXK.U.U.J.R.U.U.Y.U.I.I.I.G.s.s.s.a.P.P.F.P.y.t.y.F.t.t.t.t.t.y.d.d.y.t.w.e.s.a.a.d.y.d.s.s.a.w.t.t.w.e.s.s.a.a.a.s.s.a.s.s.s.s.s.s.s.s.s.s.s.s.",
"%.$.$.$.%.%.%.%.' ` %.%.%.$.$.$.$.$.$.$.$.$.$.$.$.$.$.$.$.$.$.+.@.#.@.$.$.%.$.$.$.$.$.$.$.=.=.$.$.$.$.$.8.w.$.=.*.=.$.$.$.$.$.=.*.*.=.*.*.*.*.*.*.*.s.s.e.*.*.*.*.*.=.*.*.=.*.*.*.*.*.*.=.=.*.i.*.*.e.e.w.e.*.*.i.,.i.i.*.*.*.*.*.*.e.s.i.i.i.i.H.D.H.1.<.=.<.<.<.D.<.D.D.D.D.*.*.G.*.-.-.S H H L K P P q q q q P K 0 0 h h h h h L K L h h L 8 K K K K L h K K K K U Z.K K K U K Z.K Z.A.jXgXV.V.Z.A.A.gXjXlXiXiXgXZ.C.G 3.2.1.1.1.<.<.<.1.1.1.1.1.1./.eXDXFXkXlXpXV.q q P iXlXiXiXyXpXV.q q UXq 9 q UXw w q q q q q w 9 8 9 q q q q w 9 w w 9 8 8 8 8 8 8 8 9 8 6 6 6 6 6 4 3 : : 4 3 4 3 5 5 5 3 3 3 3 : 4 : : : : - : 3 3 3 4 3 3 : 5 4 4 4 4 4 6 4 3 3 3 3 4 4 3 3 6 8 4 3 3 3 3 3 3 4 8 8 4 3 4 6 8 6 3 4 6 8 8 8 8 8 6 4 4 9 9 8 8 8 8 8 8 8 8 8 8 8 8 8 w q q q q r q t yXr r q q t y q t r r yXsXaXq w w w q q q w q q q q q q q y y q w q q q r t y aXxXcXzXaXaXdXdXyXq q q q r q r y y y aXaXr t y yXiXpXq pXyXuXyXyXy y y yXyXyXyXyXuXdXPXPXPXPXxXsXdXzXxXxXvXbXHXHXHXPXLXPXHXvXvXvXxXxXcXbXbXbXbXvXcXxXxXzXdXdXdXdXdXdXsXaXaXaXaXaXdXdXdXfXaXaXuXyXaXaXaXaXaXaXaXaXaXaXaXaXaXuXuXyXyXyXyXyXaXaXyXyXyXyXyXlXhXlXfXzXvXPXvXcXHXHXSXhXhXhXgXjX_.C./.1.L.U.U.G.a.a.I.Y.U.J.U.R.K.XXXXXXR.Y.Y.U.G.I.Y.Y.Y.Y.Y.Y.I.I.I.Y.T.T.I.I.U.U.Y.Y.I.I.Y.Y.Y.Y.Y.Y.Y.Y.Y.U.U.T.T.XXR.U.U.Y.T.OXOXOXOXOXOXOXOXOXOXOXOXOXOXY.I.I.I.P.P.Y.Y.Y.Y.I.P.F.F.P.P.P.P.P.F.F.F.F.F.F.F.F.F.F.P.F.F.F.t.t.t.F.F.y.y.P.P.P.P.P.P.P.F.F.F.a.s.I.P.P.s.J.U.U.J.U.I.s.s.a.y.a.s.P.s.s.P.s.s.s.i.J.U.J.K.'.'.@X@X+XXXOXOX+X@X#X#X+XXXU.R.U.XXT.Y.Y.Y.U.U.U.U.U.s.s.s.a.a.a.P.a.t.t.t.t.t.t.t.t.y.y.y.y.t.t.y.a.y.t.t.t.y.y.y.y.t.y.a.s.p.`.`.i.s.d.s.s.s.s.s.s.s.s.U.T.U.s.s.s.s.",
"%.%.$.$.%...$.$.%.%.%.%.%.%.%.$.%.$.$.$.+.$.$.$.$.$.$.$.$.$.o.o.$.$.$.$.$.$.$.$.$.$.$.$.*.*.$.$.$.$.$.$.$.@.@.$.$.$.$.*.$.*.*.*.*.*.=.*.*.*.*.*.*.*.*.e.e.*.*.*.*.*.*.*.*.<.*.e.*.*.*.i.*.*.*.e.e.*.*.9.e.*.*.e.e.*.i.i.e.*.*.e.e.i.i.e.=.G.i.i.1.1.H.1.>.i.i.e.*.<.1.1.D.D.D.D.=.*.*.-.-.-.S G U Z.V.V.q q q q UXP h h h h h h h h L h h h L 0 L L K K L h L K K K K K K K K K K K K Z.Z.A.V.V.S.A.A.gXjXjXlXiXiXiXV.V.C.C.:.3.1.1.2.2.1.1.1.1.1.1./.CXJXJXkXpXq w w q pXgXiXiXyXpXV.q q q q q w q w w 8 9 w q q q w 8 9 9 w q q q q w 8 9 9 8 8 8 6 8 8 8 8 6 4 4 : 6 7 : : 5 : - : 4 6 : : 5 4 4 : : : : : : : - - : : 3 3 5 4 5 5 5 3 4 4 3 3 3 4 4 4 3 3 3 3 4 4 4 4 4 3 3 3 3 3 3 3 4 6 4 4 4 3 4 4 4 3 6 8 8 8 8 8 6 4 6 4 4 8 8 6 4 4 8 8 8 8 8 8 8 8 8 9 q q q q w q y y r q q r t r r t r r y aXt q 9 8 w q w 9 w q w w q q q q yXt q q r q q r y y dXxXzXaXyXdXdXsXq q q q q q w r y t y yXr q r y uXuXyXyXyXyXyXyXy y yXyXyXyXyXyXuXsXbXKXHXLXGXsXdXzXxXxXvXbXHXHXbXHXKXHXbXbXbXvXxXzXcXbXHXbXvXxXzXzXzXdXzXdXdXdXdXdXaXaXaXaXdXdXaXsXdXdXsXaXuXaXaXaXaXaXaXaXaXaXaXaXaXaXaXyXyXyXyXyXyXyXuXuXuXyXyXyXyXyXiXiXiXhXhXdXHXvXkXvXHXSXhXhXhXiXiXgXgXS.(.^.[.H.H.s.I.I.U.U.J.J.J.K.XXoXOXU.U.Y.Y.J.U.Y.Y.U.I.Y.U.Y.I.P.U.T.OXY.Y.U.U.I.I.P.P.P.I.Y.Y.Y.Y.U.Y.Y.Y.Y.Y.T.T.s.J.U.U.T.T.T.OXOXOXOXOXOXOXOXOXOXT.Y.Y.Y.P.P.P.I.Y.Y.Y.Y.I.P.F.F.P.P.F.F.P.F.F.F.F.F.F.F.F.F.P.F.F.P.P.F.F.y.y.y.t.F.P.I.P.P.s.P.P.a.P.P.s.s.I.I.s.s.J.U.Y.I.s.s.s.s.P.F.a.P.P.s.s.P.P.a.a.s.R.U.J.J.`.XX[.[.XXOXOXOX@X@X@X#X@XXXXXOXOXXXK.U.I.U.J.J.U.U.U.J.i.I.I.s.I.s.a.a.y.t.t.t.y.t.y.a.a.a.a.y.t.t.y.t.t.y.t.y.y.w.t.t.y.s.i.v.@XoXp.d.a.d.s.s.s.s.s.s.s.i.p.s.s.s.s.s.",
"%.%.$.=...%.$.$.%.%.$.$.%.%.$.%.%.$.$.%.o.@.$.$.$.$.$.$.$.$.%.$.$.$.$.$.$.$.$.$.+.$.$.$.#.o.o.$.$.$.8.$.+.@.@.@.9.8.8.=.=.*.*.=.$.*.e.e.*.*.*.*.*.*.*.*.*.*.*.*.*.*.*.*.*.=.*.e.*.*.*.e.$.*.e.e.*.*.e.e.*.e.w.w.=.=.=.*.*.*.e.w.e.s.i.=.*.=.<.1.1.<.1.1.<.i.s.i.*.i.i.D.1.1.1.1.<.*.*.=.=.-.-.G Z.S.V.P q P P q w 0 7 h h h h h h h h h h h h h h h L K L L L K K L L K K K K K K K K U U P V.A.gXgXjXMXMXkXlXlXjXlXiXyXV.Z.C.3.2.1.1.<.<.1.1.1.2./._.mXlXpXw V.pXpXpXiXiXpXpXpXV.UXq q q q q q w q w 8 9 9 w q w w 8 9 q w w P q w 9 8 8 8 8 8 8 8 7 4 4 6 6 4 6 6 7 3 5 7 6 4 4 : : 4 4 5 : : 5 : - - - : : : : : : : 4 3 : 5 : : 4 5 5 3 3 3 3 3 3 3 3 3 4 3 3 3 5 5 3 3 5 5 3 5 3 3 3 4 4 4 6 6 3 3 3 3 3 6 6 6 8 8 8 8 4 6 4 4 8 8 4 4 4 8 8 8 8 8 8 8 6 8 8 9 w w w 9 q t r q q r t r q r q q q yXt w w 9 8 w q w 8 q q 9 w q q q q yXw 9 q q q r t y dXxXzXdXuXaXdXdXyXw q q 9 8 8 w r r r y t w w q t y yXuXiXyXyXyXy y y yXyXyXyXyXuXaXzXHXHXHXPXzXdXxXzXcXvXbXHXHXbXHXLXHXbXbXbXbXcXxXvXbXbXvXzXzXdXdXdXdXdXdXdXdXdXdXdXsXaXaXsXdXdXsXaXaXaXaXaXsXdXdXdXdXdXdXdXdXdXdXaXaXaXaXaXuXuXaXaXuXuXuXyXuXyXyXyXyXyXyXyXyXiXhXsXvXGXkXkXGXSXjXhXhXgXgXgXiXhXgXS.C.D.1.H.G.G.G.J.J.J.R.Q.K.K.R.J.J.U.U.G.U.Y.U.G.I.I.U.Y.Y.I.G.J.U.U.I.U.Y.I.I.P.P.P.P.I.I.Y.Y.U.U.U.Y.I.I.Y.I.s.U.U.Y.Y.Y.Y.T.OXOXOXOXOXOXT.T.OXT.Y.Y.Y.I.P.I.Y.Y.Y.I.I.I.P.P.P.P.a.F.F.F.P.P.F.F.F.F.F.P.F.F.F.F.a.P.P.F.a.s.y.F.P.P.P.s.s.s.s.s.s.I.P.P.I.P.I.I.s.I.P.P.P.a.s.s.s.P.F.P.P.s.P.s.s.I.I.I.s.U.U.J.J.`.XXXX`.XX+X+X+X+X`.'.+XXXK.XXXXXX`.K.U.Y.U.J.K.U.U.b.K.J.J.I.s.I.a.P.I.P.y.y.y.a.a.y.d.t.t.d.y.t.w.w.w.y.d.y.d.s.d.e.y.t.d.s.p.v.`.i.y.d.s.a.s.s.s.s.s.s.s.i.s.s.s.s.s.",
"......%.$.$.$.$.$.$.$.$.%.%.............%.$.$.$.#.$.$.$.=.=.=.$.$.#.$.$.$.$.$.+.+.@.$.$.$.o.@.$.$.$.$.$.$.@.=.*.*.,.<.$.$.*.$.*.*.*.=.*.e.*.i.1.<.*.=.$.*.*.*.*.*.*.e.e.e.*.*.e.*.*.i.*.*.e.e.e.e.*.*.e.*.e.e.*.*.*.*.*.e.d.e.*.e.s.i.<.<.=.<.>.<.i.i.i.p.<.*.s.e.i.G.G.G.<.*.*.*.*.*.=.=.*.=.3./._.Z.P V.Z.V.V.0 8 6 0 h h h h h h h h h h h h h h h L K L 8 L h L h L L L K K K K K Z.K K Z.Z.Z.gXjXIXIXIXkXkXkXlXiXiXyXV.Z.C.3.<.<.<.<.3.3.G I I Z.w q pXiXiXiXyXyXyXV.q q q q q q q q q q w 9 w w w w w q w 9 8 9 8 9 9 w w 9 9 8 6 8 6 6 8 6 8 : : : : 3 : 4 3 4 4 4 : : 6 6 : : 6 6 : - : 3 5 - : : : : - : 4 : : 4 : : : : : : : : 6 4 3 3 : 5 3 3 5 4 4 5 3 5 : : 3 3 3 3 3 3 3 3 4 6 3 3 3 3 3 4 4 3 4 4 4 4 6 4 4 3 4 6 6 8 4 6 8 8 8 8 8 8 8 8 8 8 8 8 8 8 8 w 9 r r q q q r y q w q w q r yXr e 8 9 w w 9 9 w q w 9 q q 9 w y pX9 q q q r t y sXxXxXdXfXuXdXdXaXt q q q 9 8 w q q q r t w 8 8 w r y y y y yXyXt t y yXyXyXyXuXaXaXsXvXHXHXLXcXdXzXxXxXcXvXbXvXvXPXPXvXvXbXcXbXvXvXbXPXHXcXzXdXdXdXdXdXaXaXaXdXdXsXaXaXaXaXaXaXaXaXsXaXaXaXsXdXdXzXzXzXzXzXzXzXzXzXdXdXdXdXdXdXsXaXaXaXuXuXuXiXiXyXyXpXyXyXyXyXyXyXiXaXxXHXMXkXcXGXkXgXgXyXpXpXiXhXhXgXgXS.Z.C.D.H.H.J.J.J.J.U.J.J.K.XXK.J.U.U.U.I.I.a.I.Y.I.I.G.G.I.I.I.s.I.I.I.U.I.I.Y.s.I.P.I.U.U.I.I.I.Y.U.I.I.P.U.J.U.Y.Y.Y.Y.Y.T.OXOXOXOXOXT.U.T.Y.Y.Y.U.U.Y.Y.Y.Y.P.P.P.P.P.I.a.a.F.P.P.P.P.I.P.P.P.P.P.P.P.P.a.a.y.P.F.y.a.s.I.a.s.P.P.s.P.P.s.s.s.s.P.s.s.s.s.s.s.s.a.a.P.F.F.a.a.s.a.s.P.P.s.s.s.s.J.R.R.J.U.U.R.XX+XXXR.OX+X].+XXX`.`.OXOXXX'.'.`.`.R.U.U.U.U.T.U.K.K.J.J.J.U.Y.U.s.s.s.s.a.a.a.s.d.a.a.t.t.y.t.t.y.t.t.t.t.y.d.s.s.s.s.a.s.s.s.i.s.e.a.d.s.s.s.s.s.s.s.s.s.s.s.s.s.s.s.",
"%.%.$.$.+.+.%.+.%.$.$.$.$.$.%.%.....%.$.$.$.$.o.$.%.$.$.$.$.$.$.+.$.$.$.$.$.$.$.$.+.$.$.$.$.$.$.$.$.$.$.$.$.$.$.$.=.=.$.$.$.8.*.*.*.=.$.e.e.<.<.,.*.*.e.*.*.*.*.*.*.e.e.i.i.*.*.*.=.*.*.=.=.e.w.e.*.e.i.*.e.e.=.=.*.e.*.e.*.*.*.*.i.H.1.<.=.<.<.=.=.*.<.1.<.<.i.e.G.*.=.*.*.*.*.*.*.=.=.=.=.-.<./.(.Z.V.pXA.gXgXw 8 0 L h h h h h h h h h h h h h h h h K 0 8 h h h h h h L K K L L K K K K Z.Z.Z.gXjXMXkXIXkXkXlXiXlXlXiXpXV.Z.I G 3.G C.C.U K L L P A.lXiXpXpXpXUXq UXq q q q q q q q q w q w w 9 9 8 L L 9 9 8 0 0 8 8 8 8 6 6 4 6 4 6 4 6 6 4 : : : 3 : : - : : : 6 : - : : : : : : 4 : : : 3 5 - : : - 5 : : : : 4 - - : : : - : 5 : : : 3 5 : : 3 3 3 3 3 3 3 3 3 : 3 3 3 : 5 3 3 3 4 4 3 3 3 4 6 4 6 4 4 4 3 3 6 6 3 3 4 6 4 8 6 6 8 6 4 4 6 6 8 8 8 8 8 8 8 8 8 8 w r q r q q r r q q q w q t y w 8 8 w q w e w r q 8 9 w w w r aXt 9 w q r t y yXdXxXzXdXaXaXdXsXuXq q w 9 6 8 q w w q q q 9 8 8 9 r y r r t y y r y y y t yXyXuXyXaXxXHXHXLXHXkXdXzXxXxXcXvXbXvXPXPXcXcXbXvXvXvXzXvXbXPXvXzXdXzXzXdXdXdXdXsXdXdXsXaXaXaXaXaXaXuXaXaXaXaXaXaXaXsXdXdXdXdXdXdXsXaXaXdXdXsXdXdXdXdXaXaXaXuXyXyXyXyXyXyXpXpXpXyXyXyXyXyXuXaXzXbXSXkXkXGXSXhXgXiXyXyXyXhXhXgXgXgXgXA.C.j.2.H.U.U.R.J.J.U.OXR.J.J.G.G.G.I.I.s.I.I.G.P.G.U.I.P.P.P.I.I.Y.U.s.U.Y.G.I.s.I.Y.J.I.I.Y.Y.R.Y.Y.I.U.J.U.Y.Y.Y.Y.Y.T.OXXXOXOXOXOXOXT.Y.Y.Y.U.U.Y.Y.Y.P.I.I.I.P.P.P.P.P.P.P.P.I.P.s.P.P.P.P.P.P.P.P.s.s.a.I.P.a.P.a.a.I.P.P.a.s.s.s.s.s.s.a.a.s.s.s.s.s.s.s.s.a.y.F.F.F.y.d.a.a.F.F.a.s.s.s.s.U.Y.J.U.U.T.T.OXOXR.XXXXXXXXXX`.`.XXOXXX'.K.J.K.XXT.U.U.I.I.U.U.U.J.J.J.R.Y.U.J.J.J.J.s.s.s.a.a.s.a.t.t.t.t.d.s.y.t.t.y.a.s.s.s.s.s.s.s.s.s.d.d.e.s.s.s.s.s.s.s.s.s.s.s.s.s.s.s.s.s.",
"$.$.$.$.+.` ` ` %...$.$.$.$.$.$.%...%.$.$.$.$.o.$...$.$.$.o.$.o.o.+.$.$.$.$.$.$.$.$.$.$.$.$.$.$.$.@.@.$.$.$.$.$.$.$.$.*.=.$.$.*.*.*.$.e.e.i.*.=.*.*.e.e.*.*.$.*.*.*.*.*.*.*.*.e.e.*.*.*.=.&.e.w.e.*.*.*.*.*.*.*.*.*.i.*.*.*.e.*.*.*.i.1.<.*.=.*.i.i.p.1.<.i.i.H.1.G.e.*.e.e.*.*.<.=.<.<.*.=.=.G.D./.rXjXlXiXV.P 9 8 8 L h h h h g g h f g h h h h h 0 h 0 8 0 h h h h h L K L h h L K K K K K K K A.gXjXMXkXkXkXfXkXkXkXfXiXq 9 K K K Z.jXjXlXV.w V.lXiXiXpXq q q q q q q q q q q q q q w 9 9 9 P w 8 8 8 0 9 8 8 8 8 8 8 8 8 4 4 4 4 8 7 : 4 4 : : : - : : 4 : : : : 3 : - : : - : : : : 4 : : : - - : : - : : : : : : - : : - : 5 : : - - : 3 3 3 6 3 : : 3 5 5 5 3 3 3 3 3 3 : 5 5 3 3 3 3 3 3 3 4 6 4 6 4 4 3 3 3 6 6 3 3 3 4 3 4 8 8 8 4 4 3 6 4 6 8 8 8 8 8 8 8 8 9 q r q w w q q q q q q q r y q 9 9 8 9 q w q r t w w 9 w w 9 y uXq 8 e q r y y aXxXzXdXaXyXaXaXaXr w q 9 8 9 8 w 9 w r q w 8 8 8 w q q q q r t t y yXyXyXt yXyXuXuXdXHXPXPXLXvXkXxXzXzXvXbXbXbXPXHXxXzXbXbXHXvXdXxXbXHXvXdXdXdXzXdXdXzXdXdXdXsXaXaXaXaXaXaXaXaXyXuXaXuXuXaXaXaXaXaXsXdXsXaXaXaXyXyXaXaXaXaXdXdXdXsXsXiXiXyXyXyXyXyXyXyXyXyXpXpXyXyXyXyXuXdXbXcXkXkXbXGXkXAXhXiXyXuXhXiXhXlXhXiXgXgXZ.C./.`.L.K.J.J.J.U.J.G.G.U.G.G.P.P.G.P.P.s.P.I.Y.I.P.P.P.s.s.Y.Y.U.J.U.G.U.i.U.Y.a.I.Y.Y.Y.Y.I.P.P.Y.Y.I.P.I.Y.Y.Y.T.R.R.OXOX+X&XOXOXY.Y.Y.Y.Y.Y.Y.P.I.Y.Y.Y.I.P.P.P.P.P.P.P.P.s.P.P.P.P.s.s.P.P.s.s.a.s.s.s.y.F.y.y.P.P.F.y.s.a.a.d.a.a.F.F.a.s.s.s.P.P.P.a.d.F.F.F.F.F.F.y.F.F.F.a.s.s.s.J.J.J.J.U.R.R.R.U.U.XXOXXX'.'.'.'.`.`.OXOXXXK.J.K.`.K.J.U.I.P.a.a.J.J.J.J.U.Y.Y.U.J.J.J.J.J.s.a.a.s.a.y.u.t.y.s.s.a.y.y.a.s.s.s.s.s.s.s.s.s.y.t.d.s.s.s.s.s.s.s.i.J.s.i.s.s.s.s.s.s.s.",
"$.$.$.$.$.%.%.$.....$.$.$.$.$.$.$.$.$.$.$.%.$.$.$.%.$.$.$.@.+.$.o.o.$.$.$.$.$.$.$.$.$.$.$.$.$.$.$.&.&.$.$.$.$.$.$.8.8.$.*.$.$.=.*.*.=.e.*.$.$.=.*.*.e.e.*.e.=.*.*.*.*.<.<.*.e.e.e.e.*.*.e.e.*.e.e.*.e.*.*.*.*.=.<.=.*.*.e.s.s.*.*.*.*.*.<.e.e.i.s.i.1.1.i.s.i.1.1.=.*.*.i.e.*.=.*.<.<.<.=.=.*.*.*.D.0XmXiXpXq w 8 h 8 8 h h g g h g h f f g g h h 0 8 0 0 7 0 h h h h h h h 0 h h L L L K K K K U Z.A.jXMXIXIXIXIXIXkXkXkXiXq 9 P P gXkXIXkXuXpXjXiXpXpXUXq w q P w w q w q UXw w w 9 9 9 8 8 8 0 L 8 8 0 8 8 6 8 8 6 7 6 4 7 6 4 : - : - - 5 : : < < < < 7 6 : : : : : : : : : - - : 5 5 7 - < - - : : : : - - - : : - ; : 5 : 5 3 5 5 : : : 5 : : 5 3 : - : : = : 3 3 3 3 3 3 3 = = 3 3 3 3 3 3 3 3 4 4 4 3 3 3 3 3 3 3 3 3 3 3 3 4 4 4 4 4 6 4 6 4 6 8 8 8 8 8 8 9 8 e t r q 9 q q q q r q q r y y w 8 9 9 w q q w yXq 8 w w 9 8 q yXy w 8 w r t yXy zXxXdXaXy y yXuXyXw 9 9 8 8 e 9 w 9 q q w 8 6 6 8 w 9 9 9 w q q q r t r yXy y yXsXdXvXKXKXKXHXzXdXzXzXvXPXHXbXHXbXzXxXbXbXbXHXdXsXcXHXHXdXaXsXdXdXzXzXdXdXaXaXaXyXuXaXaXaXaXuXyXyXyXyXyXyXuXaXaXuXyXyXyXyXuXaXuXy y aXdXsXaXdXdXdXdXkXhXiXyXyXyXyXyXpXB.pXpXpXpXyXyXyXuXaXdXvXGXkXxXHXHXMXMXhXhXhXiXhXhXhXhXgXgXpXiXgXA.S.C./.D.L.U.G.J.I.P.I.I.I.P.P.P.G.P.I.s.a.I.P.s.s.s.s.s.P.U.Y.Y.U.U.i.U.J.J.I.P.I.Y.Y.R.Y.I.P.I.I.P.P.P.I.Y.Y.Y.T.Y.T.OX+X#X;X+XOXY.Y.Y.Y.T.T.Y.I.Y.Y.Y.Y.Y.I.P.P.a.P.P.P.P.P.P.P.s.s.s.s.P.P.s.U.U.s.s.y.F.F.F.y.y.P.F.F.s.a.F.y.y.y.y.F.P.a.d.s.s.s.I.a.y.t.F.F.F.F.y.t.F.F.F.F.a.P.I.J.J.J.U.XXXXXXT.T.OXT.U.p.v.`.`.'.'.'.XXOXOX`.K.XXXXXXT.U.U.Y.s.s.U.U.J.J.J.J.J.U.R.J.J.J.U.s.s.s.s.d.y.t.t.d.s.s.s.s.s.s.s.s.s.d.d.s.s.s.d.t.t.d.s.s.s.s.s.s.a.s.s.s.J.J.s.s.s.s.s.s.",
"$.$.$.$.o.$.$.$.%.%.$.$.$.$.$.$.o.+.+.+.+.o.$.%...$.$.$.$.%.$.$.%.#.$.$.$.+.$.$.$.+.8.$.$.+.+.+.$.8.$.$.$.$.$.$.$.$.$.=.,.$.$.$.$.*.=.$.$.$.$.=.*.e.e.*.*.e.*.*.*.=.,.,.*.*.*.*.*.*.*.e.e.*.*.*.*.*.e.*.e.e.*.*.e.*.*.e.e.i.*.*.e.e.*.=.*.e.s.i.<.=.*.i.i.d.e.<.<.=.=.*.*.*.*.*.*.*.<.*.=.*.*.*.=.=.D.mXiXUXq 9 0 h h h 0 0 L h h h g h f f g h h h h h h h h L h h h h h h h L L h h L K K K K K Z.A.gXjXIXIXIXIXIXIXkXlXiXV.UXV.gXkXkXkXiXiXlXpXUXq UXq 9 9 w 0 w w q w w w w 8 8 9 9 w 9 8 8 8 8 8 8 4 8 6 4 6 : < - 7 : : - < < < - : : 5 : - < 1 1 - 7 7 - - - - : - < : 7 - - 7 : : 6 : < - 4 4 4 3 : : - - - : - - - : - : 5 5 3 : : : 5 3 : : 5 : : : : 5 5 5 3 3 : : 3 3 3 5 3 3 3 3 3 3 3 6 6 3 4 4 3 4 3 3 3 3 3 4 4 3 3 3 3 3 3 3 4 6 6 4 4 8 8 8 8 9 q q 9 q yXr w w q q q r r q q r uXt w 8 8 w q q q r pX9 8 8 w 8 9 r yXw 8 w w q r t y zXdXaXyXy y y y q 8 8 8 8 8 w w 9 9 9 8 6 4 6 4 6 6 6 6 6 w w 9 w w w 9 r yXyXyXsXsXzXHXPXHXkXdXdXcXHXLXHXcXvXcXzXzXbXbXbXHXcXsXzXHXPXxXuXaXdXdXdXdXdXaXaXaXuXyXy y uXaXaXaXyXy y y y y yXuXaXaXuXyXy y y yXuXaXaXaXsXdXdXaXdXdXdXdXdXsXiXyXyXyXyXyXyXpXyXpXyXyXyXyXiXiXaXdXcXbXvXHXKXPXSXkXhXhXkXhXhXhXhXhXhXiXiXpXiXgXgXA.S.C./.H.I.I.I.I.I.I.P.P.P.P.P.P.P.P.G.G.I.s.I.P.s.s.P.I.T.T.U.J.I.I.U.s.a.s.U.T.T.T.I.I.P.I.I.P.I.Y.U.Y.U.U.T.Y.T.OX+X#X#X@X+XT.U.R.Y.T.Y.Y.Y.T.Y.Y.Y.Y.U.I.I.a.P.P.P.P.P.I.s.I.I.P.P.P.P.P.I.T.U.I.P.F.F.F.y.a.a.a.y.F.P.y.t.F.P.y.t.P.F.y.d.a.s.a.y.t.t.y.y.y.y.y.F.F.F.P.P.a.P.I.J.J.J.K.R.R.J.U.T.T.J.J.J.K.`.v.v.[.`.`.XXOXOXXXOX+XOXT.Y.U.U.s.P.I.U.J.J.J.U.J.U.K.J.J.U.I.s.s.s.s.a.y.t.t.t.y.s.s.e.s.s.s.s.s.s.s.s.a.a.e.e.a.a.s.d.s.s.s.a.y.d.s.s.J.J.J.J.i.s.s.s.",
"$.$.$.$.o.+.$.$.$.$.$.$.$.$.$.$.o.+.+.O.#.$.$.%.%.%.$.$.+.o.o.$.=.$.$.$.$.$.$.$.#.+.9.$.$.o.+.$.$.$.$.$.$.=.$.$.$.$.=.=.-.$.*.e.$.*.*.*.*.*.*.*.*.e.w.=.*.*.*.*.i.*.=.=.*.*.*.$.=.*.*.e.*.*.*.*.*.*.*.*.e.*.*.*.=.*.*.e.e.G.=.*.*.*.*.=.=.*.i.p.<.*.*.i.e.i.=.=.=.=.=.<.<.<.=.*.*.=.*.*.=.*.*.*.=.=.<.(.A.V.w 0 h h h h 7 h 1 h h h h h g g h g g h 1 1 g h h L h h h h h h h L h L h L L K K K U Z.A.jXjXMXIXIXIXIXIXkXiXiXlXiXiXkXkXkXiXlXkXpXq q q w 9 8 8 9 9 w q w 8 9 8 8 8 8 L 0 9 8 8 8 8 8 8 8 6 6 7 4 7 : - - - : : - < < < < - - 7 7 - - - < : 0 7 - - - - - < < : 6 4 - : - : : - < - 4 : : - - - - - - : - - - - < - : 5 : : : : : : - : 5 : 3 : : 5 5 5 3 5 : : 3 5 3 3 3 3 3 3 3 3 3 4 4 3 3 4 3 4 3 3 3 3 3 3 4 4 4 3 3 3 4 3 3 4 4 3 4 8 8 w w q q w q y t r r t t q r t r q r y yXq 8 8 w q q q q yXq 8 8 8 8 8 w t r 9 8 q q q q r uXdXaXyXt t t y r w 8 8 8 8 8 w q q 9 8 8 4 3 3 3 3 3 6 8 8 9 9 8 8 9 w 9 r y y yXyXt aXxXzXkXkXdXdXvXKXPXvXvXxXdXdXxXvXcXvXbXdXdXHXPXvXaXaXsXsXsXdXaXyXy aXaXyXy t t yXaXuXaXy y y y y y y uXaXuXuXyXyXy y t y yXaXdXdXdXdXdXdXdXdXdXaXuXyXyXyXyXyXyXyXyXyXyXyXyXiXiXsXfXaXdXvXPXLXKXPXSXSXkXhXhXhXhXhXhXkXkXkXhXhXiXyXiXgXgXgXA.Z.I 2.H.i.P.P.P.P.P.P.P.P.P.P.P.P.G.G.G.I.P.P.s.Y.U.K.U.J.J.I.I.J.U.I.I.I.Y.Y.I.s.s.P.P.P.P.P.Y.U.Y.U.U.R.Y.Y.T.OX+X+XOXOXT.Y.Y.T.Y.Y.Y.Y.OXT.Y.Y.Y.I.P.P.P.P.P.P.I.P.P.P.I.P.P.P.P.s.s.I.I.U.I.a.F.y.y.y.a.s.s.d.d.a.t.y.F.s.a.t.F.t.t.t.t.y.y.t.t.y.F.F.F.y.F.F.F.F.a.s.s.P.I.J.J.J.J.J.U.J.U.U.J.J.R.U.J.`.`.[.[.`.`.XXOXOXOXOXOXOXT.Y.T.R.U.Y.U.J.J.J.J.J.J.J.U.J.J.U.s.s.s.s.s.s.y.t.t.y.a.s.s.d.s.s.s.s.s.s.s.a.a.s.s.s.s.s.s.d.a.s.s.a.a.s.s.s.i.s.i.i.s.s.s.s.",
"$.$.$.$.+.%.%.$.%.$.$.$.$.$.$.%.$.$.$.+.+.+.+.$.$.$.$.$.$.o.o.+.$.+.+.$.$.$.$.$.+.+.$.$.$.$.$.$.$.$.=.=.$.$.$.$.$.$.=.*.,.*.=.=.=.*.*.*.*.*.*.*.*.*.$.*.*.*.*.*.e.e.*.*.*.*.*.*.*.*.*.e.e.*.*.*.*.*.*.*.*.$.*.*.*.*.*.e.e.i.*.*.e.i.e.*.*.*.*.<.i.i.i.G.*.*.*.*.*.<.*.*.*.*.*.*.*.*.*.*.=.*.i.=.*.=.-.-.I Z.L h h h h h h 1 1 f h h g g f g f f 1 1 < f h h f g h 0 7 h h h h L h h h L L K K Z.Z.A.gXjXjXjXkXkXkXkXkXlXiXiXiXlXkXkXlXlXfXlXpXUXw w w 9 8 8 8 8 8 9 9 9 8 8 8 8 6 6 8 8 8 6 7 8 6 7 1 : : - : : - - - - - : : - < - - < - < - - - - - < < : : - - - - - - - - : 5 : - - - - - : - - : - - - - - - - - - - ; - - : : : - : - - : - - : 5 5 3 : - 5 5 : : : 5 5 3 5 : : 3 3 3 3 3 3 3 3 3 3 3 3 3 3 3 3 3 3 3 4 4 4 6 3 3 4 4 3 4 6 8 4 6 8 9 w q q 9 9 r yXr w r yXr q r q q q r y t q 9 w e r t q t t 9 8 8 8 8 8 q r q 8 8 w r q q r aXy t r q q q r w 8 8 8 8 8 8 8 w r w 6 6 4 4 3 3 3 3 4 9 w 9 8 8 8 8 8 w r t y r r t sXdXyXiXfXdXzXHXvXxXvXxXdXdXdXzXzXxXbXxXsXbXLXcXaXaXdXdXaXaXuXy y yXyXy y y y y y y r r t t t t y y y yXuXuXaXuXyXyXyXyXy y y yXaXsXdXdXsXaXuXuXyXyXyXyXyXyXyXy yXyXyXyXyXyXiXaXaXxXvXPXLXKXKXPXjXgXgXiXiXiXhXhXhXhXkXfXkXhXhXhXlXlXhXhXhXiXgXA.Z./.3.p.U.I.I.G.P.I.G.P.P.I.G.P.I.G.G.P.P.I.T.J.J.J.J.s.P.I.s.U.I.P.P.P.P.P.P.P.P.P.I.Y.I.a.I.Y.I.I.Y.T.T.U.R.OXOXOXT.Y.Y.Y.T.T.Y.Y.Y.OXT.Y.Y.Y.I.P.P.P.P.P.P.I.Y.I.I.s.s.P.P.s.s.s.s.P.I.I.a.P.y.y.y.a.s.s.s.s.d.y.F.a.s.y.t.F.y.F.t.t.y.t.t.t.y.y.y.y.y.y.F.F.a.a.s.s.s.I.i.J.J.J.K.R.R.U.Y.J.J.J.K.J.K.K.[.'.'.XXXXXXOXOXOXXXXXOXXXR.U.J.U.U.U.J.J.s.J.J.J.U.J.J.J.s.s.s.s.a.y.t.t.t.a.s.s.s.s.s.J.i.s.s.s.s.s.s.s.s.s.s.s.s.s.s.s.s.s.s.s.s.s.s.s.s.s.s.s.s.s.",
"..%.$.%.%.%.%.$.%.%.%.$.$.$.$.$.$.$.$.$.+.+.$.$.$.$.$.$.$.o.| o.O.#.#.+.$.$.$.$.$.+.+.$.$.$.$.$.%.%.$.$.$.$.$.$.%.$.8.=.<.$.$.e.*.*.*.*.*.=.=.*.*.*.=.*.*.*.*.=.*.*.*.*.*.*.*.$.*.*.*.*.*.*.*.*.*.*.*.*.=.=.e.e.e.&.=.9.e.*.=.=.i.i.<.=.=.*.*.e.i.i.i.G.*.=.*.=.*.<.=.*.*.*.*.*.*.*.*.*.*.<.*.=.*.-.=.=.S H h h h h h h h 1 1 f g h g g f h f f 1 < < < 1 g 1 h 0 6 - f h h h h h h 0 h h K K U A.jXjXjXjXkXjXlXlXkXlXiXlXlXlXlXlXiXiXiXiXpXq q w 8 8 8 8 8 8 8 8 8 8 8 8 8 6 8 6 4 4 6 6 : - 7 : 1 1 - - - - - - < - - - - - - < < - < 7 : - - - : - < < - - - - - - - : - - - - < - - - - - ; ; ; : : : : : - - > ; - - > : - - - - : - - - 5 : - < : : 3 5 : : : : - : 3 3 3 3 3 3 5 : 3 5 5 3 3 3 3 3 3 3 3 3 3 3 3 3 3 4 4 4 3 4 4 6 4 6 8 8 8 8 8 8 w q q w 9 q y r q q t t q r r q q r y t q 9 w q w r r r t 9 8 8 8 8 6 9 q q 6 6 8 q q q q r yXr q q q q q q 9 6 8 8 8 8 8 8 w q q 8 3 4 3 4 4 3 4 3 8 q 9 8 8 8 8 6 w t t y r q y aXt t iXsXsXvXzXaXdXaXy dXvXvXcXxXvXbXdXxXPXGXsXaXdXdXsXaXuXy y y y y y y y y y y t r r q r q r t y y y y uXuXuXyXyXyXyXyXy y yXsXdXsXaXuXyXyXyXyXyXyXyXyXyXyXy y yXyXyXyXyXyXuXdXHXKXKXKXKXKXGXgXgXiXiXyXiXiXiXiXhXhXfXiXlXhXhXhXhXhXhXhXhXiXgXgXA.Z././.D.G.G.F.G.i.s.a.G.G.G.I.I.U.G.I.U.Y.J.J.U.J.s.s.s.U.Y.I.a.s.s.s.s.P.s.a.P.Y.Y.I.P.I.P.P.P.U.XXOXU.U.T.T.Y.Y.Y.Y.Y.Y.T.U.U.U.T.Y.R.Y.I.P.P.P.P.P.P.P.I.Y.R.U.I.s.s.s.s.s.s.s.P.s.s.a.y.y.F.y.a.s.s.I.P.a.d.F.F.s.a.y.F.F.y.y.t.y.y.t.t.t.y.F.F.F.y.a.a.a.a.s.s.s.a.s.J.J.J.J.R.U.U.U.J.J.R.R.K.K.J.K.'.'.XXXX'.OXOXOXOXOXXX`.K.J.s.J.U.J.J.J.J.J.s.i.J.J.i.s.i.s.s.s.a.y.t.t.t.d.a.s.s.s.s.s.a.a.s.s.s.s.s.s.s.i.s.s.s.s.s.i.J.p.s.s.s.s.s.s.s.s.s.s.s.s.",
"..%.$.+.' %.%.$.%...%.$.o.$.$.%.$.$.o.o.o.$.$.$.$.$.o.o.%.$.o.o.@.+.#.+.$.o.o.$.$.+.+.$.$.8.9.$.$.=.$.$.*.*.$.$.$.$.8.8.=.$.@.e.*.*.*.=.*.*.$.=.$.=.=.*.=.*.*.*.*.*.*.=.*.e.=.=.e.e.*.=.*.*.*.=.e.e.e.*.*.*.=.8.w.e.i.*.=.*.=.*.=.,.<.i.i.*.e.i.e.*.*.*.<.i.i.*.*.=.G.G.*.*.*.*.*.*.*.*.*.*.*.*.*.*.=.*.-.S h h h h h h h h h g f h h 7 1 1 1 g 1 1 f 1 1 f h h 2 7 < 1 h h h 0 2 h h h h L U Z.gXjXjXkXkXkXlXlXlXlXyXiXlXiXiXiXiXyXyXpXV.w 9 w 8 0 0 8 8 8 8 8 8 6 4 4 4 6 6 8 8 : : < 2 2 < - - : - < < 1 - - - - 7 : - < - - - - - - - - - - - : - - - - - ; ; - - - : - - - - : - - - - - ; - - - : - - : : - ; > ; - : : ; > - - : - - - : 5 : - : > = = = 5 : : : : 5 3 3 3 3 3 5 : 3 5 5 3 3 3 3 3 4 3 3 3 3 3 3 3 3 4 6 4 4 8 8 6 4 6 6 6 6 8 8 8 8 q q 9 w t t q q r yXq w q q q q r y r w 8 w q q t q t r 8 8 8 8 8 8 w q w 6 6 w w 9 w q t q e 9 8 w w w 9 6 6 8 8 8 w 8 8 8 9 9 6 3 3 3 4 3 4 4 3 8 q w 8 8 8 8 6 w yXyXr q r uXuXw pXsXaXxXcXyXaXyXq q zXbXvXcXvXbXvXxXHXPXfXuXsXsXaXsXaXy y y y y y y y y aXuXy t t t t t r r t y y y y yXyXyXy y y y yXaXaXaXaXsXaXaXyXyXyXyXyXyXyXyXy y yXyXyXyXyXyXyXyXyXaXxXLXKXKXKXLXGXkXhXhXhXhXiXiXiXuXuXiXiXsXsXlXhXhXkXkXkXkXkXkXhXlXiXgXgXS.C./.3.G.I.G.P.P.s.I.I.G.G.U.G.I.P.G.U.s.s.I.I.s.s.s.U.Y.I.P.G.P.a.P.I.P.P.I.Y.I.P.I.I.a.P.s.U.K.R.Y.Y.Y.U.U.Y.Y.Y.Y.I.Y.U.s.R.Y.Y.Y.Y.I.P.P.P.U.U.Y.Y.Y.U.U.U.I.s.s.s.s.a.y.a.a.s.s.a.a.a.a.a.a.P.P.s.s.s.s.Y.I.a.a.a.P.t.y.t.t.y.y.y.t.t.t.y.F.t.t.y.y.a.I.s.s.s.s.s.J.R.R.U.U.J.J.J.J.J.R.K.K.K.b.`.XXXXXX+XoXXXOXXXOXOXOXXXU.T.J.J.J.J.J.i.U.s.s.s.s.J.s.s.i.i.s.s.a.y.t.t.t.t.d.s.s.s.s.s.a.d.s.s.s.s.s.s.s.s.s.s.s.s.s.J.K.p.s.s.s.s.s.s.s.s.s.s.s.s.",
"..%.+.+...%.$.$.$.$.$.$.o.+.$.$.$.$.+.o.o.$.$.$.o.$.o.o.$.$.o.o.o.o.$.$.$.$.$.$.$.+.5.8.$.$.$.$.$.=.$.$.=.=.$.$.$.%.$.8.e.*.$.=.=.*.$.$.$.*.*.*.$.*.$.=.=.*.*.*.*.*.i.e.*.*.*.e.e.e.*.=.*.*.*.e.e.=.*.e.*.*.=.8.e.J.G.*.*.e.=.=.=.=.*.e.e.*.s.s.e.i.e.<.i.*.i.s.*.*.<.*.*.*.*.*.*.*.*.*.*.*.<.=.*.*.*.<.-.A J h h h h h h h g h h h 7 8 1 : 2 g 1 1 g h g 1 h h f < 1 f g h h 0 0 h h h L K Z.Z.A.jXjXjXfXlXlXlXiXpXV.yXiXyXyXpXyXpXUXq 9 8 8 8 8 8 8 6 7 6 8 8 6 4 5 4 3 : 8 6 6 < < 2 1 < < - < 1 < - < < - < - - - - - - - - - - - - - - - - : - : : - - - > ; - - - - - - - < - - - - - - - : : - - - - < < - - ; > : 4 - - : : - - ; ; - - 5 : : : : : : = : : 5 : : : 3 3 3 3 3 3 3 3 3 3 3 3 3 3 3 4 3 3 3 3 4 4 3 4 6 6 3 4 4 4 3 4 6 8 8 8 8 8 8 w q w 8 q t r 9 q t t 9 w w 9 q q r r q 8 9 w 9 r r q q w 6 6 8 8 8 9 q q 9 6 8 9 9 8 8 q r w 6 6 6 8 8 8 4 4 6 6 4 6 8 6 6 8 8 6 4 3 3 3 3 3 4 6 3 8 q q 9 8 8 8 4 w yXt r r y aXpX9 uXaXdXxXy r r q w q cXvXxXvXHXbXvXbXPXkXuXsXaXaXaXyXr y y y y y t r yXaXaXy y y r r r t r r r y y y y y y y y y y y uXaXaXaXaXaXaXaXyXyXy y y y t y y y y t y yXyXyXyXyXuXaXHXKXKXKXKXGXjXgXiXiXiXiXiXhXhXhXdXdXdXdXhXiXiXlXkXkXxXkXkXkXkXhXhXhXhXgXA.Z.C.D.1.G.P.F.y.a.P.I.J.J.s.I.P.I.G.s.s.s.P.a.a.P.s.s.s.s.I.I.P.a.I.s.P.P.I.I.P.P.I.s.P.a.I.J.U.Y.Y.Y.Y.J.Y.U.U.Y.Y.P.P.I.Y.R.T.Y.R.I.I.I.Y.T.XXT.T.T.R.U.U.s.P.I.s.U.s.a.F.y.s.s.s.s.I.a.y.a.s.s.s.s.U.T.OXR.I.y.a.a.t.t.t.t.t.t.t.t.F.F.F.F.F.y.y.y.s.P.s.s.s.s.i.R.T.R.Y.T.R.K.U.K.J.J.K.`.b.v.XXXXOX+X@X[.'.OXOXOXOXOXT.R.T.J.J.J.J.J.i.s.s.s.s.s.s.s.J.J.i.i.i.d.y.t.t.t.t.a.s.s.s.s.s.s.s.s.a.s.s.s.s.s.s.d.d.s.s.s.J.b.p.J.s.s.s.s.s.s.s.s.s.s.s.",
"..' +.$.%.$.$.$.$.$.$.$.+.+.+.o.+.$.$.$.$.=.$.o.o.$.$.$.$.+.X.@.$.o.$.%.$.$.$.$.$.+.+.$.$.$.%.%.$.$.$.$.$.$.$.=.$.$.8.8.*.=.*.<.>.*.=.*.=.*.=.*.*.=.8.$.$.*.e.*.$.$.d.e.*.*.e.e.*.*.*.*.*.*.*.e.e.e.*.*.*.*.*.8.e.*.*.*.*.*.*.=.*.=.*.*.*.*.e.e.e.i.*.*.*.*.<.i.i.*.*.*.*.*.*.*.*.*.*.*.*.*.=.=.*.=.*.=.-.-.A j h h h h h h g h h h 1 h 2 < < < < 1 f 1 1 1 1 1 1 1 2 f f g h 0 8 h h h h L K U A.gXgXlXpXpXgXpXpXq q q V.V.q w w w 9 8 6 4 4 : : 7 4 - : : 7 6 7 - - 4 : < 1 : - - - - - - - - - < - - - - - : : < - - - - - - - - - - - - - < 4 : : - ; - - ; - - - - - - - - - - - - - - - - - - - : - - - - - - > ; - : - : : : - - : - - - : > ; - : : : 3 : : 3 5 : : 3 3 3 3 3 3 3 3 3 3 3 3 3 3 3 3 3 3 3 3 6 8 6 8 6 4 4 6 3 4 6 6 8 8 8 8 8 8 8 w w 6 8 q q q 9 q t w 9 w 8 w r r r q w 8 9 8 9 q w r w 8 4 4 8 8 6 9 q w 4 4 6 8 8 8 6 w w 6 8 8 4 6 8 4 3 3 4 3 3 3 4 8 8 8 w 8 3 3 3 3 3 3 3 3 3 8 q q w 8 8 8 4 q uXr q r dXsXw q aXdXcXaXr r q w 9 q cXcXzXvXHXvXxXPXGXuXuXaXyXaXy r q r t y y t r r uXuXy r r q q q q r q q r r r r r r r y y y y y aXaXaXuXy y y yXyXy y y y t q r t r y t y y yXyXyXuXaXxXLXKXKXKXJXgXgXpXyXyXyXyXyXyXyXyXaXdXdXkXkXkXhXhXkXkXkXxXkXkXkXkXkXhXhXhXgXgXA.Z.C.3.D.G.F.G.I.U.G.U.P.P.I.G.s.s.s.s.P.P.F.F.P.s.s.P.P.a.P.a.a.P.P.I.I.s.P.P.s.P.P.P.I.U.Y.Y.I.I.P.P.I.Y.Y.I.I.P.P.Y.Y.U.T.Y.I.s.I.Y.T.OXOXOXOXU.T.Y.Y.I.a.s.U.U.U.s.y.P.I.s.s.s.s.s.s.s.s.s.s.s.I.T.R.U.a.y.y.y.t.t.t.t.t.t.t.t.t.y.t.t.y.y.F.F.s.s.P.s.s.s.s.Y.Y.J.U.T.OX`.XXU.J.J.`.`.'.XXXXXX'.`.+X`.`.OXXXOXOXK.K.K.J.J.J.J.J.J.J.i.s.s.s.i.J.J.J.J.i.J.s.s.a.y.t.t.y.a.s.s.s.s.s.s.s.s.d.a.s.s.s.s.s.s.s.s.s.s.s.L.b.p.s.s.s.s.s.s.s.s.s.s.s.",
"..%.%.%.+.%.+.o.o.$.$.%.+.$.$.+.$.$.$.$.o.| | o.$.$.$.$.%.O.#.$.o.o.%.%.$.$.$.$.$.$.$.$.%.,.,.%.$.$.$.$.$.$.$.=.=.$.$.$.$.*.e.=.,.*.*.*.*.*.*.=.=.$.8.w.=.e.e.*.=.$.e.*.*.*.e.=.*.*.*.=.*.=.*.=.&.e.e.*.*.*.=.9.8.$.*.e.*.*.<.*.*.*.*.*.*.*.*.*.i.*.*.*.*.=.<.i.e.*.*.*.*.*.*.=.=.*.*.*.*.*.*.*.=.=.=.*.=.-.-.S j h h h L h h h h f 1 f < < - 1 1 1 f 1 < 1 1 1 1 g f < < 1 g 2 g h h h h h L K K U U P q P V.P P w w 9 w w 9 8 8 8 8 6 - : 6 7 : - - < - - - 7 7 - - - - - < - < 1 < - : - - - - - - - - - - - - - - - - - - - - - - - - - - - - - ; - ; : : - - - - - - - - - - - - - - - - - - ; > : - : : - ; > ; - ; - : : - ; > > : : - - : : : - : - : 3 3 3 3 3 3 5 3 3 3 3 3 3 3 3 3 3 3 3 3 3 3 3 3 3 3 3 4 6 6 4 3 3 4 6 4 4 4 4 6 8 8 6 8 8 8 8 8 4 9 w 9 8 w q w 8 9 9 8 9 q q r q 9 8 8 8 8 9 w r 9 8 8 6 4 4 4 8 9 6 3 3 6 6 6 6 8 w 8 6 4 4 4 3 4 3 3 3 3 3 3 3 3 6 8 8 9 6 3 3 5 3 3 3 3 3 5 8 q q q 8 8 6 6 q t q q aXcXyX6 w aXzXdXr r q 9 8 4 q kXdXdXxXcXzXbXPXlXyXyXy uXyXr r q q q r r q r t t r r q q w q q w w q q q q q q q q r r y y yXaXaXaXy y y r r t y y t t y y r q r y y y y uXuXyXyXyXaXHXKXKXKXGXhXgXpXpXpXpXpXpXpXpXpXyXyXaXdXxXhXgXgXhXhXkXkXvXSXkXkXkXkXkXhXhXhXiXgXgXA.Z.C.3.D.G.G.G.G.I.G.s.s.a.s.s.s.s.s.a.P.P.P.s.G.G.y.y.P.d.d.s.I.I.P.F.P.P.a.P.P.P.G.I.P.I.P.P.P.P.I.I.P.I.Y.I.P.I.U.Y.I.P.P.a.a.I.I.Y.Y.T.T.Y.Y.U.Y.I.s.i.J.J.s.a.a.I.Y.J.s.i.i.J.U.s.s.s.s.s.s.I.U.i.a.y.t.t.t.t.t.t.t.t.t.t.t.t.t.t.y.y.F.F.s.s.a.s.s.s.s.I.Y.J.J.K.XX`.K.J.J.K.`.`.`.K.K.XX`.p.v.`.`.OXXXOXXX`.b.K.J.J.J.p.K.i.i.s.s.s.s.s.K.J.J.J.J.J.s.s.s.a.y.y.a.d.e.s.s.s.s.s.s.s.y.y.s.s.s.a.a.s.s.s.s.s.s.p.b.p.a.d.s.s.s.s.s.s.a.y.s.",
"..%.$.%.%.%.+.o.o.+.%.+.%.%.+.o.o.$.$.$.+.+.+.+.+.o.o.o.+.+.o.| X.o.%.$.$.$.$.$.$.$.$.$.$.%.%.$.$.$.$.$.$.$.%.$.$.$.8.8.$.=.*.e.e.e.8.$.*.*.$.$.$.$.e.8.$.=.=.=.*.*.e.e.e.e.*.e.e.e.*.=.*.*.=.&.q.8.*.e.i.i.$.e.e.*.*.e.e.i.i.*.*.*.*.*.*.*.*.*.*.*.=.=.<.=.=.*.*.*.*.*.*.*.*.=.=.*.*.*.e.e.*.e.e.=.=.*.*.*.=.-.D I L L L L h h f 1 1 1 1 1 1 < < - < 1 1 < < < f g g < - 1 < 1 1 1 f g h h h h h h L L 0 0 L L L 7 8 8 7 6 6 7 7 7 8 1 1 1 < : : - < < - < 1 - - - - - < 1 1 1 : < < 1 1 - - - - - - - - - - - - - ; - - - - - - - - - - - - - - - ; - : : ; - - - < < - - - - - - ; - - - - : : - > : - : : > > > - ; - - - = > = > : : > = : : : : = ; - : : 5 : : : : 3 3 3 3 3 3 3 3 3 3 3 3 3 3 5 3 3 3 3 3 3 3 3 4 4 3 3 4 4 4 4 3 3 3 6 8 8 8 8 8 8 4 6 9 9 6 8 w q 9 8 8 8 8 9 w q q 9 8 9 8 8 8 9 q q 9 6 6 4 3 3 4 8 6 4 3 3 4 4 4 3 4 4 3 3 3 3 3 3 3 3 3 3 3 3 3 3 4 6 6 8 8 4 3 3 5 3 3 3 3 5 = 3 w q w 8 6 3 3 w q q r zXsXw 4 q kXsXt t r w 9 w 4 q kXdXsXdXsXzXPXGXpXpXr y y q q q q q r q q q q r r w w w 9 8 8 w 8 9 w q q q q q q t y y uXaXaXuXuXyXy t t r q q r r q t y y y r t yXyXyXaXsXzXzXfXsXcXLXKXPXGXkXhXiXyXyXpXB.P P pXP pXyXyXuXxXbXkXpXB.pXiXlXkXbXcXkXhXhXkXhXkXhXhXhXiXiXiXpXA.C.I 3.<.G.I.I.s.G.G.P.a.P.s.s.s.s.s.s.P.P.P.I.F.y.P.P.a.s.s.s.a.F.P.F.y.P.P.P.P.I.P.P.s.P.P.P.P.I.P.P.I.Y.I.s.I.I.P.F.F.F.a.s.P.I.I.Y.Y.T.T.U.I.s.I.U.U.Y.s.s.I.I.R.J.J.R.R.K.s.s.s.s.s.s.s.s.s.a.a.a.a.y.t.t.t.t.y.y.y.y.y.y.y.y.a.y.y.a.s.s.a.s.s.s.s.s.I.i.i.J.K.`.K.J.K.`.`.[.`.U.U.T.R.XX`.[.`.OXOXOXXX[.v.K.K.XXJ.L.L.s.s.s.s.s.s.i.J.J.J.J.J.J.J.i.s.s.a.a.d.a.a.y.a.s.s.s.s.s.d.d.s.s.s.s.d.d.d.d.e.y.d.s.p.i.a.a.s.s.s.s.s.s.a.e.d.",
"%.%.%.%.` ` +.$.` ` %.$.o._ o.| | o.$.$.$.$.$.+.+.+.+.+.+.$.+.o.#.$.$.$.$.$.$.$.$.$.$.$.$.$.$.$.$.$.$.$.$.$.%.$.$.$.*.*.$.$.$.$.e.e.$.*.*.=.$.$.8.*.*.$.$.=.=.*.=.=.*.e.=.*.*.5.5.e.e.e.e.i.*.e.w.e.*.*.e.i.*.*.*.*.e.e.e.e.e.*.*.*.*.*.=.*.*.*.*.*.*.=.*.i.*.*.*.=.*.*.*.*.*.*.*.*.*.*.*.*.*.e.*.=.*.*.*.=.=.=.-.G I L 0 h h h 1 < 1 1 f 1 < < - - - < f < 1 1 g g 1 < - - < 1 1 1 < 1 1 1 1 1 h f 1 7 2 h h h 1 < 1 1 1 - 7 6 6 : : < 1 g 1 1 : - - < - < 1 - - - - - < 1 1 2 2 - - 2 g < - < < - < < - - - < < < - - - - - ; - - - - - - - - - - < 1 < - - - - - - < - - - - - - - - - - - < - - : - - : : = - ; - - - - ; > > ; : 3 3 5 5 5 : - : = > : : : : : < - : 3 3 3 3 3 3 3 3 3 3 3 3 3 3 3 3 3 3 3 3 3 5 5 3 4 3 3 3 3 3 4 3 3 4 6 4 6 8 8 6 6 4 8 8 6 4 6 w 9 4 8 8 8 8 9 w w 8 6 8 8 8 8 8 9 q e 6 4 3 4 3 4 6 6 4 3 3 3 3 3 3 3 3 3 3 3 3 3 3 3 3 3 3 3 3 3 3 3 3 3 6 8 4 3 3 3 5 3 3 3 3 = = : 6 9 9 8 6 4 3 w q q aXdXq 4 4 iXdXt r t w 8 9 q 6 t sXaXuXuXaXGXLXkXpXB.q y r q r r r q w w w w w w w 9 8 8 6 8 8 8 9 q r q q q q q q r t y uXuXyXy y t r r r r q q q q r y y y y y y yXyXyXaXzXbXbXcXvXLXKXPXkXkXkXhXiXyXyXy y B.P P P yXyXyXyXsXcXcXgXB.B.yXyXdXbXcXiXhXhXhXhXkXhXhXhXiXiXiXgXgXA.A.Z.C.2.J.J.G.P.P.F.a.a.s.s.s.s.s.s.a.F.P.y.d.I.P.F.a.I.P.a.s.I.P.F.F.P.P.P.P.P.P.P.I.P.P.P.P.Y.P.P.I.I.Y.I.P.P.F.F.F.F.a.s.P.P.P.P.Y.Y.Y.J.J.s.s.s.s.s.s.s.P.s.I.s.s.U.T.U.s.s.s.s.s.s.a.a.s.a.s.OXXXs.t.t.t.y.s.I.I.s.a.s.s.s.s.s.d.s.a.I.I.a.s.s.s.s.s.s.s.i.J.L.K.J.K.`.v.v.`.U.U.Y.T.OXXX'.'.XXXXOXXX`.[.`.`.K.K.J.J.J.s.s.s.s.s.s.i.J.J.J.J.J.J.J.s.s.s.s.d.s.d.t.y.s.s.a.d.s.s.s.s.s.a.d.e.d.y.y.y.t.e.s.a.d.d.s.s.s.s.s.s.s.s.s.s.",
"%.$.o.%.%.` ` $.+.%.$.$.+.) o.o.o.o.o.+.+.+.+.o.+.$.o.o.$.$.$.$.@.$.%.%.$.$.$.$.$.$.$.$.$.$.$.$.$.$.*.*.=.$.$.*.$.$.$.=.*.$.$.8.e.*.*.*.*.$.$.9.8.$.$.8.$.=.*.e.*.$.=.8.$.*.*.e.e.8.e.e.*.*.*.=.8.e.*.=.=.*.=.*.*.*.*.e.=.*.*.*.*.*.*.*.*.*.*.*.*.*.*.*.*.e.*.*.*.*.*.*.*.=.*.*.*.*.*.*.*.*.$.*.=.=.*.*.*.*.*.=.-.-.H L h h h h 1 < g 1 < - < 1 < < < < < < 1 1 f f 1 < - - - 1 1 1 1 < < - < 1 f < - < < 1 h h 1 1 1 < < - < 1 7 - - - < 1 < - - - - - - - - - - - - < 2 1 1 1 1 1 - < < < 1 < < - - - - - - - - - - - - - - ; - - - - - - - - - - < < ; - < - ; - - - - - - - - - - - - - - - - - - ; - ; : = ; ; > ; ; - ; ; ; : 5 : 3 : : 3 : : 5 3 = = 3 : : : : : 3 3 : : 3 3 3 3 3 3 3 3 5 : 5 3 3 3 3 3 3 3 3 3 3 3 3 3 3 3 3 3 3 3 4 3 4 6 6 8 6 6 6 4 4 4 6 8 w 9 4 8 8 6 8 8 8 8 8 6 8 8 6 4 9 q 9 8 4 3 3 3 3 4 6 3 3 3 3 3 3 3 3 3 3 3 3 3 3 3 3 3 3 3 3 3 3 3 3 3 3 3 4 4 3 3 3 3 5 = 5 3 3 = = 5 4 8 8 8 6 4 4 w q r xXuX6 4 4 iXpXq q q 8 8 9 w 8 r t t t y xXLXGXiXP r q q q w w w w 9 8 8 8 8 8 8 8 8 6 4 3 6 6 6 8 w w q q q w q q q r r t y r r r r q q q q r r r r y y y t t t t t t y aXcXbXvXvXLXKXHXcXkXkXkXfXuXyXyXy pXB.P q t yXUXUXy y aXdXkXlXpXpXpXyXdXHXkXpXgXpXiXfXkXhXlXlXiXiXgXgXgXpXgXA.C.G 1.H.G.F.P.a.a.P.a.s.s.P.P.P.P.a.y.d.P.y.F.P.P.P.P.P.P.P.P.P.P.P.P.P.F.P.P.a.P.P.P.P.I.I.P.P.P.I.P.P.P.F.F.F.F.F.P.F.F.s.a.I.U.I.s.R.T.U.s.s.s.s.s.s.s.s.s.s.s.U.s.s.s.s.s.s.s.a.a.s.s.s.+X@XR.y.t.a.I.I.Y.Y.Y.s.s.s.s.s.U.s.s.a.P.s.s.s.s.s.s.s.s.s.s.J.J.J.J.K.`.`.`.XXR.U.T.Y.U.K.R.`.`.'.OXXX'.`.`.`.`.`.`.K.s.s.s.i.i.i.s.s.s.i.J.s.J.J.J.s.s.s.s.s.s.d.t.y.y.d.y.a.s.s.s.s.s.y.w.t.t.t.y.d.y.d.d.a.s.s.s.s.s.s.s.s.s.s.s.s.",
") #.X.+.` ` %.$.$.$.$.$.$.@.$.$.$.+.X.X.O.%.%.X.o.$.o.o.$.$.$.+.+.$.$.$.$.$.$.$.$.$.$.$.$.$.$.$.$.$.$.$.$.$.$.$.$.$.$.=.*.=.8.8.$.8.e.*.$.@.$.9.9.$.$.e.e.*.*.*.=.$.$.e.*.*.*.*.*.e.9.e.*.e.*.*.*.*.*.*.*.*.e.=.=.*.=.e.*.*.*.=.*.*.*.*.*.*.e.*.=.=.<.=.*.*.*.*.*.*.*.*.*.=.*.*.*.*.*.*.*.*.*.*.*.=.*.*.*.*.=.=.=.-.G j h h f 1 1 - < < - < 1 g 1 < < - - < 1 < < < < - - - - < - < f 1 - < 1 f f < - - 1 g h h < 1 1 < < - < < < 1 1 - 1 1 < < < - - - - - - - < - - < < < < < 1 1 - < 1 < 1 < - - - - - - - - - - - - - - - - - - - - - - - - - - - - - - - - - - - - - - - - - - - - - > ; ; - < - - - ; ; ; > = = = = > - - : : : - : 5 5 3 3 3 3 3 3 3 3 5 : 3 3 3 3 3 5 3 3 3 3 : 5 3 3 3 = ; : : 5 3 3 3 : 5 3 3 3 3 3 3 3 3 3 5 3 3 3 3 3 3 3 4 4 4 6 3 3 4 6 6 8 8 6 4 4 6 8 8 8 8 6 6 6 6 8 6 8 9 8 8 6 3 3 3 3 3 3 3 3 3 3 3 3 3 3 3 3 3 3 3 3 3 3 3 3 3 3 3 3 3 3 3 3 3 3 3 3 3 3 3 5 = = 3 3 5 = 3 4 6 8 6 4 3 3 e q sXcXw 3 6 6 q q q q 9 4 6 6 4 4 w q q r uXHXPXkXV.w w w 9 w 8 8 8 8 8 8 8 8 8 6 4 4 4 3 3 3 3 3 3 4 4 4 9 w w 8 9 w w q q r r q q q q r q q q r r r r r r r q q r r r r y aXcXbXbXLXKXHXcXkXkXzXxXzXaXyXyXyXy y t q q t q q q t y yXdXkXiXpXpXpXy dXxXgXgXpXiXfXkXiXiXiXiXiXpXpXyXyXiXhXgXS.C.C.1.s.a.s.I.a.a.s.I.P.P.P.a.a.a.P.P.t.F.P.y.y.y.P.P.P.P.P.s.P.P.P.P.P.P.y.s.s.P.P.P.P.P.P.P.a.F.F.P.a.a.P.F.F.F.F.F.s.P.P.I.I.U.T.T.U.i.s.s.Y.I.s.a.s.s.P.G.s.s.s.s.s.s.s.P.P.s.s.s.s.s.XXU.y.y.a.U.U.J.J.J.s.s.s.s.s.U.G.a.a.a.s.P.s.s.s.s.s.s.s.s.s.s.J.K.b.`.K.J.K.R.OXT.Y.R.U.T.XX'.`.XX`.[.v.v.v.v.[.v.p.s.s.s.i.J.J.i.s.s.s.J.s.s.J.J.s.s.s.i.s.s.a.y.a.e.w.t.a.s.s.s.s.s.y.t.y.t.w.d.s.d.d.e.d.s.s.s.s.s.s.s.s.s.s.s.s.",
") _ o.+.+.` %.$.%.$.%.%.+.+.o.o.%.#.X.O.+.$.$.$.%.$.$.$.$.$.+.o.+.$.$.o.+.$.=.$.$.@.$.$.$.$.$.$.$.$.$.$.=.=.$.$.$.$.=.*.*.=.&.@.8.8.$.=.@.@.=.8.e.=.$.e.e.*.*.*.*.*.*.e.=.e.e.*.*.e.9.8.*.e.*.=.@.$.=.*.*.*.i.*.e.*.e.e.=.=.*.=.e.*.*.*.e.d.e.*.=.*.<.*.*.*.*.*.*.*.*.*.*.e.*.=.*.=.*.*.=.*.=.*.*.*.*.*.*.*.=.=.=.-.-.D h h < < < - - - - < < < < - < < < - < < - - - - < < < 1 1 1 1 < - - < < < - - - 1 1 1 1 < - < < - 1 f 1 1 1 1 < 1 f < 1 < - - - - - - < < < < - < < - - 1 1 - < f 1 - - - - - - - - - - - - - - - - - - - - - - ; ; - - - - - < < - - - - - - - - - - - - - - - - ; - ; - ; - - - ; ; : = > > > > > - - : : - : : : : 3 4 5 5 3 5 5 : : 5 5 : 5 5 : 5 5 3 3 3 : 3 3 5 : : : ; > = 3 : = = = 5 5 = = 5 3 5 3 3 3 3 3 3 3 3 3 3 3 6 4 6 4 4 3 3 4 4 4 4 3 4 4 6 8 8 8 4 4 4 4 4 4 4 4 4 8 4 3 3 3 3 3 3 3 3 3 3 3 3 3 3 3 3 3 3 3 3 3 3 3 4 3 3 3 3 3 3 3 3 3 3 3 5 3 3 3 = = : = = = = 3 3 3 4 4 3 3 3 9 q zXuX6 3 3 4 8 9 w 9 8 8 8 4 3 3 6 8 w q zXLXPXiXw w 8 8 6 6 6 6 8 8 6 4 4 4 6 4 3 3 4 3 3 3 3 5 3 3 3 3 4 6 6 6 4 6 8 9 w w 9 9 9 8 9 w q q w q r q q q q q q r t y y y yXaXxXbXLXLXGXfXsXsXsXsXdXdXaXyXpXr t t r q q q q q q q t t yXzXkXiXpXP pXuXkXkXgXpXyXuXdXkXiXyXpXpXyXyXyXyXgXiXgXgXgXZ.C.2.p.G.I.P.a.s.a.a.P.y.y.y.y.F.F.F.F.F.F.F.F.a.P.s.P.s.s.a.P.P.P.P.P.F.a.d.P.P.P.P.I.P.a.a.F.F.P.P.a.P.F.F.F.F.P.P.P.P.I.Y.U.U.s.s.U.I.s.s.s.s.P.P.I.P.P.I.s.s.s.s.s.s.s.s.s.s.s.a.s.a.y.t.y.s.J.K.K.U.s.s.s.s.s.s.s.G.J.s.s.s.P.s.a.a.s.s.s.s.i.s.P.G.K.b.K.K.K.K.XXXXU.U.Y.Y.U.R.XX`.`.`.v.b.`.`.b.b.b.p.s.s.s.s.s.s.s.i.s.i.J.s.s.i.J.J.s.s.s.s.s.s.s.s.e.w.t.y.a.s.s.d.d.e.w.e.w.w.e.d.d.a.e.d.a.s.s.s.s.s.s.s.s.s.s.s.",
"` ` ` ` +.O.+.$.$.%.%.%.o.+.o._ o.O.+.+.$.$.$.$.%.$.$.$.+.o.X.X.+.$.$.$.%.$.$.$.$.+.+.$.$.=.$.$.$.=.$.$.=.<.=.*.=.9.8.*.=.&.&.9.8.8.8.$.$.e.$.=.=.=.=.e.=.=.*.*.*.=.=.&.&.q.t.8.*.*.*.*.*.*.*.$.@.$.*.*.*.*.=.*.=.=.*.=.&.=.e.0.e.*.*.*.e.*.*.*.*.*.*.=.<.*.=.*.*.=.*.*.*.*.*.*.*.=.*.*.<.<.*.*.*.*.*.*.*.*.=.=.=.=.-.-.H h 1 1 < - - - < < < - - - 1 f 1 - < < - - < 1 < < < < 2 1 - - - - - - - - < < < - - < - - < < - < < 1 < - < 1 f f < - - - - - - - - < < 1 < - - - - - < < - 1 f < - - - - - - - - - - - - - - - - - - - - - - ; ; - - - - ; - < - - - - - - - - - - - - - - - - - - - - ; - - - > = > : : ; ; - - - - - : ; : : 5 5 3 : > : 3 3 5 5 : 5 : : 3 5 5 : : 3 3 3 5 3 3 3 3 5 5 = > = = = = = = = = 5 5 3 3 3 3 = = 3 5 5 3 3 3 3 3 4 6 4 4 4 3 3 3 3 4 3 3 3 3 4 8 8 8 6 3 3 3 3 4 3 4 6 6 4 3 3 3 3 3 3 3 5 5 3 3 3 3 3 3 3 3 3 3 3 3 3 3 3 3 3 3 3 3 3 3 3 3 3 3 3 3 3 3 5 = 3 = = = = = : 3 3 3 3 3 5 4 t yX6 4 5 3 3 4 8 8 6 4 4 6 4 5 3 4 4 6 q xXHXkXV.q q 9 8 6 4 4 4 6 8 6 3 3 3 3 3 3 3 3 3 3 3 3 5 3 3 3 3 3 3 3 3 4 6 6 4 6 6 4 4 4 4 6 6 6 6 6 e w w w w q q r r y y y y uXdXvXLXKXGXkXkXfXsXaXaXsXdXdXsXuXt t pXUXr q q P q q q r r y sXxXfXpXP B.t sXvXkXgXpXyXsXcXfXyXB.pXiXiXiXyXyXiXgXgXjXjXgXC.2.1.G.G.G.a.y.y.F.y.y.P.y.F.F.F.F.y.a.P.P.P.s.I.P.s.a.a.a.P.P.P.P.P.F.F.P.P.P.P.P.P.s.a.P.P.P.F.F.F.F.F.F.F.y.s.I.s.s.P.P.P.s.s.s.J.J.s.s.s.s.s.s.a.F.a.s.I.U.s.s.s.s.s.s.s.s.a.y.t.t.t.t.a.s.K.K.XXJ.s.U.J.s.s.s.i.J.J.s.s.s.a.F.a.s.s.s.s.i.s.s.s.J.K.`.K.K.XXOXXXT.J.J.U.U.U.U.`.K.R.R.J.`.v.K.L.p.s.s.s.s.s.J.J.J.J.J.J.J.s.s.s.i.i.s.s.s.s.s.s.s.s.s.a.t.t.t.e.d.d.y.t.w.t.t.w.w.t.e.e.e.d.a.s.s.s.s.s.s.s.s.s.s.s.",
"+.` ` ` ) ) +.$.$.%.%.%.+.$.+./ / O.O.+.$.+.+.$.$.o.o.$.o.o.o.o.+.$.=.$.$.$.$.$.$.$.$.$.$.$.$.$.$.=.$.$.$.=.*.*.$.$.$.$.$.@.8.w.8.8.e.*.$.$.$.$.=.$.$.e.*.*.*.*.=.$.e.&.5.5.q.e.*.*.$.e.e.*.$.=.=.$.*.*.*.*.*.$.=.=.*.=.&.=.*.e.0.*.*.*.e.*.*.*.*.i.i.*.*.i.=.$.*.*.*.*.e.*.*.*.*.*.*.*.*.e.*.*.*.*.*.*.*.*.=.*.*.*.=.=.-.J f f 1 < < - - - - - < 1 1 1 - - - - - - < < - - - - < - - - - - - - - - 1 1 < < - - - < 1 1 < - < 1 < < f f g 1 < 1 1 < - - - - - - < < < 2 7 - - - - - - 1 < - - - - - - - - - - - - - - - - - - - - - - - - - - - - - - - - - - - ; - - - - - - - - - - - - - ; - - - - - - ; > : 5 : - - - - - - ; - - ; ; : 3 : : : : 3 3 5 3 3 3 : : 3 3 3 : : 5 : 3 3 : 5 3 3 3 3 : : 5 = > = 5 = = : 5 5 3 5 5 3 = : 3 = = 3 3 3 5 4 6 4 6 3 3 3 4 3 3 3 3 3 4 3 3 6 8 8 4 3 3 3 3 3 6 6 4 3 3 3 3 3 3 3 3 3 3 5 3 3 3 3 3 3 5 3 3 3 3 3 3 3 3 3 3 3 3 3 3 3 5 5 3 3 3 3 3 3 3 3 = 5 = = = = = 5 3 3 3 3 5 6 t e 3 4 5 5 5 3 4 4 3 3 3 3 5 = 5 3 3 4 w yXuXq w w w 8 8 8 4 4 6 6 8 4 4 4 3 3 3 3 3 4 6 3 3 5 3 3 3 3 3 3 3 3 3 4 3 3 3 3 3 3 3 4 3 4 3 3 3 4 6 6 8 8 8 8 w q q r t y yXaXzXHXKXHXkXhXiXiXuXuXy aXaXaXdXdXsXuXyXyXyXP P P q UXt r r y yXzXdXiXP P P y dXvXkXgXgXuXdXkXiXpXB.iXhXiXiXgXhXiXiXlXlXlXjXgXZ.C.<.i.P.y.y.y.a.P.s.s.P.P.F.F.F.F.P.P.P.a.a.P.s.P.P.I.I.P.P.a.F.F.P.P.P.P.P.P.P.a.a.P.F.P.F.F.F.F.F.F.F.F.d.a.s.s.s.s.s.s.s.s.s.U.s.s.s.s.s.s.s.a.a.s.s.s.s.s.P.s.s.s.s.s.a.y.t.t.t.t.a.s.i.s.G.s.s.U.J.J.J.i.i.J.J.s.s.s.y.F.a.s.s.s.s.s.s.s.J.J.R.XXK.K.XXOXXXU.J.R.T.T.U.p.b.J.U.U.J.K.J.J.J.J.J.s.s.s.s.i.J.J.J.J.K.J.s.J.s.s.s.s.s.s.s.s.s.s.i.s.s.y.t.t.w.t.t.t.t.w.t.y.w.w.w.w.y.y.w.s.s.s.s.s.s.s.s.s.s.s.s.",
"` ` ` ` +.+.%.%.%.$.$.$.%.` ) O./ X.X.+.+.O.#.$.$.o.| $.$.$.$.$.$.$.$.$.$.$.$.$.$.+.$.$.*.$.$.=.$.$.$.$.$.*.*.*.=.=.$.$.$.8.8.8.w.8.$.e.=.=.*.*.*.*.=.$.$.$.$.$.e.w.w.8.8.8.&.$.*.$.$.$.9.8.=.*.*.*.*.*.*.*.=.=.&.=.=.$.5.e.G.*.i.i.*.*.=.*.*.*.*.e.*.*.<.G.*.*.*.$.*.*.e.*.*.*.*.*.*.i.*.*.=.*.*.*.*.*.*.*.*.*.i.i.=.=.-.-.J f 1 < < < - - < - < < - - - - - - - - - - - - - - - - - - - - - - - - - - < - < - - 1 g 1 < - < 1 < < < 1 1 < 1 g g f 1 < < 1 < - < < 1 1 : < - - - - - - - - - - - - - - - - - - - - - - - - - - - - - - - - - - ; ; ; < * # - - - - - - - - - - - - - > > > > > ; ; - - - - - 5 : ; ; ; - - - - - : - - - - : : : - : 5 : - : 3 3 : : 3 5 : - : : : 3 = > 5 3 : 5 : > = = = = = = = : ; > = 5 = = = > : : : 5 3 3 3 3 4 6 3 4 3 3 3 4 3 3 3 3 4 6 3 3 4 8 8 4 3 4 4 3 3 4 8 6 3 3 3 3 3 3 3 3 3 3 3 3 3 3 3 = = 5 3 3 3 3 3 3 5 5 3 3 3 5 3 3 3 : = 5 3 3 3 3 3 3 5 = = 3 = = 5 5 5 3 3 3 = 5 6 w 4 3 4 3 = = 3 3 3 3 3 3 3 3 3 3 3 3 3 3 4 4 4 6 4 4 6 6 6 4 4 8 9 6 3 3 3 3 3 3 3 3 4 4 = 5 5 3 3 3 3 3 3 3 : = 3 3 5 5 3 3 3 3 3 3 3 5 3 3 3 3 4 4 4 4 4 4 6 9 w q q r aXvXLXPXkXgXB.r r r t y y aXaXdXdXaXaXuXyXyXyXpXq q q q q r r t aXxXlXP P P yXuXcXvXhXgXpXiXdXdXpXP pXsXsXiXiXhXiXuXiXiXiXhXhXjXjX(./.1.p.s.s.s.P.s.I.P.s.P.F.F.F.F.F.F.y.F.s.s.P.P.P.P.P.P.P.a.F.P.P.I.P.P.P.P.P.F.F.F.F.F.a.a.F.F.y.y.F.F.y.a.s.s.s.s.s.s.s.s.s.s.s.s.s.P.P.a.s.s.s.s.s.s.s.s.s.s.s.s.s.d.t.t.t.y.a.a.s.s.s.s.s.i.J.J.J.J.J.J.J.J.J.s.s.a.a.s.s.s.s.s.s.s.J.J.J.J.J.J.K.R.OXXXU.J.U.T.OXR.b.b.K.J.J.J.J.J.J.J.J.J.J.s.s.s.s.i.K.b.K.K.p.p.J.i.s.s.s.s.s.s.s.s.s.s.s.d.y.y.y.d.y.t.t.y.y.e.s.a.d.y.w.e.d.d.a.s.s.s.s.s.s.s.s.s.s.s.",
"` ` ` ` ` o.%.%.+.+.%.o.o.` ) O._ _ | o.+.#.#.+.$.%.o.$.$.%.%.$.$.$.$.$.$.$.$.$.@.+.$.$.$.$.=.=.$.$.$.$.=.=.*.*.*.=.=.8.9.9.8.$.8.9.$.=.*.*.=.*.$.*.*.=.=.=.$.$.$.8.e.8.8.w.5.@.8.9.w.w.8.$.e.*.=.=.*.=.=.e.e.@.5.w.e.8.e.e.G.=.=.e.*.*.=.=.=.*.*.*.=.=.=.=.=.e.e.=.*.*.*.=.*.*.*.*.=.*.=.*.=.=.*.*.*.*.*.*.*.*.*.=.=.=.=.-.A J 1 - 1 1 < - < < 1 < - - - - - - - - - < < - - - < 1 < < - - - - - - - - - < < - - 1 g 1 < < - < < - - - 1 1 f 1 1 1 f 1 < 1 < < < < < - - < 1 < - - < - - - - - - - - - - - - - - - - - - - - - - - - - - - - ; > = > > ; - - - - - - - - - ; - > - - - ; > ; ; > > - - - - - : 4 - - - - - - - - - - - - - ; - : : : : - < : : 3 : : 5 = ; - - > : : = > 5 3 : : : = : = > = 5 = > : ; ; : = = = = > > = : 3 3 3 3 3 3 4 4 3 3 3 3 3 3 3 3 3 4 4 3 3 6 8 6 3 3 4 6 4 3 4 4 4 4 3 3 3 4 3 3 3 3 3 3 3 3 4 : = 3 3 3 3 3 3 3 3 3 3 3 3 3 3 3 3 3 = = = 3 3 3 3 3 3 3 = = 5 3 = = = 5 3 3 3 = = 3 4 3 4 3 3 5 = 5 3 3 3 3 3 3 5 5 3 3 3 3 3 3 4 4 3 3 3 3 3 3 3 3 6 8 8 3 3 3 3 3 3 3 3 3 5 = = 3 5 3 3 3 3 3 3 = = = 5 : : : 3 3 3 3 5 3 5 3 3 3 3 3 4 4 4 4 4 4 4 4 4 6 e t xXHXfXP P q w e w r t yXaXaXaXaXuXuXyXyXyXr r q q q q q q q y yXzXdXpXP P P t dXvXkXgXgXyXdXcXiXgXpXuXsXyXP pXiXiXiXpXpXgXgXlXkXMXmX_./.p.s.G.I.I.G.s.s.a.F.F.F.F.F.y.F.P.I.P.P.P.I.I.P.P.P.a.F.a.I.U.I.I.P.P.P.y.y.F.F.F.a.a.F.F.y.y.F.F.y.a.s.s.s.s.s.s.s.s.P.a.a.a.a.y.y.y.a.s.a.a.y.a.s.s.s.a.a.a.d.y.y.t.t.y.a.s.s.s.s.s.s.J.J.J.s.i.J.J.s.s.U.i.s.s.s.s.s.s.s.s.s.i.J.J.J.J.s.U.J.J.R.XXK.J.U.T.XXR.v.v.U.J.J.U.U.i.s.i.i.i.i.J.i.s.s.p.K.K.L.b.p.p.L.J.s.s.s.s.s.s.s.s.s.s.s.d.d.a.y.y.d.d.y.d.s.d.s.s.s.a.d.s.s.s.s.s.s.s.s.s.s.s.s.s.s.d.",
"+.` +.%. .| o.+.%.+.%.o._ +.%.%.+.` O.O.O.O.+.+.$.%.%.$.o.%.%.$.$.$.8.$.$.%.$.$.o.+.$.$.=.=...,.%.$.$.$.*.$.$.$.=.$.$.$.9.9.=.$.$.=.@.$.$.=.*.*.*.*.e.*.*.*.$.8.$.=.$.8.w.=.=.=.=.e.e.e.=.*.=.*.=.$.=.$.w.w.e.@.w.w.e.9.=.*.*.*.*.*.*.*.*.=.$.*.e.e.=.=.=.*.*.e.e.i.i.*.*.*.*.=.=.e.w.e.*.*.*.*.*.*.*.*.*.*.e.*.*.*.*.*.*.*.-.S f 1 - < - - < < 1 < - - - < < - - - - < < - - - < 1 < < - < < - - - - - - < 1 1 1 1 f 1 1 1 1 1 < < 1 < < 1 1 < < - 1 1 - < < < < < - - - - < - - - < - - - - - - - - - - - - - - - - - - - - - - - ; ; - - - - ; > > ; - - - - - - - - - ; > - - - - - - - - - - - - ; - - - - : - - - - - - - - - - - - - ; ; - - - - : < : : 5 5 = 5 = > = : > : : - ; : 5 3 5 5 5 3 3 : ; : 5 = = = = = = = = = = = = 3 3 3 3 3 3 4 3 3 3 3 3 3 3 3 3 4 3 3 3 3 6 8 8 4 3 3 3 3 3 3 3 4 6 4 3 3 3 4 4 3 3 3 3 3 3 3 3 3 3 3 3 3 3 5 5 3 3 3 3 3 3 3 3 3 3 3 = = 5 3 3 3 3 3 3 3 = 5 3 3 = = = = 3 3 3 = = : 3 3 3 3 : = = 5 3 3 3 3 3 3 3 = 5 3 3 3 3 3 3 3 3 3 3 3 3 3 3 3 3 4 4 3 3 3 3 3 3 3 3 3 3 3 3 3 : 5 4 3 3 3 3 3 = = = = : = 3 = 5 3 5 3 5 3 3 3 3 4 4 4 4 3 3 5 3 3 3 3 3 8 q q 9 8 6 6 6 6 8 w q t yXyXyXuXyXyXy y y r r q r q q P P B.y y dXkXiXB.B.P r uXcXdXpXpXyXsXvXkXA.pXyXsXiXpXpXiXiXiXiXiXiXyXyXiXhXkXMXnX/.k.L.U.J.J.I.G.s.a.y.a.F.F.F.t.y.P.I.P.P.P.P.P.P.P.y.F.a.s.I.U.I.I.s.P.P.F.F.y.F.F.F.F.F.y.y.F.F.a.s.s.s.s.s.U.Y.s.a.y.y.y.y.y.t.t.t.y.y.F.F.a.a.s.s.s.d.F.t.y.y.F.t.t.y.y.a.s.s.s.s.s.J.i.s.s.s.s.s.s.i.J.i.s.s.i.s.s.s.s.s.s.s.s.U.i.i.J.J.J.J.K.`.L.J.J.`.J.K.U.K.J.J.J.U.J.J.s.s.J.s.s.i.s.s.s.b.b.J.J.s.p.v.v.K.i.s.s.s.s.s.s.s.s.s.s.s.d.y.w.t.d.y.t.w.s.s.s.s.s.a.s.s.s.s.s.s.s.s.s.s.s.s.s.s.s.s.",
"%.%.%.%.%.o.$.%.%.%.%.+.+.%.+.` %.%.+.O.X.o.$.$.$.$.$.o.| +.$.$.$.$.$.$.$.$.%.$.$.$.$.$.$.$...,.%.$.$.$.*.*.=.$.$.$.$.8.8.$.$.*.$.$.$.$.=.*.*.*.*.$.*.*.*.*.$.$.=.*.=.$.$.e.e.*.*.e.=.$.=.*.=.$.*.*.$.e.e.e.*.$.$.e.e.=.=.*.*.*.=.*.*.*.*.*.*.*.e.e.G.*.*.*.*.*.e.e.*.$.$.e.*.=.*.*.*.*.*.*.*.*.*.$.*.*.*.*.e.*.*.*.*.*.*.*.=.A J f 1 < - - - < < < - - - 1 < - - - - - - - - - - - < < - < < < - - - - - - - < < < < - < < f f < < f 1 - - < < < - < < - - - - - - - - - - - - - - - - - - - - - - - - - - - - - - - - - ; - - - - ; ; - - - - - - - - - - - - - - - - - - - - - - - - - ; ; ; ; - - - - - - - - ; - - - - - - - - - - - ; > > - - - - : - - ; : : ; : : > : 5 = ; : : ; - : 5 3 : 5 : = > : = = 5 = = = = = = = > > > > 5 3 3 3 3 3 3 3 3 5 3 3 3 3 3 4 6 4 4 3 3 4 4 6 4 3 3 3 3 3 3 4 6 6 3 3 3 3 3 3 3 3 3 3 3 3 3 3 3 3 3 3 3 3 3 3 3 3 3 3 3 3 3 3 3 3 3 = = 3 5 3 3 3 3 3 = = 5 3 3 = = = = 5 3 5 = = = 3 3 3 = = = 5 3 3 3 3 3 5 5 = = = 3 3 3 3 3 3 3 3 3 3 3 3 3 3 3 3 3 3 3 3 3 3 3 3 3 3 3 3 3 3 3 3 3 3 4 4 3 3 3 5 = = 3 3 3 3 : 5 : : : 3 3 5 3 4 3 3 3 3 3 3 : 5 5 5 5 3 3 5 3 3 4 3 4 4 4 4 6 9 w q q r t yXt t yXyXt t r t q q P r r y y aXfXiXpXP B.t uXcXvXiXgXyXaXxXdXgXgXyXfXhXiXgXiXfXiXiXhXlXiXpXiXyXiXhXMXmX_.)./.L.J.s.a.s.P.a.a.F.y.F.y.P.I.I.P.P.F.P.P.P.P.P.P.a.s.I.I.P.P.I.P.P.F.F.F.F.F.F.F.F.t.t.y.t.a.s.s.s.s.s.s.s.s.a.y.y.d.a.d.y.t.t.t.y.a.F.P.I.s.s.s.a.a.y.t.t.t.t.t.t.t.y.s.i.i.s.J.J.J.s.s.s.s.s.s.s.J.s.s.s.s.s.s.s.s.s.I.I.s.s.s.s.i.J.J.J.J.J.J.K.K.XXK.J.J.J.J.J.J.J.J.J.s.s.U.J.s.s.s.J.J.b.`.K.p.p.b.v.v.p.s.s.a.s.s.s.s.s.s.s.s.s.d.w.t.t.t.t.w.w.s.d.y.s.s.s.s.s.s.s.s.s.s.s.s.s.s.s.s.s.s.s.",
"^ ' ` ' +.%.%.` +.` _ / #.%.+.` ` %.+.O.X.o.$.$.%.o.o.$.$.$.$.$.$.$.=.$.%.%.$.$.$.$.8.$.$.%...,.,.$.$.$.*.=.$.$.$.$.8.=.=.$.8.e.=.$.$.*.*.*.*.*.$.$.$.=.*.=.$.e.*.e.*.*.*.*.e.*.$.$.$.$.=.*.*.=.*.$.$.e.=.=.*.=.$.*.*.*.*.*.e.e.e.*.*.*.*.*.*.*.=.e.*.*.e.*.=.&.5.&.&.$.*.*.*.*.*.*.*.*.*.=.*.*.*.*.*.*.*.*.*.*.$.=.=.=.=.*.=.-.A s 1 - - - - - - - - - - < < - - - - - - - - - - - - 1 1 < < < - - - - - 1 < - - - - - - - < < 1 1 < - - - < 1 1 - < < - < < - - - - - - - - - - - - - - - - - - - - - - - - - - - - - - > - - - - - - - - ; - - ; ; - - - - - - - - - - - ; ; - - - - - - ; ; ; - - - - - ; ; - - - - - - - - - - - - - > > : : - - - ; - - ; - > : : > ; > : : > ; - - : ; = 3 = : = 5 = = > = : = > = 5 5 = = = > = > = : : 3 3 3 3 3 3 3 3 3 3 3 3 3 3 3 3 3 3 3 3 3 3 4 4 3 3 3 3 3 4 3 3 3 3 3 3 3 3 3 3 3 3 3 3 : : 3 3 = = 5 3 3 3 3 3 3 3 3 3 4 3 3 5 = = = = 3 3 3 3 = = = 5 3 3 5 = = = = 3 5 = = = 5 3 3 5 = = = 5 3 5 3 5 = = = = = 5 5 3 3 3 3 3 3 3 5 5 3 3 3 3 3 3 3 3 3 3 3 3 3 3 3 3 3 3 3 3 : 5 3 3 4 3 3 3 3 3 3 3 3 3 3 = : > > = : : : 3 3 = 5 3 4 3 3 3 5 : > > : : : 3 5 5 3 6 4 3 3 4 6 6 8 6 4 8 9 w e e w w pXr pXP q r r r r r aXaXiXpXP P t uXcXbXlXgXgXuXzXdXgXgXiXfXhXgXgXfXkXgXiXhXhXiXlXlXiXiXiXhXkXMXAXS./.1.i.s.a.F.a.a.a.d.F.F.P.I.a.P.P.F.y.F.P.P.a.P.P.P.a.P.P.P.I.I.P.F.F.y.F.F.y.y.F.F.F.y.t.a.s.s.s.s.a.y.a.s.s.a.a.a.d.s.y.t.t.t.y.a.a.I.P.a.a.d.a.s.a.t.t.t.t.t.t.t.t.a.s.s.s.s.K.K.J.s.i.s.s.s.J.J.U.I.a.s.s.s.s.s.a.I.Y.s.s.s.s.s.s.J.s.s.i.J.L.`.XX`.K.J.J.J.J.J.J.J.s.i.s.s.s.s.J.J.J.J.K.L.b.v.v.v.v.v.K.J.s.p.p.p.i.s.s.s.s.s.s.d.t.t.t.t.t.e.a.s.s.a.s.s.s.s.s.s.i.s.s.s.s.s.s.s.s.s.s.s.s.",
"......^ ) ` +.' %.+./ O.o.o.+.' ' +.+.+.o.| @.%.+.o.+.@.%.%.$.$.%.%.$.=...%.=.*.$.%.8.$.$.$.%...%.$.$.=.$.$.$.$.$.$.8.$.=.$.8.8.e.*.$.*.*.*.=.*.=.$.$.*.*.*.e.e.=.=.*.*.*.=.*.*.*.*.$.$.*.*.=.*.*.$.8.e.*.*.i.=.$.=.*.*.=.@.e.w.e.*.*.*.*.*.*.*.e.e.*.*.i.*.=.&.&.&.&.=.*.,.*.*.*.*.*.*.$.$.*.*.*.*.*.*.*.=.*.*.@.@.&.&.&.=.$.=.-.J f < - - - - - - - - - - - - - - - - - < - - - - - < < - - - - - - < 1 < < < < - < < - < < 1 f 1 - < - - < 1 1 < 1 < < < < - - - < - < < - - - - - < 1 < ; - - - - - - - - - - - - - - - - - - - - - - - ; - - > ; - - - - - - - - - - - ; ; - - - - - - - - - - - - - - ; ; - - - - - - - - - - - - : > : 5 : - - - - > - : : = = = > > ; - > > - - > > > 5 3 = - > : > = = = = = : 5 3 5 = = = = = = > - - : 3 3 3 3 3 3 3 3 3 3 3 3 3 4 3 3 3 3 3 4 4 3 3 3 3 3 3 3 3 4 4 4 4 3 3 3 3 3 3 3 3 3 3 5 = 5 5 3 5 3 3 3 3 3 3 3 3 3 3 3 3 3 5 5 5 = 5 3 3 3 3 3 3 3 3 3 = 5 = = = = = = = = = : 3 3 5 = = = = = = = 5 5 > > = = 5 5 5 3 5 3 3 3 3 3 3 5 5 3 3 3 3 5 5 3 3 4 4 5 3 3 3 3 3 3 3 = = 4 3 3 3 3 5 5 3 3 5 5 3 3 = = : > = > - : : : = 5 5 4 3 3 3 : - - : 5 3 5 = : : : 5 3 4 4 6 4 3 6 6 4 4 3 4 6 9 w 9 w q w q q q q w q q t uXyXpXP q r y zXvXkXpXpXuXzXxXiXgXiXzXkXgXgXiXkXhXiXhXhXiXhXhXhXhXhXiXgXhXkXhXnX(.D.1.i.d.P.a.s.s.y.y.F.P.y.F.F.P.a.F.P.P.a.P.P.P.F.F.y.P.P.P.P.F.y.t.y.F.F.t.y.F.y.t.t.y.P.a.a.a.y.t.a.s.s.s.s.s.s.s.y.t.t.t.y.s.a.a.a.t.t.y.y.s.a.y.t.t.t.t.t.t.t.a.s.s.s.i.K.J.s.J.J.J.J.s.i.i.s.a.y.d.s.s.s.d.y.a.s.s.s.s.s.a.s.J.s.s.J.J.v.b.K.v.K.J.J.J.J.J.K.J.i.J.s.s.s.s.s.J.J.s.s.p.b.v.v.v.b.b.K.K.b.b.v.v.p.s.s.s.s.d.s.d.y.y.d.a.a.a.s.s.s.s.s.s.s.s.s.s.p.i.s.s.s.a.s.s.s.s.s.s.s.",
"o.%.....' ` %.o.` +.+.+.%.%.` ' ` +.o.O.o.| o.$.%.+.+.o.%...%.%.%.%.%.$.$.$.$.$.$.%.$.$.$.$.$.$.$.%.%.$.$.=.*.=.$.$.8.$.8.=.8.9.8.*.*.*.*.=.$.=.*.*.*.*.*.=.=.*.*.*.*.=.*.*.=.=.*.*.*.*.=.=.=.@.*.=.*.*.*.*.=.&.&.@.=.e.=.@.@.e.$.*.e.i.e.*.*.e.e.$.*.=.*.*.*.=.&.&.&.&.*.*.*.*.*.*.*.*.*.*.=.$.*.=.*.*.=.=.*.*.=.&.&.=.=.=.$.*.=.A x 1 - - - - - - - - - - - - - - - - - - - - - - - - - - - - - - - < 1 < 1 < < - < < - 1 < - < < - < - < 1 1 f 1 1 1 < < - - - - < < < < - < - - - 1 1 < - - - - - - - - - - - - - - - - - - - - - - - ; - - - - - - - - - - - - ; - - - - - - - - - - - - - - - - - - - - - - - - - - - ; - ; - - - - ; - - - - ; ; ; ; : 5 : > = > > > > > > = > ; ; > > = = > - - - ; = > > = 4 3 > > : : ; = = = = > ; - : 5 3 3 3 3 3 3 3 3 3 4 3 3 3 3 3 3 4 3 4 3 3 3 3 3 3 4 3 3 3 3 3 4 4 3 3 3 3 3 3 3 3 3 3 3 3 5 3 5 = 3 3 3 5 3 3 3 3 4 3 3 3 5 = 3 5 3 3 3 3 3 3 3 3 5 = 5 = = = = = = = = = = = = = = = = = = = = 5 5 = > > = = = = = 5 : 3 5 5 5 3 5 = = 5 3 3 5 = = 3 3 3 3 = 5 3 3 3 3 3 3 3 4 4 4 3 3 3 3 3 3 5 = > = 3 3 : > > > > 5 5 5 : 3 5 : 5 : 3 5 - : : : : 3 3 : < : : 5 5 4 3 : : - - : 3 5 4 0 P P P P 8 6 8 8 8 8 8 8 8 8 w q q q q q r yXdXzXfXpXB.yXdXcXhXgXiXxXvXlXgXhXxXhXhXkXhXgXhXhXhXhXhXhXhXgXhXhXhXjXS.C.2.<.G.s.s.a.a.d.a.a.P.P.P.s.a.P.a.a.a.s.P.P.F.F.F.F.F.y.F.F.t.t.t.t.t.y.t.y.y.P.P.y.y.F.t.t.t.t.y.a.s.s.s.s.s.P.a.a.y.t.y.F.y.y.t.t.t.y.d.y.y.y.a.a.a.a.d.a.F.y.y.s.s.i.J.J.i.i.p.J.J.i.s.i.s.a.y.y.a.s.s.s.i.s.s.I.s.a.F.a.s.s.I.I.I.Y.R.s.s.U.U.K.K.J.J.J.K.J.s.s.s.s.s.s.s.s.J.J.s.i.J.L.b.v.K.p.b.b.p.b.[.`.U.i.s.s.s.a.d.t.y.d.s.s.s.s.s.s.s.s.s.i.p.s.s.i.p.p.i.s.s.d.s.s.s.s.s.s.s.",
"o.o.%...' ` %.@.` ` +.+./ o.%.%.` ' +.o.| | o.$.$.$.%.$.e.,.;.%.$.%.$.$.$.$.$.$.$.$.$.$.$.$.$.$.$.$.%.$.$.$.*.*.$.=.8.$.$.9.8.8.$.=.=.$.*.*.=.=.@.@.&.=.*.*.*.*.*.*.*.e.*.=.*.*.*.*.e.*.*.*.*.*.*.*.*.=.=.*.$.@.e.e.e.$.$.e.e.*.e.*.*.i.i.*.*.e.i.=.*.*.=.$.$.@.&.&.&.=.*.*.*.*.*.*.*.*.*.*.*.*.*.=.=.*.*.=.*.=.&.&.=.*.*.*.=.$.-.-.A s < - - - - - - - - - - - - - - - - - - - ; ; - - - - - - - - - - - - - < - - - - - - - - - < < , < 1 f < 1 1 1 1 < - - - - - - - - - < 1 < ; - - - - - - - - - - - - - - - - - - - - - - - - - - - ; - - - - - - - - - - - - - - - - - - - - - ; - - - - ; ; - - - - - - - - - - - - - - - - - - - - - - : - - : - < : : : ; ; > > : > = : > = ; - > > = = = > ; - : > > : = : : ; ; : : ; > = = = = = : : : 5 3 3 3 3 3 3 3 3 3 3 3 = 3 3 3 3 3 3 3 3 3 3 3 3 3 3 3 3 3 3 3 3 3 3 3 3 3 3 3 3 3 3 3 3 3 3 3 5 3 4 3 3 3 3 3 3 3 3 3 3 3 3 3 3 3 3 3 3 3 3 = = = = = = > = = = = = > > = = > = = = = = = = = = : = = > = = = = > 3 3 : > > > = = = = = 3 5 = = 5 3 3 3 = 5 3 3 3 3 3 3 3 4 8 8 4 3 3 3 = 3 3 : = = = : = 5 = = = = 5 3 3 3 3 : : 3 5 : : : < - - : 3 : : < - : : : : : : < < < : 3 4 8 0 9 8 8 w L 6 8 8 8 8 8 8 8 8 8 9 w w w w q t uXaXyXP q t aXdXiXpXiXxXbXkXjXkXvXkXkXcXkXhXhXhXhXhXhXhXhXhXiXiXgXhXjXgXS.C.1.H.G.P.a.s.s.a.P.P.s.s.a.a.F.F.a.a.P.P.F.t.y.F.y.t.F.F.y.t.t.y.t.y.F.F.a.a.y.t.t.t.t.t.t.t.t.y.s.s.s.a.a.y.d.a.y.y.F.F.t.t.t.t.t.t.y.t.t.t.t.y.y.y.y.t.t.t.y.a.s.s.J.s.s.s.i.J.J.U.U.s.s.a.d.d.s.s.s.I.Y.I.s.I.s.a.F.a.s.s.I.I.Y.R.U.J.J.J.J.J.K.J.J.J.J.J.s.s.s.s.s.s.s.J.J.s.s.s.J.J.b.b.J.L.v.b.J.s.K.K.J.i.s.s.s.s.s.y.d.s.s.s.s.s.s.s.s.s.s.s.s.i.s.s.s.s.s.s.s.s.s.a.s.s.s.s.s.",
"$.%.` ' ) ) +.$...' +.%.o.X.o.o.%...%.@.@.o.o.$.%.%.o.#.e.>.,.%.$.$.+.@.+.$.$.$.$.$.$.$.$.$.$.$.$.$.$.$.$.8.*.*.*.*.*.$.$.8.e.*.*.*.*.*.*.$.$.$.&.@.$.=.*.*.*.*.*.*.*.*.*.e.d.e.*.*.=.*.*.*.=.=.*.*.$.*.*.*.=.=.*.=.$.$.e.i.e.*.e.*.*.*.*.*.*.*.*.e.i.$.*.*.=.@.q.&.=.*.*.*.*.*.*.=.*.*.*.*.*.*.*.=.*.*.=.$.&.&.&.&.=.*.*.*.$.$.=.-.A s 1 < - < 1 < - - < < - - - - - - - - > - - - - - - - - - - - - - - < 1 < - - - - - - - ; < , f s f f g < < < - - - - - ; ; - - - < < - - ; ; - - - - - - - - - - - - - - - - - - - - - - - - ; - - ; - - - - - - - - - - - - - - - - - - - - - ; - - - - > = ; - - ; ; - - - - - - - - - - - - - - - - - < : - : : - - < : = : : > = = > : > = > ; ; ; : > = = = > > > > = = > - - ; > > ; > = = = = = = 5 3 5 : = 3 3 3 3 3 3 3 3 3 5 3 3 3 3 3 3 3 4 3 3 3 3 3 4 4 3 3 3 4 4 3 3 3 3 3 3 3 3 3 3 3 3 3 3 3 3 3 4 3 3 3 3 4 6 4 4 4 4 3 3 3 3 3 3 3 3 5 = = = = = 5 5 = = = = = = = = = = > > : = = = = = = = 3 : > > = = = = = : : ; > > > ; = = 5 5 : > = 3 3 3 3 : : : : : 5 : : 3 3 4 8 6 3 5 = 5 3 3 3 3 6 5 : ; = : 5 3 = > : : : : : : 5 4 : ; - : - - : : : - - < < - < : 3 4 4 - < < - : 4 8 8 6 6 8 8 0 7 8 8 8 8 8 8 4 4 8 8 8 8 8 w q q t t q q q q t yXV.P yXdXvXkXkXxXPXGXSXHXGXkXkXhXhXhXhXhXhXhXhXiXyXiXgXiXgXA.C./.1.s.I.G.I.P.a.a.s.y.y.F.F.F.y.F.F.F.y.y.y.F.F.F.t.y.F.y.F.F.a.a.a.y.s.d.y.y.d.a.d.y.d.a.y.d.s.s.a.y.y.y.a.a.t.t.y.t.t.t.t.t.t.t.t.t.t.t.t.t.t.t.t.t.t.t.y.a.s.s.s.s.s.s.i.J.J.U.s.a.d.s.s.a.y.a.s.s.s.s.s.s.s.a.y.a.s.s.s.s.s.J.J.J.J.J.J.K.[.b.K.J.i.J.s.s.s.s.s.i.J.J.J.s.s.s.s.s.p.p.s.i.p.K.J.i.J.J.i.s.s.s.s.s.s.s.s.s.s.s.s.s.s.s.s.s.s.s.i.p.s.s.s.d.s.s.s.a.d.y.d.a.s.s.s.",
"..` ` ) O.+.+.%.' ..` ` o.o.` ` %.' %.$.o.o.o.$.%.%.o.o...........%.@.+.#.+.$.$.$.$.$.$.$.$.8.$.$.$.$.$.$.$.=.*.=.*.e.=.$.$.*.*.*.=.=.*.$.$.$.*.*.*.=.$.*.*.*.*.*.=.$.$.e.e.e.*.=.*.*.$.=.*.*.=.*.*.*.*.*.*.$.=.=.=.$.$.8.e.=.*.*.*.*.*.*.*.*.*.*.i.i.*.*.*.$.@.w.e.*.*.*.*.*.*.=.&.=.*.=.=.*.*.*.=.=.=.@.@.=.&.&.&.=.*.*.=.-.=.=.-.A s f < - 1 g < : < < - - - - - - - ; - ; - - - - - - - - - - - - - - < 1 1 - < < < 1 - - < a x S ;.S J f 1 < - ; * # ; - # + - - - < - - - - - - - - < < - - < < - - - - - - - - - - - - - - - ; - - - - - - - - - - - < < - ; - - - ; > - - - - - - - - - - - - - - - - - ; - - - - - - - - - - - ; ; - - < : : 5 : : : - : : : = = > = ; > = = = > - > = = = = = > > > : = > ; - - > = = ; ; = = = = > = 5 : 3 5 = 3 3 5 3 3 5 3 3 3 3 3 3 3 3 3 3 3 4 4 3 3 3 3 3 3 3 3 3 4 4 3 3 3 3 3 3 3 3 3 3 3 5 3 3 3 3 3 3 3 3 4 4 4 6 6 8 8 8 6 4 3 3 3 3 3 3 5 = = = = = = 5 5 = = = = 5 = = = = = > > = = = = = = = 3 : ; > = = = = = > ; > = > ; : > = = = > : 5 5 : : : 5 3 : : : : - - : : 5 3 3 3 5 : : : : : : 4 : - ; = : = > = : - ; : : - : 3 : : - - - : : 4 4 - - - - : : - : 5 7 7 : : : : 5 4 0 8 6 6 8 8 0 L 8 8 0 0 6 4 6 8 8 8 8 8 8 8 w w q q w 9 9 w q r w 9 q yXaXiXiXdXPXLXHXKXPXGXGXMXkXkXhXhXhXhXkXhXlXgXgXpXgXgXA.Z.j.1.i.s.a.P.a.s.a.y.y.F.F.y.t.y.t.F.P.I.P.P.F.F.F.F.F.F.F.a.s.a.y.y.s.d.t.y.a.s.s.s.s.a.a.a.a.d.y.y.a.s.a.y.t.y.t.t.t.t.y.F.t.t.t.t.t.t.t.t.t.t.t.t.t.F.y.a.s.a.s.s.s.s.s.s.J.s.a.y.y.a.d.y.t.a.s.s.s.s.s.J.i.s.y.a.s.s.s.s.s.i.J.U.s.J.J.K.b.v.b.J.s.J.s.s.s.s.J.J.L.b.b.b.J.i.s.s.J.J.i.s.i.J.J.J.s.s.s.s.s.s.s.s.s.s.s.s.s.s.s.s.s.s.i.s.s.s.s.s.s.s.s.p.s.s.y.y.w.t.t.y.a.e.e.",
"/ +.` ` ) +.$.+.%.` ' o.X.o.%...' ` %.+.o.` ) +.+.%.$.$. ...%.%.%.%.o.X.X.o.o.o.o.o.+.#.+.@.$.$.$.$.$.$.$.$.8.*.=.,.,.=.*.e.8.*.*.$.$.$.=.*.*.*.*.*.*.$.*.*.=.*.*.$.$.$.w.9.9.e.e.e.e.$.$.$.$.e.$.*.$.$.e.e.e.*.$.8.$.$.8.w.q.=.=.e.e.e.e.*.*.*.=.*.*.*.=.*.=.=.e.*.*.*.*.=.=.*.@.@.*.e.5.@.*.*.*.8.4.&.&.=.=.*.=.$.=.*.*.=.=.$.@.$.-.J a < - < < < : < < - - - - - - - - - - - - - - - - - - - - - - - - - - - - < < < < - < f C -.-.=.-.-.A s < ; ; # # - - - ; - - < < < < < - - < < < , a , , , , < < 1 < - - - - - - - - - - - - - - ; ; - - - - - - - < - - ; - - - - ; - - - - - - - - ; - < - - - - - - - - - - - - - - - - - ; - - - - - - - : - - - - - ; ; : : > = > > ; ; ; - > > > : > = = > ; ; > > = > > = = = = > > = = = : : : : 5 5 3 3 3 3 = : 3 5 3 3 3 3 3 3 3 4 4 3 3 4 3 3 3 6 4 3 3 4 3 3 3 3 3 3 3 3 3 3 3 3 3 3 3 5 3 3 3 3 4 3 3 3 6 6 3 4 6 4 6 8 8 6 3 3 3 5 3 3 3 3 = = = = = = = = = > = = = = = = = = > > > = = = = > : : > > > = = = > ; > > > = > > > = = > ; > = = = = : : : 5 : - - - < - : : : : : : : : : - - - > - - - - : : ; : - - - : : - - : - - - - - : : - - - - - : : : - : 5 4 : - : 7 : 5 4 8 8 h h L L L L 8 8 8 8 6 4 6 6 8 8 8 8 8 8 8 8 9 9 8 8 8 8 w w 9 8 w r t q q yXvXHXPXKXKXKXLXGXGXGXkXhXhXhXkXkXkXhXiXiXgXgXP A.Z.I 1.i.y.a.y.a.a.y.F.F.F.F.t.t.t.y.a.P.P.a.y.F.F.F.t.F.P.a.s.a.a.a.a.y.t.t.F.y.s.s.s.s.s.s.y.t.t.t.y.y.y.t.t.t.t.t.t.t.t.y.t.t.t.y.y.y.y.t.w.t.y.y.y.d.d.a.y.y.s.s.U.J.J.J.s.s.a.a.a.a.a.y.t.y.s.s.s.s.s.s.s.s.a.a.s.i.J.s.s.U.R.U.s.s.J.J.J.K.K.J.s.i.J.s.s.p.b.b.s.p.K.K.b.p.s.s.J.J.s.s.s.s.s.s.s.s.s.s.s.s.s.s.s.e.d.s.s.s.s.s.s.s.s.i.s.i.p.i.s.s.s.s.s.s.y.t.w.t.t.t.w.w.w.",
"/ ) ) ` ` %.%.` ` ` ` +.+.o.o.%...%.$.o.o.` ) +.#.o.$.$.$.%.$.$.$.$.o.o.o.o.+.+.+.+.$.+.#.+.$.$.$.$.$.$.$.$.$.$.*.=.=.*.*.=.=.*.*.$.$.$.*.*.$.$.$.$.=.$.*.*.=.*.*.*.*.$.e.e.e.w.e.9.8.=.*.=.8.8.$.*.8.9.8.e.d.*.$.9.e.e.$.@.q.=.*.e.9.8.e.*.*.*.e.*.*.*.*.*.*.*.*.,.=.=.=.=.*.*.*.*.*.e.w.e.*.*.=.&.&.&.*.i.*.*.*.*.*.*.*.*.*.=.$.%.-.A s f < - - < - 1 f 1 < - - - - - - - - - - - - - - - - - - - - - - - - - - - - - - < a x ..-.=.=.=.-...A f < - * * ; - * - ; - - 1 f , , , , , , , a a a a a a 1 , a , < - < 1 1 - < < < - ; - - - ; ; - - - - - - - - - - - - - - - - - - - - - - - - ; - - - - - - - - - - - - - - - - - - - - - - - - < - - - - - - - < ; > ; > = > > = ; ; > > = = = ; > > > = > > = ; : = > = = > > > = > > ; > ; - : 5 = 3 3 5 5 3 3 = = 5 3 3 4 3 3 3 3 3 3 4 4 3 3 3 4 3 3 3 4 3 3 3 3 3 3 3 3 3 3 3 3 3 3 3 3 3 3 3 3 4 6 4 6 8 6 3 4 4 4 4 4 8 4 4 4 4 3 3 3 3 3 3 5 = = = = = > > = = = > = = = = = = > = = = = = - ; > ; > = = = > = ; ; : ; > > = > = = > > = = = > > > > = 5 : : : : ; - : - : : : - ; : : - - - ; > ; ; ; - - - - - - - - - - - < < - - - - : - < < - < - : - - - : : : : : 3 3 : 5 4 8 L L h L K K L 7 8 6 8 0 8 8 6 8 8 6 7 6 8 8 8 8 6 4 4 4 6 6 8 8 8 9 w w w q yXaXuXdXGXvXHXPXHXPXGXkXkXhXhXdXkXkXkXkXlXiXpXB.B.A.U I 3.<.y.y.y.s.a.y.F.F.y.t.t.t.y.F.a.I.I.a.F.F.F.F.F.F.F.a.a.a.a.a.a.y.t.F.F.s.s.s.a.y.y.t.F.y.t.t.t.t.t.t.t.t.t.t.t.t.t.t.t.t.t.y.y.t.t.t.t.y.s.a.s.s.a.d.a.s.J.U.OXU.s.a.a.s.s.s.a.y.t.t.F.y.a.a.s.s.s.a.F.P.s.s.J.J.J.J.J.U.i.s.U.J.J.s.s.i.s.i.s.i.s.s.b.v.b.s.J.K.K.b.p.s.s.i.s.s.s.s.s.i.s.s.s.s.s.s.s.s.s.s.e.e.y.s.s.s.s.s.s.s.a.i.J.K.K.s.s.s.s.s.s.d.w.w.w.w.9.9.w.w.",
"+.+.%.+.` %.%.%.+.+.X.o.o.o.| o.%.%.%.%.o._ ) ) +.X.+.$.$.$.$.+.+.+.$.$.$.o.+.+.+.$.$.$.$.$.$.$.$.$.%.$.$.$.$.$.*.*.=.*.*.*.=.=.$.$.$.*.e.$.$.$.$.$.*.=.*.*.*.*.*.*.*.*.*.*.*.8.8.=.e.e.*.e.*.=.=.*.$.e.e.$.$.*.$.8.=.*.*.8.q.e.e.e.e.w.5.=.*.*.e.=.*.*.*.=.*.=.,.<.<.>.>.<.=.*.=.*.*.=.$.8.*.*.=.&.&.=.=.$.=.$.*.*.*.*.=.*.$.$.$.%.-.A s 1 < - - - - < < < ; - - - - - - - - - - - - - - - - - - - - - - - - - - - - # * , x ,.-.-.=.=.-.-.,.-.S s , + # > ; > > * ; < < 1 a f f f f a a a a f a a a a a a a a , , 1 , 1 f 1 1 < - - - ; # + ; - - - - - - - - - - - - - - - - - - - - - - - - - - - - - - - - - - - - - - - - - - - - - - - - < - - - - - - - - ; > - > = > > > - - ; > = = > ; - - - - ; = = > > > > > = ; - ; = > ; ; ; : : = : : 3 5 : = 3 3 5 5 3 3 3 3 3 3 3 3 3 3 6 4 3 4 4 3 3 3 3 3 3 3 3 3 3 3 3 3 3 3 3 3 3 3 3 3 3 3 3 4 6 6 6 8 8 6 9 q 9 w w pXyXw 6 6 8 4 3 3 3 3 3 5 = = = = = = = = > = = = = = = = > - : = = = = ; - - - > > = = ; > > > - ; > : : > = = = = = = : = > > > > : : 5 : - : : : : : : : - - - - - - : - ; ; ; > - - - - - - - - - - - - < < - - < - - - < : - < - - - - - : : : : 5 5 3 3 5 4 6 L L L L 0 2 6 8 8 8 0 6 6 0 0 0 7 7 6 8 8 8 0 8 7 < 1 : : 7 4 6 8 8 9 0 P V.pXq P pXpXiXiXiXhXhXlXhXfXkXkXdXkXkXkXkXkXhXgXpXB.P P Z.tX<.i.a.d.d.y.F.F.y.y.F.F.F.F.y.P.P.y.F.F.F.F.F.F.F.y.t.t.y.a.a.y.y.y.y.s.s.s.a.t.t.y.t.y.t.t.t.t.t.w.w.t.t.t.t.t.t.t.t.t.t.t.t.t.t.t.y.a.s.s.s.s.y.y.y.d.a.i.s.a.a.F.y.F.y.a.y.t.t.t.t.t.y.s.s.s.s.y.y.a.s.U.U.J.J.J.J.i.s.s.s.s.s.s.s.s.s.s.s.s.s.s.b.v.K.K.K.b.b.J.J.i.s.s.s.J.s.s.s.s.s.s.s.s.s.s.s.s.s.s.e.d.e.s.s.s.s.s.s.s.s.s.i.i.s.s.s.s.s.s.s.y.w.w.9.9.w.w.w.w.",
"%.` %.%.+.%.%...` O.X.+._ o.| | o.@.+.` _ / O./ _ O.O.+.$.$.$.%.%.+.o.o.%.+.+.+.o.+.$.$.%.%.$.$.$.+.$.8.8.$.$.$.=.=.=.=.*.=.=.-.$.$.9.*.$.$.$.$.$.$.*.=.=.8.8.*.*.$.$.=.*.*.*.$.e.8.8.8.$.$.$.*.*.$.@.&.$.$.@.=.8.$.$.e.e.=.&.e.$.$.e.e.&.&.*.*.=.=.*.e.e.<.<.,.>.1.<.,.,.<.>.>.<.<.*.*.=.=.*.*.$.&.&.=.*.=.*.=.*.=.*.$.$.$.$.$.$.-.-.J a 1 < - - - - - - ; ; - - - - - - - ; ; - - - - - - - - - - - - - - - - - - * # , s ;.>.,...-.-.-.,.>.-.-.-.s , - > > > > > > * - < f f f a f f f f f f a a a a a f a a a a a a f f f < < < - - ; * # * - - - - : : : - - - - - - - - - - - - - - - - - - - - - - - - - - - - - - - - - - - - - - - - - < - - - - - - - - - - - - - ; > > > - - ; = > - - - - - - - ; > ; > > = : > = ; - = = > ; ; = 3 5 : : : : : > : 3 3 3 3 3 3 3 3 3 3 3 3 4 4 3 3 4 6 3 3 4 4 3 3 3 3 3 3 3 3 3 3 3 3 3 3 3 3 3 3 6 6 6 8 9 w w t uXvXkXq q t dXvXsX9 8 6 6 4 3 3 3 3 = = > > = = 5 = = = > > > = > = > > : 5 = = > > ; > > ; > = > > ; > ; > - > = > = = > > > > = = = = > > = > - - : - - : 4 - : - - - - - - - - - : - - - - - - - - - - - - - - - - - < < - - : : - - - - - - - - - - - : - - < : 5 3 3 5 : : : 6 6 : 7 8 8 8 L L L L L h h h 0 0 0 L h h h h h g g 1 < < < 7 8 8 6 0 L L L h h L L L 0 L K K P P pXhXiXiXhXkXkXkXkXkXhXiXiXpXA.A.Z.tX1.i.e.t.t.t.F.F.F.F.F.y.t.t.y.F.F.y.t.y.F.y.t.t.t.t.t.t.t.a.a.a.s.s.s.s.s.a.d.a.a.d.t.t.t.t.t.t.t.t.t.t.t.t.t.t.t.t.t.t.t.t.t.y.t.y.s.i.i.s.s.y.y.t.t.d.s.a.y.F.F.F.y.t.t.t.t.y.y.y.y.a.s.s.s.s.s.a.a.s.J.J.J.J.s.i.s.s.s.s.i.i.i.s.s.s.s.s.s.s.s.b.K.J.b.v.v.b.i.i.J.J.i.i.J.J.s.i.i.s.s.s.s.s.s.s.s.s.s.s.s.d.s.s.s.s.s.i.J.H.i.s.s.s.s.s.s.s.s.s.e.w.w.9.w.t.w.w.w.",
"` ` ` ` +.+.%.' _ / o.$.' ..%._ o.o.+.+.+.o.o.o.+.+.O.#.+.o.o.o.o.o.o.+.%.%.$.$.+.$.$.o.o.o.%.$.$.+.$.$.$.$.$.$.$.=.$.$.*.<.<.%.$.$.8.*.$.$.8.$.$.$.e.=.@.@.@.e.*.$.$.=.=.*.e.*.e.*.=.@.&.$.$.$.*.$.$.e.e.*.=.w.e.=.=.d.e.=.=.*.=.&.&.5.5.@.=.*.*.*.,.<.<.1.>.2.<.2.>.>.<.>.>.>.<.*.*.*.*.*.*.*.*.=.=.*.=.&.=.=.*.$.$.@.=.=.*.$.%.-.-.J s 1 < - - - - - - - - - - - - - - - - ; - - - - - ; - - - - - - - - - - - < < , f C ,.-.=.=.-.=.=.-.-.-.$.-.A A f ; > = > > * * * - 1 f a , , a a a a a a a a a a a a a a a a a f f f 1 f 1 1 < # * * - - - < - < < < - - - - - - - - - - - - - - - < < - - - - - - - - - - - - - - - - - - - - - : - - - - - - - - - - - - - - - > > ; ; ; - - ; ; > > - < - > = ; ; - > > = > > > > > > > = > - : = = : : : : : : : : 3 3 5 5 3 3 3 3 3 3 3 3 4 6 6 4 3 4 3 3 3 4 3 3 3 3 3 3 3 5 3 3 3 3 3 3 3 3 3 4 6 9 9 w t yXsXdXvXGXpXw UXyXxXbXcXt 4 4 4 4 3 3 5 3 5 = > > = = = = = = = : = = > = > > : 3 : = = > > = = : > > > > ; = > = > > = > = = > = > > = = = = = > > - - - - - - ; : - : : - - - - < < - - - - - - - - < - - < - - - - - - - - < < 1 1 < < 1 < - - - - - - - - - - 1 < - - : : 4 4 4 7 1 6 6 8 0 L L L L K K K L h h g h h h h h h h h h h h h h h g h L L 2 h h h g g h h h h h h h h h L L K K P P gXgXgXlXhXlXhXhXiXpXgXgXZ.I D.e.t.t.t.y.t.y.y.F.F.t.t.t.t.y.t.t.t.t.y.y.t.t.t.y.t.d.s.a.a.s.s.s.s.s.a.a.s.s.s.d.y.t.t.y.y.t.t.y.t.u.t.t.t.t.t.t.t.t.t.t.t.y.a.s.J.i.s.s.s.d.t.t.a.a.y.t.y.y.y.t.t.t.t.t.t.y.a.y.y.d.d.a.s.s.s.s.s.a.a.J.U.J.i.s.s.s.s.i.i.s.s.s.s.s.s.s.i.J.p.K.J.K.b.v.b.b.b.p.J.i.s.s.s.i.s.b.p.p.s.s.s.s.s.s.s.e.y.d.y.y.e.d.a.s.i.L.p.H.s.s.s.s.s.s.s.s.d.w.y.w.w.6.w.w.9.w.",
"+.%.%.` _ _ ' ` +.o.| %.%.%.%.` %.+.+.) _ ! ! o.` ) X.| | o.o.o. .+.$.$.o.o.o.o.+.$.$.o.o.o.$.$.$.$.+.$.$.$.$.8.e.$.$.=.*.*.=.$.$.$.8.=.$.$.$.$.*.*.*.*.$.$.$.e.e.=.$.*.*.*.i.i.*.$.$.=.=.$.$.$.$.$.8.e.*.$.$.w.=.*.*.*.*.*.*.*.*.=.@.5.e.*.*.*.*.i.<.>.>.>.<.1.1.1.2.>.1.>.>.,.*.*.*.*.*.*.*.*.*.=.$.=.&.&.@.@.*.$.&.=.*.*.*.=.%.-.-.J f < - - - - - - - - - - - - - - - - - - < - - - - - - - ; - - - - - - - # ; < f Z ;.>.-.%.=.*.=.-.-.-.%.$.=.-.-.A , * = = > > > > * < f f < < , a a a a a a a a a a a a a a a a a a s f f f 1 < - > ; - - - - - < < < - - - - - - - - - - - - - - - 1 < < 1 < - - - - - - - - - - - - - - - - - - - - - - - - - - - - - - - - - - ; ; - < - - - - - - ; ; ; - - > > - : : > = = > > = = = = = ; - > = > ; - : 5 = - : : 5 5 3 3 3 3 3 3 3 3 3 3 4 8 6 4 3 3 4 3 3 3 3 3 3 3 3 3 3 5 5 5 5 5 5 3 4 8 9 w w q UXyXfXxXxXcXHXkXq q q y sXbXbXdXw 4 3 3 3 5 = = = = = = > > = = = = = 3 = > > > ; > = = = = > > > = > : = > > > = = = = > ; = > ; > = = > > = = = = > ; ; ; - - - - - : - : - - < - - - < 1 - - - - - - - - < < < < - - - - - - < 1 1 g h g f f h h 1 1 1 < < < < < 1 1 1 1 < 1 1 7 8 0 L L L L L L K K K K K K K K L L L h h h h h L L L L L j j j j j L j h h h h h j j H H j H j H j h j H j j g h L L L 0 L K K V.gXgXgXgXgXgXgXZ.D.*.e.y.t.t.t.t.t.F.y.t.t.t.t.t.t.t.y.y.t.t.t.t.t.t.t.a.a.s.s.s.s.s.s.s.a.a.I.s.s.s.s.y.t.d.y.t.t.y.t.t.t.t.t.t.t.t.t.t.t.t.y.a.s.s.s.s.i.s.s.a.y.y.d.y.t.t.y.y.t.t.t.t.t.t.t.t.t.t.t.t.y.a.s.s.s.s.s.y.a.s.s.U.s.s.s.s.s.s.s.i.s.s.s.s.s.s.s.J.p.H.s.i.p.v.v.v.b.J.K.b.p.J.s.s.s.p.p.s.s.s.s.s.s.s.s.9.w.y.w.w.w.y.a.s.i.p.b.p.s.s.s.s.s.s.s.s.d.w.y.w.9.r.6.6.6.9.",
"%.+.` ` _ ) +.+.+.` o.o.%.+.` ` ` | / ! ! | / | | O.o.o.o.o.o._ _ +.+.$.$.@.| | O.+.+.$.$.$.$.$.$.+.#.+.$.8.$.$.$.$.$.=.*.*.$.$.$.$.$.=.*.*.$.*.*.*.*.=.=.$.$.e.=.=.$.$.e.=.$.*.*.=.$.$.$.=.$.$.$.$.=.$.$.$.$.@.$.$.=.*.=.=.i.e.*.i.i.$.$.i.*.*.*.*.i.1.2.>.<.<.>.>.<.1.>.>.>.<.*.*.*.*.*.*.*.*.*.=.$.$.@.&.=.*.=.$.=.*.*.*.=.$.$.-.A s a < - - - - - - - - - - - - - - - - - - - - - - - - - - - ; * ; - - - - ; * 1 Z 3.>.-...%.%.$.%.-.-.-.%.=.*.=.,...x 1 > > > > * ; ; - < 1 < - - < < < , a a a a a a a a a a a a a a s f f a < - - > ; - - - - - - - - - - - - - - - - - - - - - - - - < < 1 < < - - < < - - - - - - - - - - - - - - - - - - - - - - - - - - - - - - - - - - - - - - - - > ; - > > > > - ; = ; > > > > = > ; ; ; ; ; > ; - > ; ; ; - : : : : 3 3 3 3 3 3 3 4 4 3 4 4 4 4 3 3 3 3 3 3 3 3 3 3 3 3 5 3 = = = = 4 w pXlXiXiXyXyXyXsXxXcXdXzXzXuXr r q r sXcXaXy r w 6 4 3 3 5 = = = 5 = > > = = = = = = = > : ; - ; > = = > : = > = > ; > : > > = = > > > > > > > > = = > > = = = = = > > > - - - - - : - - - - < < < - < 1 < < < < < - - - < - < < - - - - - - 1 g h h h h h h h h g f f g g f f f g g g h g h h h h h h h K K K K K K K K K I j h h L h h h h h h L L L K I G G G G G I G H H H H H G G D D H H H D D D G G D D H j j h h h h h h h L L K K Z.A.gXjX3.=.i.y.t.t.t.t.t.F.t.t.t.t.t.t.t.t.y.F.t.t.t.t.t.y.F.a.s.s.s.s.s.s.s.s.a.a.P.P.P.s.s.a.y.t.t.t.t.t.t.t.t.t.t.t.t.t.t.t.y.a.a.s.s.s.s.i.J.s.s.s.a.s.y.y.t.t.t.t.t.t.t.t.t.t.y.y.t.t.t.t.y.a.s.s.s.s.s.y.y.a.s.s.s.s.s.s.s.s.s.s.s.s.s.s.s.s.s.i.i.s.s.a.p.b.K.L.p.J.b.v.v.K.J.J.s.a.s.a.y.d.s.s.s.I.d.w.w.t.t.w.w.t.y.s.s.i.p.p.s.s.s.s.s.s.s.d.y.w.9.9.6.6.6.r.6.9.",
"%.+.` ` +.) +.%.%.%._ / _ _ _ ` ` ! | | o.o.o.o.o.X.+.%.%.o.o.+.+.O.#.o.o.+.X.X.O.#.+.+.+.$.$.$.$.%.+.$.$.8.8.+.+.@.8.e.=.$.$.@.&.@.$.8.*.$.%.*.$.=.*.$.*.=.$.*.$.=.$.9.8.8.*.*.*.=.$.8.y.s.*.=.$.$.$.=.*.$.@.&.8.8.=.*.=.$.*.=.$.$.$.$.=.*.*.*.*.*.>.<.2.<.,.*.<.<.<.<.>.<.,.,.<.,.*.*.*.*.*.*.*.*.=.$.8.9.$.=.=.=.*.*.*.*.$.@.@. .A s a < - - - - - - - - - - - - - - - - - - - - - - - - - - - - - - - - - - - < f ;.,.,.-.,.=.%.%.%.-.-.-.-.-.#.-...-.A f < ; > * * - ; # # < < - - - - - < < , a a s s x B B B x x x s s a a 1 1 < < - - - - - - - - - < - - - - - - - - - - - - - - - - - - - < < - < 1 < < - - - - - - - - - - - - - - - - - - - - - - - - - - - < < - - - - - - - - - - > ; ; ; - - - - - ; - ; ; = > > = ; - ; ; - - > > = : - : : : - : : : 3 3 3 3 3 3 3 3 4 4 3 3 4 3 3 3 3 3 3 3 3 3 3 3 5 = 5 = 4 9 q yXfXxXvXvXxXdXaXaXzXdXaXt r t yXsXdXdXaXyXy q q q q q w 9 4 3 3 5 = = = = = = = = = = = > > : > - ; ; > > - : : : ; ; > : : > = = = > > > > - > > > = = = = > ; > > = - - - - - - - - - - - < < 1 f < - < f < < 1 < 1 < - - : : - : : - - - < < 1 f g h h h h j h h h g h h h h h h h h g h h h h h h h h L L K h L L L I I K I D H H j h j j H j h H H j H D G G G G G G D D D G G G G tXG D G G G G G G G G G G G G G G D H j j h h j g h g h L L Z.3.*.i.t.t.t.t.F.t.t.t.t.u.t.t.u.t.t.t.t.t.t.t.t.y.F.F.y.s.s.s.s.s.s.s.s.s.s.I.s.s.s.s.s.y.u.t.t.t.t.t.t.t.u.u.t.t.t.y.y.a.s.s.s.s.d.d.s.i.s.s.s.s.s.y.y.t.t.t.t.y.y.y.t.t.t.y.y.t.t.t.t.y.I.a.s.s.s.s.y.F.t.d.s.s.d.a.a.s.s.s.s.s.s.s.s.s.s.s.s.J.i.a.a.s.K.J.K.L.b.v.v.b.v.J.J.s.s.s.a.d.a.s.s.d.d.e.w.w.t.t.w.t.t.t.d.s.a.s.s.s.s.s.s.s.s.d.y.t.w.9.u.w.q.q.6.6.9.",
"` +.%.%.) ) ` ` ` ' _ o.o._ _ ' '  .o.X./ ! _ +.+./ X.+.+.o.+.+.+.+.X./ ! X.X.O.O.+.%.+.+.$.@.$.@.5.$.$.$.$.$.@.+.+.8.$.$.$.$.$.@.@.$.e.*.=.$.$.$.$.$.@.=.$.$.*.=.e.e.e.9.w.e.$.$.$.9.8.9.e.=.@.e.e.8.e.@.&.@.&.e.*.*.*.=.$.*.=.@.&.@.&.@.*.*.*.<.f.>.>.>.<.<.<.1.1.<.>.>.<.*.,.<.i.i.e.*.*.*.*.*.*.*.,.$.5.=.$.=.=.=.=.=.=.$.@.#. .A a < - - - - - - - - - - - - - - - - - - - - - - - - - - - - - - - - - - - - 1 Z ..$.%.-.%.=.=.=.=.-.-.%.%.-.-.-.-...x a < ; > * > ; * * ; - 1 < - - - - - < , d B A ..;..... . . .A s 1 , f g h g h h 1 - - - : - - - - - - - - - - - ; - - - - - - - - - - - < , , 1 f 1 f 1 1 < 1 < - < < < < - - - - - - - - - - - - - - - - - < - ; - - - - - - - - - ; ; - < - - - - ; ; - ; - ; - > = > ; - - - ; : - : - - : : : - : : : 3 3 3 3 3 3 3 3 4 4 4 3 4 3 3 3 3 : 5 3 4 6 w q t fXdXpXUXpXpXyXyXsXvXbXbXbXHXHXkXyXt r q r y sXdXaXr r q q q q q q r q w w 4 5 = = 5 5 = = = = = = = > > ; > > = ; - ; - - ; : - ; = > ; > > > = > > ; - - ; > > = > ; > > ; ; > > - - - - - - - - - - - < 1 f 1 1 < 1 1 1 1 1 f f 1 1 1 7 2 1 1 < < 1 1 f f g g h h j j H D H H h j j h h h h j h j H j h h h h h h L K L K K L L I G G I I G G G D H D S D D D D D Z H D D S S D D D D H G G tXtXtXG G G G G G G G G G G /.tXtX/./.I G G D D j H D D D D H J J H <.e.y.y.t.t.t.y.t.u.t.y.t.t.t.u.t.t.t.y.t.t.t.t.y.y.F.y.a.s.s.s.s.s.s.s.s.s.s.s.s.s.a.y.t.t.t.t.t.t.t.t.t.u.u.t.t.t.y.d.a.s.s.s.s.y.y.d.s.s.s.s.s.s.d.y.t.t.y.t.y.s.y.t.t.t.y.y.y.t.y.t.y.a.a.a.a.s.s.d.y.y.d.s.s.d.a.a.d.a.s.s.s.s.s.s.s.s.s.i.L.p.p.s.i.J.J.J.p.p.b.v.b.p.s.s.s.s.s.s.s.d.a.s.e.d.s.w.w.t.t.t.t.t.w.y.e.y.w.y.s.s.s.s.s.e.y.w.t.w.u.u.9.6.w.w.w.9.",
"' ` ` ` ` ` ` ` ' ~ ` o.o.' ` ` ' ..%.` / ! _ ) ) / / ( #.o.+.O.O.+.O.X./ X.+.+.+.+.%.$.$.$.$.$.+.4.$.$.$.$.$.@.$.$.$.$.$.$.%.$.$.$.$.$.#.#.@.&.@.@.@.&.=.$.*.*.=.*.*.$.e.e.8.=.*.$.8.9.8.$.&.&.8.9.9.8.&.@.=.=.=.*.*.*.$.$.*.*.&.&.&.=.*.*.*.=.<.>.>.>.>.>.1.1.>.>.1.>.2.>.>.,.*.*.i.i.<.<.*.*.*.*.=.,.%.#.=.=.*.$.&.@.$.$.$.$.%.A x a < - - - - - - - - - - - - - - - - ; - ; ; - - ; - - - - - - - - - - - - < f { %.$.$.$.$.$.$.$.=.=.-.%.$.%.-.-.-.A a < - ; # * = * * > * - 1 < - - - - < , d B ...... .| o.#.|  .J f 1 g h h h h h h 0 7 : - - - - - - - - - - - - - * ; - - - - < 1 < < < < a a a a f f f f f 1 f 1 < 1 1 1 < - - - - - < < - < - - - - - - - - - - - - - - - - - - - - - ; ; ; - ; > - ; ; - - - - ; ; ; ; - - - - ; - - - < - > - - < - - : : : 5 : 3 3 3 3 4 3 3 3 4 4 4 6 w pXV.q r aXzXzXcXvXxXyXq q q t aXdXcXvXbXHXPXKXxXt r r y dXsXuXr q q t t r q r r r q q q q w 3 5 5 = = = = = = = > > > > > > = = > ; - - - - - - > = ; > > ; > > = = > > - - ; ; > ; - - > > - - - - - - - - - - - - - - < < 1 f f f 1 1 f f f f f g f f g h g f 1 1 g h g h h h h h j j H D D D H D H h h h H H h H F D D H j j j j K K K K L L H G G G G G D G G G D D D D D D D D D D H D D S D G G G G tXG G G tXG G G G G G tXtXtXtXtXtXtXG C.tXG G D D D D D D D D D D S -.<.*.t.y.F.y.t.t.t.y.t.t.y.y.t.t.t.t.t.t.t.t.t.t.t.t.t.t.y.a.s.s.s.s.s.s.s.a.a.s.a.s.s.P.y.t.t.t.t.t.t.t.t.t.t.t.t.t.y.y.y.s.s.s.s.s.a.y.a.s.s.i.s.s.s.d.y.y.t.y.y.y.s.d.t.t.d.a.y.y.t.t.y.t.t.a.a.a.s.s.s.s.s.s.s.s.s.s.a.y.d.s.s.s.s.s.s.s.s.a.s.b.b.p.i.J.J.J.J.s.J.L.v.b.J.s.s.s.s.s.s.s.a.s.s.a.s.s.e.w.t.t.t.w.w.w.w.w.w.t.t.y.d.s.s.d.w.w.w.w.6.u.9.9.9.9.w.t.w.",
"..' ' ` ` ` ` ` %.' _ _ | o.` ' ' ' ` _ ! ! / X.) O.! _ +.$.+.O.O.O./ / O.+.+.$.$.%.$.$.$.+.+.+.@.@.$.$.$.$.+.$.=.$.+.$.$.$.$.$.$.$.@.@.@.@.@.&.&.@.$.$.$.$.*.=.$.=.=.$.8.e.$.$.=.$.$.=.8.$.&.&.$.$.$.$.&.@.e.=.=.*.*.*.*.*.*.*.@.&.=.e.e.*.*.,.<.<.<.>.<.1.1.2.>.1.1.>.>.>.>.>.=.=.*.<.2.,.*.*.*.=.=.=.=.#.=.=.*.$.@.@.$.$.=.$. .A d a < - - - - - - - - - - - - - - - - - - - ; - - * ; - - - < < - - - - - < a C ;.%.%.$.$.=.$.$.%.%.-.-.-.%.$.%.A s a % ; ; * + + # # * > # # - - - - - < a x B ..$.%.%.$.| o.o.| A J h h h h h h h L h 7 4 : - - - - - - - - - - - # # # # - - - - < 1 f 1 a a a a a a f f s s s s g f 1 f a f f < - 1 1 - 1 1 1 f 1 < - - - - - < < - - - - - - - - - - - - - ; ; - ; = > > ; - - ; > ; - - - - - - - ; - - - - - : - : : : 3 : : : 5 : = 3 3 4 4 4 e 9 w q q t dXvXiXyXy aXxXvXcXaXr t q q r yXdXsXaXzXxXxXcXHXHXcXsXdXxXsXt r r t t y y r t yXy t q q q q q w 4 = = 5 = = = = = = = > > = > > = > ; ; - - - ; > = = > = > ; > = = = > ; ; ; > > > > > - - ; ; ; ; - ; - - - - - - - - - 1 f f f f g 1 1 h h g g h h h h h h h f f g g h g g h h h h h j H D H j j D D D j H D D D D D D D D D D D G G G I I j H D D D G G D D D G G G D D D D D D D D G G G G G G G tXtXtXG G G G G G G G G G G G G G G G G G G G G D D D D D G G D D D F 3.-.G.i.s.y.t.F.y.t.y.t.t.y.F.t.t.t.t.t.t.t.t.t.t.t.t.y.t.t.t.y.s.s.s.s.s.s.s.s.d.d.a.y.y.a.y.t.t.t.t.t.t.t.t.t.t.t.t.t.t.t.y.y.d.a.s.s.a.d.y.a.s.s.s.s.s.d.t.t.t.y.d.t.y.a.y.w.t.d.s.a.a.y.t.F.t.t.a.s.s.s.s.s.s.s.s.s.s.s.s.a.d.d.y.a.d.d.a.s.s.s.s.s.p.i.s.s.s.s.s.s.i.s.b.v.b.p.s.s.s.s.s.s.s.s.s.s.i.s.s.w.w.t.w.w.t.t.w.w.w.w.w.t.w.9.e.y.w.9.w.w.9.6.9.9.9.9.9.w.w.w.",
"....' +.+.+._ _ ` ` ` _ ! ! _ ` ` ` ' / ! ! | | ! / / ( O.) ( O.o.#.X./ O.O.#.+.$.$.o.o.%.+.@.4.@.$.$.$.$.$.+.$.=.#.o.$.$.$.$.$.$.$.$.$.$.$.@.@.$.8.8.$.$.$.$.$.$.=.e.8.$.$.$.@.$.$.*.=.*.*.*.$.$.8.8.$.=.e.e.=.*.*.*.*.*.*.*.$.e.e.e.e.*.*.=.>.>.e.p.1.1.<.<.>.<.1.1.1.1.1.>.>.<.<.=.=.>.>.<.i.*.=.=.*.*.@.=.=.=.$.$.$.$.=.$.#. .J a 1 - - - - - - - - - - - - - - - - - ; - < - ; ; ; - - ; > - < - - - - - < x { ..$.=.=.-.-.-.=.-...-.-.-.-.-.A s , # ; - * * + + @ @ + * - - - 1 - - < , z { ..%.$.%.%.%... .o...-.H h h h h h h h L 7 : : : : : : - - - - - < , < # ; ; # ; * < < < , a a a s s s f f f f f s s s f f f f f f f 1 1 f f 1 f f f f f 1 1 1 1 1 1 1 f 1 - - - - - - - - - - - - - - - - - ; > - - - - ; ; - - - - - - > - < ; - - - : : : 3 3 : 3 4 4 6 9 q lXiXpXV.yXyXyXy yXaXxXzXyXq r y dXxXzXyXt y t q q r yXy y sXzXdXdXzXxXbXPXPXvXsXyXyXy yXyXy t r r r t t r q q q UXt t t q 3 = 5 = = = = = = = = = > : > ; - : - ; ; > = = = > > > > = = > ; - - - - ; - - - - - - - ; - - - - - - - - - - - - - < < 1 g g f f f h h h h h h G H j G H h g f f h g h h h j j H D D D D H h H D D D D D D D D D D D D D D G G F D G D D G D D D G G D D D D D G G D D D D D G G tXG G G G G G G G G D G G G D G G G G D D D D D D D D D D D D D D D D D D D D D S 3.i.i.i.s.a.y.t.y.t.F.F.t.t.y.F.y.y.t.t.t.t.t.t.t.t.t.y.a.a.y.t.y.s.s.s.s.s.s.s.a.d.y.y.t.t.t.t.u.t.t.t.w.t.t.u.w.t.t.t.t.t.t.t.w.t.d.s.s.a.y.t.y.a.a.s.s.s.y.t.t.t.a.d.t.t.y.t.w.t.a.s.s.s.y.t.F.F.y.a.s.s.s.i.i.s.s.s.s.s.s.s.s.s.a.y.y.t.t.d.s.s.s.s.s.s.s.s.s.s.s.s.s.s.s.p.b.v.v.p.s.s.s.s.s.s.p.p.p.p.i.s.9.w.t.w.w.t.t.u.w.w.w.9.9.9.9.9.w.u.u.w.9.w.w.9.9.9.w.w.w.u.w.",
"^ ^ ` %.%.+._ _ ' _ _ / ! ! ` ` ' ' ' ! ! W |  ./ / X.+.+.O.+.#.o.+.#.X.X.X.+.$.$.@.o.o.+.+.o.#.@.$.5.8.8.@.+.$.=.%.o.$.+.$.$.$.$.@.8.8.$.$.$.$.8.9.8.$.$.$.$.$.8.e.$.$.$.$.$.5.@.$.e.*.$.$.$.$.8.w.8.8.e.=.*.*.e.e.*.*.*.*.=.8.q.=.=.e.*.*.<.>.,.=.<.p.<.>.1.1.<.p.1.1.<.<.<.,.<.<.<.*.<.<.>.i.<.*.=.*.=.$.$.$.$.$.5.=.*.$.$.#. .J s 1 - < 1 1 - - - - - - - - - - - ; - - - - ; ; * ; - - < ; ; < - - - - < f C ,.%.#.$.%.-.-.=.-.-.-.-.-.-.-.A s , # - < ; > * + + # # # * # # < < - < , d C ..%.%.%.....%. .%.-...S j h h h h h h h 7 : : : : : : : - - < 1 , a d a a , , , % % , , , a a a s s s s f f f f s f f f a f f s f f f f f g f f f f f f f f f f f f f f f f 1 - < 1 1 1 < - - - - - - ; ; - - ; > - - - < - > - - - - - : : : < ; - - - - - : : : 5 9 w pXkXxXHXKXHXIXkXlXsXsXsXvXvXdXy t r aXdXxXcXaXr t t q q r t uXy aXzXzXdXdXdXvXHXbXkXuXyXyXyXy t t t q r r q q q q q q q r t uXvXHXV.: 4 = = = = = = = = = > ; - - - - < ; > > = = = ; > > > > = * * - ; > > > ; > > ; - - - - - > > - - - - - - - - - - < < < f g g g g h h h h h h H G D G G H j j g g h h h j H G G D D D D D j H D D D D D D D S S D S D D D G D D D D D D D D D D G G D D D D D D G D D D D G G tXG G G G S D D D D D D D G G G D S ;.S D D D D D D D D D D D D D D D D D S S S 3.<.i.s.d.y.y.d.y.y.y.t.y.F.t.y.y.y.F.y.t.t.t.t.t.t.t.t.t.y.s.a.y.t.y.s.s.s.s.s.s.a.e.y.y.F.y.t.t.t.u.t.t.t.t.t.u.u.q.u.t.t.t.t.t.t.t.d.a.s.s.a.y.y.y.a.a.s.s.s.d.y.y.y.d.d.d.y.y.y.t.t.y.d.s.s.y.t.t.y.s.s.s.s.i.J.i.s.J.s.s.s.s.s.s.s.s.a.y.t.y.d.s.s.s.s.s.s.s.s.s.s.s.s.s.s.s.p.p.b.p.i.s.s.s.s.s.s.p.b.b.b.p.a.e.w.t.w.9.9.9.u.w.w.w.w.w.9.9.t.w.w.u.9.9.9.w.9.6.w.w.y.w.9.w.",
"^ ^ ..%.+.` ` ` ' %.%.) / ! X._ ^ ^ ' ` X.| ! ) ) X.o.%.%.O.+.$.$.+.+.o.o.o.` +.#.#.o.+.$.$.$.@.$.+.O.$.$.+.+.$.$.$.$.$.+.$.$.$.$.+.+.$.$.9.8.$.$.$.+.o.$.$.8.$.$.$.$.8.8.$.$.8.$.$.*.=.$.$.$.$.8.8.@.@.$.=.*.*.*.*.*.*.*.*.=.&.&.&.e.e.*.*.*.>.>.>.<.i.>.>.<.>.>.i.>.>.>.<.*.<.<.>.i.i.i.<.>.<.<.*.*.*.=.=.$.$.$.@.&.=.=.$.=. .A s , < - - 1 1 - - - - - - - - - - - - - - - - - - - - - ; ; - # * - - - ; , Z [ ..$.$.$.=.=.-.%.$.$.$.%.=.-.A a # # * - ; ; * * ; # # # * $ + # 1 < < , d B .. .| o.%.......o.#. .A H h h h h L L h 7 5 : : : : - - - < 1 s A S ..A s d a a a a a a a a a f s s s s s s s s s s s s f s a s s s s s s f f f f a f f g f f f f f f f f f f f 1 f f f f < - - - - - - - - - - - - - - - - - - - - - : 5 5 5 : < - - - : - : : : 9 V.yXyXyXuXdXvXbXvXxXlXpXy aXzXdXt r r y aXaXsXdXaXy t t q q q r q r t sXzXzXxXxXcXHXLXbXdXyXy t t r q q q q q q q q q r UXUXy aXdXHXKXKXgX: : = : > > > > = = = = > - - - - - ; > ; > > : ; ; > > ; > > - - ; = = > - - - - - - - - - ; = ; - - - - - - - - - < < 1 f g h h g h h h h h h j D D D D D D G h h j j j D D D D D D D D S S D D D D D D D D S S D D D D D D D D D D S S S D D D D G G D D D D D D D D D D D G G G G G D D D D D D D D S S D D D D D D D D D D D D D D D S D D D D D S A -.<.1.<.i.s.s.a.y.t.y.y.t.t.t.t.t.y.y.y.y.F.t.t.t.t.t.t.t.y.y.y.y.d.y.t.t.y.d.s.s.s.d.y.y.y.d.d.d.y.t.t.t.t.t.t.t.t.u.t.t.u.u.u.t.t.t.t.t.y.d.s.s.s.s.s.s.s.s.s.s.s.s.s.d.y.y.y.d.s.d.y.y.t.t.y.s.s.a.y.t.t.d.s.s.s.s.s.s.s.J.i.s.s.s.s.s.s.s.s.s.a.y.d.s.s.s.s.s.s.s.s.s.s.i.s.s.s.s.i.i.s.s.s.s.s.i.s.s.s.s.s.s.b.b.s.a.e.w.w.w.w.w.9.9.w.w.w.w.w.w.9.9.w.9.6.q.w.9.9.w.w.w.w.d.e.9.9.",
";...^ ^ ^ ' ` ` ^ ..' ' _ ` o._ ' ` ` o.| | ! _ O.| ! _ %.+.+.$.+./ X.X.o.o.+.+.+.+.+.%.+.5.8.$.$.+.+.$.$.+.#.+.$.$.$.$.+.$.$.$.$.+.+.$.$.$.8.$.$.$.$.$.=.*.8.$.$.$.=.9.8.$.$.$.$.$.*.=.=.=.$.e.$.$.$.=.$.*.*.$.*.*.*.*.*.=.=.e.q.q.e.*.*.*.*.=.>.>.>.>.>.>.>.>.<.<.>.>.<.<.<.1.1.>.<.e.s.i.>.<.,.*.*.*.=.=.*.*.$.$.$.$.*.=.=.A J a , - - - - - - - - - - - - - - - - - - - - - < - - ; - - - - - ; - - - % s { ....$.=.$.=.=.%.$.$.$.%.#.-.A d % # ; ; ; * * # # ; # @ # # + # - < < , s A ..%.| | o.%.o.%.%.%. .A H h h L L L h 2 < - : : : 6 7 1 1 f s A  .%.$.%.-. .A s d a a a f a a a a a a s s s s s s s a s s s f s s s s s f f f f f f f g g g g f f f f f g h f f f f h f f f 1 1 1 < < - - - - - - - - - - - - - - - - - : 4 6 4 : - - - - : = 4 w pXiXiXyXyXyXyXyXaXsXdXsXuXt y sXaXr q q t t yXy y t q q r q q q q r r r y aXdXxXvXHXHXHXHXHXvXdXuXr r y t r r q q q r q t y uXfXzXxXHXKXLXMXL - - - - - - - - ; ; > ; ; - - - - - ; > - - - - - - ; > > ; - - ; > > > > - - - - - - - - - - ; ; - - - - - - - - - - - 1 f f h h h g h h h j j h D D D D D D D H H j H j H S H H H S S H S D D D H J J J J H S D D D D D D F D F F F F S S D D D D D G D G G D D D D D D D D D D D D S S A S D D D D D S S S S S S D D D D D D D D D D S S A S S S >.>.-.=.G.i.s.i.s.s.s.a.y.t.t.t.t.t.t.t.t.t.t.y.F.t.t.t.t.t.t.y.a.a.s.s.e.t.t.t.w.d.d.d.y.y.t.t.t.t.t.t.t.t.t.t.t.t.t.t.q.t.t.t.u.u.u.t.t.t.t.t.t.y.d.y.y.s.s.s.s.s.a.a.a.d.d.y.t.t.y.e.y.d.y.t.t.t.y.a.s.a.d.d.y.y.a.s.s.s.s.s.s.i.i.s.s.s.s.s.s.s.s.s.a.a.s.s.s.s.s.s.s.s.s.s.s.i.s.s.s.s.s.s.s.s.s.s.s.s.s.s.s.s.s.s.s.s.s.s.y.9.w.w.w.w.w.t.w.w.w.9.9.9.9.9.w.9.6.9.w.9.w.w.w.w.w.9.9.9.9.",
"' ^ ` ' ^ ' ` ` ......' ` ` +.+./ _ X.| _ o./ / X.| | | | _ o.%.+.o.o.| o.o.o.o.O.( ) $.+.O.#.o.$.$.o.o.$.$.+.+.$.$.$.$.$.$.$.$.$.$.+.$.$.$.8.@.$.*.*.*.=.$.$.8.*.*.$.$.$.$.$.$.*.*.$.$.$.$.8.e.i.*.e.e.*.*.*.=.*.*.$.e.e.*.*.=.8.w.e.*.*.<.,.>.>.2.>.>.>.<.1.<.i.>.>.>.1.1.1.1.1.3.<.*.i.<.2.>.,.*.*.=.$.$.=.$.$.=.#.$.=.$.%.A s a 1 - - - - - - - - - - - - - - - - - - - - - < - - - - - - - < < - - < a B ..%.%.%.$.$.o.#.@.$.=.$.%.@. .s & # * > # # = > # + + + * > * + # - < d x ;.=.$.%.#.@.$.o.| o.o. .A D j L K K K 7 - : - - - 7 0 2 f Z S A ..%.o.| @.@.| | -.A A d d s g f g f a a a a a a a a a a a a a a f s s s s f f f g f f f g g f f f f f f f f g h g f f f g f f f f f g f f 1 1 1 < - - - - - - - - - - - - - - 5 4 6 4 : - - : 3 8 pXkXkXfXuXyXyXyXuXuXyXuXaXaXyXy sXcXzXy uXsXfXfXaXyXy y t q r r r r r uXaXuXy aXcXPXLXKXKXKXLXHXbXHXvXiXyXyXyXyXy t q UXy yXiXfXkXkXfXfXbXGXiX2 < - - < < - 1 1 < - - - - - - - - - - - - - - - ; - - - > = = ; ; ; - - - ; - - - - - - - - - - - - - - - - - - - - - - - 1 f f g g h h j H H D D j H D D D D S D H H J H H J J g J H H H H H D D D H H H H H J s H j j g g j H H H H H H S D F S S S D D D D D D D D D D D D D D D D S A A B S D D D D D D S A B x S S D D D A S S S A A ....-.=.<.i.<.i.i.e.y.y.d.s.d.a.F.y.d.y.t.t.t.t.t.t.t.F.F.y.t.t.t.t.t.t.t.y.s.s.s.a.y.t.y.t.w.t.t.t.t.t.t.t.t.t.t.t.t.t.t.t.t.t.t.t.t.t.u.u.u.u.u.t.t.t.t.t.t.t.t.t.t.d.s.s.s.s.a.a.a.t.t.t.y.d.e.y.t.t.t.t.t.t.t.y.a.s.s.s.a.y.y.s.s.s.s.s.s.s.s.s.s.s.s.s.s.s.s.s.a.d.s.s.s.s.s.s.i.s.s.s.s.s.s.s.s.i.s.s.s.s.s.s.s.s.s.s.a.s.a.s.s.d.d.a.y.9.w.w.w.w.t.u.u.w.e.d.d.d.d.d.w.9.9.9.9.w.w.9.w.w.w.w.w.w.w.",
"+.+.%.o._ ..' ' o. . .' ' o.o.o./ +.$.%. .%.! / O.| | | / ! | o.o.X.X./ | X.o.X.( ) ) +.+.o.O.+.$.@.$.+.+.+.+.+.+.$.$.$.$.$.$.%.$.$.$.8.$.$.+.O.$.=.=.@.$.$.$.8.$.$.$.@.@.$.$.$.$.$.$.$.=.$.$.$.*.e.$.$.$.e.e.*.=.*.e.e.e.*.*.$.$.9.8.i.<.1.<.>.>.>.>.>.>.,.>.>.>.>.>.>.1.1.p.b.k.3.<.=.*.,.>.<.<.*.*.*.*.$.@.$.$.$.#.&.&.$.-.x s , 1 - - - - - - - - - - - - - - - - - - - - - - - - - - - - - < < - - < d ..@.@.%.%.#.$.@.@.&.$.*.$.$.#.A a # ; ; > * * * * # * + * = = * # % < s C ;.o.#.o.%.%.+.o.o.+.X.o.-.G I K K U Z.U L 1 7 : - < < f f x ;... .o.o.%.| #.o.o.o. . ...A A A S j g f a a a a a a a a a a a a a d a s s s s f f f h g f f g f f f f f f f f f g h g f f g g g f g f f g f f f f f f 1 < < < < - - - - - < - < < : 4 6 : : ; - 0 pXiXpXyXyXdXcXdXsXzXxXdXyXq r r q t dXcXxXdXxXxXuXyXt t y yXy yXyXyXyXuXuXuXyXy aXcXPXHXHXHXHXPXHXvXcXxXkXlXiXiXuXuXuXy yXuXlXhXfXiXiXpXw 9 w 6 < 1 1 < < < < < 1 1 1 < - - < < < - - - - - - - - - > - - - ; > > - - - - - ; ; ; - - - - - - - - - - - - - - - - - - - < - < f f g h h g j j H D D D D D D D D S S D S H J H D G G H D G G G G G G G G G G G G G G G G G H j j j h h h h h j H H H H S S D H D D D D D D D D D D D D D D x x A A S S C S S A A x x x A A A S S S S ..-.-.-.=.=.*.e.e.y.a.y.y.t.t.t.t.t.e.t.t.F.F.y.y.t.y.y.y.y.t.t.y.y.y.t.t.t.t.t.t.t.t.y.d.a.d.t.t.t.t.y.w.w.t.t.t.t.t.t.t.t.t.t.t.t.t.t.t.t.t.t.t.q.u.u.u.u.t.t.t.u.w.w.t.t.y.y.d.a.a.s.s.s.s.d.t.t.y.y.d.a.a.y.t.t.t.t.t.t.y.a.s.s.s.s.y.y.d.a.s.s.s.s.s.s.s.s.s.s.s.s.s.s.s.s.s.s.s.s.s.s.s.s.i.s.s.s.s.s.s.s.s.s.s.s.a.s.a.s.a.d.a.e.w.w.d.d.s.d.d.y.w.w.t.w.w.t.t.t.e.s.s.s.a.s.s.w.9.6.9.9.w.w.9.w.w.w.q.6.w.w.",
"( ) ` ` ' ' ^ ^ ' ' ' o.o.o.| | o.` +.%. ...! / ) X.X.| o.| | ! / O.O.O.O.+.o.` ` +.+.+.$.$.$.%.$.+.$.$.+.X.+.#.+.+.+.%.$.$.%.%.+.+.8.$.$.$.$.8.$.@.&.&.&.$.$.$.$.$.@.@.$.$.$.$.@.$.$.<.<.=.$.$.8.e.$.8.8.e.i.e.*.*.*.=.$.*.=.$.@.8.8.e.e.*.*.,.>.,.,.<.,.i.i.2.1.1.1.1.1.1.1.1.1.<.*.*.*.*.*.*.*.=.=.=.*.=.@.$.$.$.&.&.$.$...J a < f < - - - - - < < - - - - - - - - - - - - - - - - - - - - - - - - < f C ..o.$.$.$.#.$.$.$.$.=.$.*.$.o.A a + ; - - > > * # * * # # # * ; , d s A ....%.#.%.....o.o.#.o.|  .G tXI U U K K L 0 2 1 < - < 1 s B ..o.+.$.o.| o.$.$.$.#.|  .....-.-...S g f a a a a a a a a a a a a a a a a f f a f f f f g f f f g f f f f f s s s f f f g s f g h h g h g f f f f f f f f g f f f 1 1 1 < - < - - < 1 < 7 : ; : 0 V.iXyXpXUXt uXzXxXaXaXaXyXyXaXaXaXyXy sXxXzXdXdXdXaXr q r r r r r t y t t y y yXsXzXvXHXLXbXvXcXcXvXbXvXlXuXyXyXaXsXaXaXdXcXvXvXkXlXpXw 8 4 1 < f f f f < < 1 1 1 1 < < < - < < 1 f 1 < - - - - - - - - ; - - ; = > > - - - - - - ; # - - - - - - - - - - - - - - - - - - - 1 1 1 f g h h g H D S D D D D D D D D D D D D D D D G G G G G D D D G G D D G tXG G G G G G G G tXG G G G G j h j j h g h h h j j j h j H H H D D D D C S D Z S S x x A A x x A x x B A A ......-.-.-.=.<.<.<.i.*.*.w.w.t.t.t.y.a.t.t.t.t.t.t.y.d.y.t.t.t.y.y.t.t.y.s.a.y.y.a.y.t.t.t.t.t.t.y.t.t.t.t.y.y.t.t.t.t.t.t.t.t.t.t.t.t.t.t.t.t.t.t.t.t.t.t.t.t.t.t.t.t.u.u.t.t.t.t.t.t.t.t.y.a.s.a.y.y.a.a.s.s.y.t.d.s.a.y.t.y.t.t.t.t.t.t.t.y.y.a.s.a.y.y.t.y.a.s.s.s.s.s.s.s.s.s.s.s.s.s.s.s.s.s.s.s.s.s.s.s.s.p.p.s.s.s.s.s.s.s.s.s.d.y.a.d.y.d.t.y.d.w.w.w.e.s.e.w.w.w.9.w.w.t.t.t.y.s.s.s.s.s.s.s.9.9.6.9.9.9.w.w.w.w.6.r.r.r.6.",
"( ) ` ` ` ` ' ' ' ' +.` ` _ | _ ` ` +.$.o._ | X.) +.O.| | | | | ( O.O.O.#.+.+.+.+.%.$.$.$.$.8.$.$.+.+.$.O.o.O.#.%.+.+.%.$.%.+.%.+.+.$.$.$.$.$.$.$.+.+.+.+.$.8.$.$.$.@.@.8.9.8.$.$.$.$.i.<.=.=.8.9.9.$.$.e.=.*.*.=.=.*.*.*.=.$.@.$.e.i.e.i.=.*.*.,.=.,.<.>.i.i.1.1.2.1.1.2.1.1.1.>.f.i.<.=.*.*.*.=.=.<.$.$.=.$.$.$.$.&.&.$.$...s , < 1 < - - - - - < < - - - - - - - - - - - - - - - - - - - - - - - < 1 Z >...$.$.$.$.%.$.$.*.*.$.$.=.=.$.A d # # # # # * * + + + + @ # < < f C ..........%.-.-...o.o.o.| ..-.G C.C.Z.Z.K L w 6 < 1 < , s A  . . .| o.$.$.o.o.$.$.$.#. . .#.#.$.%...A j f , a a a a a a a a a f f a a a f f a a f f f s s f f f f f f f f f f f f s s f f s s f g g g h g f g h f f f f f f f f f f g g 1 1 - - < 1 1 1 - 1 0 V.lXiXyXt uXdXxXxXdXy q q q q r r t aXxXxXcXvXxXvXcXdXuXyXaXaXyXuXaXaXuXyXuXyXuXaXsXxXbXbXcXbXPXbXvXcXkXxXkXpXyXyXy yXsXxXbXvXHXGXfXV.w 7 1 1 1 f f f f f f 1 f f f g g 1 1 < 1 1 f 1 a f 1 1 < - - - - - - - - - - ; > ; - ; - - - - - - - - - < ; - - - - - - - - - - - - - - < f f f g h f j D D D D D D S S S S D D D D S D D D G G D D D D D D D D D D G G G G G G G G G G G G G tXtXtXG H G G D H L L L L h h h h h h g g j H Z S D S { C C x A A A A A ..-.-...=.=.=.=.=.e.*.e.i.e.d.e.d.y.w.w.t.y.d.d.a.a.y.t.t.t.t.t.t.t.t.t.t.t.t.y.y.t.y.d.y.t.y.s.a.t.t.t.t.t.t.t.t.t.t.t.t.t.t.t.t.t.t.t.t.t.t.t.t.t.t.t.t.t.t.u.t.u.u.t.t.t.t.t.t.t.q.u.u.w.t.t.t.t.y.F.y.a.s.d.t.t.t.y.y.d.y.y.d.a.s.a.y.y.t.t.t.t.t.t.t.t.t.y.a.a.t.t.y.a.a.a.s.s.s.s.i.s.i.s.s.s.s.s.s.s.s.s.s.s.s.s.s.s.s.p.i.s.s.s.s.s.s.s.s.s.y.w.y.w.w.y.w.w.w.w.w.w.w.w.e.y.t.t.w.w.w.w.u.u.t.e.s.s.s.a.s.s.9.9.9.9.9.w.w.w.w.9.q.u.6.r.6.",
"O.) ` ` ' ' ` ` _ _ o./ _ _ _ ` %.` _ o.` ! | | _ / O.| | | | o.( O.O.+.%.+.+.o.+.+.$.$.$.$.%.+.+.+.#.+.#.+.+.+.+.+.#.$.$.$.+.#.$.$.o.@.+.$.$.$.$.$.$.$.$.$.$.$.$.$.@.@.$.$.8.$.$.$.=.*.$.$.e.w.e.$.=.e.*.*.*.*.*.*.*.*.*.=.@.&.&.e.e.*.*.*.*.*.*.e.i.<.>.i.i.1.1.1.1.2.<.2.1.1.1.f.i.1.>.,.*.*.*.i.H.=.$.*.$.$.$.$.&.&.#.#.A s < - - - - - - - - < < - - - - - - - - - - - - - - - - < < - - - < < < s ;.,.%.$.$.$.$.@.@.$.$.$.$.$.$.=.#. .J , + @ @ # + + + # + + % & a x { ..$.$.$.....;.S ;.-.| o.%.-.3.tXC.S._.S.L h L L h f f s B ..%. . .| o.o.$.$.$.o.o.$.$.$.#.#.#. .#.%. .A A g f a a a a a a a a a a f f f a f a a a f f a x B x J g f s s s f f f f f s s s s s f f f f f g g f g h g g g f f f f f f f f f f f 1 1 1 1 1 7 V.jXjXlXyXy uXdXzXdXaXt r r q r r yXyXt t uXdXcXcXcXxXxXzXdXfXkXdXaXyXy y r r r y aXdXxXvXbXHXbXvXHXKXLXvXkXfXfXiXyXuXiXfXfXhXkXxXiXV.q 9 : 1 f f f f f f f f f f f f f f g h f f f f f f f f f f , , < - - - - - - - - - - - - - - - - - - - - - - - < - - - - - - - < - - - - - - - < 1 f f f g g H D D D J J D S A A S D D D S A S D D D D D D D D D D D D D D D D D D D G G G G G G G tXtXtXtXG tXG G G G G I I I K I H j h h g g g f H D 3.<.,.-...-.-.%.%.%.=.=.=.=.e.w.w.w.e.e.e.e.d.y.t.t.t.y.t.t.t.t.y.a.s.s.s.a.y.t.t.t.t.t.t.t.t.t.t.t.t.t.t.t.t.t.t.t.y.y.t.t.t.t.t.t.t.t.t.t.t.t.t.t.t.t.t.t.t.t.t.t.t.t.t.t.t.t.u.u.u.u.q.u.u.t.t.t.t.t.t.t.t.t.t.t.t.t.t.t.t.y.a.d.t.t.t.t.t.t.y.y.d.y.d.s.s.s.d.t.t.t.t.t.t.t.t.t.y.a.a.t.t.y.s.y.d.s.s.i.J.J.U.U.s.s.s.s.s.s.a.d.s.s.s.s.s.s.s.s.s.s.s.s.s.s.s.s.a.e.w.w.t.t.w.t.w.w.w.9.w.9.9.9.w.w.w.w.6.9.w.w.q.q.w.w.w.w.w.9.e.s.s.9.9.w.9.9.w.w.w.9.9.w.w.9.9.9.",
") ) ` ` ^ ^ ' ' _ / ! / ' ' _ ` %.%._ ! _ ! | | _ O.O.| | | | X.) O.O.+.` ) o.o.#.#.+.@.+.+.%.+.+.@.$.+.#.+.8.+.#.#.O.+.@.@.#.&.&.$.+.4.@.8.$.$.$.$.$.$.$.$.$.$.@.@.@.@.$.@.$.$.$.*.*.$.$.9.w.8.$.*.*.$.$.=.*.$.*.*.*.*.=.8.&.&.5.@.8.e.@.*.*.*.*.*.*.>.>.<.i.<.<.<.<.>.<.1.1.i.i.<.f.1.>.<.*.*.=.=.<.-.$.$.$.$.$.@.&.&. .A x a - - - - - - - - - - - - - - - - - - - - - - - - - - - < - - - - 1 f f Z ....%.$.$.$.$.$.&.$.$.$.@.$.$.$.#.=.-.J , % + + + + + % < , a x A ..%.%.#.$.$.%.-.S D S ..o.%...<./.(._._.Z.K h h L j j s x A  .o.o.| o.+.+.+.$.$.$.+.$.$.$.$.$.#.#.#. .#.o. . .S j f f f f a a a a a a a f f f f a a a f f s S ....:.S D C x J s f a s s s f f f f f f f f f g h g g h f g f f f f f g g g g f g f g 1 1 L K gXGXvXcXdXdXdXzXdXaXt t t yXyXuXaXfXfXyXpXt t aXxXcXvXxXfXaXaXuXiXaXuXuXaXaXyXyXyXt yXuXaXdXcXHXHXbXHXHXPXHXvXvXkXiXfXkXkXkXiXV.q w 9 7 1 f f g h g f f f f f f f f g f f f f g f g g f f f f f s a a a 1 1 < - - - - - - - - - - - - - - - - - - - - < < < < < 1 1 1 1 1 < < < - - - < < < 1 f f g j H H D D D S S D S S J S D D S A S D D D D D S S D S S S D D D D D D D D G D G G G tXG G G G G G G G G G G tXtXtXG G G G G H D D j h g j H 3.i.e.*.e.e.e.w.q.w.w.e.w.w.w.w.w.w.e.*.d.d.a.s.e.t.y.a.d.t.y.y.t.t.y.a.a.a.a.y.y.t.t.t.t.y.t.t.t.t.t.t.t.t.t.t.t.t.F.t.t.t.t.t.t.t.t.t.t.t.y.y.y.t.t.t.t.t.t.t.t.t.t.t.t.t.t.u.q.q.u.q.u.u.u.u.u.t.t.t.t.t.t.t.t.t.t.t.t.t.w.w.t.t.t.t.y.y.t.t.t.t.y.t.d.s.s.s.a.y.t.t.y.t.t.t.t.t.a.s.a.y.t.a.a.d.a.s.s.i.i.s.i.i.s.s.s.s.s.s.d.y.d.s.a.s.s.s.s.s.d.a.s.s.s.s.d.a.y.t.t.t.t.t.t.t.w.t.w.w.w.9.9.9.9.9.t.w.6.9.9.w.q.q.w.w.9.9.9.9.9.d.d.9.9.w.9.9.9.9.9.9.9.w.w.9.9.9.",
"` ` ' ~ ^ ^ ' ' _ _ ` ' ~ ' ) ) +.,..... ./ ! _ _ o.| o.o.o.) ) ( O.O.O.O.X.X.+.+.X.o.O.O.O.+.+.8.+.$.o.o.+.$.+.O.4.4.4.+.%.@.@.$.o.o.o.@.$.8.4.4.5.@.$.$.$.o.$.$.$.$.$.$.$.$.$.8.8.$.9.$.8.$.@.=.$.=.=.8.8.e.=.*.*.e.8.&.@.$.&.&.&.w.w.e.e.d.*.e.*.<.<.>.<.i.<.>.>.>.<.<.1.1.1.1.i.s.<.*.i.*.*.*.=.=.$.$.=.=.$.+.@.&.&.#.A s , - - - - - ; - - - - - - < < < - - - - - - - - - - - - - - - - - 1 f Z ;.-.%.%.$.$.$.$.$.@.=.$.$.$.$.$.*.$.$.%...A x s a a a d s x ........%.%.$.%.$.$.%.%.........%.%.-.^.rXrXrXK 0 L I H s A A ..%.o.| | o.o.| X.o.$.o.o.$.o.%.$.$.%.#. . .#. . . . .#.-.A A s a f a a a a a a a a f f f f a a f f g S -...,.;.-.-.-.A A A A J s s s f f f f f f f f f f g g g f f f f f f f f f g h h g 1 h P lXkXkXkXxXcXcXvXvXdXyXyXyXyXuXaXiXuXyXt r t t yXaXaXdXzXzXaXt r t y pXyXyXaXdXdXvXvXsXaXuXuXyXyXuXdXbXPXKXKXKXKXKXKXPXHXIXiXpXw 9 0 7 h h f f f f f f f g f g g f f f f f g g f s f f g g f f g s s f f f f f f f a < - - - - - - - - - - - - - - - - - - - - - < f f f f f f f f f 1 < < < 1 f < f f f f s J s H D S J A S D D D H S S S A S D D D D D S S D S S D D D D D D D D D D D D D G G D G tXG D D G tXG G G G G G G G tXG G G G F D D D D D 3.e.e.e.w.w.w.w.w.t.w.w.t.e.w.w.d.e.w.w.d.e.s.a.s.a.a.s.s.a.y.y.t.t.y.t.y.d.a.P.P.y.t.t.t.y.t.t.t.w.w.t.t.t.t.t.t.y.a.t.t.F.t.t.t.t.t.t.t.t.t.t.t.t.t.t.t.t.t.t.t.t.w.w.w.t.t.u.u.q.q.w.w.w.w.w.w.t.t.t.t.t.t.w.w.t.t.t.t.t.t.t.t.t.y.a.y.y.d.d.t.t.t.y.a.a.a.a.a.a.d.a.d.t.t.t.t.t.t.a.a.a.a.a.y.d.s.s.a.s.s.s.s.s.s.a.a.s.s.a.y.y.d.s.e.a.s.s.s.s.d.s.s.s.s.d.s.d.w.w.w.t.t.w.9.w.w.t.9.w.w.6.w.w.w.9.u.w.q.w.w.w.q.q.w.w.6.6.q.6.r.6.w.w.w.w.9.9.9.w.w.9.9.q.w.9.9.6.",
"` ` ` ' ~ ' ' ` ' ' ' _ _ ` ` ) _ ^ ...._ / +.+.` | ! o.o.` ) ( O.O.O.O.O.O.O.+.+.X.| X.O.#.+.+.$.$.$.$.$.+.$.$.#.O.O.O.+.$.+.+.+.o.o.@.$.$.8.4.O.@.8.8.$.$.$.$.$.$.$.$.$.$.$.@.8.8.$.$.$.8.$.e.*.$.$.8.9.9.8.=.=.$.$.$.@.e.=.$.=.&.8.e.8.e.*.*.*.*.p.f.f.<.i.,.>.>.<.<.>.>.>.1.1.i.s.*.*.*.*.e.i.i.*.$.$.$.$.$.$.8.&.&.#.A s , < < - - - - - - - - - - < - < < - - - - - - - - - - - - - - - < 1 f C ..%.%.%.$.$.$.$.$.@.@.$.$.$.$.$.$.$.$.$.-.-.-.-.-.......%.-.............%.$.$.$.$.$.%.%.%.%.%...D._.rXrXS.I h f x A A  . . .| #.#.o.o.o.| | | o.o.o.$.$.$.$.$.#. .#.#.#.#.#.#. .#.$.....A s a a a a a f f f a a f f f f f f g D -.-...-.-.-.-.-.-.-.-.-.-.-.A A A J J s f f f f f f f f f f f f f f f g g g g f L V.gXjXkXvXvXcXxXdXdXsXdXdXlXsXfXaXaXdXaXyXt t yXyXuXyXy y sXHXvXaXt t t y t r r uXdXsXdXxXdXyXiXaXaXyXyXdXbXLXKXKXKXKXKXKXKXKXGXpX9 7 1 1 f f g g f f f f f f f f f f f f f f f f f f f f f f f f f f s s s s f f f f f f a a , , < < - - - - - < < - - - - - - - - - - < f f f f f f f f f f 1 1 < < f 1 f f f f s s s J D A J S S S S D D A A A S D D D D D D D D D D D D D D D S S S S S D D D D D D D D G D D D G G G G G G tXG G G G G D G G D D D D D S =.*.e.e.w.w.w.w.w.t.w.w.w.w.w.w.w.w.w.t.d.a.s.s.s.s.s.s.s.s.y.t.t.t.t.t.t.d.a.I.P.t.y.y.y.t.t.t.t.t.t.t.t.t.t.t.t.y.y.t.t.t.t.t.t.t.y.t.t.t.t.t.t.t.t.t.t.t.t.u.t.t.t.w.t.t.t.w.w.q.q.t.u.q.q.t.t.q.q.q.t.t.t.q.t.t.t.t.t.t.t.t.t.t.t.y.y.t.t.y.t.t.t.y.d.y.t.y.y.y.y.y.t.t.t.t.t.t.t.t.y.a.d.y.t.t.y.y.y.d.s.s.s.s.s.d.y.a.s.y.t.y.d.s.s.s.s.s.s.s.s.s.s.s.s.d.d.d.w.w.9.9.9.t.w.w.6.q.6.6.w.r.6.w.w.9.9.w.w.q.q.r.6.q.q.q.q.q.r.r.r.6.w.w.w.w.9.9.9.w.w.w.w.6.6.9.9.6.",
"` ` ` ` ' ~ ' ` ' ~ ! ! _ ) ` +.%.....' _ ' ` +.o.! ! | o.) ( O.O.O./ / #.+.X.+.+.+.+.O.O.#.+.+.$.$.o.o.+.o.+.$.#.O.+.X.+.+.#.+.+.+.+.#.$.+.#.O.O.@.$.5.+.$.$.$.$.$.$.$.$.$.$.$.$.$.$.=.$.$.$.$.$.$.8.@.8.8.8.$.&.@.$.8.8.e.$.$.=.$.$.e.8.8.*.*.*.=.*.e.*.*.*.*.<.>.<.<.>.>.>.>.<.<.i.i.*.*.*.*.i.=.*.$.$.$.$.$.$.@.&.&. .J a < - < - - - - - - - - - ; - - - - - - - - - - - - - - - - - - - 1 g C %.%.%.o.%.$.$.$.$.$.&.@.$.$.$.$.$.$.$.$.=.=.#.#.%.%.%.....$.%.%.%.........%.$.%.$.$.$.$.$.$.$.o.=.].1X^./.D S S A ..%.$.#.#.o.o.| $.$.$.%.o.o.o.o.| #.@.#.o.$.$.o.#.@.&.$.$.$.@.%.%.#.$.%...A s a a a a a f f f f f f f a a f S ;.-.-.-.-.-.-.-.-.=.-.-.-.-.-.-.-.-.-.-.;.S Z j g g f f f f f f f f f f f 1 1 2 P MXPXLXHXvXxXsXaXaXaXsXsXdXfXfXfXsXaXaXaXyXy t t t r r t aXsXzXfXuXy t yXyXr r uXaXdXcXxXxXaXt y aXdXsXsXxXbXLXKXKXKXKXKXLXGXGXkXw 7 2 f g g f f f f f f f f f f f f g f f f f f f f f f f f s s s s s f f s s s s s s s f f f f a a a < < 1 < - < f 1 < - - - - - - - - - < f f f f f f f f f f f a f f 1 f f f f f s s s s D S A D A A A S S A A A S D D D S S S S D S S S A S D S A A A A S D D D D D D D D D D D D D D G G D D G D D D D D D D D D D D S S -.=.*.w.w.w.w.t.t.w.w.w.w.w.w.w.w.y.w.t.t.y.s.d.y.y.a.s.s.s.s.a.y.t.y.t.t.t.t.a.s.a.y.y.y.t.u.u.t.t.t.t.t.t.t.t.t.t.t.t.t.t.t.t.t.t.t.t.t.t.t.t.t.t.t.t.t.u.u.u.t.t.t.t.t.t.t.t.u.u.u.w.u.u.q.q.u.u.q.q.q.u.t.u.u.t.t.t.t.t.t.t.t.t.t.t.t.t.t.t.t.t.t.t.t.t.t.t.t.t.t.t.t.t.t.t.t.t.t.t.t.t.t.w.t.t.t.t.t.t.d.a.s.s.s.s.s.s.a.d.d.t.w.y.y.s.s.s.s.s.s.s.s.s.s.y.w.w.t.t.w.9.9.9.t.t.t.r.q.t.t.q.6.6.6.w.9.9.w.w.r.r.r.6.6.q.w.q.r.6.6.6.6.w.w.w.w.w.9.9.q.9.w.w.9.9.9.9.9.",
"` _ ' ` ` _ _ ` _ _ / ! / ) _ %.%...' ' ` ` ` +.o.| ! | | ( ( O.X.X.! / +.$.+.O.+.+.%.+.+.#.( O.$.$.o.o.O.O.#.+.+.8.$.+.+.+.+.+.$.+.#.O.+.+.+.O.+.@.#.+.+.=.=.$.$.$.$.$.$.$.*.*.*.=.$.&.@.$.$.=.$.$.&.q.8.$.w.@.&.&.8.9.8.8.$.@.@.$.$.e.e.$.=.*.*.-.=.*.*.*.=.*.*.>.,.>.<.<.>.>.>.,.i.i.*.*.*.=.i.<.=.$.$.$.$.$.$.#.#.|  .J a 1 - - - - - - - - - - - - - - - - - - - - - - - - - - - - - - - 1 Z ..%.$.$.$.$.$.$.$.$.#.@.$.$.$.$.$.$.$.$.*.=.#.#.=.$.%.%. .#.%.$.$.$.%.-...%.$.#...%.$.$.$.$.%...%.%.>.<.-.A A  .-.%.$.$.o.@.@.$.$.o.@.$.#.$.$.$.$.$.X.#.@.o.o.$.$.#.$.$.$.%.$.$.$.=.$.$.#.#.-...A s a a a a a a a a a a s s s C ;.,.-.-.-.-.-.-.-.-.-.-.-.-.-.-.-.-.-.-.-.-.-.,.-.S S S H H J g g g f f 1 2 L gXkXHXHXHXvXdXsXdXsXdXxXcXxXkXkXkXfXsXdXsXaXuXy y y y yXy y sXaXyXt r t t r t r r yXsXdXdXzXxXdXuXdXvXdXaXdXHXLXKXKXKXPXGXGXkXiX0 0 2 1 g g g g f f f f f f f f f f f f f h f f f f f f f f f f f s s s s s f f f s s s s s s s s s s s f f f f f 1 1 f f 1 1 - - - - - - < 1 < 1 f f f f f f f f f f f f f f 1 f f f f s s s s A A A A J A A A x A A A A A A H S A A A A S S A A A A A S A A S S A S S S A H D D D D D D D D D D D D D D D D D D D D D D D D S -.-.=.e.*.e.w.w.w.t.t.w.w.w.w.t.t.w.w.d.y.t.t.d.s.e.t.t.y.a.s.d.s.y.y.t.t.y.y.t.t.a.s.s.y.t.t.t.u.u.t.t.t.t.t.u.u.t.t.t.t.t.t.t.y.t.y.a.y.y.t.t.t.t.t.t.t.t.t.u.u.u.u.t.w.t.t.t.t.t.u.u.u.u.u.u.u.u.u.u.q.u.u.r.q.q.u.t.t.t.t.u.t.t.t.t.t.t.t.t.u.t.t.t.t.t.t.y.y.y.t.t.t.t.t.y.a.y.y.t.t.t.t.t.y.t.t.t.t.t.y.y.d.a.s.a.s.s.s.s.a.d.y.t.t.t.w.e.s.s.s.s.s.s.s.s.s.y.t.w.w.t.t.w.w.9.t.t.u.t.r.t.w.w.w.9.6.w.w.w.w.r.u.r.w.q.6.9.9.9.6.6.r.t.t.w.w.w.w.e.e.w.q.w.9.9.9.w.9.9.9.",
"_ _ _ / _ _ ' ` ' ' ' _ _ / o.$.%.^ _ o.%.%.%.%.' | | | o.( ( O.o.o.| | #.#.#.O.O.#.+.+.o.o.o.O.+.+.o.#.+.5.+.+.$.8.$.$.+.X.| o.$.o.o.$.+.4.O.+.$.@.#.4.O.+.@.$.$.$.$.8.$.$.$.$.$.$.$.@.$.$.$.$.$.$.@.8.@.@.e.e.$.$.=.e.=.=.$.@.&.&.&.5.@.&.e.*.*.=.*.*.*.*.*.*.i.i.i.,.<.i.i.i.>.,.*.*.*.i.e.*.e.e.=.=.$.$.@.@.#.#.#.| A s a f - - - - - - - - - - - - - - ; ; - - - - - - - - - - - - - < , d C ..$.$.#.$.$.$.@.@.@.@.$.$.$.@.@.$.$.$.$.$.$.#.#.#.@.#.$.-.o. .-...%.%...%.$.%.$.%.%.$.$.$.$.$.%.%...%.-.%.%.$.$.@.$.$.$.%.+.%.$.o.o.$.o.o.#.@.$.$.#. .#.$.@.$.$.o.o.$.$.$.$.@.@.$.$.#.#.#. .#.%.-.A x a a f 1 f , a a a s s S ,.-.-.-.%.%.-.-.-.-.-.-.-.-.-.-.-.-.-.>.,.-.-.-.-.-.-.-.-.-.-.;.F H G L K V.hXkXcXkXkXaXaXaXdXdXxXxXcXvXbXvXkXuXuXaXsXsXaXaXuXy aXsXuXyXy y y r r q r q r r t aXaXaXaXaXdXdXdXdXdXcXbXvXvXHXKXKXKXPXkXpXq 8 : 1 f f f f f f f f f f f f f f f f f f f f f f f f f f f f f f s f f s s s s s f f f f f f f f f f f s f f f f f f f g g f f a , , < - - - - 1 f f f f f f g f f f f f f f f f f f f f f s s s s x x J s J C S J A J J J S A A A A A S S x x A A A A A A A A A A S S S S S S D S S A S D D D D D D D D D D D D D D S S S D D F ;.-.=.=.w.w.w.w.e.y.w.t.t.w.w.w.w.t.t.y.d.d.y.t.t.s.s.a.a.e.y.s.d.t.y.t.t.t.y.a.y.t.t.y.y.y.t.y.d.y.t.t.u.u.q.t.t.t.t.t.t.t.y.d.y.t.y.t.t.y.y.t.t.t.t.t.t.t.t.t.t.u.u.u.t.t.t.t.t.y.t.t.t.q.q.t.u.u.u.u.r.u.u.q.r.u.u.t.t.t.t.t.t.t.t.t.t.t.t.t.t.t.t.t.t.t.t.w.t.y.d.d.y.y.t.t.y.a.s.s.s.d.t.t.y.a.y.t.t.t.t.t.y.y.y.y.y.t.t.y.s.s.a.y.y.t.t.t.t.y.a.d.d.s.s.s.s.s.s.a.y.w.t.w.d.a.a.w.u.t.r.r.6.9.w.w.9.9.6.w.r.w.r.u.u.q.6.w.w.9.9.q.6.9.9.9.w.w.9.9.w.w.w.w.w.w.9.9.9.9.9.9.9.",
"` ` _ ! / / / / _ ` ` ` _ ! _ ` ' ' ` +.+.` ` ` _ | | ! / ( ( O.o.o.o._ X.O.O.O.O.#.+.+.o.o.+.#./ X.+.O.#.O.+.$.$.+.+.$.+.o.o.%.%.+.o.$.+.O.+.%.$.$.$.4.4.4.&.$.$.$.$.$.%.$.$.@.$.$.$.@.$.8.$.$.$.$.$.5.@.$.w.e.$.$.$.*.=.*.8.$.@.&.&.&.&.4.8.e.*.*.*.*.*.*.*.*.*.<.<.*.*.<.i.s.<.=.*.*.*.e.*.*.=.$.*.*.$.$.@.@.O.&.#. .J s f 1 - - - - < 1 < - - - - - - - - ; - - - - - - - - < < - - - < a B ..%.@.@.#.$.$.$.@.$.$.$.$.$.$.@.$.$.$.$.$.$.$.$.#.#.#.@.@.%.| o.#.%.$.$.%.%.$.$.$.$.$.$.$.$.$.@. . .| o.%.$.$.$.$.#.$.$.$.$.$.$.$.$.$.$.$.@.#.$.$.$.#. .#.$.$.$.$.$.$.@.@.@.@.$.$.$.$.#.#.#.%.%.$.%.-.-.A x a a a a a a d x S >.-.-.-.-.%.%.-.-.-.-.-.-.-.-.-.-.-.-.-.-.-.>.>.>.>.>.;.;.-.;.D F I Z.S.gXjXlXiXuXuXyXuXaXdXdXzXcXxXxXvXHXcXdXiXsXdXdXsXuXuXsXdXzXdXyXt t t t r t t r r q r t aXxXcXxXdXdXxXxXzXHXHXcXHXKXKXLXGXcXlXP 6 1 1 1 f f f f f f f f f f f f f f f f f f f f f f f f f f f f f f f s f f f s s s s s f f s s f f f f f f f s f f f s f f f g g g f a a a f 1 1 < 1 f f f f f f f f f g h g f f f s s s f f s x s s s s x x x s J x S x J J J J x A A A A x J A x x A A A A x A A x x x x A S A A A S S A x B A S D D D S S S D D D S Z S A S S 3.1.1.<.*.*.e.w.w.w.w.y.y.w.t.t.w.w.w.w.w.y.a.e.s.y.t.y.a.s.s.s.e.y.y.t.t.y.y.y.y.e.s.y.w.y.t.t.t.y.y.y.y.t.t.t.t.t.t.t.t.t.t.t.t.y.a.y.t.t.F.F.y.t.t.t.t.t.t.t.t.t.t.t.u.u.u.t.t.t.w.w.w.t.t.t.t.q.q.t.w.q.q.q.u.r.q.r.u.q.t.t.t.t.w.q.w.t.t.t.t.t.t.w.u.t.t.q.t.t.t.t.t.t.y.t.y.y.t.y.s.s.s.s.a.y.t.y.a.y.t.t.t.t.t.t.t.t.w.w.w.t.y.a.s.d.t.t.t.t.t.t.t.a.s.s.d.s.s.s.s.s.s.s.d.t.t.y.d.d.w.u.q.6.6.9.w.w.6.9.9.r.r.r.w.6.u.w.9.6.9.9.w.9.6.6.w.9.9.w.y.s.e.w.w.9.9.u.9.9.9.9.9.9.9.9.",
"` ` ) / / ! ! ! _ ` ` ) / / _ ' ` ` ` ` ( ! ! | | ` o.o.o.+.+.+.+.+.` ` | X.o.X.X.X.+.+.+.+.o.+./ o.X.O.O.O.O.+.%.+.+.#.+.$.+.$.%.%.$.$.+.#.O.$.$.$.$.$.+.#.@.$.$.$.$.+.$.$.$.@.5.5.$.@.$.$.$.$.$.e.9.8.$.$.8.8.$.$.$.$.$.$.$.$.5.5.&.4.&.4.5.w.e.*.*.*.*.*.*.*.=.=.*.*.=.<.,.i.,.*.*.*.*.*.*.*.=.=.*.=.$.$.$.+.O.O. . .J s s h < - - < < < - - - - - - - - - - - - - - - - - - < < - < < a z ..$.o.o.@.@.$.$.$.$.$.$.$.$.$.$.$.$.=.%.$.%.$.$.$.$.$.$.$.$.=.#.#.#.$.$.$.$.$.$.$.$.$.$.$.$.$.$.$.o.o.| #.#.o.$.o.$.$.$.$.$.$.$.$.$.$.$.$.$.$.+.%.$.o.#.@.$.$.#.#.$.$.$.@.@.&.&.$.$.@.&.@.$.$.$.%.$.$.$.%.=.-.S A A A A A A ;.,.,.-.=.=.-.-.-.-.-.-.-.-.-.=.=.-.-.-.-.-.-.-.,.3.3.:.G I /.(.S.A.A.gXiXiXiXuXuXiXdXdXxXcXvXHXPXPXPXPXLXKXPXvXdXiXuXsXzXdXdXdXzXdXuXyXyXuXyXt r q r r r y aXsXdXdXdXdXcXvXzXcXbXxXkXzXvXHXvXkXV.0 2 1 1 f f f f g f f f f f g f f a f f f f f f f f f f f f f f f f f f f f f f f f f f f f s f f f s s s f f f f s s s d s s s g f f f s s f a a f f f f f f f f f f f g g g h h j j f s s s s s x Z Z x x s s s s x x x s x x x x x A s J x x x x A A x x x x x A A x x x x x x x x x A x x x x A x x A A A B C D S B C A S ;.S S ;.-.>.p.J.p.s.i.w.w.w.w.w.w.w.w.w.w.w.w.w.w.w.t.t.y.e.d.w.w.e.s.s.a.s.y.t.t.t.y.s.s.s.d.w.y.y.d.y.t.t.t.y.F.y.y.t.t.t.t.t.t.w.t.t.t.t.t.t.y.y.t.t.a.F.t.t.w.w.t.t.t.t.t.t.u.u.t.u.u.t.u.q.t.t.w.w.t.t.t.q.q.u.w.w.q.u.u.q.w.t.t.r.t.t.t.t.w.w.t.t.t.t.t.t.w.w.t.t.t.t.t.t.t.t.t.t.t.t.y.d.y.y.d.s.s.s.a.y.d.d.s.d.y.t.t.t.t.t.t.w.w.w.w.w.t.y.y.t.t.t.t.t.t.w.w.s.d.d.9.w.w.d.s.s.s.s.d.t.t.w.t.w.9.w.6.9.9.6.9.w.9.9.9.r.r.q.w.r.u.9.9.9.9.9.9.9.6.6.6.9.9.9.9.e.y.w.w.r.r.u.9.9.e.9.9.9.9.9.",
"` ` ) ) _ _ _ _ _ ` _ ! _ ` ` ` ` ` ` ) ) _ _ _ / _ +.$.%.o.+.$.+.` ` %.$.o.X.X.X.X.O.#.#.#.+.+.+.X.| +.+.+.+.+.+.$.#.O.#.+.+.$.+.5.+.#.#.+.+.+.@.+.+.$.+.+.+.5.9.$.%.$.8.$.$.5.4.5.5.8.$.$.$.$.$.8.8.8.$.8.5.w.8.$.$.$.=.$.$.$.@.@.&.&.&.4.q.9.w.e.i.*.,.*.*.*.*.*.*.*.=.=.*.=.=.*.=.*.*.*.=.$.=.=.*.=.$.$.$.+.O.4.#. .A H H G h < 1 h 1 - - - - - - - - - - - - - - - - - - < < < - , a x ^ +.@. .o.$.$.$.$.+.o.$.$.$.$.$.$.$.$.=.*.=.=.$.$.$.$.$.$.$.$.=.$.o.$.$.$.$.$.$.$.$.$.$.$.$.%.$.%.$.$.%.$.$.@.o.o.| o.$.$.$.$.$.+.+.@.$.$.o.o.#.$.$.$.$.@.$.$.$.$.$.$.$.$.%.$.@.#.@.@.&.&.&.&.@.@.#.$.$.$.$.$.$.%.-.-.-.-.-.-.-.=.=.=.=.-.-.-.-.-.-.-.-.-.-.-.-.-.-.-.,.,.,.S G (.nXmXFXMXMXjXiXiXiXiXiXuXsXfXdXxXvXbXHXKXKXKXKXKXKXKXHXHXbXcXfXsXdXsXaXy uXvXHXvXaXyXaXuXt r r r t t y aXzXxXdXaXiXiXaXaXdXvXPXIXyXt y q 7 1 < f f f f f f f f f f f f f f f f a a f f f f f f f a f f f f f f f f f f f g f f f f f f f f f f f s s s s f f f s s s s s s s s h g f s s s s s s s a f a f f f f f f f f Z Z H H Z Z s s s J x x x S S C x x x x x x x x x x x x x x x s J s s x x x x x x x x x x x x x x x x x x x x x A A A S x x x A A B x B S S A A -...,.<.,.=.*.*.e.i.i.s.s.d.e.e.w.w.w.w.w.w.w.w.w.w.w.w.w.w.w.w.w.w.w.s.s.s.d.w.y.y.t.y.s.s.s.s.a.t.w.d.a.y.t.t.t.t.t.y.t.t.t.t.t.t.t.w.t.t.t.t.t.w.w.t.t.y.a.y.y.t.w.w.t.t.t.t.t.t.u.u.r.q.u.t.t.t.t.t.t.t.w.u.q.q.t.w.w.q.q.u.u.u.w.t.t.q.r.u.t.t.w.t.t.t.t.t.t.t.w.w.w.t.t.t.t.t.t.t.t.t.t.t.y.a.d.t.y.a.s.s.d.t.y.d.s.s.d.t.t.t.t.t.q.q.w.w.w.w.w.t.w.w.t.t.t.t.w.w.w.s.y.y.w.t.9.d.s.s.a.y.w.t.t.t.t.r.r.r.9.w.w.w.w.w.w.u.u.u.6.q.w.w.u.9.9.9.9.9.9.9.6.6.r.r.4.9.9.9.w.w.q.q.r.u.9.9.9.9.9.9.9.9.",
"` ) ) ) ` ` _ _ ' ` _ / / _ _ ' ` ` ` ) ( O.+.+.+.+.o.o.%.%.$.+.o.%.%.%.$.o.o.o.X.o.O.+.$.+.X.O.+.+.o.+.$.+.#.+.%.o.+.+.#.O.#.O.O.O.O.O.O.#.+.#.+.+.O.+.+.$.$.+.+.$.%.$.9.8.$.@.@.@.$.$.+.+.$.9.$.$.&.&.$.$.@.@.&.@.8.9.@.8.5.5.8.$.@.5.&.&.5.&.&.e.e.*.<.*.*.*.i.*.*.i.i.<.=.*.*.*.,.<.=.*.$.$.$.=.$.$.+.+.#.+.O.O. . .G G /./.G h j I 1 - - - < < - - - < - - - - - - - - - < 1 < , a d B o.o.+.#.$.$.$.$.$.+.+.$.$.$.$.$.$.$.@.@.$.%.$.$.$.$.$.$.+.@.&.#.$.#.$.$.$.$.$.$.%...%.$.$.%.o.%.$.$.$.$.$.$.$.o.$.o.o.| o.o.#.#.#.+.O.+.$.$.o.@.$.$.$.$.o.$.$.$.=.=.$.$.$.=.$.o.#.@.#.@.&.&.#.@.#.%.=.$.#.@.$.$.%.%.-.=.=.-.-.-.-.=.=.=.=.-.-.-.-.-.-.-.-.-.,.-.-.-.;.;.:.j.S.nXGXHXLXHXvXkXiXyXy uXiXiXfXkXxXbXbXbXbXHXHXHXHXPXPXHXvXxXzXdXyXt aXdXdXdXsXaXsXdXvXHXGXdXsXaXaXaXaXsXuXyXaXsXdXfXiXyXt y sXHXvXiX0 1 1 1 1 1 f f f f f f f f a f f f a f f f f f a a a a f f f s f a f f f f f f f f f f g g f f f f a f f f f f f s s s s s s s f a s s s d a s s s s s s s s x s s a f s s s f f f f f s s s x x x x s x x x x C x x S C Z x x x x x x x x x x x x x x x x s x x x x x x x x x x x x x x x x x x x x x x A A x x B A A A A ....-.;.>.<.=.i.s.e.d.d.i.*.i.d.d.d.i.i.a.d.e.w.w.w.w.w.t.t.w.u.w.w.w.w.w.w.w.w.y.w.e.s.s.s.d.d.d.y.y.d.a.e.y.y.t.t.y.y.y.t.t.u.t.t.t.t.y.d.t.t.t.t.w.t.w.t.t.t.w.t.t.t.y.a.d.y.y.t.t.t.t.t.t.t.t.u.u.u.u.u.u.t.t.q.u.u.u.u.r.u.u.u.q.q.q.q.u.u.r.u.t.t.w.t.t.w.w.t.t.w.w.t.t.t.t.t.t.q.q.t.w.w.w.t.t.t.t.t.d.d.y.y.t.y.a.s.s.d.y.y.y.y.a.y.t.t.u.t.t.u.q.y.d.d.y.t.t.t.t.w.t.t.w.9.w.w.y.t.t.t.t.t.y.d.y.y.w.t.t.t.u.u.u.9.6.9.9.9.w.w.u.u.w.9.t.t.6.q.r.u.u.0.s.f.i.d.9.u.r.6.9.e.e.w.u.t.9.9.9.9.w.9.9.9.9.9.9.w.9.",
"_ _ ` ` ` ` _ / _ ' / / / ! ! _ ` ` ` ( ( ( +.%.+.%.o.o.o.%.$.@.+.+.%.%.%.%.$.+.X.+.O.#.+.+.O.O.#.O.X.o.+.+.+.$.%.X.o.$.+.O.O.#.O.O.#.O.O.O.O.O.#.O.O.O.+.+.$.&.O.+.$.$.+.+.+.+.$.$.$.@.+.$.$.8.8.$.&.&.@.$.$.$.@.@.$.8.@.@.O.6.9.$.@.&.&.&.&.&.@.8.e.=.>.,.<.=.*.*.*.*.$.*.*.*.*.*.*.>.<.$.$.$.$.$.$.$.$.+.o.$.#. .A -.G C././.G j I h - - - - 1 1 - - < < - - - - < < - < < < - < a a x %.@.@.$.$.$.+.+.$.+.+.$.$.$.$.$.$.$.$.&.@.$.=.$.$.$.$.$.$.$.@.4.#.$.$.$.$.$.$.$.$.%...$.$.$.%.%.$.$.$.$.$.$.$.$.$.$.$.o.| o.o.#.#.o.+.+.%.$.$.$.$.$.$.$.$.#.$.$.$.$.$.$.$.$.=.=.#.o.$.$.%.@.#.%.$.$.$.=.%.#.$.$.=.-.-.-.-.-.-.-.-.-.-.-.=.=.-.-.-.-.-.=.-.-.,.>.-.-.3./.(.(.jXjXhXfXdXzXsXaXy uXuXyXsXaXuXsXaXaXsXdXcXbXHXvXzXzXxXcXzXdXdXdXdXaXy uXaXdXbXPXvXdXdXzXbXHXHXvXcXxXdXzXzXdXuXyXfXkXkXiXV.UXP P V.L h g Z Z H H H s s s s s s s s s s a a a a a d f a d a a d d a a f f a a f a f f f f f f f f f f f f f a s a f f f f f s s s s s s a a a d a a d a s a a s s f s x s s s s s s s f f f f s s s s s s s s s x x x x x x x C x x C C C C x C x x x x x x x x x x x x x x x x x x x x x x x x x x x V x x B B A A A  ...-.-.-.=.=.=.<.=.*.e.i.*.e.e.w.a.s.s.i.i.e.d.d.e.e.d.e.e.w.w.w.w.w.w.w.w.w.q.w.w.w.w.w.w.y.t.e.e.d.s.s.s.d.t.t.y.y.a.t.t.t.t.t.t.t.t.t.t.t.t.t.t.t.y.d.y.t.t.t.t.t.t.t.t.t.t.t.w.t.t.d.a.y.t.t.t.w.w.t.t.t.t.u.u.u.u.q.u.u.u.u.u.u.u.u.q.q.u.u.q.q.q.q.u.r.6.u.t.t.w.t.t.t.t.w.w.w.t.t.t.t.t.t.w.q.t.t.t.w.w.t.t.t.t.t.y.y.t.y.y.a.s.s.s.s.a.y.t.d.s.y.t.t.t.t.t.u.t.a.U.i.y.t.t.t.t.t.t.t.t.t.t.t.t.t.t.t.t.t.t.t.t.u.w.w.w.u.u.w.w.w.9.9.9.9.w.w.w.u.w.9.w.w.6.w.r.t.t.d.s.[.p.s.w.u.u.w.w.J.G.w.r.u.9.9.9.9.9.9.w.w.9.9.9.w.w.",
"~ ~ ' ' ' ' ' ` ' ~ ! ! ! ! ! _ ' ` ` / / +.%.%...%.$.%. .....%.$.%.%.+.+._ +.#.X.+.#.O.O./ +.+.+.O.+.+.O.X.+.$.$.X.o.$.+.O.O.+.+.@.+.O.#.O.#.+.$.+.O.O.O.#.%.5.O.O.$.$.$.$.+.$.@.@.$.@.@.$.@.$.$.@.&.&.&.5.8.8.$.$.@.@.@.8.9.8.$.$.+.4.5.&.&.@.@.5.e.*.*.>.>.<.=.*.*.*.=.*.*.*.*.*.*.*.=.%.$.$.$.@.@.$.$.$.$.$.#.| A S G C./.I j j j < - 1 1 < g f < < - < < - - - 1 < - < f < < a d x ..$.+.+.$.$.$.@.+.$.%.+.$.$.$.$.$.@.@.$.@.@.$.$.$.$.$.$.$.$.%.$.$.%.$.$.$.$.$.$.$.$.$.%.$.$.$.$.$.$.$.$.$.$.$.$.$.$.$.$.| | $.$.@.#.| o.$.$.$.$.$.$.$.$.$.$.$.$.$.$.@.$.o.+.$.@.@.$.$.$.$.$.@.#.$.$.$.$.=.=.#.$.%.=.-.-.-.-.-.-.-.-.-.-.-.=.-.-.;.S -.,.<.=.-.;.3.G /.rXjXlXiXyXuXaXdXdXzXxXdXfXfXdXdXdXaXsXdXxXxXzXxXxXxXxXdXxXvXbXvXxXxXzXsXdXzXdXfXsXdXvXvXdXcXbXbXzXdXcXzXdXdXdXxXcXzXfXlXlXpXP 0 L L h j H S ;.;.>.>.3.3.:.3.;.;.S -.-.;.S S A A S A A A A S B B A A A B A B A x x s s x x x s s s s s a a a f a a a s s d s f a a a a d a a a a a a a a a s a a s s s f f s s x s a s s s s s s s s s s s s s x s s s x s s s s x x x x x x x x C x x x x x x x x x x x x x x x x x x x x x x V V V B A B .. . .-.-.=.-.=.=.=.=.e.e.e.*.e.e.d.i.e.s.i.i.s.s.y.d.s.s.s.s.s.y.w.e.e.w.e.w.w.w.w.w.w.w.w.w.q.q.w.w.w.w.w.t.y.y.a.d.d.s.s.s.d.y.y.t.y.a.y.t.t.t.t.y.t.t.t.t.t.t.t.t.t.t.t.t.t.t.t.t.t.t.t.t.t.t.t.w.w.t.w.y.t.w.w.w.w.w.t.t.t.t.t.t.t.t.u.u.u.u.u.r.r.r.r.q.u.u.u.q.q.q.r.q.q.q.q.t.t.u.u.u.t.t.t.w.w.t.t.t.t.t.t.t.t.t.t.t.w.w.t.t.t.t.t.t.t.t.y.y.y.d.s.s.s.s.a.d.s.s.a.y.t.t.t.t.t.t.d.s.s.d.t.t.w.w.t.t.t.t.t.t.t.w.w.w.w.t.w.w.w.w.9.9.9.9.t.t.w.w.w.w.9.9.w.w.w.w.w.w.w.w.w.9.w.9.9.9.d.s.`.`.i.t.u.r.t.w.e.e.w.9.9.9.9.9.9.w.9.w.9.9.9.9.9.9.",
"^ ^ ^ ^ ! ! _ ` ' ' _ _ _ ! ! _ ` ` ` o.o.%.%.....$.%...........%.$.%.+.O.+.O.X.X.+.O.O.O.O.O.O.O.#.#.O.O.O.#.@.$.o.| $.+.O.X.+.+.#.#.O.O.O.O.@.+.@.5.O.O.O.+.+.#.#.$.@.+.+.#.+.+.+.@.5.5.5.&.@.@.&.@.@.&.4.@.$.$.$.@.&.@.4.5.@.$.$.$.@.&.&.8.=.@.&.@.=.*.*.*.*.*.e.e.e.=.=.$.$.=.=.=.*.*.$.$.$.@.&.&.@.$.$.+.$.o. .A G tX/./.H j G H h 2 h 2 f h L L 1 < 1 f < - - 1 1 < 1 < - < a x ..%.#.O.#.+.@.@.$.@.@.@.@.$.$.$.$.@.@.@.&.$.$.$.$.$.$.$.$.$.$.o.%.%.%.o.o.$.#.$.$.$.$.$.%.$.$.$.$.$.$.$.$.@.o.#.$.$.$.$.$.| | $.$.$.+.| o.$.$.$.$.$.%.$.$.$.$.$.$.$.$.#.$.$.@.@.&.&.@.$.$.$.$.$.$.#.%.$.$.*.*.=.%.=.-.-.<.=.-.-.-.-.-.-.>.-.-.,.:.H f j :.,.;.I (.nXmXmXlXyXyXyXsXdXzXzXxXvXxXdXsXsXsXdXdXdXzXvXHXvXcXdXuXt sXzXcXcXvXbXHXHXHXfXuXaXxXvXcXdXdXsXdXzXzXcXxXdXdXdXdXvXHXPXPXvXjXV.L g j H D S :.3.;.......,.,.>.>.>.>.-.,.=.-.-.-.-.-.-.-.-.-.-.-.-.-.-.-.-.-.-.-.-.-.-.-.....-.,.,.;.;.;.A A A A A B x x x x x x x s s s s a a a a a a a a a a a a d a a s s d f f a x x s x x f f s x x x x x x s s x x s s s x x s s x x x s x x x C C C x x x x x x x x x x x x x x x x B A A A A A -...%.%.%.8.$.e.e.=.&.&.e.e.e.w.q.w.w.w.e.s.i.<.s.s.s.s.s.s.d.w.*.e.s.s.s.s.w.w.w.y.e.w.w.w.w.t.w.w.w.w.w.q.w.w.w.w.w.y.t.t.y.y.y.d.d.e.d.y.y.y.t.t.y.t.t.t.t.y.y.y.t.t.t.t.t.t.t.t.t.t.w.t.t.t.t.t.t.t.t.t.t.t.t.t.t.w.t.t.w.t.t.t.t.u.t.u.r.6.q.w.u.u.q.q.q.u.q.6.r.r.q.t.t.q.q.q.q.q.q.u.u.r.u.u.u.u.u.t.t.t.t.t.t.t.t.t.t.t.t.t.t.w.w.w.w.t.t.y.y.t.t.t.t.y.y.y.s.s.s.s.s.s.s.s.s.s.a.y.w.w.w.t.t.y.a.s.d.t.w.w.t.t.t.t.t.t.t.t.e.t.w.9.w.t.t.w.w.e.w.w.w.t.t.t.w.w.9.w.w.w.w.w.w.w.9.w.9.w.9.w.9.9.w.s.i.b.v.p.w.r.6.9.9.9.9.9.w.9.9.9.9.9.9.9.9.9.9.9.w.e.9.",
"^ ~ _ ' / _ ` ` ' ~ ' ` _ ! ! _ ` ` ` ` o.......' +.%.............%.$.%.o.o.o._ X.O./ ( O.O.O.O.+.+.O.O.O.o.#.+.+.o.X.o.o.O.O.+.+.O.#.+.O.O.O.O.+.#.O.4.4.+.$.+.+.O.O.5.@.O.O.4.O.O.+.5.5.5.@.#.@.@.@.@.@.5.8.8.8.$.@.+.#.&.5.@.#.$.$.@.@.@.$.$.$.5.@.8.$.@.=.*.*.e.e.@.&.=.$.=.=.$.$.$.&.@.@.@.&.&.&.@.@.+.@.#. .A A G tXtXG H G tXG I j 1 1 f h j Y h 1 1 f 1 1 1 f < 1 f 1 1 , d B %.#.#.@.o.o.@.+.@.$.$.$.@.$.$.@.@.@.@.@.@.$.$.$.$.$.$.$.%.$.$.o.$.$.$.o.#.@.@.$.$.$.$.$.$.$.$.$.$.o.#.#.#.o.X.o.@.$.+.+.+.X.| o.$.+.+.#.o.+.+.+.o.+.#.@.@.@.$.@.$.$.$.#.@.&.&.&.&.&.@.$.$.$.$.$.$.$.=.$.#.=.$.-.-.=.-.-.=.=.<.-.-.-.-.-.,.>.<.;.H f < 1 f C.MXJXPXPXkXiXyXyXyXyXyXyXyXuXdXdXuXy r r t yXaXaXsXcXPXLXvXsXyXaXzXbXbXbXHXHXKXKXPXvXdXzXcXxXcXvXGXkXaXdXzXdXcXHXvXdXsXbXHXcXgXK j H H S ;...-.-.-.-.,.>.-.-.-.-.>.<.<.>.,...-.-.%.%.-.-.-. .-.#.$.#.#.%.%.%.%.$.=.=.=.=.$.$.$.%.=.<.=.=.=.=.-.-.=.=.-.-.-.-.-.......;.......S s a 1 1 a a a a a a a a a a a s a a a a a x d s s s s f f s s x x x x s x x s s s s s s s x x x s f x x x x x x x x x x x x B B x B A A ..-.....%.$.$.=.=.*.e.e.e.w.w.w.w.w.w.5.w.w.w.w.w.w.w.w.w.s.d.d.i.<.i.s.s.i.d.d.d.y.e.e.e.e.e.w.w.t.y.e.y.w.w.q.w.w.w.y.t.w.w.q.q.w.w.w.y.y.w.t.y.t.y.e.t.t.t.t.y.y.y.t.t.y.y.t.t.y.y.y.t.y.y.y.t.t.t.t.t.t.t.t.y.t.t.w.t.t.t.t.t.t.t.t.t.u.q.w.t.t.u.u.u.u.t.t.t.u.q.q.u.u.q.q.q.u.u.q.q.u.q.q.q.q.u.u.r.q.u.u.u.u.u.u.u.q.u.t.t.u.t.t.t.t.t.t.t.t.t.t.t.w.w.w.e.y.y.y.y.t.t.t.y.d.a.d.s.s.s.s.s.a.d.y.a.s.s.d.e.y.y.y.t.t.e.e.w.t.t.t.t.t.w.t.t.t.t.y.y.y.w.9.e.t.t.w.w.d.d.w.w.t.t.t.y.w.9.w.9.w.e.e.y.9.9.w.t.w.6.w.9.9.w.0.0.0.i.i.w.u.u.6.9.9.w.w.w.9.6.6.9.9.9.9.9.9.9.9.e.i.9.",
"_ _ _ ` / _ ' ' ~ ~ _ ` _ ! ! _ ` ` ` ` %.....' +.%.$.%.........%.%.$.$.%.o.o.+.O.O.( O.( O.#.O.+.X.( O.#.#.+.#.O.4.+.o.o.+.O.+.#.#.#.+.O.O.O.#.5.$.+.4.O.#.+.#.O.O.O.O.4.4.8.5.@.@.@.@.&.8.=.#.8.e.=.$.&.8.5.+.5.@.@.+.+.&.@.$.$.$.$.$.$.$.$.$.$.$.$.$.@.&.@.e.*.*.*.*.@.=.*.*.$.$.$.@.&.&.&.&.&.4.@.@.@.@.@.#. .x S G tXtX/././.G G C.H f h 1 1 f j h j h 1 1 1 1 1 < 1 1 < a d B o.@.&.@.$.$.o.@.O.@.$.$.$.$.$.+.O.4.$.$.$.$.$.$.$.$.@.@.$.%.$.$.$.$.o.| | X.o.$.$.$.$.$.+.$.$.$.$.$.o.o.@.$.o.o.X.#.+.$.$.@.#.#.o.$.+.O.#.O.O.+.$.+.#.O.&.&.@.$.$.$.$.$.@.&.&.&.&.&.&.@.$.$.$.$.$.$.$.=.=.#.#.$.=.=.-.-.=.*.>.>.>.-.-.-.-.-.,.=.-.s f 1 < K GXHXbXHXHXkXlXiXyXyXy y r r aXsXuXyXy q r y yXsXdXdXHXKXHXxXdXdXxXvXHXLXKXPXPXKXKXKXHXvXvXHXHXbXLXKXGXxXxXHXbXHXKXGXiXq w 9 : 1 H S ;.-.-.-.-.-.-.-.-.-.-.-.-.-.-.-.=.,.-.-.-.-.-.%.$.%.%.%.o.o.#.$.$.$.$.%.-.-.=.$.$.$.=.$.$.$.$.$.$.=.=.*.*.=.=.=.*.=.-.-.-.=.*.=.-.=.-.=.=.-.S j 1 < 1 a a a a a a a a a a a a a a a a a a a a a a a f f a d s s x x s s s s s s s s s x x s f f Z x x B x A A A A A A ....%.-.-.-.=.=.*.*.e.&.&.&.w.w.q.q.q.w.w.w.w.w.q.q.5.w.w.w.w.w.w.w.w.e.a.s.s.s.i.i.s.s.s.s.s.d.w.w.w.w.w.w.w.w.w.t.w.w.w.t.w.w.w.w.w.w.w.w.w.w.w.w.w.w.t.w.w.w.y.d.e.e.d.y.t.t.a.y.t.t.y.a.d.t.t.t.t.t.t.t.t.t.t.t.t.t.t.y.t.t.t.w.w.t.t.t.t.t.t.t.w.w.t.w.w.t.t.t.t.u.q.w.t.t.u.q.q.q.u.r.q.q.q.u.q.r.r.q.q.q.r.u.u.q.q.u.u.u.q.u.u.q.q.u.u.t.u.t.t.t.t.t.t.w.t.a.a.y.y.y.y.s.s.a.y.w.y.t.y.a.s.s.s.s.s.a.d.a.d.d.t.y.a.s.s.d.w.w.w.w.t.w.w.t.t.t.w.w.w.9.t.t.w.w.t.t.w.t.w.d.w.w.w.w.d.s.d.d.d.w.w.t.9.w.w.9.9.e.e.w.w.w.w.t.w.6.6.9.9.8.9.t.9.9.9.9.9.6.6.9.9.w.w.9.9.9.9.9.9.9.9.9.9.9.e.e.*.e.",
"_ ` ` _ W ! ~ ^ _ / _ ' _ ! ! ' ` ` ` %.%...^ ' %.%.%.....%.%.%.%.$.$.$.%.%.%.+.O.O.#.#.O.#.+./ O.O.+.+.O.O.X.X.O.O.+.@.+.+.+.@.+.$.+.O.O.O.O.O.#.+.+.#.O.O.O.#.+.+.#.+.&.O.#.@.5.@.$.$.$.$.$.@.&.8.$.$.&.&.4.5.w.8.8.@.@.$.$.$.$.$.8.8.8.$.$.$.$.$.$.$.$.5.&.e.e.*.*.*.*.*.*.*.@.&.@.&.&.&.@.#.#.@.#.#.@.&.@.|  .A S G G tXC./.C.C./.tXH h g f f f g h H G h < - < < < < 1 < a x ..#.#.@.@.$.$.+.@.4.@.@.@.@.@.$.$.@.@.@.@.@.@.@.$.$.$.5.4.+.%.$.$.$.$.$.o.+.+.o.$.$.+.$.$.$.$.$.$.$.$.$.o.+.+.| | X.O.#.+.$.@.&.&.$.+.+.#.| #.$.$.+.+.#.+.4.4.@.$.$.@.@.&.#.o.@.@.@.&.&.&.$.$.$.$.$.$.$.$.$.=.=.=.*.*.=.-.=.*.=.<.-.-.-.-.<.,.<.=.-.J 1 2 P hXxXzXvXHXHXkXlXiXiXyXy t t aXaXy yXyXr r y uXdXvXHXHXKXPXbXbXHXPXPXHXPXPXPXKXHXHXHXKXHXbXbXHXHXHXHXHXHXbXbXHXvXkXlX9 : * O o * # , f H S -.-.-.-.-.-.-.-.-.-.,.-.-.-.-.-.-.-.-.-.-.%.%.%.%.-...%.$.$.$.$...-.-.-.-.=.=.=.$.*.=.$.$.=.$.$.$.%.=.*.*.=.=.*.=.=.=.*.=.=.,.$.#.=.=.$.%.-.s a < f a a a a a a a a a a a a a a a a a a a a a a f f a a a a a a s s a s d d s f f g f f f f H S -.....-.=.=.=.*.*.*.e.8.8.e.e.e.e.*.*.9.e.e.e.w.q.&.&.5.9.w.w.w.5.q.q.9.9.w.w.w.w.w.e.w.d.s.s.s.s.i.e.i.s.e.e.d.y.w.w.w.w.w.e.w.w.w.w.w.w.w.w.w.w.w.w.w.w.w.w.w.w.w.w.w.w.w.t.w.w.t.y.a.s.s.s.y.t.d.t.t.t.t.y.d.y.t.t.t.t.t.t.t.t.t.t.t.t.y.d.t.t.t.t.t.t.t.t.t.t.t.t.t.t.t.t.w.w.t.t.t.t.w.w.q.q.q.q.q.q.q.q.q.q.q.q.r.r.r.q.r.q.u.u.u.w.t.t.w.u.u.u.u.q.u.u.u.t.t.t.t.t.t.t.t.w.t.y.a.s.a.s.y.y.d.a.y.t.d.a.a.s.s.s.s.s.a.y.t.y.a.d.t.t.t.w.s.e.w.w.w.w.t.t.w.w.w.w.9.9.w.t.t.t.w.w.t.t.t.t.9.9.9.w.e.w.d.s.s.s.a.e.d.d.e.y.w.w.w.w.w.w.w.w.w.9.9.9.w.0.d.i.t.u.r.9.9.9.9.9.9.w.w.9.9.9.9.9.9.9.9.w.9.9.9.9.9.9.9.*.",
"` _ / ! ! ! / _ ' ` ' ' / ! ~ ^ ` ` ` o.| ..^ ' %.......%.$.$.%...%.$.%.%.+.+.+.#.O.+.+.X.#.+.O.O.( O.O.O.O.+.X.O.O.O.#.#.+.#.#.O.+.O.O.O.O.O.5.@.+.+.O.O.O.O.+.+.+.+.+.4.4.+.4.4.@.$.$.$.$.$.@.&.&.@.@.&.&.4.5.0.$.8.8.$.+.$.o.$.$.9.8.$.$.8.$.$.$.$.@.5.q.5.9.9.=.=.$.=.*.*.@.&.&.&.&.&.@.$.+.+.@.#.+.@.@.#.|  .A H G C.tXtXtXtX/./.C.I h g g f f f f f j h f 1 f f 1 1 f f x ^ %.#.O.#.#.$.+.+.#.&.&.#.+.&.4.@.$.$.$.#.O.4.4.4.@.@.$.@.4.4.@.$.$.$.$.o.o.$.$.o.$.$.+.+.$.$.$.+.$.$.$.$.$.$.+.o.| X.O.O.O.+.+.#.X.#.o.+.+.| o.+.#.O.O.@.$.+.O.O.4.5.4.&.&.&.#.$.%.#.4.&.=.*.$.#.$.$.=.=.#.$.=.*.=.*.*.*.=.*.*.*.*.=.<.<.1.1.1.1.<.;.C.jXkXGXvXcXHXvXxXdXsXsXaXuXy t yXuXsXuXt yXyXsXzXdXxXHXKXKXKXKXLXPXLXKXLXHXHXHXHXbXHXHXHXbXPXPXLXLXbXxXvXvXvXxXfXsXt 4 = = > > * * * * > * # % f Z ;...-.-.-.-.......-.-.-.-...%.#.#.%.-.%.%.%.%.%.-.-.....-.%.%.%.-.-.-.-.=.*.*.$.$.$.$.$.$.$.$.=.$.$.=.=.%.=.*.=.=.*.$.$.%.$.$.@.$.$.$.$.#.N a a , a a a a a a a a a a a f a a a f f f a a a a f a a a a a a a a a a a a a f f f f f f a a H S -.=.*.*.8.e.9.9.e.e.e.e.9.5.5.q.e.*.e.9.w.e.e.e.8.q.w.w.9.w.q.5.&.w.w.w.w.w.w.w.w.w.w.e.s.d.e.J.i.e.=.e.s.e.e.e.w.w.w.w.w.w.e.e.w.w.w.w.q.q.q.w.w.w.w.w.w.q.q.q.w.w.e.y.w.w.t.w.w.t.t.y.y.y.d.d.y.d.t.y.y.y.w.w.t.t.t.t.y.t.t.t.w.t.t.t.t.t.y.t.t.t.t.t.t.t.t.t.t.t.t.t.t.w.t.t.t.t.t.t.t.t.u.u.u.r.q.q.q.q.q.q.q.q.u.q.q.r.q.q.q.u.u.t.t.t.t.w.r.r.u.u.u.t.t.w.t.t.q.q.t.t.t.t.t.w.w.a.a.d.d.y.t.t.y.y.y.a.s.s.s.s.s.a.d.d.y.y.t.y.d.y.t.y.e.s.s.e.y.w.w.w.w.w.t.6.q.w.w.w.t.t.w.w.w.t.t.t.t.w.9.9.w.s.s.d.s.s.s.s.s.s.s.s.a.d.w.w.w.w.w.w.t.9.9.9.e.p.XXoXR.y.u.r.9.9.9.9.9.w.w.6.9.9.9.9.9.0.9.9.w.9.9.9.9.0.e.9.9.",
"' _ _ ! _ ! _ _ _ ` ' ) _ / ' ' / / | | o.' ..%.%.%.....%.%.%.%...%.o.+.$.+.O.+.o.X.o.X.! X.O.+.+.X.O.+.+.+.+.+.#.O.O.O.O.O.O.+.#.+.O.O.O.O.o.+.O.+.+.O.O.O.O.X.X.X.O.@.@.@.@.5.4.O.@.$.@.@.8.8.&.5.@.o.4.4.&.q.e.$.8.$.#.#.@.#.$.$.8.$.$.$.8.$.@.@.&.&.@.q.4.5.8.&.$.$.$.$.$.@.#.&.#.O.#.#.$.$.$.@.@.#.@.&.+.X. .A D /./.tXtXC././.C.tXH h g 1 < 1 < 1 1 g h h g f f f a f s B %.+.+.#.O.O.@.+.#.O.&.4.+.+.@.+.@.@.$.@.&.O.4.4.+.O.@.$.@.4.4.&.@.$.$.$.$.o.o.$.$.%.$.o.o.+.+.@.o.o.$.$.$.$.$.%.O.o.o.O.X.o.o.#.X.X.X.X.+.+.o.X.X.O.O.+.+.+.#.O.O.4.4.4.+.&.#.$.o.@.5.&.&.&.$.$.#.$.$.$.$.@.$.*.=.=.=.=.*.*.=.*.=.<.<.1.1.1.1.D.1./.CXJXKXKXKXLXPXGXkXkXdXdXsXdXxXdXdXzXaXy uXkXvXcXcXbXHXHXKXKXKXLXHXbXvXxXkXcXbXHXHXcXxXcXvXvXcXdXcXHXPXGXiXuXaXt 8 4 : > o > > = > * * # * = * # @ # & g ;.,.-.........-.-.-.%.%.%.-.-.#.#.#.o.o.%.$.%.-.%...-.-.-.-.=.-.-.-.=.*.,.*.=.$.$.$.$.$.$.$.$.=.=.$.$.-.=.=.$.$.*.=.$.$.$.$.$.$.$.$.$.o...B d a a a a a a a a a a a a a a a a f a f f a f f a a f a a f a a f a a f a f f s s f f f a f H :.,.*.*.e.e.e.8.5.8.e.=.e.e.=.&.&.e.9.e.w.e.e.w.w.w.8.e.e.e.q.5.5.q.w.w.w.w.w.w.w.w.w.w.s.s.s.d.s.d.e.e.i.s.e.d.a.d.e.e.e.w.w.w.w.e.e.w.q.q.q.w.t.w.w.t.w.t.q.q.q.w.e.d.d.y.w.t.t.y.y.w.t.t.t.t.y.y.y.t.t.y.y.t.t.t.t.t.t.t.t.t.t.y.t.t.t.t.t.t.t.t.t.t.t.t.t.t.t.t.w.w.w.w.t.t.t.t.t.t.t.w.t.u.u.u.r.q.q.q.u.q.q.q.r.u.r.q.q.q.q.q.q.u.t.t.t.t.q.u.r.r.u.u.u.u.u.t.t.q.u.t.t.t.w.t.t.w.t.y.w.t.t.t.w.t.t.y.a.a.a.s.s.s.d.y.a.a.a.y.t.y.y.y.d.d.d.a.s.d.y.w.9.9.w.t.r.u.t.t.9.w.w.y.e.w.w.t.y.y.y.d.e.d.s.s.s.s.s.s.s.s.s.s.s.s.s.e.y.t.w.w.w.w.w.9.w.i.H.:XwX;XF.u.u.u.9.9.e.e.w.9.9.9.9.9.9.9.e.9.9.9.9.9.w.w.e.e.e.e.",
"` ` _ _ ^ ' ~ ^ _ / ! / _ ` ` _ / ! | o.%.` +.+.` %.$.............%.| o.$.o.X.+.%.X./ / / O.O.+.$.+.O.#.| | | O.O.O.X.#.O.O.O.O.O.O.#.O.O.O.O.O.O.+.@.O.#.+.@.$.o.X.4.@.#.@.4.4.O.#.@.$.@.4.w.e.$.+.+.4.4.4.&.&.$.$.$.$.8.$.$.$.$.$.$.$.$.$.$.@.&.&.4.&.&.4.4.4.&.@.$.$.$.$.$.@.&.&.&.&.#.#.$.$.+.@.=.&.@.O.4.o. .-.G G G G tXtXC.C.C.tXH h g 1 - - - - < f h h h g f f a s B ....$.#.O.4.4.4.4.@.@.@.@.$.$.$.$.$.$.@.4.4.O.&.4.&.4.+.$.$.@.4.4.@.$.$.$.+.$.o.$.$.$.o.| o.+.$.+.O.X.o.+.$.$.$.$.%.o.| o.o.o.| o.o.o.| o.O.#.+.#.O.O.| o.O.O.O.O.O.4.@.@.@.+.o.#.#.&.@.&.@.$.$.$.$.$.=.%.%.$.$.*.=.=.-.=.*.*.=.<.<.<.1.<.<.1.<./.rXDXLXKXKXKXPXvXsXpXiXfXaXyXaXHXHXkXkXxXdXxXHXHXbXHXHXbXPXPXHXbXbXvXcXsXaXuXy sXdXdXsXaXaXdXcXdXaXsXsXfXiXUXe 6 4 = = > > > > = = > ; # # > * = * + @ # + % a Z ;...-...-.-.%.#.#.$.%.=.%.$.$.$.$.%. .$.$.$.$.%.$.$...-.-.-.%.%.$.=.*.=.=.$.$.$.$.$.$.$.$.$.=.=.$.$.,.,.$.$.$.=.$.$.$.$.$.$.$.$.$.+.$.,.C a , a a a a a a a a a a a a a a f a a f f f f a a f f a a a a a a a s s f f s s s s s f f J S =.e.*.*.*.*.$.@.&.e.=.*.*.*.*.*.8.9.9.w.w.e.9.w.w.8.e.e.e.w.w.w.w.w.w.w.w.8.w.w.w.e.e.s.s.i.i.i.s.s.s.s.s.d.d.s.s.s.d.w.w.w.w.w.e.*.w.q.q.w.w.w.w.w.w.w.w.w.q.w.w.d.s.s.d.w.w.t.y.y.w.t.t.t.t.t.t.t.t.t.t.t.t.t.t.t.t.t.t.t.t.t.a.y.t.t.w.w.t.t.t.t.t.t.w.w.t.t.t.w.w.w.t.t.t.t.w.w.w.w.w.t.t.t.t.q.q.q.q.u.u.q.q.q.r.r.r.r.r.r.r.6.q.w.w.w.u.q.q.q.u.u.r.u.u.u.u.u.u.u.r.q.t.9.9.w.q.t.t.t.w.t.t.t.t.y.y.y.y.y.s.s.a.y.s.s.s.s.d.t.t.t.t.t.t.t.d.d.y.w.w.9.9.9.w.t.u.t.t.w.y.d.d.d.s.s.s.s.s.s.s.s.s.s.s.s.s.s.s.s.s.s.s.s.s.s.s.d.w.w.w.w.w.w.w.w.e.<.].6X-Xd.u.u.u.9.9.9.9.w.9.9.9.6.9.9.9.9.9.9.9.9.9.0.9.e.*.*.*.",
"_ _ / ! _ ` ' ' _ / _ ! ! _ _ ) _ | _ ` ` ` ` ` ` %.$.......%.%.%.%.o.+.$.+.#.#.O.( / / O.O.#.$.$.@.+.+.o.o.o.X.O.O.O.+.#.O.O.O.O.+.+.O.O.O.O.O.O.O.#.4.@.@.&.=.@.o.@.$.#.@.&.+.#.+.$.$.@.4.5.e.=.+.4.&.@.@.@.@.$.$.$.8.8.$.$.$.$.$.$.$.8.$.@.&.&.&.&.&.&.5.@.&.&.4.@.$.$.$.$.@.&.&.&.&.@.@.@.@.#.@.&.@.#.O.&.o.A A G G j j H G G G C.tXH h g 1 - - - < 1 g h h h g f f s B %.....o.X.#.O.@.@.@.$.$.$.+.+.$.$.$.@.5.4.4.4.4.4.4.4.4.#.o.@.@.5.@.@.$.$.+.+.@.$.$.o.$.$.o.| @.$.+.#.o.+.$.$.$.+.X.+.o.| X.$.$.X.o.o.+.o.+.O.O.+.#.O.O.| X.O.O.O.O.O.O.+.$.$.$.$.@.#.@.@.&.&.$.$.@.$.$.$.$.$.*.=.=.=.-.-.=.*.*.<.1.<.1.1.1.D.^.rXJXLXKXKXPXvXfXpXV.pXiXuXaXdXxXcXGXkXfXxXvXHXPXHXvXHXLXKXHXvXxXxXdXdXdXaXyXuXuXuXdXzXzXdXdXuXuXsXyXyXuXq 9 4 = > < < - > > = = = = > ; ; # + * > * # @ + * # # + & f S -...-.-...%.$.%.%.-.%.$.$.$.$.$.@.$.$.$.$.$.$.$.-.-.-.%.%.$.$.=.*.-.-.$.$.$.$.$.$.$.$.$.$.$.$.=.*.*.$.$.$.$.$.$.$.$.$.$.$.$.$.@.@.%.-.B & & a a a a a a a a a a a a a f a a f f f f f a a f f f f a a a f f f f f f f f f s g f Z S -.*.*.*.*.*.8.8.$.*.*.*.i.*.*.*.$.9.9.9.w.9.w.w.w.9.9.w.w.w.w.w.w.w.w.w.w.5.q.w.w.e.e.s.d.e.e.e.d.s.s.s.s.s.e.s.s.d.e.w.w.w.w.w.w.w.w.q.q.w.t.w.w.w.w.w.w.w.w.w.9.e.s.d.y.w.t.w.t.t.t.t.t.t.t.t.t.t.t.y.t.t.t.t.t.t.t.t.t.t.t.t.y.w.y.t.t.t.t.t.t.t.t.t.t.t.t.t.t.w.t.t.t.t.t.t.w.w.w.w.w.t.t.q.q.q.q.q.q.q.q.q.q.r.r.r.r.q.6.r.r.6.q.w.w.w.u.q.q.q.q.q.q.q.u.t.t.t.t.u.q.q.t.w.t.t.t.t.t.t.t.t.t.t.y.y.t.y.d.y.a.s.d.y.a.s.s.s.s.a.y.y.t.t.t.t.d.y.w.w.w.w.w.9.u.w.u.t.t.w.w.w.w.9.d.s.s.s.s.s.s.s.s.s.s.s.s.s.s.s.s.s.s.s.s.s.s.s.w.9.w.w.9.9.w.w.9.0.>.p.s.w.u.r.6.9.9.9.9.9.9.9.9.9.9.9.9.9.9.9.9.9.9.9.9.9.$.=.=.",
"Q ! ! _ _ ` ' _ _ ' ' / ! / / ) ) _ ' ` ` $.+.` +.%.........$.$.%.$.+.+.%.o.o.+.O.O.( ( O.O.O.+.+.$.%.+.%.$.$.+.+.#.o.+.O.O.O.O.O.$.+.O.O.O.O.O.O.O.O.O.O.#.O.#.+.$.$.+.O.O.4.O.+.$.$.$.@.4.4.@.@.+.O.@.$.$.$.$.$.$.@.4.@.$.$.$.@.8.$.$.$.$.$.@.&.&.&.&.&.8.$.&.#.4.&.@.8.$.$.@.&.&.&.4.5.5.4.&.&.&.#.o.o.#.#. .A J H G j j j h j h G tXG j h g 1 1 1 f g h h h g f f s B ..o.%.$.$.o.#.#.$.$.$.@.$.@.+.@.$.$.o.@.4.4.O.4.4.4.4.O.O.X.| #.5.@.$.$.$.$.$.$.@.#.$.+.o.o.$.o.+.o.o.$.$.$.$.+.+.#.X.#.+.X.O.#.#.| #.#.O.+.O.O.O.+.#.O.O.X.X.O.@.o.| X.O.#.#.$.$.$.$.#.#.@.@.&.#.#.#.@.$.$.$.$.$.%.=.=.=.,.<.=.<.1.1.1.1.3.^.mXJXLXKXLXPXGXfXsXfXkXfXfXdXdXcXHXKXHXbXdXfXdXdXdXxXHXPXHXbXHXvXkXlXfXkXlXuXlXkXaXsXdXbXbXvXxXfXpXV.q 9 9 6 = > > > ; f g 1 * > = > * ; 1 1 ; * O * ; + O X $ $ > * # # # a S ....-.......%.$.$.$.$.$.#.$.$.$.$.$.$.$.$.$.$.=.-.%.$.%.=.,.,.,.,.,.*.*.*.*.*.*.=...=.$.$.$.&.=.*.$.$.=.=.=.=.$.@.&.@.@.$.$.$.$.#.$.-.x a a a a a a a a a a a a a a a a f f f f f f f a a a a a a f a a f f f f f f f f f f f Z S ,.>.<.*.*.*.*.e.$.=.*.*.<.*.e.9.9.9.9.w.e.w.w.w.w.w.w.w.w.w.w.w.w.q.q.q.w.w.w.w.9.e.e.*.e.i.s.*.e.e.d.e.e.d.y.d.e.e.w.w.9.9.q.w.w.w.q.q.q.w.w.w.q.q.q.w.w.w.w.w.9.w.w.w.w.w.t.w.w.t.t.t.w.t.t.t.t.t.t.t.w.t.y.d.y.t.w.t.t.t.t.y.w.w.t.t.t.t.t.t.w.t.t.t.t.t.t.w.y.t.t.t.t.t.t.t.w.w.w.w.w.w.q.q.q.q.q.q.q.w.w.q.q.r.r.r.r.6.q.q.q.q.q.q.q.w.u.r.r.u.q.w.w.w.w.t.t.t.t.w.q.u.u.t.t.t.t.t.t.t.t.t.t.y.a.y.t.y.d.y.a.s.a.a.a.s.s.s.s.s.s.a.t.t.y.d.y.w.w.w.w.w.w.w.6.w.w.t.t.w.w.w.9.0.d.s.s.s.s.s.s.s.s.s.s.s.s.s.s.s.s.s.s.s.s.s.s.a.w.9.w.9.9.9.9.9.9.9.9.9.5.4.r.r.6.9.9.9.9.9.9.9.9.9.9.9.9.6.9.9.9.e.e.e.*.9.9.9.9.",
"_ / / / / _ _ _ ' ' _ ! / / / ( ) _ ` ' o.o.+.%.%.%.......%.$.$.$.$.+.+.%.o.o.+.O.O.( ) O.#.O.) ) %.o.` o.$.$.o.O.O.O.#.O.( O.O.O.+.+.O.#.#.+.+.X.X.O.O.O.O.O.O.#.+.+.+.O.@.4.+.$.+.+.+.@.4.4.+.@.@.@.5.$.$.$.+.+.+.@.4.e.e.$.+.&.5.5.8.$.8.9.8.@.&.5.@.&.8.8.=.#.&.&.5.5.@.$.@.5.&.&.4.4.4.4.&.&.&.@.o.+.@.o.A A J H G C.tXG j g g j j j h h h g f 1 f h h h h h f f C ..%.+.+.%.%.+.o.#.+.$.@.&.@.+.#.$.@.@.#.@.@.4.#.4.4.O.&.O.O.X.X.X.O.+.+.o.+.+.+.+.o.| o.$.o.o.+.o.#.o.o.$.+.+.+.$.@.#.O.#.o.X.o.+.+.X.O.O.+.+.#.O.X.+.#.O.X.X.| #.@.o.| X.o.#. .#.$.@.o.o.#.$.$.$.@.#.#.&.$.$.$.=.%.-.-.=.=.<.<.-.<.1.1.1.^.rXDXLXKXKXPXbXHXPXPXKXKXKXPXHXHXPXPXKXKXPXHXaXy aXaXuXfXxXcXcXcXkXkXkXkXfXiXiXfXvXxXxXbXvXbXcXxXfXyXw 8 7 1 1 ; > > > > < h h < $ * o * * 1 f f ; O $ - < + X X O $ $ + @ # # + f ;.-.........%.$.$.$.$.o.#.$.@.+.$.%.$.%.$.o.$.%...%.$.%.,.>.>.>.>.,.=.=.=.=.$.*.=.,.$.$.$.$.&.$.$.$.$.$.$.@.$.$.&.&.&.&.@.$.$.o.#.#. ...x a a a a a a a a a a a a a a f f f f s f f f a a a a a a a a a a a f f f f f f s a f g S >.>.,.*.e.e.e.9.$.*.*.*.@.e.9.9.w.9.w.w.w.w.w.w.w.w.w.6.5.q.q.w.w.q.q.q.q.w.w.w.w.e.*.*.e.e.d.*.e.e.e.e.e.e.e.y.e.e.y.w.9.9.q.q.q.6.6.q.q.6.q.q.q.q.q.w.w.w.t.w.w.w.9.w.w.w.w.w.w.t.t.w.t.t.t.t.w.t.t.t.y.y.y.d.y.y.y.y.t.y.d.e.y.y.y.y.y.y.w.t.y.y.t.t.t.t.w.y.d.t.t.t.t.w.w.w.9.w.w.t.t.u.q.u.u.q.q.q.w.w.w.w.q.q.r.q.r.r.r.r.6.q.q.r.r.r.u.u.u.u.u.t.w.w.t.t.t.t.t.t.q.u.u.t.w.t.t.w.w.t.t.t.t.y.a.y.t.y.y.y.s.s.s.s.s.s.s.s.s.s.d.d.t.w.y.s.y.w.w.w.9.w.t.w.r.q.w.u.u.w.w.w.w.d.a.s.s.d.s.s.s.s.s.s.s.s.s.s.s.s.s.s.s.s.s.s.s.s.w.9.w.w.u.u.9.9.w.9.w.q.q.7.4.7.6.9.9.8.9.9.w.w.9.9.9.9.6.6.6.9.9.8.e.*.*.e.9.9.9.",
"' ' _ ! ! ! ! ! _ _ _ ! ! / ! / _ _ _ ! ! | | o.%.` %.%.%.| o.$.$.o.o.$.%.+.X.X.X.#.$.$.%.%.+.%.) +.X.X.X.o.X.| X.O.O.O.+.+.O.O.X.X.O.O.O.#.+.@.O.O.O.O.O.O.O.+.O.#.$.@.#.+.$.o.o.+.+.+.$.$.5.5.8.$.8.w.$.o.$.@.5.4.5.&.5.$.$.@.@.$.@.@.@.8.9.9.5.q.8.$.$.$.9.9.$.&.&.&.&.@.@.@.@.@.&.4.4.5.@.+.$.$.$.$.+.o. .J s J H G tXG tXI 1 h h h h h h h h g g g h h j h h j J ..%.%.+.#.+.$.$.+.+.+.+.@.@.@.@.@.$.&.&.&.@.@.#.+.%.+.@.&.O.O.O.O.O.O.O.O.O.O.O.+.$.$.$.$.$.$.$.o.| | | | o.+.X.X.+.$.+.#.+.$.o.o.%.+.$.#.+.$.$.$.+.X.O.O.X.| O.&.@.$.$.o.#.$.o.| #.$.$.$.$.$.$.$.$.#.#.o.@.$.$.$.%.-.-.-.=.>.<.<.<.1.2.^.mXJXPXKXKXKXKXKXKXKXKXKXKXKXKXKXKXKXKXPXHXPXcXfXyXiXdXxXxXkXvXkXfXkXkXvXvXHXHXvXxXvXvXvXbXvXzXdXaXt w 4 > 1 g h g ; = = > > < g g % O o o $ # f g f % # + < < @ $ * O $ + * # * # + % S ..$.%...%.$.$.%.$.$.#.#.$.o.o.$.$.$.%.$.o.%.-.-.%.$.-.>.>.=.=.-.,.>.<.=.-.*.*.$.$.$.$.$.$.$.$.$.$.$.$.$.&.@.$.=.$.#.@.@.@.@.$.$.$.$.$...d a a a a a a a a , , a a a f f f f f f f f f a a a f a a f f f f a f f f f s s f f Z F >.=.*.*.8.9.9.9.*.*.*.=.=.=.e.9.w.w.d.*.*.*.*.e.w.w.w.w.w.w.w.q.q.q.q.q.q.q.w.w.w.e.e.e.e.y.d.d.d.i.*.*.w.w.d.s.w.w.w.w.w.w.w.w.9.7.6.q.6.q.q.q.w.w.w.w.w.w.w.w.w.w.w.w.w.w.w.w.w.w.w.w.t.w.w.w.y.y.w.y.s.a.y.y.d.s.a.d.e.s.s.s.a.y.t.t.d.s.d.t.y.w.w.t.t.t.t.t.t.t.w.w.t.w.t.w.t.u.t.t.t.t.6.u.t.u.u.q.q.q.q.q.q.r.r.r.r.r.q.q.q.q.r.r.r.u.u.u.t.w.w.w.q.q.u.u.u.u.w.q.w.w.t.w.t.t.w.w.t.t.t.t.t.t.t.y.d.t.t.d.s.a.s.s.s.s.s.s.s.s.s.d.y.w.w.w.w.w.w.w.t.t.t.w.u.q.q.q.w.w.9.9.w.w.y.a.s.s.s.s.s.s.s.s.s.s.s.s.s.s.s.s.s.s.s.s.d.w.9.9.9.9.t.u.9.9.9.9.9.9.r.r.r.r.7.9.9.9.6.9.9.9.e.9.9.9.9.9.9.9.8.9.9.9.e.9.9.9.9.",
"/ / ! ! ! ! _ ! _ / Q E ! _ _ _ _ ! ! ! ! | | | o.%.%.` %.| o.$.%.o.| o.%.o./ ! X.o.o.+.$.@.( +.+./ / O.O.O.o.X.O.O.O.O.O.$.+.O.X.| X.X.X.X.X.#.O.O.+.#.+.+.$.+.+.+.+.#.+.+.$.o.+.$.+.+.8.5.4.4.5.8.#.@.+.$.$.$.$.$.8.@.+.@.$.@.@.$.$.@.@.&.$.5.&.8.9.=.=.$.$.$.$.&.&.&.&.8.8.8.8.@.&.4.4.4.#.+.$.+.+.$.$.o. .x d J G G tXG j j g h j j h h h h h h h h h H G G H S ;.%.%.%.%.#.#.+.+.o.+.+.#.+.@.4.@.@.@.@.@.@.$.$.+.$.%.%.4.4.O.O.O.O.O.O.O.O.O.O.O.+.+.+.$.$.+.$.$.o.o.| o.| o.o.| X.+.+.+.$.+.+.o.| o.+.o.#.+.$.$.$.%.+.O.O.X.| O.@.$.o.o.o.@.=.#. .@.o.o.$.$.$.$.o.$.$.%.o.@.$.=.$.=.-.-.-.-.3.1.-.3.2._.JXKXKXKXKXKXKXKXKXKXKXKXKXKXKXKXKXKXPXHXHXGXkXkXvXvXGXHXPXPXHXvXIXkXIXvXHXkXkXvXkXvXHXcXxXzXaXt q 8 : > > * h j H f ; > = > = ; 1 < $ O o o # - g f f 1 # # < 1 # * = * X # ; - ; # # % A  .o.$.....%.$.#.#.%.$.#.$.$.+.$.%.%.$.$.$.$.$.$.$.$.%.-...$.%.=.=.,.,.=.=.*.*.=.$.$.$.$.$.$.@.@.$.$.$.$.@.@.$.$.$.$.$.@.&.#.o.$.$.$.@.%.A d a a a a a a a a a a a a a a a f f f f f f a a a f a a a a a a a a f f a a s f f j :.>.*.*.*.$.$.e.e.*.*.*.e.=.*.*.e.e.e.e.*.e.e.w.w.w.w.9.w.w.&.q.q.q.q.q.q.q.q.w.w.w.w.w.w.w.e.s.s.s.s.d.e.w.w.e.d.w.w.9.w.w.9.9.9.w.q.q.w.w.q.q.w.w.w.w.w.w.w.w.w.w.w.w.w.w.w.t.t.w.w.w.t.t.t.e.t.t.w.t.y.s.s.s.s.s.s.s.y.s.s.s.s.d.y.t.t.d.a.y.w.w.w.w.t.t.t.t.t.t.w.w.w.t.t.w.w.w.t.u.r.w.u.6.u.t.u.r.q.u.q.q.q.q.q.r.r.r.q.q.q.q.7.q.q.r.u.r.r.u.w.w.w.w.t.t.u.u.u.w.t.w.w.w.t.t.t.t.w.t.t.w.w.w.w.t.t.t.t.t.y.y.s.s.s.s.s.s.s.s.s.s.s.s.s.d.d.e.w.w.9.w.t.u.6.6.q.t.w.w.w.9.9.9.9.9.s.s.s.s.s.s.s.s.s.s.s.s.s.s.s.s.s.s.s.s.s.s.a.e.w.9.9.9.9.9.9.9.9.9.6.6.r.6.r.r.r.r.7.7.r.9.w.w.9.9.9.9.9.9.9.8.9.9.9.9.9.9.9.9.",
"_ _ ! | ! _ ^ ! ~ ^ ! ! ! _ _ / ! ! ! ! ! ! | X.X.+.o.+.$.| o.$.` +.@.o.o.X.O.O.+.+.o.o.o./ / +.+./ / O.O.#.O.O.O.O.#.+.O.#.O.O.X.#.o.| | X.X.O.O.O.+.+.$.+.+.$.$.+.O.#.$.+.$.+.+.8.@.@.$.+.O.4.@.#.#.@.@.$.$.$.$.+.%.$.$.$.$.8.8.+.$.@.q.&.$.@.5.$.$.$.=.$.$.$.$.$.&.@.@.5.8.8.8.$.&.4.O.O.+.8.=.$.+.$.$.+. .A s H G G G j h g f j h h h h h h h h h g g H G D S ..%.$.%.+.+.#.O.O.O.O.@.O.+.5.4.4.4.4.5.@.$.$.$.$.$.+.+.#.O.+.$.+.#.O.#.#.O.O.O.O.O.+.+.#.+.#.#.$.$.%.$.o.$.o.o.| | | #.#.+.$.+.#.+.X.o.#.| o.$.$.%.o.o.o.O.O.#.+.O.O.X.| | X.#.+.&.#.#.o.+.$.$.$.@.@.$.$.$.$.=.=.#.$.=.=.=.-.A J j j I CXJXKXKXKXKXKXKXKXKXKXKXKXKXKXKXKXKXLXGXGXHXKXPXGXPXLXKXKXKXHXHXHXvXIXbXPXHXHXkXkXkXkXdXsXkXiXq 0 0 : = > > = ; g H H f * > = = = = > ; X O X O # 1 g s s , O $ - < ; # * # * > ; * # @ + < S  .|  .%...%.$.#. .#.$.%.$.$.$.o.$.%.$.$.$.$.$.$.$.$.$.$.$.$.$.*.=.=.,.=.*.*.*.*.=.$.$.$.$.=.@.@.=.$.*.$.@.#.@.@.&.@.$.$.@.@.$.$.$.#.#.#.-.A d a a a a a a a a a a a a a a f f a f f f f f a a s a a a a a a a f f f f f f f Z :.<.*.*.*.*.*.e.*.*.*.e.w.e.e.e.s.e.=.8.8.e.w.9.w.9.w.w.w.w.5.q.q.q.q.q.q.q.q.w.w.w.w.w.w.w.w.e.e.*.*.i.s.e.w.e.d.e.w.w.9.6.q.w.w.q.q.q.t.t.q.q.w.w.w.w.q.w.w.w.w.q.w.t.w.w.w.w.t.t.w.w.t.w.t.y.t.t.t.t.t.s.s.s.s.s.s.a.e.a.s.a.e.y.t.t.y.y.y.w.w.w.w.e.t.t.t.w.w.9.t.t.w.t.w.w.w.t.t.w.6.q.q.q.q.q.q.6.q.q.q.q.q.q.q.r.r.q.q.r.r.6.6.u.u.q.u.r.q.q.w.w.w.w.w.t.t.u.t.t.t.t.w.6.w.t.w.w.w.t.w.w.t.t.t.t.t.t.t.y.d.a.s.s.s.a.a.a.a.s.s.s.s.s.s.s.s.s.w.w.w.t.t.t.6.r.u.t.w.w.t.w.9.9.9.9.d.s.s.s.s.s.s.s.s.s.s.s.s.s.s.s.s.s.s.s.s.s.s.d.e.w.w.9.9.9.9.u.9.6.r.6.9.9.7.r.r.r.7.7.6.9.w.w.9.9.9.w.d.d.9.9.9.9.9.8.8.9.9.9.",
"' _ ! Q ! ~ ^ ~ ~ ~ ! ! / ! ! ! ! _ _ ! ! ! ! X.O.o.o.o.o.| o.+.) +.$.o.! X.X./ ) ` +.+.X./ / +.X.X.X.X.| X.( O.O.O.O.+.#.O.+.+.#.O.o.o.o.#.O.#.O.O.#.8.8.+.+.+.+.#.+.+.+.+.@.+.4.5.&.@.$.+.O.5.+.+.8.@.+.O.$.=.$.+.$.@.+.8.$.5.@.$.$.@.@.@.$.8.8.$.$.$.$.e.=.@.@.@.$.$.$.@.@.@.@.@.&.+.O.+.4.5.$.$.$.$.+.@. .A s J H j h h h g g H j h h h h h h h h g g H D S ;.%.o.@.$.+.O.O.O.O.O.O.O.O.4.+.4.&.4.+.&.@.$.$.8.$.$.+.@.#.#.%.+.$.+.O.+.+.O.O.O.#.#.o.o.O.O.O.#.@.%.%.+.+.+.o.| | | | X.#.+.+.+.#.+.+.o.o.| o.@.@.+.| | | #.+.$.$.#.#.o.X.o.+.+.O.o.X.#.@.@.$.%.o.#.@.=.=.@.=.=.-.-.=.=.=.=.-.J f f I FXKXKXKXKXKXKXKXKXKXKXKXKXKXKXKXKXKXKXKXLXPXLXKXKXKXKXKXKXKXKXKXKXKXPXPXPXLXPXvXIXlXiXcXdXt w L h j j 1 > = = = ; j S Z f * > = = = = * # O O O O # 1 f s a % @ # ; ; ; > * * > * > * # # # < x ..| o.$.$.$.$.o.| | o.o.$.$.o.o.$.$.$.#.$.$.$.$.$.$.$.$.$.$.$.*.=.-.>.=.*.$.$.$.=.=.$.$.$.@.$.$.@.=.=.$.$.@.&.&.&.&.@.$.$.+.#.$.$.$.@.+.&.o.x a a a a a a a a a a a a a a f a a a f f f f f a s a a a a d a a a f f f f f a Z S =.*.*.*.*.*.*.*.e.*.e.w.e.e.*.e.e.@.&.q.w.w.9.9.9.w.w.w.w.w.w.q.q.5.q.q.q.5.w.w.w.w.w.w.9.9.w.e.*.*.e.d.0.w.e.d.e.w.w.q.q.q.w.w.q.q.q.q.t.q.q.w.w.w.w.w.w.w.w.w.q.q.q.q.t.t.9.w.w.w.w.t.w.w.w.t.t.t.t.w.d.s.s.s.s.s.s.a.a.s.y.t.t.y.t.y.t.t.w.w.w.y.d.w.t.t.w.w.w.t.t.q.q.w.9.w.t.t.w.q.r.u.q.q.q.q.u.u.q.q.q.q.q.r.r.q.q.q.r.r.r.t.t.t.t.q.q.q.q.w.w.t.y.y.t.t.u.t.t.t.t.w.w.t.t.t.w.w.w.w.t.t.t.t.t.t.t.t.y.s.s.s.s.d.y.t.t.y.d.d.e.e.s.a.s.s.d.e.t.t.t.u.u.t.u.u.t.w.u.u.t.w.w.w.y.d.s.s.i.a.d.d.s.s.s.s.s.s.s.s.s.s.s.s.s.s.d.y.y.w.9.9.9.9.9.w.9.6.6.r.6.9.9.5.7.r.r.r.6.7.6.w.w.9.9.9.9.s.i.9.9.9.9.9.9.9.9.9.9.",
"! Q Q / / ! ! ' _ W ! _ _ _ / ! ! ! ! ! ! ! / o.+.' ' %.o.` _ O.O.X.o.o./ o.| ! / O.O./ X.O.X./ X.O.O.O.O.X./ X.O.O.#.#.O.O.#.O.O.X.X.| X.O.O.+.O.O.+.8.$.+.+.+.+.@.+.+.O.O.4.4.O.5.$.$.$.+.+.4.@.@.@.#.+.+.@.$.$.+.O.&.+.@.$.$.$.$.$.$.+.@.5.e.=.$.$.@.&.5.w.$.@.@.8.8.$.@.@.$.+.+.+.O.O.4.4.O.4.5.$.$.+.%.X.N V s j h h L j j G j g f g h g h h h h h j D A ..%.@.@.$.$.+.#.O.4.O.+.+.+.$.@.+.&.&.&.O.#.$.+.O.5.@.$.@.&.4.O.O.#.+.O.O.#.O.o.+.@.+.+.o.X.O.4.O.#.@.+.+.%.+.+.O.X.o.X.o.o.| X.O.$.$.$.$.+.o.o.$.o.o.+.+.#.X.+.+.%.+.+.#.+.X.X.O.| | o.O.X.o.#. .N  .@.&.&.#.#.#.#.%.-.=.=.=.-.-.S g Z.GXKXKXKXKXKXKXKXKXKXKXKXKXKXKXKXKXKXKXKXKXKXKXKXKXKXKXKXKXKXHXHXPXLXKXKXPXPXGXIXIXkXiX9 w 9 : - g H S D 1 ; > > = < j J C g # * * = > > ; - ; # # $ % f f s a % @ @ * * # * * * * * * ; - < < , x ....$.$.$.$.$.o.$.%.$.o.| #.$.$.$.$.$.#.$.$.$.$.$.o.$.$.$.$.$.*.=.=.,.>.>.=.$.$.=.=.$.$.$.$.@.&.&.$.$.=.@.&.&.&.4.@.&.&.5.$.$.$.$.@.o.X.#.$. .x a a a a a a a a a a a a a a a a f f f f f f a a a a a a a s s f f s s s f a x D =.*.*.*.*.*.*.*.*.e.9.w.e.*.*.*.e.w.w.9.5.5.q.5.8.w.w.8.q.w.w.w.w.q.q.q.q.w.w.w.w.w.w.w.w.w.w.e.e.e.e.e.w.e.*.e.e.w.9.w.q.q.q.9.9.w.w.6.r.q.t.w.9.w.w.w.w.w.w.w.w.w.w.w.w.w.w.t.t.t.t.t.t.w.t.w.w.w.t.w.w.d.s.s.s.s.s.d.y.a.y.t.y.y.d.d.y.w.w.w.w.t.y.w.w.w.w.w.w.w.w.w.w.w.w.w.q.r.w.q.q.q.q.w.w.q.u.q.q.q.q.q.r.r.r.q.r.u.q.r.6.t.y.w.t.u.r.u.u.u.w.w.t.y.y.t.t.t.u.w.w.w.t.t.t.t.t.t.t.t.t.t.t.t.t.u.t.t.d.a.s.s.s.s.e.y.t.t.t.w.w.w.y.y.a.s.0.9.w.w.w.6.w.r.6.t.t.w.9.9.9.9.9.e.e.d.d.d.s.w.w.d.s.s.s.s.s.s.s.s.s.s.s.s.s.s.a.d.e.w.w.9.9.9.9.9.9.9.r.7.6.7.5.8.6.r.6.6.9.6.6.9.7.9.9.9.9.9.9.9.9.9.9.9.9.9.9.9.9.",
"^ ^ ! ! ! ! / ! ! Q ! _ ` ` _ ! ! ! ! ! ! ! / o.o.' ' o.o._ _ X.O.X.| X.! X.X.#.X./ / ( O.#./ ! o.X./ O.O.O.O.O.O.( O.O.O.O.O.O.O.o.X.! X.X.X.X.X.O.( O.+.$.+.%.$.$.+.O.O.O.O.O.#.#.+.$.$.+.O.4.@.@.@.#.#.@.$.$.$.+.+.4.4.@.+.$.8.$.$.$.$.@.&.$.$.$.$.@.&.4.5.8.$.$.+.+.$.8.@.@.@.+.4.4.4.&.4.5.5.4.$.$.$.$.o. .x s g h h j h h h g g 1 f g g g g h h g s C ..%.o.$.$.$.$.+.#.#.O.+.$.$.$.$.+.#.@.&.&.+.+.$.$.+.@.$.5.4.@.4.O.#.+.+.O.O.O.O.#.@.#.#.$.$.+.O.O.O.O.O.O.#.@.O.O.O.O.O.O.o.o.o.O.O.$.$.$.$.$.$.$.$.+.+.#.#.#.#.O.#.O.X.@.$.@.o.X.O.X.X.#.#.X.|  .V a x %.@.@.#.#.#.#.$.=.,.-.=.=.-.G rXJXKXKXKXKXKXKXKXKXKXKXKXKXKXKXKXKXKXKXKXKXKXKXKXKXKXKXKXKXKXPXdXkXbXHXPXGXvXGXFXkXgXZ.0 : > > = - g D S D 1 ; > > > < g Z C g # @ # * * < 1 1 < # * * < f f f f + @ @ # * # + # # ; ; > < < ; & d A ..%.%.%.$.$.$.@.$.$.$.o.| o.+.o.$.$.$.$.$.$.$.$.$.$.$.$.$.$.$.$.=.-.<.>.>.>.=.$.$.=.$.$.$.$.@.&.&.$.$.=.@.@.&.&.@.@.@.@.4.5.$.$.$.@.@.@.$.+.o.B a a a a a a a a a a a a a a a f f f a f s f a a a a a a f s s s s s s s f a s S =.*.*.*.$.*.*.*.i.*.9.w.w.e.8.8.8.w.9.9.q.q.w.w.w.w.w.w.q.w.w.w.w.q.q.q.q.w.w.8.w.w.w.w.e.e.w.w.w.w.w.w.w.e.*.e.w.w.9.w.q.q.q.w.9.w.q.q.r.q.w.w.9.w.w.9.9.9.w.w.w.w.w.w.w.w.w.w.w.w.w.t.t.t.t.t.t.w.w.w.y.d.s.s.s.s.s.a.y.s.w.w.w.t.w.t.w.w.w.w.w.w.w.w.y.y.y.w.w.w.t.t.9.w.w.q.q.u.6.q.t.w.w.w.w.u.r.u.u.r.r.q.q.r.r.r.r.u.q.r.r.q.w.t.t.w.w.w.w.w.w.w.w.w.t.t.t.t.t.t.t.t.t.w.w.t.t.w.w.w.t.w.w.w.q.r.u.t.w.y.d.a.a.d.e.y.t.t.t.w.y.w.w.w.y.w.9.9.w.w.w.t.6.6.q.6.9.w.w.w.9.9.9.d.e.e.w.e.s.e.w.d.s.s.s.s.s.s.s.s.s.s.s.s.s.s.s.s.e.w.w.9.9.9.9.9.9.9.6.r.r.r.6.9.6.r.r.6.6.9.9.9.9.9.9.9.9.9.9.9.9.9.9.9.9.9.9.9.9.",
"^ ^ ~ _ ! / _ ! _ _ / ! ' _ _ _ _ ! ! ! ! ! _ _ _ ` ) _ | | o.| X.o./ X.! X.O.X.| / ( O.O.#.X.| $.o./ / / / ( ( ) ) O.O.#.O.X.X.+.$.+.O.#.X.X.X.O.O.( O.@.$.$.%.$.$.+.O.O.O.O.O.+.#.@.8.$.+.O.4.O.O.@.#.X.+.+.+.$.$.$.$.4.@.O.+.8.$.$.$.8.$.@.@.$.$.$.@.&.4.4.5.@.#.@.4.@.@.#.5.&.5.4.4.4.O.+.$.+.+.@.+.+.+.|  .A s J h g f f g f 1 f f g f g g h g f d x ..%.o.+.$.+.$.$.+.#.#.O.+.+.@.5.4.4.@.$.@.$.$.$.$.$.$.%.$.@.5.#.O.#.%.$.+.#.O.O.+.+.$.o.O.+.$.+.O.O.O.O.O.+.+.@.#.O.O.O.O.+.o.o.O.O.+.$.$.o.o.$.@.$.o.| X.X.O.O.#.4.4.O.O.@.$.$.@.#.O.O.4.&.&.+.| N , + & B %.$.@.&.#.$.%.=.,.=.=.-.3.mXLXKXKXKXKXKXKXKXKXKXKXKXKXKXKXKXKXKXKXKXKXKXKXKXKXKXKXKXKXKXKXKXLXPXHXGXIXFXkXgXV.0 7 g g 1 - > = - g D C S g ; > > = < f g C g # @ + + # 1 f f f % * > ; f f f 1 # @ @ + # # # ; ; # * * * % , x A ..%.%. ...$.$.$.$.$.$.$.$.+.o.| o.o.$.$.$.$.$.$.$.$.$.$.@.@.$.$.$.=.-.=.>.>.>.*.$.$.=.$.$.$.$.@.&.&.$.$.$.@.@.&.@.$.$.$.$.4.4.4.O.&.&.$.$.o.o.o...x a a a a a a d a a a a a a a a a a a a f a f d a a d s s s s s s s a s f a J -.=.*.*.*.e.*.*.*.*.*.w.w.w.w.q.q.8.w.w.w.8.5.w.w.w.w.w.w.w.w.w.w.w.q.q.q.q.q.q.w.9.w.w.w.d.d.y.w.w.w.w.w.y.y.w.w.w.w.9.9.w.w.w.w.9.q.q.q.q.q.w.w.9.9.9.9.t.w.9.w.w.w.w.w.w.w.w.w.w.w.t.t.t.t.t.w.w.w.y.d.a.d.s.s.s.s.s.s.s.d.y.w.w.t.w.w.w.w.w.w.w.w.w.y.d.a.s.y.t.t.t.w.t.w.w.q.q.u.u.6.9.w.w.w.w.r.r.u.u.r.r.r.r.q.r.r.r.r.r.r.r.q.6.u.t.w.w.w.w.w.w.9.w.y.t.t.t.t.t.t.t.t.y.e.w.w.t.t.w.w.t.t.t.t.t.t.t.t.t.t.w.y.y.e.e.w.t.t.w.e.s.y.t.w.w.w.9.9.w.w.q.6.6.w.6.6.9.9.w.9.9.9.0.a.d.d.e.e.s.d.e.y.a.s.i.i.s.s.s.s.s.s.s.s.s.s.s.s.e.9.w.u.u.9.9.9.9.6.r.r.r.r.9.9.9.6.r.6.7.7.9.9.9.9.9.9.8.9.9.9.9.9.9.9.9.9.9.9.9.",
"^ ~ ~ ^ / ! ! ! _ _ ! ! ! | | ~ ~ Q ! ! ! W _ _ ` ` +./ | | | | | o./ X.X.X./ / ! / / / O.X.| | | ! ! / / / ) ) ) ) O.O.O.X.X.| X.+.O.O.O.O.O.X.X.#.+.O.+.+.+.O.@.+.#.O.O.@.#.o.O.O.@.$.$.$.@.4.O.@.@.X.X.X.O.O.@.+.+.+.5.4.4.4.@.$.$.$.8.$.4.@.8.$.@.&.4.4.4.4.@.&.&.4.4.@.O.+.@.5.4.4.O.O.+.$.+.#.O.#.$.%.+. .A s f h f f f h g 1 f h h f f f f a d x ..%.+.| +.$.#.+.+.+.+.#.4.O.#.O.4.4.4.@.$.$.$.$.$.$.$.$.$.$.$.$.+.+.+.+.+.$.$.#.+.$.+.+.+.+.+.+.+.O.+.+.O.O.+.+.o.O.O.O.O.#.&.$.#.#.#.$.$.$.o.| +.o.+.+.X.#.O.O.O.O.X.O.4.4.@.%.+.%.@.&.4.4.#.#.@.%.x % @ + a ..%.@.&.$.=...-.$.=.=./.FXKXKXKXKXKXKXKXKXKXKXKXKXKXKXKXKXKXKXKXKXKXKXKXKXKXKXKXKXKXKXKXKXKXKXLXGXFXjXgXK 1 < - < f f 1 - > > - g Z Z D g ; > > > < g Z x f # + * # + f f f f % # * # 1 f f a + @ # * @ + + + # ; # + + a C .. .%.o.o.......$.o.$.$.$.$.$.$.@.%.o.o.$.$.@.$.$.$.$.@.o.#.@.+.@.$.$.%.-.-.>.>.*.*.*.$.=.$.$.$.$.@.&.&.$.$.$.$.@.&.@.$.$.$.$.4.4.O.#.&.&.@.$.$.@.+.%.B d a a a a a d d a d a a a a a a a f a a f f s a d s s x s s s s s a a a g S -.=.*.*.e.w.e.=.=.$.e.w.8.w.9.w.w.w.w.w.w.q.&.q.w.8.8.w.9.9.w.w.w.w.q.q.q.q.q.q.w.w.q.w.y.w.w.w.w.w.w.d.y.y.0.9.9.w.w.9.9.w.w.w.w.w.q.q.q.q.q.9.w.9.6.w.w.t.w.w.w.9.9.w.w.w.w.w.t.w.w.t.t.w.t.t.w.w.t.a.s.s.s.d.e.s.s.s.s.s.d.s.s.s.e.d.d.w.w.w.w.w.y.w.w.e.d.d.e.w.t.t.t.w.w.t.u.q.r.q.w.q.6.q.w.6.r.q.q.q.6.r.r.r.q.r.r.q.r.q.r.r.q.6.u.t.w.u.w.w.w.t.w.y.d.w.w.t.y.y.w.t.y.a.s.w.w.w.w.w.w.t.t.t.w.t.t.t.t.t.w.w.t.w.w.d.y.t.y.d.d.s.y.t.u.u.w.9.9.9.6.w.t.w.6.6.9.9.9.9.9.w.s.s.s.e.e.d.d.s.s.s.y.y.s.p.i.s.s.s.s.s.s.s.s.s.s.s.i.e.9.9.t.t.t.u.9.9.6.r.r.r.r.6.9.6.6.r.r.4.6.9.9.6.9.9.9.9.9.9.9.9.9.9.9.9.9.<.,.*.",
"^ ~ ! _ ! Q Q ! ! ! Q ! ! ! ! / _ ~ ~ _ / | _ _ ` ) ) _ | o.o.! X.X./ ! X.X.X.o.o.+._ X.X./ / o.o.o./ / X.+.X.O.( ) ( O.O.X.X.X./ O.O.( ( ( O.#.O.O.#.O.O.#.+.#.+.#.#.#.O.%.+.+.O.O.4.O.#.$.$.@.O.#.@.+.@.X.X.O.+.+.+.+.8.8.@.@.$.$.$.$.$.$.@.@.5.$.$.@.+.4.4.4.4.&.&.4.5.@.5.+.+.5.5.O.O.O.4.@.4.O.O.#.8.$.+.| N s h h f , f g f f f h g f a f d z B .. .o.#.+.$.$.+.+.+.#.O.@.+.4.O.O.O.O.O.+.$.$.$.$.$.$.$.+.+.$.$.+.+.O.O.O.#.#.O.4.@.O.O.O.+.#.#.+.o.X.#.+.#.+.o.| | X.O.O.X.O.O.| o.o.X.$.$.o.@.o.$.+.+.+.+.+.+.O.O.X.X.O.X.o.$.$.$.$.#.@.@.+.X.| #.#.x % @ @ % B %.#.@.$.=.=.=.@.=..XJXKXKXKXKXKXKXKXKXKXKXKXKXKXKXKXKXKXKXKXKXKXLXKXKXKXKXKXKXKXKXKXKXKXKXPXFXjXS.I D H J a < < < f 1 ; = > - f g Z Z f ; = > ; < g Z J f * # * # # f f f a % + + + < f a , < # # # # + # * # * % , s S ;..... . .%.o.o.%.@.o.$.o.| o.$.$.$.$.%.o.$.$.$.$.$.$.$.$.+.@.o.o.@.$.$.$.%.=.,.=.*.*.*.*.$.$.$.$.$.$.@.$.$.$.$.$.@.4.5.$.$.$.$.4.4.+.@.@.@.$.$.=.$.%.+...x f f f s s x d a s a f f a a a a f f f f f s a d s s s s s s s a a a a s S -.*.=.*.e.e.e.e.e.9.9.9.8.w.w.w.9.5.&.q.w.w.8.9.w.w.w.w.w.q.w.w.w.w.6.q.q.q.4.w.w.9.9.w.9.9.9.w.e.e.e.w.9.9.9.9.w.9.e.w.w.w.w.9.9.w.w.q.q.w.w.9.9.6.6.q.t.w.w.9.9.w.w.w.w.w.w.w.t.t.w.w.q.w.t.t.u.t.t.y.y.s.s.d.y.s.s.s.s.s.s.s.s.s.a.s.d.t.w.w.w.w.w.w.w.w.w.w.w.t.w.w.t.q.w.w.w.w.u.q.q.q.q.w.w.w.q.q.q.6.6.6.6.r.r.r.r.6.6.q.r.r.q.r.r.q.w.u.q.w.w.t.t.y.y.t.t.t.w.e.d.d.y.y.d.w.w.w.u.w.w.w.w.w.w.t.t.u.t.w.w.w.w.w.t.t.w.t.t.y.a.s.d.t.r.6.6.9.u.t.u.r.r.6.9.6.r.w.w.w.9.w.d.s.d.s.s.s.w.d.s.s.e.e.s.s.s.s.s.s.s.s.s.s.d.d.s.s.s.w.6.r.u.t.r.r.6.5.5.r.r.r.r.6.6.6.r.r.6.9.9.9.9.7.9.9.9.9.8.9.9.9.9.9.9.9.0.0.0.9.",
"~ ! ! _ _ ! ! ! ! / _ _ _ _ ! / ) _ _ _ _ ! _ ` ` ) ) ` ' _ / / X./ _ ! X.| / +.%.) ' ) X./ o.$.o.| _ _ / X.| O.O./ ( O.O.| / / / / #.#.O./ / X.O.O.O.O.O.O.+.O.+.8.@.#.+.$.%.5.4.@.5.O.+.$.%.+.#.+.$.$.$.+.$.+.+.$.$.$.$.8.8.$.$.$.$.$.$.$.@.5.@.$.$.$.$.5.5.5.4.&.4.5.@.8.5.+.+.$.+.O.O.4.4.O.O.+.O.#.+.+.#.X.N V f f f f f f g g f f f f d x x ^ ..| | +.O.#.#.+.+.$.$.+.O.O.#.O.O.4.4.4.4.@.$.$.$.$.$.$.$.+.+.$.$.+.+.O.O.O.+.#.O.4.@.+.+.+.%.+.O.#.+.X.#.+.#.$.o.| | X.O.O.X.O.X.X.+.+.$.$.$.+.+.$.$.+.O.O.O.O.+.O.O.O.O.O.X.X.+.$.$.$.$.$.o.o.o.X.#.#.V % @ @ + d ..$.$.$.$.$.$.=.1XJXLXLXKXKXKXKXKXKXLXKXKXKXKXKXKXKXKXKXKXKXKXKXKXKXKXKXKXKXKXKXKXKXLXPXFXrXI H D S ;.-.-.S H 1 < < < ; = > ; f Z C x s ; > > * < g Z s f - * # + # f f f f , + + + # 1 f a a < # # # # < < , a d J S ........%.o.$.o.o.$.o.@.%... ...%.o.o.$.$.$.$.$.$.$.$.$.$.$.$.$.#.#.$.$.$.$.$.$.$.$.*.*.=.$.$.$.$.=.$.$.$.$.$.$.$.$.@.4.4.@.$.$.$.5.5.$.$.$.@.+.$.=.=.$.$.%.3.Z f f f f f a a f a f f a f a a f f a a a d a a a a s s s x x a a d a a S -.$.*.*.$.*.=.$.e.w.w.w.w.w.w.w.8.&.&.q.w.w.w.8.9.w.w.w.w.w.w.w.w.6.6.6.q.q.q.w.9.9.9.w.w.9.w.w.w.e.e.9.w.w.9.9.w.w.w.w.w.w.w.w.w.w.w.q.q.w.9.4.7.7.7.7.w.w.w.w.w.w.w.w.w.w.w.w.t.w.w.w.w.w.t.u.u.t.t.w.y.d.a.a.a.s.s.s.s.s.d.s.s.d.e.e.w.w.w.e.w.y.y.w.w.w.w.w.w.t.w.w.w.q.w.w.w.w.q.r.q.r.r.w.w.w.q.q.r.r.r.r.r.r.r.r.r.r.r.r.q.q.q.r.r.w.t.u.t.t.w.t.y.y.t.t.t.w.y.d.y.w.w.t.d.y.d.y.t.t.t.w.w.w.w.t.t.t.t.w.w.w.w.w.t.t.w.t.t.w.y.d.y.t.r.6.w.9.r.r.r.r.r.6.9.9.9.w.w.w.9.9.d.s.s.s.s.s.e.d.s.s.s.d.s.s.s.s.s.s.s.s.s.d.y.y.9.e.d.w.q.6.r.r.r.r.6.5.4.7.7.6.r.r.r.r.6.6.6.9.9.9.9.6.9.9.9.8.9.9.9.9.9.9.9.9.8.9.e.9.",
"_ ! Q ! / ! ! Q _ _ / _ _ ! Q / / ! ! Q ~ ! / ` ` ` +.+.` ` +.X.X./ ) / X./ ! / _ / / / O.X.+.8./ ! / / ( ( X.O.O./ / ( / ! / O.O.O.O.O.O.O./ / O.O.O.O.O.O.O.#.O.O.+.+.+.$.$.5.4.@.@.+.$.+.#.O.#.#.+.+.+.+.+.$.@.@.5.O.5.5.+.$.$.$.$.$.$.@.4.&.&.@.@.@.@.$.$.$.@.@.@.$.$.@.+.#.#.+.+.O.O.4.4.+.+.O.+.+.O.#.#.X.| V a a a a a f a a a a a x x N  .o.O.o.o.+.O.O.O.O.+.$.$.+.O.+.+.O.4.4.4.4.4.@.$.$.$.$.@.@.@.+.+.$.$.+.#.O.O.O.+.+.O.O.#.#.#.+.o.o.#.O.O.O.O.O.O.+.#.X.X.X.O.O.O.X.X.O.#.+.+.+.+.+.O.+.$.+.O.O.O.O.+.+.O.O.O.O.O.O.+.$.$.$.$.$.o.X.+.#.X.| A , + + @ % x %.$.$.$.$.$..XJXDXDXLXKXKXKXKXKXLXJXLXKXKXKXKXKXKXKXKXKXKXKXKXKXKXKXKXKXKXKXPXJXFXjXZ.I D ;.-.-.-.-.-.-.-.<.S g 1 - > > * ; 1 g C x a # * > # 1 g x s f % + + + + a f f a , + + + @ # a s s a , , , a d d x A A  . .o.%.%.%.$.o.o.o.o.o.| @.o. ... . .| | $.$.$.$.$.$.$.$.$.$.$.$.@.#.o.$.$.$.$.$.=.*.=.*.*.$.$.$.$.$.$.$.$.$.@.$.$.$.$.@.@.+.O.+.+.$.$.$.$.$.$.+.#.$.$.$.$.$.%...C Z f f f f f a s s f f a f f f f f f f f s a a s s s s s x x d s a a s ;.=.=.*.*.*.*.*.=.*.e.e.e.e.w.9.8.&.5.&.q.w.w.w.5.&.q.w.9.w.w.w.w.w.q.6.r.r.4.q.q.w.9.w.w.w.w.w.w.w.w.w.w.w.w.w.9.w.t.9.9.w.w.9.9.9.w.w.w.w.w.6.4.q.q.w.w.w.w.w.w.w.w.w.w.w.w.w.w.w.w.w.w.t.t.t.w.w.t.t.t.w.w.e.s.s.s.s.s.s.d.w.s.s.y.w.w.w.w.e.s.s.s.a.d.e.w.w.w.w.w.t.t.t.q.q.w.q.6.q.6.q.r.r.6.w.w.q.r.r.r.r.r.r.r.r.r.r.r.q.r.q.q.q.r.q.q.t.u.t.t.t.t.t.t.t.t.t.w.y.d.w.w.t.y.a.y.y.y.t.t.t.u.t.w.w.w.u.u.t.w.w.t.w.w.w.w.w.t.w.w.w.w.w.t.u.r.w.u.r.r.u.9.9.9.9.9.w.w.9.9.w.w.d.s.s.s.d.y.s.s.d.d.w.e.w.e.s.s.s.d.e.d.e.w.w.w.9.9.w.w.w.r.r.r.6.r.r.7.7.r.7.4.4.6.7.4.7.9.9.9.9.9.9.9.6.6.8.5.9.9.9.9.9.9.9.9.9.0.e.e.",
"! Q Q ! ! ! _ ^ ~ / / _ _ ! W ! / _ _ ~ ~ _ ' ` ` +.$.%.` ` ` / ! _ ) / O._ _ _ / / / / / ( / / / / / / ) ) O.X./ | ( ( / / / ( O.O.( ( O.+.+.O.#.O./ +.O.O.O.O.O.O.+.$.$.+.#.O.4.@.$.$.$.+.O.O.O.+.$.+.%.+.8.$.4.4.4.4.4.5.+.$.$.$.$.$.@.4.&.&.4.4.4.4.5.$.$.$.$.$.$.$.$.@.+.+.+.$.$.#.O.+.4.@.%.+.$.+.#.+.#.O.| A V V d a a d d d V V V N ~ X.X.X.O.O.O.O.O.O.O.O.#.+.$.@.O.X.o.#.o.O.O.4.4.@.$.$.@.@.&.&.4.4.+.$.$.+.X.O.+.#.o.O.O.X.o.+.#.+.o.| +.O.O.O.O.O.O.X.O.O.O.O.O.O.O.| | X.O.O.#.+.+.o.X.X.X.X.O.O.O.O.+.$.#.O.O.#.O.#.+.$.+.+.$.+.+.+.%.O.X.|  .a + # # & d ..%.$.$.@.$..XDXZXJXKXKXKXKXKXKXKXKXKXKXKXKXKXKXKXKXKXKXKXKXKXKXLXLXPXHXkXjXS.I G D ;.-.-.-.,.-.-.-.>.,.,.-.-.S H 1 > = = = - f Z x a + * > # 1 f x s s & + + + + , f a a , + + + # # a a a a d a s x A .. . .| | | | X.X.o.o.| | o.o.| | %.#.| | | | | o.$.$.$.$.$.$.$.$.o.o.@.$.$.o.o.$.$.$.@.$.$.$.$.$.$.$.$.$.$.$.@.$.$.@.&.@.$.$.$.$.$.+.O.+.&.@.$.$.$.$.$.+.+.$.$.$.$.$.$.%.,.Z f f f f f x x x s a a a f a a f f f f s a s s s d s s s x s a a a J ..=.$.$.=.=.*.*.*.*.9.9.9.9.8.8.&.&.q.8.w.w.w.q.&.&.q.9.w.w.9.w.w.w.w.r.q.q.q.q.q.q.w.w.w.w.w.w.w.w.w.w.w.w.w.w.w.w.w.9.9.w.9.9.9.9.w.w.w.w.w.q.q.q.6.9.w.w.w.6.r.r.6.q.w.q.t.t.w.w.w.w.t.t.t.t.t.t.t.t.t.w.t.d.s.s.s.s.s.s.d.e.a.d.s.e.w.w.w.y.s.s.s.s.s.d.w.w.w.w.t.t.t.t.q.u.q.q.q.t.w.t.w.r.u.t.q.6.r.r.r.r.r.r.q.4.r.r.r.q.q.q.r.q.6.q.u.u.u.q.w.w.t.t.w.w.w.t.t.w.9.w.e.d.d.s.a.y.y.t.t.t.u.t.t.t.t.t.u.u.w.w.w.w.9.9.w.w.t.t.6.6.w.w.u.t.r.r.u.u.r.r.w.w.9.9.9.w.w.t.w.9.9.9.d.d.s.d.y.s.s.d.w.w.e.0.0.d.s.a.w.e.d.9.9.9.w.9.9.w.w.9.6.7.6.r.r.6.7.7.r.7.6.5.6.4.5.4.6.9.9.9.9.9.9.9.9.8.8.9.9.9.9.9.9.9.9.e.0.e.9.",
"Q Q Q E ! ! ' ' ' ~ ' _ / / ! ! _ ` ' ' ' _ _ ) ` +.` ` +.o.o.X.X./ _ _ ( / _ / / / ( / / ! / X./ X.O./ ( ( O.X.X.X.( ) / / / ( ( ( ( ( O.#.O.O./ | X.#.#./ / O.O.+.o.+.+.#.+.O.O.#.+.$.$.5.4.4.&.@.$.$.$.$.$.+.#.O.O.4.4.O.8.&.$.$.$.$.@.@.@.@.4.6.5.@.$.$.$.$.@.$.$.$.+.O.O.O.4.5.@.O.O.O.4.O.+.@.+.#.#.O.O.O.X.X. . .N N N N N  . . . .| X.X.O.X.O.O.O.4.#.+.#.O.O.O.#.O.+.o.#.+.4.O.+.@.4.O.#.&.&.@.@.@.@.+.+.$.+.#.o.o.+.$.o.o.X.X.+.$.$.$.+.o.+.+.+.O.X.X.X.X.X.X.O.O.O.O.O.X.X.O.O.X.o.o.o.o.o.X.| X.O.O.O.X.#.O.#.O.O.#.#.#.X.o.+.4.@.+.o.X.o.O.X.X. .V a , , a a B ..$.#.#.$.i.0XDXLXKXKXKXKXLXKXKXKXKXKXKXKXKXKXKXKXKXKXKXPXJXFXmXgXP w 1 H D >.>.>.-.-.-.-.-...-.-.>.>.,.-.-.-.S g < > = > * 1 f s s & # # % a x x x s , + + + * < f a a , % # + < < , a s s J x A  .....| | | | o.%.%.o.o.o.o.#.o.| | | | | | o.o.| | $.$.$.@.@.$.o.$.$.o.o.+.$.$.$.$.$.o.o.@.@.$.$.$.@.$.$.*.$.$.$.@.$.$.@.#.#.@.$.$.@.+.+.+.+.+.@.$.@.@.O.+.$.@.$.+.+.#.+.o.o...Z g g g f s x x s s s a a a a s f f f f s d x x s s s s s s s s d a A %.5.$.$.8.$.9.9.*.*.$.5.5.8.$.8.w.9.5.q.w.q.q.8.q.8.6.9.w.w.q.w.q.5.q.q.q.w.9.w.q.w.w.w.w.w.w.w.w.w.w.w.w.w.w.w.w.w.w.w.w.w.9.w.9.9.w.w.q.q.q.w.6.6.w.9.9.r.q.q.r.q.w.q.u.q.t.t.t.w.t.w.q.w.t.t.t.t.w.y.e.d.d.a.s.s.a.e.y.d.s.s.d.d.a.a.d.d.d.y.e.d.d.s.s.0.e.y.w.w.u.u.t.t.r.u.6.6.q.w.9.w.w.q.r.r.r.r.6.q.r.r.r.r.r.r.q.q.q.r.q.u.u.r.u.r.u.t.t.w.t.t.t.t.t.t.t.t.t.t.w.d.s.s.d.s.a.y.t.t.t.u.u.t.t.t.t.t.t.t.t.w.t.t.9.9.t.t.w.6.r.6.w.6.9.w.6.6.u.r.r.r.r.r.6.w.9.9.9.9.9.9.9.9.w.0.w.0.d.d.0.w.9.9.w.s.e.a.s.w.w.e.s.d.e.0.9.w.w.6.9.6.7.r.7.6.r.r.7.7.4.7.7.4.4.4.7.r.6.9.9.9.9.9.9.8.6.6.8.9.8.8.9.e.<.0.9.e.e.0.e.",
"_ ' ~ ~ ! / ' _ ~ _ _ _ / ! ! ! _ _ ! _ _ / ! _ / ` +.+.+. .| ! / ! ! / ! ! / / ( ) ) / ! ! / +.+.X.! ! / ( O.O.O.O.( ) ( ( ( ( ( ( ( ( / / ( O./ X.+.O.#.+.+.O.+.$.#.#.+.+.8.5.O.#.+.+.+.4.4.4.4.+.+.+.$.+.+.o.X.O.O.4.+.#.#.&.+.$.8.$.@.@.@.5.4.4.8.$.$.$.$.$.@.@.$.$.+.4.4.4.4.4.#.O.O.O.O.4.4.O.O.O.O.O.X.O.#.+.o.X.X.| | | | X.X.| | | X.X.#.#.X.O.O.O.O.+.O.O.O.O.O.O.O.O.O.4.4.4.O.@.+.+.4.+.4.4.+.+.O.@.@.+.+.+.$.+.#.#.#.+.| X.$.$.$.o.o.o.+.$.+.O.O.| | O.X.X.O.O.#.#.o.O.O.O.O.X.| o.| X.O.O.O.X.O.O.O.X.O.O.O.O.O.O.X.o.| o.O.4.O.#.#.| #.#.X.| | N V a a a a d ^ %.#.#.$.=.<..XDXLXLXKXKXKXKXKXKXKXKXLXLXLXLXJXJXDXIXmXA.K 7 2 < > = < H 3.,.,.,.-.-.-.-.-.-...-.-.,.-.-.-.-.-.D f * > ; % f J x C Z f f s x x V V s a & + + # # + % a a a a a d s x x A ..A A  .| ....| | | | o. . .| o.| | | | o.o.o.| | o.o.$.+.o.$.$.o.$.$.$.$.%.$.$.$.$.$.$.$.$.$.o.o.@.#.o.$.$.$.$.$.$.$.$.$.+.$.$.$.@.&.&.@.$.o.X.O.@.@.O.@.@.@.@.@.@.+.+.+.+.+.O.X.o.o...D K Y g f f f s s f f f a a a s f f s a d x x x s s d s f s s x s s A %.5.$.$.$.$.9.9.e.=.$.5.&.@.@.5.q.9.5.9.9.8.5.w.w.9.6.9.w.w.q.9.5.&.&.q.q.w.9.w.w.w.w.w.w.w.w.w.w.w.w.w.w.w.w.w.w.w.w.w.w.w.9.w.w.6.q.q.q.q.q.w.6.6.w.w.w.q.q.t.6.q.q.q.w.w.w.t.t.q.t.w.w.w.w.t.t.w.y.d.a.s.s.s.s.s.s.s.d.a.s.s.a.s.s.s.s.s.d.y.y.y.y.s.s.d.y.w.w.t.6.r.t.t.r.6.6.9.9.9.9.w.w.q.r.6.6.r.r.q.r.r.q.r.r.r.q.q.q.q.r.r.r.r.u.r.q.w.w.w.t.t.t.t.t.t.t.t.w.w.y.s.s.s.s.s.a.t.t.t.t.t.u.t.t.t.t.w.t.t.t.w.u.w.w.w.t.w.w.w.r.r.r.r.9.6.6.r.q.r.r.r.u.u.9.9.6.6.9.9.9.9.9.9.9.9.9.9.e.s.e.9.9.9.9.9.w.d.e.9.w.w.w.9.9.9.9.9.w.6.6.6.r.r.7.r.6.r.7.7.4.4.4.4.4.4.7.r.9.9.9.5.9.9.8.@.4.6.9.9.8.9.9.e.,.>.i.i.s.e.e.",
"' ^ ~ ~ ! / _ Q ~ Q ! ! ! | ! ! _ _ _ | ! / ! ! ! ` $.$.` %.%.X.( / | ) ( / ( ) ) ) ( / / +./ +.+./ ! / / ( ( / / / ( ( O.O./ / / / / ( ( / ( O.X.O.O.O.+.$.#.O.$.$.+.+.%.%.5.5.@.$.$.+.O.+.@.@.+.+.+.+.@.#.O.X.O.4.4.4.@.+.O.4.O.#.@.8.@.&.4.4.4.4.@.$.$.@.@.@.$.$.+.+.$.$.@.O.+.O.O.O.4.4.O.O.+.O.O.O.@.O.O.O.O.+.O.O.O.O.O.O.O.O.+.@.+.#.O.X.#.#.X.O.4.4.&.@.O.O.O.O.O.4.4.O.O.4.4.4.4.O.#.O.4.O.O.4.O.O.4.4.4.#.#.#.+.+.O.O.O.O.X.#.@.$.$.$.%.%.+.+.+.O.#.| | X.O.O.#.+.$.$.+.O.O.O.O.X.X.o.X.X.O.O.O.O.O.O.O.O.O.O.O.O.4.O.| | | X.O.O.O.O.O.X.| | | #.#.| N s a < < & d ..$.#.#.=.=.<.[._.rXMXDXJXGXJXPXJXMXmXmXmXnXS.K K h 1 1 f < - ; = = > 1 F ,.-.-.-.-.-.-.-.-.-.-.-...-.-.-.,.-.;.J f 1 f J S ;.........;...A A A A x s & + + # # , a J x A A ..A A A .... .| | | | .. .| | |  ...| | | $.%...o.o.o.$.$.o.o.+.o.$.$.$.+.o.o.o.o.+.%.%.$.$.$.$.$.$.$.$.$.$.$.o.| o.@.$.*.$.$.$.$.$.$.$.$.$.$.$.5.4.@.$.#.#.O.O.#.@.@.@.O.@.5.@.O.O.O.+.+.#.O.#.%.,.^.K 7 g g f f f f a f f f f f f f s s a s s x x f f f f f f s x s x ;.=.$.$.$.$.8.8.8.w.9.8.e.5.&.5.5.5.5.w.w.9.9.5.&.w.9.9.9.w.w.4.7.9.w.9.w.w.w.w.w.w.w.w.w.w.w.w.w.w.w.w.w.w.w.w.9.9.w.w.9.9.w.e.d.y.q.q.q.q.4.6.w.w.w.w.w.9.6.6.q.q.q.q.w.w.w.q.q.q.q.q.w.w.w.w.w.y.y.y.s.s.a.s.d.s.s.s.s.s.d.d.s.a.y.s.s.s.s.y.y.e.e.d.d.w.w.w.w.w.t.q.q.w.q.q.q.q.q.6.6.6.q.q.q.r.6.r.r.q.q.r.r.q.r.r.r.q.q.q.q.q.q.r.r.r.q.q.q.w.w.t.t.t.t.t.w.w.w.9.w.d.s.s.s.s.s.a.y.y.y.t.t.u.w.w.w.q.q.w.t.w.t.t.t.t.t.w.6.6.t.q.q.q.w.9.q.6.r.q.r.r.r.6.w.w.9.9.9.9.9.9.9.9.9.9.9.9.9.d.d.w.9.9.9.9.9.9.w.9.9.9.w.9.9.9.9.9.9.w.6.6.r.r.6.7.7.r.r.7.7.4.4.4.4.4.4.7.6.9.9.9.9.9.8.8.8.5.5.9.9.9.9.9.e.f.s.i.i.s.,.e.",
"Q Q E E ! ! / Q Q ! Q Q ! ! ! ! / ' _ | | ! ! ! | $.%.+.` o.` _ / | | / ) ) / / / / / ( ) +.+.$.) _ ! / ( ( / / / / O.O.O.O./ ! | | / O.O.( / O.O.( ) ( ( +.+.+.+.+.+.+.+.#.O.O.5.$.$.+.O.#.+.@.$.$.+.+.4.O.#.+.4.4.4.&.+.$.4.4.5.4.&.4.&.4.4.4.4.4.$.$.$.&.4.4.$.$.$.+.+.+.+.#.+.+.O.4.4.4.O.#.+.#.O.O.O.O.@.O.O.O.O.O.O.O.X.O.O.O.X.X.o.O.O.O.O.X.| | X.O.O.@.4.4.O.O.O.4.4.O.O.O.O.O.O.O.+.+.4.4.4.4.O.4.4.4.O.O.O.O.O.O.O.O.O.4.O.+.@.$.$.$.$.$.#.o.+.+.@.o.| X.+.+.#.#.+.#.X.X.O.O.X.X.O.O.O.O.O.O.O.O.X.O.O.O.O.O.O.O.O.O.| | o.#.O.O.O.O.O.X. .| | | | | N s & + # + % x ,.$.|  .=.=.,.S J g L 7 7 L L L L L h 2 1 1 1 1 < - < f < ; = = = > - j ;.A A S ;...-...-.-.-.-.....-.-...-.-...S S S ;...A ......-.-.%.%.%.....x , & , , f J J A A  . . .| -.<.-.-.A .. . . .....| | | | .... .|  .%.%...%.$.o.o.o.$.$.$.$.%.%.o.| o.$.o.| | | @.$.o.#.%.%.-...%.o.o.$.o.| o.$.%.$.$.$.@.&.@.$.$.$.$.$.$.4.4.O.+.$.@.+.@.$.+.o.@.O.O.@.+.O.O.O.#.+.O.O.+.$.=.].I g g g f f f f a f f f f s d x s s s s s s x s s s s s s x x x A ..$.$.$.$.&.5.$.$.w.9.8.e.8.&.q.5.4.4.w.w.9.9.&.&.&.9.9.9.w.q.4.q.q.w.w.w.w.9.9.9.5.w.w.9.w.w.w.w.w.w.w.w.w.w.9.9.9.w.w.w.9.y.a.s.e.w.w.q.w.6.6.9.w.w.w.9.9.9.9.t.u.w.6.w.6.q.q.q.q.q.q.q.t.t.w.w.e.s.s.s.s.d.d.s.s.s.a.s.s.s.s.a.s.s.a.s.s.s.y.t.y.a.d.w.w.w.w.w.w.w.q.q.q.q.q.q.u.r.r.r.q.q.q.q.r.r.6.r.q.q.q.r.r.r.r.q.q.q.q.q.r.q.q.q.r.u.q.q.q.w.t.t.t.w.y.e.t.t.t.t.y.y.s.s.s.s.s.d.y.t.t.u.t.t.w.q.q.q.q.q.w.w.t.t.t.t.w.w.6.q.w.w.9.9.q.q.6.r.6.6.r.r.6.6.9.9.9.9.9.9.9.9.9.9.w.9.w.e.w.9.w.9.9.9.9.9.9.9.9.9.9.9.w.w.w.w.9.9.w.7.r.r.r.r.r.r.r.4.7.r.7.7.6.r.4.4.4.7.9.9.0.9.9.8.8.9.5.5.9.9.9.9.9.8.<.f.>.i.s.<.<.",
"! ! ! ! ! ! ! ! ! / ! ! / _ _ _ ~ ' _ _ ! ! ! / o.%.+.+.%.$.+.` / / ! ! ) ) _ ! ! / ( ( ( ( / / / _ ! ! / / / / ( ( +.+.( ( X./ / X.X.O./ O.( ( / / / O.O./ / O.#.o.+.O.( O.O.O.O.5.+.#.O.O.#.+.+.+.#.O.O.+.@.$.@.@.@.#.@.@.O.5.5.@.+.@.5.4.@.5.O.@.@.+.+.4.4.4.+.+.@.@.+.O.#.+.+.#.O.O.4.+.+.O.#.#.&.O.O.X.O.O.O.O.O.O.O.X.| X.O.O.X.X.O.O.O.O.O.X.X.O.#.#.o.+.O.4.O.O.O.4.O.O.O.+.+.O.O.O.O.+.4.4.4.4.O.4.4.O.O.O.O.O.O.O.O.O.O.O.+.O.O.+.+.o.o.$.#.o.o.o.o.X.| o.o.X.X.+.X.X.X.| X.X.| o.#.O.X.X.X.O.O.O.X.O.O.O.O.O.O.O.O.X.X.X.+.O.O.#.#.#.X.| | | | X.| | A a % @ + + @ % d .... .A x a , & ; - * - 1 1 < < ; ; ; > > > - < - - ; ; > = = > = ; 1 g f , f H ;.........-.............................-.-.......%. . .%.o. .A V A A A A .... .| | | |  ...<. X1XD A ...... . .| | | |  ...o.| |  ....... . . .o.$.+.$.$.%...o.o.%.o.| | | X.o.o.o. .%.%.%.%.o.o.o.$.o.X.X.+.#.@.+.@.&.&.&.#.+.+.@.@.#.@.4.O.+.+.O.+.@.@.o.X.5.4.4.4.4.O.O.O.O.O.4.O.$.$.$.=.D g f f f f f f f f f f f f s x d d s s s d s x x s s x s s s x ..&.@.$.$.@.&.&.8.8.9.9.8.9.8.&.q.q.4.&.5.9.9.5.&.&.5.w.w.6.6.q.7.r.6.6.w.9.9.6.w.6.q.q.6.6.w.w.9.w.9.9.9.9.9.w.9.9.9.w.w.w.w.w.e.e.w.w.w.w.w.w.9.9.9.9.w.w.9.9.w.q.q.w.u.6.6.q.q.q.q.q.q.w.w.y.e.e.s.s.s.s.s.i.s.i.i.s.s.s.s.s.s.s.d.s.a.d.y.e.y.t.d.s.e.9.w.w.t.w.9.6.6.r.6.6.q.6.r.r.r.r.q.q.q.q.q.r.r.r.r.r.r.7.7.r.q.q.r.r.r.r.r.r.q.q.r.q.u.u.t.w.u.u.t.y.s.s.d.w.y.a.d.w.e.d.s.y.e.y.y.t.t.q.w.t.w.q.6.q.q.q.w.w.6.6.t.t.6.q.9.7.9.6.6.6.6.q.q.r.6.r.6.6.6.6.6.6.9.9.6.6.6.9.9.9.9.t.y.w.9.9.9.9.9.9.9.9.9.9.9.w.e.0.9.9.9.w.9.9.9.7.r.r.r.7.r.r.r.4.7.r.r.r.r.r.7.4.4.5.9.9.0.9.9.9.6.9.6.5.8.8.9.9.9.9.<.>.>.i.s.,.=.",
"Q ! ! ! ! ! ! ! ! ! ! ! / ' ' ' ^ ^ ^ ~ _ ! / ) ( _ / ! X.+.` _ _ ) _ / _ ` _ | | / +.( / O.+.O./ | ! ! / / ! / O.O.+.+.( / / / ( O.+.+./ / / ( ( O.#.+.@.X.! #.O.O.4.4.O.O.O.O.O.O.O.O.O.O.O.#.O.O.O.4.4.@.$.+.@.$.$.O.&.4.+.$.@.$.8.$.@.@.@.8.+.5.4.O.+.4.4.4.4.O.4.4.&.#.+.+.#.O.O.O.O.+.+.#.O.O.&.O.O.X.O.O.O.O.O.O.O.O.X.O.O.O.O.O.O.O.O.O.O.O.O.@.8.$.o.#.+.+.+.#.O.O.O.O.O.4.4.O.4.4.4.4.O.O.4.O.O.4.4.O.O.#.4.5.O.O.O.O.O.O.+.O.O.O.O.O.O.+.+.$.o.| o.| | | | X.o.o.| | | X.X.X.| o.#.O.O.X.+.#.O.O.O.O.O.O.O.O.O.O.O.O.O.O.4.4.O.X.X.O.| | | | | | X.| V , + + + * # + % d x x s , + @ @ * * # < f 1 - > = > > > > ; - - - ; > = = = = > = * # ; - ; - 1 Z S .................. .......................-.........%.| | |  . .| | | | | | | | | |  ...-.C f , s C .. ..... . . . . ..... ...| .......... .| | o.$.%.....o.o.o.| | o.| | | X.o.| +.$.$.$.o.o.o.$.+.#.#.#.@.4.O.&.&.#.&.O.O.+.$.$.@.@.+.O.4.O.O.O.O.+.+.O.O.4.4.4.4.4.O.O.O.O.O.O.+.$.$.o.;.Z f f g g f f f f g f f f f x s d s s s s s s x x x x g f s A %.@.$.$.@.&.&.&.5.w.w.w.8.9.6.4.4.&.q.&.5.9.5.&.&.&.q.q.w.q.4.4.r.r.6.9.9.9.6.q.q.q.q.q.4.5.w.9.9.w.9.9.9.9.w.w.9.9.9.9.w.w.w.w.w.w.w.w.w.w.w.w.9.w.w.9.9.9.w.w.w.q.q.w.w.q.q.q.q.q.q.6.w.w.e.d.s.s.i.p.i.s.s.s.J.J.J.J.s.s.s.s.s.s.s.a.d.w.w.w.w.9.w.d.e.y.w.w.t.w.w.6.r.6.6.r.q.q.q.r.r.q.q.q.q.q.q.r.r.6.6.r.r.r.r.q.q.q.r.r.r.r.r.r.r.q.q.q.q.u.w.w.u.t.t.w.d.a.a.d.d.d.y.t.w.y.w.w.w.w.e.t.w.w.t.w.w.w.6.r.q.q.q.6.r.r.6.q.r.r.6.9.9.w.6.6.w.w.q.q.r.r.r.r.6.6.6.r.6.9.r.r.q.9.9.9.9.w.w.9.9.9.u.9.9.9.9.9.9.9.9.e.s.s.e.9.9.w.9.9.9.6.r.r.r.4.4.r.r.4.7.r.r.r.4.r.7.4.4.6.9.9.9.9.9.9.6.9.9.8.8.9.9.9.9.9.9.,.>.>.e.8.$.",
"Q ! ! _ ! ! ! ! ! ! ! ! / / _ ` %...^ ~ ! ! ! / _ | | ! ! | _ _ ' _ _ ) ) +.+.` ! / / / ! / X./ ! ! ! / / / X.| / / +.+.O./ ! ! / O.O./ / O.+./ / O.O.+.+.X.X.#.#.O.4.4.O.@.5.8.+.O.O.O.O.O.O.O.O.O.O.O.4.4.#.O.4.@.5.4.@.@.$.$.@.@.$.$.@.&.5.5.4.O.5.@.5.4.4.4.4.4.4.&.&.@.+.O.#.+.O.4.4.O.O.O.O.O.O.O.O.O.O.O.O.O.O.O.O.O.O.O.O.O.O.O.O.O.O.O.O.O.X.+.8.$.o.#.$.$.$.4.4.O.O.#.+.@.O.4.4.4.4.4.O.O.4.O.4.4.4.O.+.+.$.$.#.O.O.O.O.+.+.O.O.O.O.O.O.O.+.+.o.o.o.X.X.o.o.X./ X.o.o.X.X.O.X.X.| X.O.O.#.$.+.( ( O.X.X.X.O.O.O.O.4.O.O.4.O.O.O.X.X.O.| | | | | | | | x , + + + * # # , a a a , ; + + @ # * ; , a 1 ; > > * * = > - - - ; > > = * * > * > > * * > = = ; < j S ................-.......................-.-.......| | | | | | | | | | | | | | | | |  .x & @ # # a C .......... . .| | o.o.o. ...........%.| |  .........o.| o.| o.| | | | | | #.o.+.$.o.#.#.| | +.$.$.$.$.+.+.@.@.o.o.#.@.@.$.$.@.$.$.@.O.O.O.O.O.+.+.O.O.O.4.4.O.O.O.O.O.O.O.O.+.o.#.| A Z f f f f f f f f f f f s x s s f s s s s s x s s s x s g S ..%.$.$.$.8.$.$.8.&.@.9.8.&.5.4.5.5.&.q.5.8.w.w.&.&.q.q.4.4.q.q.4.q.6.6.9.9.9.6.6.q.r.6.w.9.9.w.9.9.w.9.9.9.9.9.9.9.w.w.w.w.w.w.w.w.w.9.9.9.5.w.w.w.9.w.w.9.9.w.w.w.q.q.q.q.w.6.q.q.q.q.w.w.d.s.s.s.s.J.J.J.i.s.i.H.H.J.J.J.s.s.s.s.d.s.a.w.w.y.w.w.w.w.d.d.d.w.w.w.9.9.w.6.q.q.q.q.q.q.q.r.q.q.q.q.q.q.r.r.q.6.r.r.q.r.r.q.q.r.r.r.r.q.r.r.q.q.q.q.6.9.w.t.t.w.w.e.s.s.s.d.t.t.t.w.t.w.w.w.y.a.y.t.u.u.u.q.q.r.r.q.6.r.r.r.r.r.r.q.q.r.6.w.w.6.w.w.6.r.r.r.r.r.r.r.6.r.6.6.r.r.r.6.9.9.9.6.6.9.9.9.u.u.u.u.w.w.y.s.s.a.s.s.s.d.0.9.w.9.6.6.6.r.6.r.r.7.4.4.4.r.r.7.r.7.r.7.4.6.9.9.8.9.9.9.9.9.9.9.9.9.9.9.9.9.9.e.9.*.0.9.8.8.",
"! ! ! ! ! ! ! / ! ! / _ _ ! _ _ ' ^ ' | W ! ! ! ! ! | ! ! ! _ _ / ! _ ) ( ) ` ` _ / O.X.| ! ! ! ! / / ( / ! | ! / ( X.O.O./ ! ! / ( / / / 8.+.! / / / / O.O.O.#.X.O.O.O.@.5.#.@.+.O.O.4.O.O.+.O.O.O.O.O.4.O.O.O.4.O.O.@.$.$.@.4.&.4.+.$.5.4.4.4.4.@.$.5.4.4.4.4.4.4.4.4.4.O.O.O.+.#.4.4.4.O.O.O.O.O.O.O.O.O.O.O.+.+.#.O.O.O.X.O.O.O.O.O.O.O.O.O.X.O.#.+.$.$.+.O.+.+.@.4.O.O.O.+.$.+.X.O.4.5.5.O.O.O.O.O.O.O.O.O.O.+.+.o.#.O.O.O.#.$.$.#.O.O.O.O.O.O.#.O.#.O./ O.O.X.o.O.+.O.O.#.O.O.O.O.O.X.X.O.O.o.+.+./ / O.X.| | O.O.O.O.O.O.O.O.O.O.O.X.X.O.| | | | | | W N x a + @ + + + , a a a < * * + + + + # < a a % # # * > > > ; - - - # > = > # + * > > ; ; > * * * * > 1 F 3....... .......................................| | | | | | | | | | o.| | | | | |  .A d % @ O O + a x x x x x x B B B ....A A ..;.-.....................o.| o.| o.| o.| | | | #.| o.$.#.o.X.| | o.$.$.$.$.$.$.$.$.@.@.$.$.$.$.$.$.$.$.$.#.O.O.O.O.#.O.O.O.4.4.4.O.O.O.O.O.O.#.O.+.| o.+...Z f f f f f f f f f f x x x f f f f f g f f s s s s x x x A  .#.$.$.$.e.8.$.$.5.&.&.8.4.4.4.6.8.8.&.5.w.w.w.5.&.q.q.7.4.q.q.4.q.q.6.w.w.w.w.w.6.6.9.9.9.9.w.9.9.w.w.9.8.5.4.5.w.w.w.w.w.w.w.w.w.w.9.9.9.w.w.w.9.9.6.9.w.w.9.w.w.q.q.q.q.w.6.q.q.6.w.w.y.s.s.s.s.i.H.J.J.J.s.i.J.p.K.J.J.J.s.a.e.d.s.y.w.w.e.w.w.t.e.s.s.a.w.w.w.9.9.6.q.q.q.q.q.q.q.q.q.q.q.q.q.r.r.r.q.r.r.r.r.q.r.r.r.q.q.q.r.r.q.q.q.q.w.w.w.t.w.w.t.w.9.9.w.d.s.s.d.w.t.w.w.t.w.w.w.y.e.t.r.q.q.q.q.q.u.r.6.r.r.r.r.r.r.r.q.6.r.r.6.6.4.6.6.r.r.r.r.r.r.r.6.r.6.9.6.r.r.r.6.9.9.9.6.6.6.9.w.9.9.9.9.9.w.w.d.d.s.s.s.s.s.d.w.q.u.r.r.7.r.r.4.4.r.7.7.7.r.7.4.r.7.7.4.4.9.9.9.9.9.9.8.9.9.9.9.9.9.9.9.9.9.e.e.9.9.8.9.9.8.",
"! / ! Q ! ! / _ / _ _ _ ! ! _ / W  ._ W  ._ _ _ o.o.o.| | ! ! _ _ _ ) ) / _ _ ` _ / / / ! W ! ! ! / ( ( / / $.%._ ! ! / / / ! / / ( ( #./ ( / X.O.O.O.O.O.O.O.@.o.o.4.O.X.X.#.o.X.O.O.5.O.O.O.O.O.#.#.#.4.O.O.+.+.#.O.@.@.$.5.4.4.4.4.@.@.5.4.+.@.$.$.5.4.4.4.4.4.@.@.4.#.O.O.+.+.#.O.4.5.O.O.O.O.O.O.O.O.o.#.+.$.5.O.O.O.O.| X.O.O.O.O./ O.O.O.O.#.+.+.$.%.+.O.O.O.O.O.O.O.O.+.$.$.#.X.+.@.+.#.#.O.O.O.#.O.O.O.4.O.O.X.#.O.O.#.+.@.$.O.X.O.#.X.O.O.X.O.+.O./ X.#.o.o.X.o.X.X.O.O.O.O.X.X.#.O.O.O.X.X.O.X.X.X.X.X.O.O.O.O.O.O.O.O.O.X.X.O.X.X.X.| | X.X.| N d a a a , % # # % a s d a & + + + + # # # 1 f a + # + # # $ # - - - ; * o = > # * > ; - > * * + @ @ + # < g F S A ......%.%. ..... . . .......%.| .. . .....| | o.| %.%. .%. .| o.| | o.| | |  .A s % @ @ O @ + + + $ $ + + + % % p a a d d d d d d x x x x B B ^ ;. . .| | | | +.o. .o.| o.o.o.+.#.X.| o.| o.$.$.$.$.$.$.$.$.$.@.$.$.$.@.$.$.$.$.$.+.O.#.O.5.+.O.O.4.O.4.4.O.O.O.O.O.#.+.O.+.o.X.o...x , 1 f f f f f g Z s s s s g f f f g g f f s s s s x x x A  .$.$.$.$.$.e.e.$.4.&.@.8.6.4.4.7.$.8.w.5.q.w.w.5.5.4.6.r.4.q.6.4.q.5.q.w.q.q.6.w.9.9.9.9.9.9.9.9.9.5.9.w.9.6.5.6.w.9.9.9.w.w.9.w.w.w.9.9.9.w.w.w.w.w.w.q.6.w.w.w.q.q.q.q.q.q.q.q.q.w.w.w.y.s.s.s.s.i.H.K.p.p.p.p.L.K.b.p.J.J.i.s.s.s.e.w.e.w.w.9.9.w.w.e.s.s.e.y.t.u.r.r.q.q.q.q.q.q.q.q.q.6.r.q.q.6.r.r.q.r.r.r.r.6.r.7.q.q.q.r.r.q.r.q.q.q.w.w.t.w.w.w.w.t.t.9.e.d.d.e.w.t.t.t.w.w.y.w.w.w.w.q.q.q.q.q.q.q.r.r.r.r.r.r.6.6.r.r.r.r.r.r.q.q.7.7.r.r.r.r.4.7.6.6.r.r.6.6.6.6.6.r.9.9.9.9.6.w.9.6.9.9.9.9.9.9.9.w.e.d.s.s.s.s.s.e.w.6.r.6.q.r.r.r.4.4.6.r.r.7.r.7.4.r.7.4.4.5.9.9.9.9.9.9.9.9.9.9.9.9.9.9.8.8.9.e.e.9.9.9.9.9.9.",
"' _ _ ! W ! ! ! ! ' ' ! ! ! ! ! ! | | | o.' ^ ' ' X.o.o.| ! ! / _ ` _ / ! X.( ` _ ! ! ! / _ | ! / X./ O.O.O.$.%.W ! / ! / / _ ) ) ) ( O.O.( ( O.O.O.O.O.O.O.O.@.o.X.+.#.O.O.O.O.O.O.O.#.O.O.4.5.+.X.X.X.O.O.O.4.$.$.$.$.@.$.8.#.+.4.5.@.&.5.&.@.o.+.+.@.5.O.O.O.5.$.+.+.+.+.@.+.O.O.O.O.@.+.O.O.O.O.O.O.X.| #.+.+.O.O.O.O.O.| | O.O.O.( ( ( O.O.O.O.O.#.+.+.#.O.#.#.O.O.O.4.O.O.+.+.O.#.$.+.O.+.+.O.O.5.+.O.O.O.O.O.O.O.O.O.O.O.O.#.+.O.O.O.#.| X.O.O.O.+.O.O.O.#.$.o.X.X.| X.O.O.O.O.X.| #.#.O.O.X.| X.O.X.| X.X.O.X.O.O.O.O.O.O.O.X.| | | X.| | X.X.| V , + & a a a , , & a x x x s a % + + + # # < f s a # * O # @ # < < < - > = > > > O * - - ; # $ * + + + + @ * 1 f Z S .... .| %.%.....| | | | ....%. . . .%.%.| | | o.| | o.......| | | | | | | | |  .x & @ + O O . X             O @ @ @ + @ O O O + + % + + + @ + % a d d x B ....%.%.%.o.| #.%... .| | | o.$.+.$.$.$.$.$.@.$.$.$.$.$.$.@.+.@.@.@.$.$.+.#.+.O.4.O.O.O.O.O.O.O.O.O.O.O.O.+.#.O.O.+.o.+.%.N d f f g f f f f f f f f g g f f f f g f f s x s s s x A ..%.$.$.8.8.9.9.8.5.4.4.4.5.4.4.4.5.5.5.q.4.5.9.w.9.8.6.6.r.4.4.7.4.4.5.4.w.q.4.4.w.w.w.w.w.w.w.9.9.9.6.9.w.9.6.9.w.w.9.w.w.w.w.w.w.w.w.w.w.9.9.9.w.w.9.6.q.w.9.9.w.q.q.q.q.q.q.q.q.w.w.w.t.y.s.s.J.p.p.b.b.v.v.v.b.p.K.J.J.J.J.i.s.s.a.w.w.w.w.w.w.w.w.w.e.d.s.d.e.9.r.6.q.q.q.q.q.q.q.q.7.6.6.r.r.r.6.r.r.r.r.r.r.r.r.r.r.r.r.q.r.r.r.r.r.q.w.w.w.w.w.w.w.w.w.9.9.w.w.t.w.w.w.w.u.t.y.s.e.e.w.w.u.u.q.q.r.r.r.r.r.r.r.r.r.6.6.r.u.r.r.r.r.4.4.r.r.r.r.r.r.4.4.q.9.7.6.9.9.9.9.9.6.9.9.9.r.6.9.9.9.9.9.9.9.9.9.9.9.e.d.s.s.a.s.d.y.w.6.r.r.r.6.6.6.7.4.6.r.7.4.4.4.7.6.7.4.4.6.9.9.9.9.w.d.w.9.9.9.9.9.9.9.9.9.*.*.e.9.9.9.9.9.9.",
"_ ! Q ! ! ! ! ! _ _ / ! ! ! ! / / | | | _ ^ ^ _ ` ! | _ | ! ! _ ' ` _ ! / O._ / / / ! ! _ _ ! / O.O./ O.X./ / / ! ! / / ( O./ ( +.( / X.+.) ) / / / / O.O.O.O.+.+.o.X.O.O.O.O.O.O.O.O.O.O.O.O.O.+.#.#.o.O.O.O.4.5.5.8.$.8.$.@.+.&.q.5.@.#.O.5.8.#.#.+.%.+.O.#.#.@.+.+.+.+.+.@.@.O.O.O.O.#.+.O.O.O.O.O.O.O.o.O.O.O.O.O.O.O.O.X.X.O.O.O.O.O.( / O.O.O.O.O.O.O.O.#.$.+.X.O.O.4.4.O.O.O.O.O.@.+.O.+.+.O.4.4.O.O.O.O.O.O.O.O.O.O.O.O.O.O.O.O.O.O.X.X.X.O.+.+.#.O.O.O.O.#.O.O.O.X.X.O.O.O.O.X.| X.O.O.O.X.| X.X.X.X.O.O.X.| X.O.O.O.O.O.O.X.X.| | X.O.| | | V , $ $ % a a a d s x A  . .A V a % @ + + + < f Z J a % * * * $ # f f 1 ; # * * # # # - - ; * # * > O # * # * # ; # < g C .. .|  .........| |  .......A x x B ;... .| | | | | ....| | | | | | | | | | | A a + @ X                   $ + + + $ O .   O + # @ @ $ X     O @ @ + % + % a d x B N B A ..;...o.o.| X.+.o.o.$.$.$.$.$.o.o.@.$.$.+.+.O.@.@.@.$.$.+.+.+.O.O.O.O.O.O.#.+.O.O.O.O.O.O.O.O.O.O.O.X.| o.#. .x s f f f f f f f f f f f f f f f f f f f s s x J S ..+.+.$.$.8.8.5.5.5.@.5.8.5.5.4.4.5.w.8.&.&.4.4.5.w.9.9.6.7.4.4.4.4.4.4.4.4.4.4.5.5.9.w.w.w.w.w.w.w.w.w.9.9.9.9.9.9.w.w.w.w.w.w.w.w.w.w.9.w.9.9.9.9.9.w.9.9.w.9.9.9.w.w.q.q.q.q.q.q.q.w.w.w.t.t.s.s.p.v.v.v.v.v.v.v.v.v.b.L.K.p.J.i.s.s.d.w.w.w.w.w.w.w.9.9.w.s.s.y.w.q.r.r.r.r.q.q.q.r.r.q.r.r.r.r.r.r.r.r.r.r.r.r.r.r.r.r.r.q.q.r.r.r.r.r.q.w.w.w.w.w.w.t.w.w.w.w.w.w.w.t.t.w.w.w.t.t.w.d.w.w.w.q.r.q.q.r.r.r.r.r.r.r.q.r.r.6.6.r.r.r.r.r.r.7.r.r.6.r.r.7.6.6.r.9.9.6.9.9.9.9.9.9.6.6.9.9.9.6.9.9.9.9.9.9.9.9.9.9.9.w.e.e.y.e.d.d.w.w.6.r.6.6.9.9.7.4.7.r.r.7.4.4.4.7.7.r.7.7.9.9.9.9.9.9.0.9.9.9.9.9.9.9.9.9.9.9.9.9.9.9.9.9.9.9.",
"! ! E ! ! / ! ! / ! ! ! ! ! ! _ ) _ ` ' ! ! | | | ` _ o.! ! ! ! ! _ ` _ _ ) _ ! _ _ ! / ' _ ! / ( ( / ( +.| ! / / ! _ ( ( ( ( ( +.O.X.| o.%./ / / / / O.O.O.O.O.#.O.| o.#.O.O.O.O.O.O.O.+.+.O.X.$.$.$.o.O.O.O.O.O.O.@.$.8.@.@.4.@.$.$.$.#.O.4.O.&.&.@.$.$.+.$.+.+.O.O.#.#.#.O.O.O.#.O.#.+.+.O.O.O.O.4.4.X.| O.O.#.#.O.O.O.O.O.O.O.O.X.+.5.+.X.O.O.O.O.O.O.O.4.o.o.o.| O.O.O.4.4.4.O.O.O.4.O.#.4.4.4.O.O.O.O.O.O.O.O.O.O.O.O.O.O.O.O.O.O.O.O.O.O.O.O.+.#.X.X.O.O.O.+.+.O.O.X.X.O.O.O.O.O.| ! / O.O.X.X.X.| X.O.O.O.O.X.O.O.O.O.O.O.O.| | | X.O.X.| | N , + + @ + a d x A  .| | | | | A d % @ + + + , j Z Z , + # * * O * 1 f 1 ; * + # + @ < 1 - # O O O X X * ; ; - # + + # < f Z A .... ...................x a & & s S .. .| | | |  .| | | | | o.| | | | | | A s + + $ O O             X @ + + $ .       O + + # $ . X   . $ + + + + O . O $ + & % & a d x C ^ ....| X.X.o.$.$.$.o.o.+.o.$.$.$.+.+.O.@.@.+.$.$.$.#.O.O.O.O.O.O.O.#.$.+.O.O.O.O.O.O.O.O.O.O.o.| | O.+. .V a f f f f f f f f f f f f a f f f f f J x C S ..%.$.@.$.$.8.8.5.&.&.5.9.9.5.&.&.&.&.5.5.&.5.q.4.4.9.9.9.6.4.4.4.4.4.4.4.4.4.4.6.8.9.w.w.w.w.9.9.9.9.w.w.9.9.9.9.9.6.w.w.9.9.9.w.w.9.9.9.9.9.9.9.9.9.9.9.w.9.9.9.9.9.9.9.9.9.9.9.6.q.w.w.w.w.w.w.e.s.p.b.b.v.v.v.v.v.v.v.v.v.b.i.H.J.s.s.d.e.w.w.w.w.w.w.w.9.w.e.w.w.w.q.q.q.r.r.6.r.r.r.r.q.r.r.q.6.r.r.r.r.r.r.r.r.r.r.r.r.q.q.q.r.r.q.q.6.w.w.w.w.w.t.t.q.q.w.t.w.w.w.w.u.w.w.w.w.t.y.w.t.w.w.6.r.r.r.q.r.r.r.r.r.r.q.w.9.6.r.r.r.r.r.r.r.r.r.r.r.r.r.r.7.9.6.r.6.r.r.9.9.9.9.9.9.9.9.9.9.9.9.9.9.9.w.9.9.9.9.6.9.w.w.w.w.0.d.s.i.9.6.r.7.9.9.9.9.9.6.6.6.6.7.7.7.4.4.4.7.r.6.9.9.9.9.9.9.8.9.9.9.9.9.9.9.9.8.8.9.8.9.9.9.9.9.8.8.",
"! ! ! Q ! / / ! Q ! / ! ! ! / _ _ ' _ ' _ ! | | / +.%.%.! ! ! ! ! _ _ _ _ / ! | _ _ / _ ) ` ! ! ! / / / o.o.! X.O./ _ _ / ( ( / / o.+.X.o.o._ ( O.( O.( ( ( ( O.O.O.X.X.X.O.O.O.X.O.O.O.O.+.+.O.#.+.+.+.4.&.+.#.O.O.O.+.#.@.5.4.5.$.$.$.5.4.4.O.O.4.@.@.8.@.@.@.@.O.O.o.#.5.+.O.O.o.O.+.%.+.O.O.O.O.4.O.X.| O.#.+.+.o.O.O.O.O.O.X.X.X.| X.X.O.O.O.O.O.O.O.O.4.o.| | X.O.O.O.4.4.4.4.X.O.4.O.O.O.O.O.X.X.O.O.O.O.O.O.O.O.X.X.O.O.O.O.O.O.X.X.O.O.O.O.X./ ! | X.X.#.+.+.X.X.X.X.O.O.X.X.O.X.o.o.X.X.X.O.X.| X.X.X.O.O.O.O.O.O.O.O.O.O.X.| | | X.X.| | d @ @ $ + & d B  . .| | | | |  .A d % @ + $ + 1 C C x & + O O O + < < 1 1 - * $ O + # 1 f < # $ . . o # # * # + + O X O + * , g D A |  .................d % + @ + a C .. .|  .| | | | | | X.o.| | | | |  .x a + + + + @ .           O + + + O       . # * # # $ . .   O + # + + + $ O O $ + @ @ + + + + % a s C .. .| o.+.+.o.| | o.$.$.$.$.@.+.#.+.+.+.%.$.+.O.O.O.+.#.O.O.O.O.o.+.+.+.O.O.O.O.O.O.O.O.+.o.| X.+.o.N d f f f f f f f f f f f g g f f f f f f x C ;.=.$.$.$.8.@.@.5.9.8.8.8.9.9.q.&.&.&.&.&.@.5.w.6.4.6.9.8.9.5.4.4.4.4.4.4.4.4.4.5.9.8.9.w.w.9.9.9.9.9.9.9.8.8.9.9.9.9.6.6.9.9.9.9.w.w.9.9.0.0.w.9.9.9.9.9.9.w.w.9.9.9.9.9.9.9.9.9.9.9.6.w.w.w.w.t.w.e.s.H.J.L.b.v.v.v.v.v.v.v.v.b.i.p.J.s.a.s.s.y.w.y.y.w.w.w.w.9.w.w.w.t.w.r.r.r.r.r.r.q.q.6.q.r.r.r.r.r.r.u.u.6.6.r.r.r.r.r.r.q.q.q.r.q.q.q.6.w.w.w.w.w.t.t.u.t.w.w.w.w.w.t.t.w.w.w.t.y.d.t.w.w.q.6.r.u.u.r.r.r.r.r.r.r.q.r.9.6.r.6.6.r.6.6.9.u.r.6.r.7.r.r.6.6.6.7.r.r.6.9.6.6.9.9.5.7.7.9.9.9.9.9.9.9.9.9.9.9.9.6.9.w.w.9.9.9.0.f.0.9.6.r.5.9.9.9.9.9.9.5.7.7.r.r.7.4.4.7.7.6.6.9.9.9.9.9.9.9.9.9.9.9.9.9.9.9.$.8.9.8.9.9.9.9.8.$.$.",
"Q ! ! ! Q ! _ ! Q ! ! ! ! / / ! ! ! ! _ _ ! ! ! _ ` ` ' ' ^ ! ! / / ! ! ! ! ! o.o._ _ / ( o.| ! ! / / / / ` ) ) ( ! ! ! / / / O.O.O.( O.@.X.! O.O.( O.O.( / O.#.+.O.+.O.X.O.O.O.X.#.O.O.#.#.X.o.O.O.O.#.4.4.@.+.O.O.O.O.+.&.5.+.+.$.$.8.5.O.4.4.4.4.4.4.@.&.4.O.4.O.O.4.4.4.O.O.4.O.+.+.+.O.O.X.O.O.O.O.X.X.O.X.X.+.X.#.O.) ( O.X.| X.X.X.O.O.O.O.O.O.O.O.O.#.$.o.o.o.O.4.4.O.O.4.&.O.O.O.O.O.#.O.O.O.O.4.O.O.O.O.O.O.O.| X.X.O.O.O.O.O.X.X.O.O.O.O.O.| | | | | | O.X.| | O.O.O.O.X.| X.O.X.| | | | X.X.| | | | X.O.X.X.O.O.O.O.O.O.X.| | O.( / | | V + O O & x B | X.| | | | | | | | x , @ @ $ % s C A x , # $ @ O # 1 < 1 < - # O # # f s f < + O . . O ; - ; + @ @ . X   O + + 1 H S  . . ...A  . .......d + + + O + a C .... . .o.| | | | o.| | | |  .A d & O O + + + $ .         . $ + + @ .       . * # # + O   .   $ # - # + + O X   O + + + + + + + @ # , a x B ^ ^ %.+.X.| o.@.+.o.$.o.@.@.$.$.$.$.$.$.+.+.%.+.#.O.#.+.+.O.O.#.O.O.O.O.#.O.X.X.#.#.O.+.O.+.%.+.| V d f f g f s f f f f f g f f f f g g g A ..%.$.$.$.$.$.$.$.$.e.w.9.9.9.w.w.9.9.9.9.w.9.9.9.9.9.9.9.q.q.q.4.4.4.4.q.4.q.4.6.9.9.w.w.w.w.w.w.9.w.w.w.w.5.5.w.w.9.6.q.w.9.9.w.w.w.w.9.w.d.*.e.9.9.9.w.9.6.9.w.9.9.w.w.w.9.9.w.w.q.r.r.6.9.w.w.t.t.y.d.p.K.b.v.v.v.v.v.v.v.v.v.b.J.s.s.a.d.s.s.d.e.s.s.w.9.9.w.w.q.q.w.9.u.r.r.q.r.r.6.6.r.6.r.r.6.r.r.r.6.9.u.w.q.r.6.r.q.q.r.q.q.q.q.6.r.6.q.q.q.t.t.t.t.w.9.w.w.w.t.w.w.w.w.w.w.w.w.w.t.w.w.t.u.u.r.r.r.u.r.r.r.r.r.r.r.r.r.r.r.r.r.r.9.9.9.u.r.r.r.r.7.6.q.r.r.r.7.6.6.7.6.u.9.9.6.7.7.r.r.9.9.9.9.9.6.9.9.9.9.9.9.9.9.9.9.w.w.0.9.9.9.6.9.9.9.9.9.w.9.9.4.4.4.r.7.4.7.r.6.9.9.9.9.9.9.8.9.9.9.9.9.9.9.9.9.9.9.9.9.0.9.9.9.8.8.9.9.",
"Q ! ! ! E E Q ! / ! ! ! ! ! ! ! ! ! / ` _ ! _ / ! _ _ _ ) _ ! ! ! / / ! | _ ` ` _ _ _ ( / / ! ! ! ! / ) _ ` O.( / ! / / / / / ( / / / / X.o./ ( ( #.O.O.O.O.O.O.#.O.#.+.O.O.O.X.O.O.O.O.@.#.X.#.+.+.+.#.O.O.+.+.4.O.O.O.+.+.&.4.5.5.$.$.$.@.&.&.4.4.4.@.@.4.4.O.O.O.+.5.O.O.O.4.4.5.+.O.O.#.$.+.X.O.O.O.O.O.O.O.O.O.O.O.O.O.#.O.O.O.O.O.O.X.O.O.O.O.O.O.O.O.O.+.+.+.o.O.O.O.O.O.&.&.O.#.4.4.O.O.O.O.O.O.4.O.O.O.O.O.O.X.X.O.O.O.O.O.O.O.O.O.O.O.O.O.O.X.| | X.| X.O.X.| | O.O.O.O.| | | | | | | X.| | | | | | X.O.O.O.| X.O.O.O.O.O.| | X.O.#.X.|  .A , % a B %.| | | | | | | | | | |  .s % @ @ % x B A s & # O + + 1 g a f 1 - # $ + < Z Z g < $ X . O # < - # $ X X   . O @ + + # 1 H S ..A  .| | | ....-.s % + + $ O + & B .. . .| | | | | | | | |  .z a $ . . $ + + + O         . O @ + + O         . # # * + .   .   O ; < , # + O O   X $ @ + + + + + + # < 1 a d f x C ....o.o.+.$.$.o.| #.$.o.+.+.+.+.$.$.+.+.%.@.@.%.%.+.O.O.O.O.O.O.+.+.O.| | X.X.o.+.O.O.+.O.X.| N x s g f f f f g g f f g f f s C B S -.%.$.$.$.$.$.$.$.$.@.5.5.5.8.8.9.w.w.w.9.9.w.9.9.9.9.9.9.9.&.q.4.4.4.4.4.q.4.4.4.4.6.9.9.9.9.w.w.w.9.9.6.6.9.8.q.q.q.q.q.6.9.w.w.w.w.9.9.w.w.w.e.9.9.9.9.9.w.w.9.9.9.9.9.9.w.9.w.w.q.q.q.r.w.w.w.w.w.w.y.s.s.J.K.b.v.v.v.v.v.v.b.p.p.J.J.s.d.w.d.d.w.y.w.w.y.w.w.w.w.w.q.6.9.9.6.r.r.r.r.q.r.r.r.r.r.r.r.r.r.r.6.r.r.6.r.r.r.6.r.r.q.q.q.r.r.q.q.q.q.q.t.t.t.t.w.w.w.t.w.w.w.w.w.q.q.q.w.w.9.w.w.w.t.u.r.r.r.r.r.q.r.r.r.r.r.r.r.r.r.r.r.r.r.9.9.9.w.r.r.r.r.r.r.6.7.r.7.4.6.9.6.9.9.9.9.6.7.7.6.9.9.9.9.9.9.9.9.9.9.9.9.9.9.9.9.9.9.9.9.9.9.9.7.7.9.9.9.9.9.9.6.4.4.4.7.4.4.7.6.9.9.9.9.9.9.9.8.8.9.9.9.9.9.9.8.$.9.9.8.8.9.9.9.9.8.8.8.9.",
"/ ! Q E E E E ! ! ! ! ! ! ! ! ! _ ! / ' _ ! / ! ! ! _ ) / ! ! / ! ` _ / ! ! ) _ ! / _ / ! ! / / ! ! / ) _ +.#./ ! ! ( ) ) ) ( / / ! / / ! / / O.O.O.O.O.O.O.O.O.O.( O.#.O.O.X.X.O.O.O.O.O.+.O.O.O.O.O.O.#.O.#.+.@.+.#.#.+.4.4.4.+.O.@.$.@.+.&.+.4.4.5.$.@.O.O.O.O.O.+.+.#.O.O.4.4.@.+.O.O.O.+.O.X.+.#.O.O.O.O.O.O.O.O.O.O.O.X.X.O.O.O.O.O.O.#.O.O.O.O.O.O.O.O.O.O.O.O.X.X.X.O.O.O.O.O.+.4.4.O.O.O.O.O.O.O.O.O.O.O.O.O.| X.O.O.#.O.O.O.O.O.O.O.O.O.O.O.X.| | O.O.O.O.X.| | O.O.O.X.| | | | | | X.O.X.X.X.| | | X.O.O.O.X.O.O.O.O.O.O.| X.O.O.#.X.|  .A V x  .o.X.o.| | | | | o.| | | | X.A d % @ % x C A s , @ O @ % f J a a f < # O + f C S f # X   . # f f % O .     . O @ + + + + # 1 I :.S A  .| | |  ...x & @ + + O $ + d { ....| | | | |  . . .x d % O       $ + + + O         . + + + @ .         X ; < * + .       $ < a a % + O # O . . $ + + + + + + + O O O $ + % & a J C ^ ..%... .o.o.o.o.X.O.O.#.+.$.+.+.$.%.%.%.+.O.O.O.O.O.O.O.O.O.O.X.X.O.X.O.+.+.O.o.#.O.O.o.~ x s g g f f g g f f f f s x B ..-.%.#.@.$.$.$.$.$.$.$.$.@.5.5.8.$.8.e.w.9.9.9.9.9.9.9.9.9.9.9.q.4.4.4.4.4.4.q.4.4.6.7.6.w.9.9.9.9.w.9.9.9.5.6.9.9.9.q.w.q.6.9.9.9.9.w.w.9.9.w.w.w.w.9.9.w.w.w.w.9.9.9.w.w.9.w.9.5.4.q.q.q.q.r.r.q.w.w.w.w.w.s.s.s.p.H.b.v.v.v.v.v.b.p.i.H.J.i.d.9.w.w.w.e.w.w.w.w.w.w.w.r.r.9.w.w.9.6.6.r.q.q.6.6.q.q.r.r.6.r.r.r.r.r.r.r.r.r.r.q.q.q.q.q.q.r.6.q.q.q.w.w.w.t.t.t.t.w.w.w.w.w.w.w.w.6.q.q.q.q.w.t.t.t.t.t.6.6.r.r.q.q.r.r.r.r.r.7.4.7.r.r.6.r.6.6.9.9.9.r.r.r.r.6.7.4.4.r.r.4.6.9.9.9.9.6.7.7.r.6.9.9.9.9.9.9.9.9.9.9.9.w.9.9.9.9.9.9.9.9.9.9.9.9.5.r.6.9.9.9.5.4.4.7.4.4.4.4.4.5.9.9.9.9.9.9.9.9.9.9.9.9.9.9.9.9.9.$.9.9.8.8.9.9.9.9.0.*.%.$.",
"Q Q E Q E E E Q / / ! ! ! ! ! ~ ' _ _ ~ ' ! ! ! ! W W ! ! / / _ _ / ` +.' ! / / ! _ _ ! / ( ( ) / ! / / / ` #.#.X.! / / / / / O.O./ / / / ( ( O.O.( O.O.O.O.O.X.O./ O.O.#.#.X.X.X.X.O.O.O.O.o.#.+.#.O.O.+.+.#.#.+.@.$.$.@.4.4.O.O.O.#.$.@.O.O.O.4.5.$.$.+.#.O.O.4.O.O.O.+.#.4.4.4.#.#.O.O.O.+.$.$.$.+.O.O.O.O.O.O.O.O.O.O.+.#.X.O.O.O.O.O.X.X.O.O.O.X.O.O.O.O.O.O.O.4.O.O.4.O.O.O.#.O.+.O.+.@.@.@.O.O.O.O.O.O.( O.#.O.X.X.O.O.O.O.O.O.O.O.O.O.O.O.O.O.X.| | O.O.O.O.X.| | X.O.O.X.| | X.X.O.X.O.O.O.O.X.| | | | X.X.X.O.O.X.O.O.O.O.| X.O.O.X.| | | | | | | | o.| | | o.| | o.| | | | X.o.A d % % d C S s , $ O $ % Z A s f 1 # + . # g A A a + X   O 1 j f + . . . X # # + + @ $ O $ # 1 j Z D .. .| | | | A a + @ O X + @ + d C B | | |  . .A x d % + $ .     X + # + @ .         . + , a % X         O ; , & $ .     X + , a a , + # < < O . O @ + + + + + @ O $ .   O + + @ $ $ & a x B ^ %.%.| o.#.O.O.O.+.+.@.+.+.@.%.+.O.O.O.O.O.#.O.#.+.+.#.O.O.O.O.O.+.+.+.+.+.| X.+.+. .A C x s f f f s J J x A  . .$.$.$.$.$.$.$.$.$.$.$.$.$.$.9.9.9.&.e.e.8.w.w.w.9.9.8.9.9.8.9.w.w.q.4.4.4.5.4.4.4.7.6.4.4.q.9.w.9.9.9.9.9.9.7.5.9.9.w.y.9.6.5.9.9.9.9.9.9.9.9.9.9.w.9.9.9.9.9.e.e.9.9.6.9.w.9.9.6.4.q.q.q.q.q.6.r.q.6.q.q.u.q.y.a.s.p.J.K.p.b.b.b.v.b.J.i.p.H.s.d.w.w.w.9.w.w.w.6.w.w.w.w.u.u.w.w.9.9.w.w.q.q.q.6.6.6.q.r.6.9.6.r.r.r.r.r.r.6.r.7.q.q.q.q.q.q.6.w.w.w.q.w.w.w.w.w.t.t.t.t.w.t.w.w.w.6.6.q.u.q.q.6.u.u.u.t.w.6.6.r.r.q.6.6.6.6.6.6.6.6.6.6.r.r.4.7.7.w.w.7.6.6.r.r.9.9.5.6.6.6.4.6.9.9.6.4.4.4.7.r.7.9.9.9.9.9.9.9.9.9.9.6.4.6.9.9.7.6.9.9.9.r.7.6.9.5.r.7.9.9.9.6.7.4.r.6.4.4.4.4.5.9.9.9.9.9.9.8.8.6.6.9.9.9.8.8.9.9.9.9.9.9.9.9.9.9.8.,.>.,.,.",
"Q ! E _ ^ ~ ! / ) _ ! ! ! / / ! ! ! _ ~ ^ ! ! ! ! ! ! ! ! _ _ / ! / ) ` ^ ~ / _ _ / ! / ( ( X.X./ ! ! ! / X./ ( / / / / ( ( / / O./ / / O.O.O.O.O.( / O.O.O.O.o.O.| X.X.X.O.( O.O.O.O.O.o.+.#.+.+.+.+.O.+.8.8.o.O.@.$.$.+.4.4.4.O.4.@.$.+.O.O.$.+.#.$.+.+.@.+.O.O.O.O.4.4.O.O.O.( O.+.+.X.X.+.O.+.+.+.#.O.O.X.X.O.O.O.O.O.O.#.+.#.( O.O.X.| X.O.O.O.O.O.O.O.O.O.O.O.O.O.4.4.O.O.4.4.+.4.4.4.4.+.#.O.O.O.O.#.O.+.O.O.O.X.O.O.O.O.O.O.O.O.X.O.O.O./ / | | | X.X.X.X.| | X.X.O.X.X.X.X.X.X.| | | O.O.O.O.X.| | | | X.X.| | | | O.O.O.O.| | X.O.X.| | | X.X.| | | | | | | | | | | X.| | | | | | A s & & s C x & O   O a C x s s < + $ O % Z A A a @ . O + s g % O O O $ * < - # + O . . . O + - f j F A A |  . . .x & + $ @ + # + + a C .. .=.`.D.s % + + $ .   X * # + # # + .         O % a a , O         o < a a @ .     O # , a a % @ * f - O O . . X $ + + + @ $ @ .   . O O X       . X % & s B ..%.| | o.+.+.$.+.+.+.#.o.+.#.O.O.O.O.O.O.#.#.O.O.#.#.O.O.+.+.#.#.O.O.O.4.4.4.@.o. . .A A A A A A A .. .$.@.@.@.@.@.$.$.$.8.5.&.&.$.@.&.&.&.q.w.w.e.=.e.9.9.9.5.@.@.8.e.e.9.6.q.4.4.&.4.4.4.4.4.4.4.4.4.4.w.w.9.w.9.9.w.9.9.9.9.e.s.e.9.8.8.8.e.e.*.9.9.9.6.9.9.9.9.9.w.w.w.w.9.9.9.9.w.w.9.6.w.6.6.q.q.6.6.6.6.q.q.w.w.w.w.e.s.s.s.s.s.s.i.p.K.p.J.K.b.p.i.w.w.t.w.9.w.w.w.6.9.w.9.9.9.w.w.w.w.w.w.w.w.w.q.6.r.r.q.r.7.6.w.6.r.r.r.r.r.r.r.6.w.q.r.q.q.6.6.r.6.w.w.9.9.w.q.9.u.u.q.q.q.q.u.t.t.w.6.r.r.r.r.q.u.q.6.9.u.6.r.t.w.w.9.w.9.9.9.6.q.w.w.q.r.r.6.6.9.q.w.9.9.9.6.r.6.9.9.9.9.9.9.5.8.9.9.6.6.r.7.r.6.r.6.9.9.9.9.9.9.9.9.9.7.6.r.6.7.4.4.6.9.9.9.5.4.4.4.7.7.5.5.6.6.5.4.6.9.6.r.6.6.7.5.9.9.9.8.8.9.6.6.9.8.$.$.9.9.9.9.8.$.8.9.9.9.0.>.>.>.>.>.",
"Q Q E Q ~ ! / / _ / ! ! Q Q ! ! ! ! ! _ ~ ! ! ! ! ! ! / / ' _ ! ! ) ) ' ~ _ ! ! _ _ ! ! / / / ! ! ! ! ! ! ! ! ! ! ! / / ) ) / / ! ! / ! / / ( O.O.O.( ( ( O.O.+.+.X.X.X.| O.O.O.O.O.O.#.$.+.+.e.=.$.$.+.+.8.$.+.O.O.+.$.+.&.4.4.O.4.4.@.#.O.5.8.+.O.@.$.+.#.O.O.+.+.O.O.O.O.O.O.O.O.+.8.o./ +.#.+.#.+.#.O.O.X.X.O.O.O.#.O.O.O.O.O.O.O.#.+.X.O.O.O.O.O.O.O.O.O.O.O.O.O.O.O.O.O.O.O.O.+.O.O.4.4.O.o.#.O.#.+.#.O.O.O.O.O.| O.O.O.O.O.O.O.O.X.X.O.O.( X.| | X.X.! / O.X.O.O.( X.| | | X.O.O.O.X.| O.O.O.O.X.X.| X.O.O.X.| | X.O.O.O.X.| X.X.O.O.X.| | | | X.| | | X.| X.X.| | | | o.o.| | | | |  .A s & & d d % @ O $ a C x s a # @ O . & C S H & $ . . % f , + X $ # < 1 f , # + $ . $ @ @ + # 1 L I D ..| |  . .A s , & % # - - + + , C ,.=. X/.# $ + + $     X O O # & < # .         O % a a a O         * 1 f a O       X < a a a % O * h % O ; # X . $ # - # + + O                       X O + % d B  .| X.o.o.+.+.$.$.+.+.+.#.O.#.O.O.O.O.O.O.O.O.+.$.+.#.+.+.O.O.#.+.4.4.4.#.$.$.o.o.X.| o. .%.%.| | X.#.&.@.$.$.@.$.$.8.8.5.@.@.8.8.@.@.5.&.9.w.*.*.e.9.9.9.w.9.8.5.8.8.5.9.5.w.q.4.4.4.4.4.4.4.4.4.4.q.q.w.w.w.w.w.w.9.9.9.9.e.s.w.w.9.9.9.0.i.e.e.w.w.w.6.6.9.w.w.w.w.w.6.6.q.w.q.q.q.6.r.q.w.9.q.q.r.6.6.r.r.q.w.w.w.w.9.w.d.s.s.s.s.a.s.H.J.H.p.p.p.e.w.9.9.9.9.9.9.9.9.9.9.9.9.w.w.w.w.w.y.w.w.w.w.q.q.q.r.6.r.6.9.9.6.6.q.r.r.r.r.r.6.w.q.6.r.r.w.q.6.w.w.w.9.9.t.q.9.9.u.q.q.q.q.q.q.t.w.t.q.q.r.r.6.q.q.6.9.9.w.6.w.w.w.9.9.w.w.9.6.6.9.w.t.u.9.9.9.9.9.9.9.9.9.6.r.6.6.9.9.9.9.9.9.9.9.9.r.6.7.7.r.r.r.6.9.9.9.9.9.9.9.9.9.9.9.6.6.4.5.5.6.6.9.9.4.4.4.4.r.6.6.4.4.6.9.4.4.6.6.6.r.r.7.5.5.9.9.8.8.9.9.9.9.9.8.9.9.9.9.9.9.8.8.9.9.9.0.>.>.>.>.>.",
"E E Q Q Q ! _ / / ! E Q ! ! ! | W ! ! ! ! | ! ! ! / ! _ / W ! ! ! ! / ` _ _ _ ! ! ! ! ! ! ! / / / ! ! ! ! ! ! ! ! ! / / / / / / / / / / / ( ( O.O.O.O./ / / / X.X.| o.X.X.O.O.O.O.O.O.O.+.+.@.e.=.%.o.O.O.@.+.#.4.O.O.+.O.4.@.+.@.@.@.4.4.4.O.#.#.O.+.$.+.X.O.O.#.+.O.O.O.O.X.O.O.O.#.+.#.X.+.O.O.O.+.#.X.O.+.+.+.+.O.O.X.O.#.O.O.O.O.+.+.X.O.O.O.O.O.O.O.O.O.O.O.O.O.4.4.4.4.O.O.O.O.O.O.O.4.5.$.@.X.O.#.X.O.X.O.O.O.O.O.O.O.O.O.X./ O.X.| X.O.O.O.X.| | X.O.X.! | X.O.O.O.X.X.X.X.O.O.X.| | O.O.O.O.O.X.X.O.O.O.O.X.X.O.O.X.| | | X.X.O.O.X.| | | | | | | | X.| X.X.| | | | o.| | | | | | | | A s & % % + + + # g C x s , @ O . O f S ;.f + .   O < f % + O O < g Z f % @ + + O @ + + + * - L Y g C ^ | ~ ^  .A V a a , < # + # $ 1 C ;.Z % X $ + # O         O , , a % .         O < a a a +         O 1 f , O       O 1 a s d % O o 1 1 # # O . O + # # + + $ X     X                 X $ + $ O % x ^ | | | #.o.%.$.$.+.#.O.O.O.O.O.O.X.O.O.O.O.) +.$.$.+.+.O.O.+.+.5.4.4.#.%.$.$.$.#.O.@.$.@.4.4.+.#.&.&.8.8.+.+.$.$.$.$.@.$.8.9.8.8.9.9.9.9.8.*.$.$.8.9.9.9.9.9.q.q.5.8.9.5.w.q.4.4.4.4.4.4.4.4.4.4.q.q.w.w.w.w.w.9.9.9.9.9.e.w.w.6.9.9.9.9.d.d.e.6.q.w.6.6.w.w.w.9.9.6.6.q.q.q.q.q.q.q.r.r.q.w.w.q.r.q.q.r.r.6.w.w.9.9.9.w.e.a.s.s.s.s.i.s.s.i.p.s.d.9.9.w.w.w.w.6.9.9.9.9.9.9.w.t.w.w.w.w.y.w.w.w.w.w.w.w.6.9.9.9.9.9.9.w.q.q.6.r.r.r.r.q.q.r.6.9.w.w.w.w.w.w.9.9.w.w.9.9.9.w.w.w.w.6.q.t.t.t.t.q.r.6.w.w.w.w.6.6.w.w.w.w.w.6.9.9.w.9.9.9.9.9.t.t.9.9.w.9.9.9.9.9.9.6.r.6.9.9.9.9.9.9.9.9.9.6.r.7.4.7.r.r.r.7.7.9.6.9.9.9.9.9.9.9.9.9.9.9.9.9.9.6.7.4.4.7.7.4.4.7.9.6.4.4.4.9.5.7.r.r.r.7.6.9.9.8.$.8.8.9.9.9.9.9.9.9.9.9.9.9.9.9.9.8.9.9.0.>.>.>.>.>.",
"E E ! W ! ! ! ! Q Q E Q ! ! ! ! Q W ! Q ! ! ! ! / _ ! _ _ W W ! ! W / _ ! / ! ! / / ! ! ! ! / ( ) _ ! ! ! ! ! ! ! ! / / ! ! / / ( ) ( O.O.O.O.O.( O.O./ / / / X.o.o.#.#.O.O.O.O.O.( ( O.O.O.+.+.+.+.#.O.+.&.O.#.O.O.O.O.O.4.9.$.+.$.@.&.4.4.O.O.@.O.O.+.O.| X.O.O.X.O.O.O.X.X.O.O.O.O.O.X.X.O.O.O.X.O.+.O.O.+.%.$.o./ O.O.O.#.O.O.O.O.O.o.| O.O.O.O.O.O.O.O.O.O.O.O.4.4.O.O.O.+.O.O.O.O.O.O.O.+.8.+.! X.| | X.X.O.O.O.O.O.O.O.O.X.| | | | | | X.O.O.X.| | X.X.X.X.| | | X./ | | | X.X.| | | | O.O.O.O.X.| X.O.O.O.O.O.O.O.O.| | | | | | X.O.o.| | | | | | | | | | | | | | | | | | | | | | | | o.| A a + + + $ O % Z C x a % O O X + g x x & X O X $ < 1 + O O O f x x a + O # + + + + + + # # 1 g 1 a x ^ .. .|  .N d a a , + @ + $ X & s & . X + , < O         O , a a % .         O < a a a + .       O < , + .       * f f x d % $ o - 1 , # X O O O $ @ + + $ O     X                 . . O O O O % a B ~ o.O.X.o.$.o.X.X.O.O.O.O.O.O.X.O.O.#.+.+.#.+.O.O.O.O.O.#.O.4.4.5.+.$.+.#.+.+.#.@.$.+.O.@.$.@.@.@.@.$.$.$.8.$.$.$.$.8.9.9.5.8.$.8.9.9.w.9.$.&.&.8.5.9.9.5.4.4.5.w.9.5.4.q.q.4.&.&.&.&.4.4.4.q.q.4.5.9.w.9.9.9.9.9.9.9.w.8.w.7.6.9.9.8.w.8.5.4.7.q.q.q.w.6.9.9.9.9.w.w.w.w.6.6.w.q.q.r.6.w.w.w.q.q.q.q.6.6.w.w.9.9.w.9.9.d.s.s.s.s.s.s.i.s.i.e.t.9.9.9.w.w.q.q.6.6.9.9.u.9.w.w.w.w.9.9.w.w.w.w.w.w.w.w.9.9.9.9.9.9.w.w.6.r.r.r.r.r.r.r.r.4.6.9.9.w.w.w.w.w.9.9.w.w.9.d.w.w.w.w.6.6.q.w.t.t.w.6.q.w.t.t.t.w.q.w.w.w.w.w.w.w.9.9.9.w.w.9.9.9.9.9.9.w.9.9.9.9.9.9.9.r.r.6.7.6.9.e.e.9.6.r.6.r.r.7.4.7.r.r.r.7.4.4.4.5.9.9.9.e.9.9.9.9.9.9.9.9.9.6.7.6.7.4.4.7.7.6.9.4.4.4.5.9.5.7.r.r.r.9.9.6.5.$.$.8.9.9.9.8.9.9.9.9.9.9.9.$.$.8.8.%.8.9.9.>.>.>.>.>.",
"E E Q Q Q E Q ! ~ E E Q Q ! Q ! W Q W ! ! ! ! ! ! / ! ! ! W W ! / / ! ! ! ! ! ! / / X./ ! ! / / / / / X./ / / ( X.+._ / ! / / / +.+.O.+.o./ | / ( O./ / / ( ( ( ( O.X.( O.O.O.O.O.O.O.O.+./ O.O.O.O.+.O.O.O.O.O.O.O.4.4.O.o.@.+.O.4.@.#.@.@.+.o.o.O.O.O.O.| X.O.O.O.O.O.#.X.X.O.X.O.O.O.X.X.O.O.O.X.X.#.O.O.O.O.o.X.X.X.O.O.O.O.O.O.O.O.O.X.X.O.O.O.O.O.O.O.O.O.O.O.O.4.O.O.O.O.O.O.O.4.4.O.O.O.#.#.X.#.X.X.O.O.O.O.#.o.O.O.O.O.O.X./ X.X.X.X.O.X.| | | X.O.X.X.X.| | W | X.| X.X.X.X.| | X.O.O.X.| | | X.O.O.O.O.O.X.O.X.X.X.X.X.X.o.| X.X.| W | | | | | N N N N B B .. .o.X.| | | | | | | | | |  .V , + # $ $ + a s a a % O $ + , Z A x , O O @ @ # # + O + 1 J x C a @ * ; + O X @ + + + + # < # % a x S  .| |  .V d a % O . . .   $ + @ .   # , , $         O , a a & X         O a a a a $ .       X # + O         # f d s a + $ . # % # * ; # O X $ O $ + + O   . O $ O               . O $ O . $ + & x ..o.o.X.+.o.X.X.+.+.( ( O.O.O.#.O.O.#.@.O.O.O.O.O.O.4.O.+.+.@.@.+.#.#.#.$.+.+.@.5.4.4.@.@.5.8.@.@.$.$.8.6.4.@.&.@.$.5.q.5.$.$.8.9.9.9.8.@.5.5.9.w.8.9.w.&.5.9.9.9.w.w.6.7.5.&.&.&.&.4.4.4.4.4.4.5.w.9.9.w.&.@.8.9.9.w.5.4.4.4.5.5.9.9.9.5.4.5.9.6.6.r.7.6.q.6.6.9.5.5.w.q.6.6.q.q.6.6.q.q.q.w.w.w.9.9.w.q.6.9.9.9.9.9.w.e.s.s.s.s.i.s.d.d.t.t.y.w.9.9.9.6.9.w.6.w.w.w.w.w.w.e.e.9.9.w.w.w.w.w.w.w.w.9.6.6.6.6.6.6.9.6.r.6.q.q.r.r.r.r.7.6.w.w.w.w.w.w.w.w.w.t.9.9.w.9.6.w.w.r.r.q.r.u.t.w.q.q.q.q.9.9.w.u.w.w.9.w.w.w.q.u.9.w.q.q.6.9.9.9.9.9.9.w.9.9.9.9.u.u.r.6.7.4.5.9.e.e.9.9.r.r.r.7.7.6.6.r.r.r.r.7.4.6.4.7.9.w.y.9.9.9.9.9.9.9.6.4.7.9.9.6.4.4.7.7.6.7.9.6.4.9.8.5.7.r.7.4.9.9.8.8.8.8.9.9.6.5.5.9.9.9.8.9.8.$.$.8.8.9.8.$.8.%.>.,.>.>.>.",
"E E E E Q Q Q ! W E E ! ! ! ! ! ! W W ! ! ! ! ! ! ! ! ! W W ! ! / / ! / / / ! ! ! / / / / ! ! ! ! ! X.X.! / / / ( / ! ! ! ! ! / X.X.X./ ! ! X.X.( ( O.+.+.+.( / ( O.O.O.O.O.O.O.O./ O.O.+.O.O.#.+.+.O.O.O.O.O.O.O.O.4.O.O.#.#.O.@.@.$.$.$.$.%.+.+.O.O.O.O.X.O.O.O.O.O.O.X.X.O.O.X.O.O.O.O.O.O.O.O.X.O.O.O.O.O.O.X.X.X.X.O.O.O.O.O.O.O.O.X.O.O.O.O.O.O.O.O.O.( O.O.O.O.O.O.O.O.O.O.O.O.O.O.O.O.O.O.O.O.O.O.O.O.O.#.o.o.o.O.O.O.O.O.O.O.X.O.O.O.O./ | ! | X.O.X.| ! X.d.=. .| ! X.O.O.O.X.X.X.O.X.| | | | O.X.| | | | | | X.#.O.O.X.X.X.| X.X.X.| | | | W V a p a a a a a s x B ^ .... . . . . . . .~ A s & @ @ @ @ & a a d % O O + f C A J , @ @ + % < % + $ # g C x x , O * # $ X X $ + @ $ + + + + + + & s B  .|  .N V a % @ X     O + $ .     $ 1 a % X       O , a a a $         O % a a , $ .       . $ + O .     . # , a a , @ X   X @ + @ # + @ @ + @ @ + $ .   $ + + $ .   .           O @ $ O O X . O & x B  .X.X.! X.o.#.( ) ) O.O.O.O.O.O.O.O.O.O.O.O.O.O.4.@.$.+.+.+.O.O.+.$.$.$.@.4.5.5.4.&.5.$.8.@.$.@.@.@.4.4.&.@.$.@.@.@.$.8.9.9.9.5.&.&.w.w.9.9.8.9.q.&.&.5.5.6.5.6.7.4.4.4.4.4.4.4.4.4.4.q.4.5.9.9.9.8.5.8.9.9.9.6.4.5.5.6.w.9.9.6.6.7.4.4.9.9.7.r.7.r.6.r.6.w.6.6.w.q.r.r.q.w.w.w.t.q.q.w.w.9.9.w.w.w.w.w.w.9.9.9.w.w.e.y.e.e.w.w.9.w.w.w.w.w.9.w.w.w.9.w.9.w.w.w.w.w.9.9.w.w.9.9.9.9.w.w.w.w.w.9.9.9.6.6.r.9.9.6.6.r.r.q.6.r.q.r.r.6.9.9.9.w.w.w.w.w.w.q.w.9.9.w.w.w.w.6.q.q.q.t.t.w.w.q.q.w.9.w.w.w.w.w.w.w.w.w.w.u.9.w.w.w.w.w.9.9.9.9.9.9.w.w.w.9.u.u.r.7.4.5.9.9.8.8.9.9.7.6.r.4.4.7.r.r.6.r.r.6.5.7.6.9.9.6.9.9.9.9.9.9.6.9.6.5.6.9.9.5.4.7.7.7.9.6.6.9.4.6.8.5.7.r.7.5.9.9.8.9.8.$.9.9.9.4.5.9.9.9.8.9.$.%.8.9.9.9.9.$.$.$.%.=.>.>.>.",
"E E Q ! ! ! ! ! ! ! Q E Q ! ! ! ! W W ! ! ! ! ! ! ! ! ! Q ! ! ! ! ! ! ! ! _ ! ! ! ! ! ! ! ! ! ! / _ ! X.$.o.| ! ! ! / / / ! ! ! ! ! ! ! / / +.O./ ( O.( / / / X.#.( O.+.#.O.O.O.O./ O.X.O.O.#.+.@.#.O.O.O.O.4.4.O.O.4.O.@.@.#.X.#.#.#.+.@.O.#.+.+.O.O.O.O.O.O.O.#.+.O.O.O.O.O.O.O.O.O.O.O.O.O.O.O.X.O.O.O.O.O.O./ X.O.X.O.O.O.O.O.O.O.O.X.O.O.O.O.O.O.O.O.O.O.O.O.O.O.O.O.O.O.O.O.O.O.O.O.O.O.O.O.O.O.O.O.O.O.O.+.8.$.o.X.O.O.X./ O.O.| X.O.O.O.X.X.! | X.O.X.! / O.8.Q.D.A ~ / O.X.X.X.X.O.X.| | | | | O.X.| | | | | | | X.X.O.| X.#.X.X.X.X./ | X. .V , + + + + + + % % & a d z B B B B A B ........A s % % + @ % f f s & O O + f x A s + . O % a d & + + % Z x x d % O * # O O . . $ @ O + O O + + @ + , s C  .| A x a % $ . X O @ + + O .   O % a , +       O & a a a % .       O < a a a # .       . # # # O       * < , a % $       O @ + + * # + + + @ O .   . @ $ @ X     O O .         . . .         . + a B ~ ! | | | X.#.%.%.%.+.O.#.+.+.+.#.O.O.4.O.O.O.O.O.@.@.@.+.O.+.@.@.+.+.+.+.$.$.@.&.4.@.$.@.4.4.O.+.4.4.&.5.$.$.$.$.8.9.9.9.w.q.5.5.w.w.9.9.9.9.8.&.&.&.4.6.8.8.9.4.7.4.7.6.7.4.4.4.4.q.q.4.5.9.9.9.9.8.w.9.8.6.6.9.w.w.w.9.5.7.r.r.6.6.6.6.4.7.6.r.r.r.7.q.q.4.q.q.q.q.q.8.w.9.w.w.q.9.w.w.w.w.9.w.9.w.w.w.9.9.w.q.q.w.w.w.w.w.w.w.w.w.w.9.9.9.9.9.9.w.w.9.9.9.9.9.w.w.w.w.9.9.9.9.9.9.9.w.w.9.9.9.9.6.6.9.w.9.6.r.r.r.7.6.q.r.r.6.9.9.9.9.w.w.w.w.q.q.w.9.9.w.t.w.e.q.r.6.6.u.w.9.w.w.w.w.w.w.w.q.w.w.w.9.w.w.t.9.6.9.9.9.9.w.9.9.9.9.9.9.9.9.9.9.u.u.6.7.5.9.9.9.5.5.9.6.5.9.7.4.4.4.7.6.r.4.6.9.9.4.6.9.9.5.5.9.9.9.9.9.7.6.6.6.6.7.4.4.4.4.4.7.9.9.8.9.5.5.9.9.5.4.+.5.5.4.5.0.9.8.9.9.9.5.5.9.9.9.8.9.$.%.8.9.9.9.9.$.$.$.$.$.%.,.%.",
"E Q Q Q Q ! ! ! ~ ' ! Q Q ! ! ! ! W Q ! Q ! ! ! ! W W W E ! ! ! ! ! ! ! ! _ ! ! ! / / X./ / / ! ! X.! o.+.o.! X._ _ ( / ! ! / / / / / X.O./ O./ / ) O.( ( o.o.o.X.O.O.( O.O.O.O.O.! X.X.X.X.5.+.@.+.O.O.4.4.4.4.O.O.4.O.+.O.+.o.o.+.+.+.+.O.O.O.O.O.O.O.O.O.O.O.#.+.O.#.4.4.O.+.+.#.O.O.#.O.O.O.O.O.O.O.O./ ' ) / / O.O.O.O.O.O.O.O.O.O.O.O.O.O.O.O.O.O.O.O.4.O.O.O.O.O.O.O.O.O.O.O.O.O.O.O.O.X.X.O.O.O.O.O.O.O.O.+.@.| | / / | X.X.| | X.O.O.O.X.X.o.| X.O.X.| X.X.O.i.<.x ^ ( X.X.o.X./ X.| | | | | | X.O.X./ X.X.| | | W X.X.| | o.X.X.X.X.| | | V & + @ + + + + + + + & & a x B B m d s g Z Z Z ;.>.3.H Z a , f f s x a # @ + d x B s @   O % s s , + O % C B x , $ X # ; # O .   O + + @ X X $ + + + # , x ^ | | N d % $ . . O @ @ % , + O O % a a % .     . & a a a % .       O < a a a % .       . * , < #       O # < < + $         O + + # + + + O .       . $ $ @ X     O $ .               X .     . $ + a ^ _ W | ! / O.+.+.+.+.+.$.$.+.%.$.+.#.4.4.O.+.O.4.4.4.O.O.O.O.@.4.O.O.#.+.$.$.$.@.@.@.@.&.4.4.4.4.4.4.&.@.$.$.$.$.9.9.9.9.w.w.9.e.9.w.9.9.9.8.8.5.&.&.8.9.9.9.5.4.4.4.4.4.4.4.4.4.4.q.q.4.&.8.9.9.9.8.9.9.9.9.9.w.e.e.9.9.4.4.r.6.w.9.5.6.4.4.6.6.r.r.7.q.q.4.q.q.q.q.w.q.w.w.w.q.q.w.w.w.w.w.9.9.9.w.w.w.6.6.w.q.q.q.w.w.9.9.9.w.w.w.w.9.9.9.9.9.8.e.w.9.9.9.9.9.w.w.w.w.w.w.w.w.w.9.9.9.9.w.w.w.9.6.6.9.9.6.r.q.q.q.4.6.q.6.r.6.6.6.9.6.9.w.w.q.q.q.6.9.9.w.q.w.w.w.6.q.9.9.9.9.w.w.w.w.w.w.w.w.u.u.u.w.w.9.9.9.9.9.9.9.9.9.9.w.9.9.9.9.0.9.9.6.r.6.6.6.9.9.9.9.6.4.4.9.9.9.9.5.4.4.4.4.r.7.4.6.6.4.7.9.9.9.6.6.9.9.9.9.7.r.r.7.7.4.4.4.4.4.4.7.9.9.9.9.$.8.6.9.6.4.5.$.5.4.5.8.9.9.9.9.9.8.5.9.9.9.9.9.$.8.9.8.9.9.9.8.8.8.9.8.$.$.$.",
"' ~ E E R Q Q Q ~ ~ E Q Q Q ! ! ! ' ! ! W W ! ! ~ ! ! ! Q ! ! ! Q ! ! ! Q / / ! ! ! ! / / / / ! ! | | | ! ! ! / / / / ! ! ! / / #.+.o.X.X./ / / / ( ( / X.| ! X.X.O./ / O.O.O.O./ / | X.O.X.O.) O.( O.o.4.4.O.X.+.4.O.O.4.O.#.4.+.+.+.4.O.+.#.O.O.O.4.O.O.O.O.O.O.#.+.+.+.O.O.+.+.#.O.#.#.O.O.O.O.O.O.O.O.X.o./ / / X.O.O.O.O.O.X.X.X.O.O.#.O.O.O.O.O.O.O.#.O.+.O.( O.O.O.O.O.O.O.O.O.O.O.O.O.X.X.O.O.O.O.O.O.O.O.O.O.X./ ( ( X.X.X.X.| X./ O.#.X./ O.X.X.O.O.O.X.X.X. .A d B ' X.#.O.X.X.| | | | X./ / ( X.X.X.X.X.| | X.X.X.o.X.| | | X.O.X.N V d & @ @ + + @ + + + # - , a d B ..;.;.C f f a a s C ;.;.;.S x a a f f x x f a , d x x d +   O & Z x a $ $ % x B x , $ . X # + $ . . @ + + $ @ + + + + + # % a x  .N A d & + X   @ + + a s a & $ + , a , O .     + , a a & O       . # a a a , O       . ; , , ; O     O # - ; # # X     . $ # # + + + O .         O @ + + O   . O $   . * X       . $ $ . . O + @ % d ^  . .X./ X.o.+.#.#.+.%.$.%.+.+.+.+.O.O.O.4.@.@.5.O.O.4.4.O.O.4.4.4.+.+.4.5.5.$.$.5.4.4.4.4.4.4.4.4.4.5.$.8.8.$.8.9.w.q.w.9.e.*.w.w.9.e.9.9.8.6.5.8.*.0.e.9.8.4.4.4.4.4.4.4.4.4.4.4.4.4.4.4.9.9.9.8.w.w.9.9.9.9.9.9.9.9.6.6.7.6.9.9.9.9.6.7.6.9.6.7.4.r.6.r.q.q.q.q.w.w.t.w.w.w.w.9.9.9.w.w.w.t.t.w.w.9.9.w.q.q.r.6.9.9.9.9.w.w.e.w.w.w.9.w.w.w.9.w.w.9.9.w.w.w.w.9.w.w.w.w.w.w.w.w.w.9.9.w.w.w.w.w.9.9.9.w.q.q.q.q.r.6.q.6.7.u.t.6.6.q.q.q.6.6.6.6.w.w.w.w.9.9.w.t.u.q.6.6.q.6.6.9.u.9.w.w.w.w.t.9.9.w.9.9.9.9.w.9.9.9.9.9.9.9.9.9.9.0.e.9.9.9.9.9.9.6.9.9.9.6.6.6.6.5.5.5.9.9.5.4.4.4.7.6.6.6.6.5.5.9.9.9.9.6.9.9.9.9.9.5.4.4.4.4.4.4.6.5.6.9.9.9.8.9.6.6.6.9.9.5.8.8.9.7.5.9.9.9.9.8.5.5.5.8.8.8.9.9.9.8.8.8.9.9.9.8.$.8.9.8.$.%.$.",
"' ~ E E Q Q Q ! ~ ~ Q W W ! ! ! ! ! E Q ! W ! ! ~ ! ! ! Q Q ! ! ! ! ! ! Q ! ! ! ! ! ! ! / / / ! ! | | ! ! ! / ! ! ! / ! ! / ( O.+.o.o.| X.) ( ( ( O.X.X.X.| ! X.O./ O.O.O.O.O.O.O.+.o.o.+.O.O.( ( O.+.X.O.O.X.X.+.O.#.O.4.O.O.4.O.O.O.4.#.+.#.O.o.X.O.O.+.O.O.O.O.O.O.O.#.@.+.#.O.X.O.O.O.O.O.O.O.O.O.O.O.#.o.! / O.O.O.O.O.O.O.X.| X.X.#.O.O.O.O.O.O.O.O.O.O.#.O.O.O.O.O.O.#.#.O.O.O.O.O.O.O.O.O.O.O.O.O.O.X.X.O.O.O.O.( ( ( O.O.O.X.| X.O.O.O.O.O.O.O.O.O.O.O.o.O.O.W V a s C %.o.X.| ! ! ! ! / / ( ( / X.| | X.X.| | X.O.o.X.| | o.o. .~ V d a , , & % + + + + + + # # & a z ^ =.i.i.A a a a a a z C { ..x d a a a f d s g C Z x s d , + . O , s x a + @ # d B d % $ . . + + @ .   X X O . $ @ + + + + + # < s B A N a & + $ O @ @ % s B V d % @ % a a % O     O , a a , $       . # , a a a +       . * , a < # .   X + - < , < + O O $ @ + + + + + .         . $ + + + O     O * . . > .       X $ $ .   O + + @ % a B ^ / X.X.O.+.+.+.%.%.$.%.#.+.+.$.$.+.O.O.+.$.$.+.O.4.4.4.O.4.4.4.4.4.4.4.4.@.$.4.4.4.4.4.4.4.4.4.7.5.$.$.8.9.9.w.8.5.w.9.*.*.w.e.*.*.9.9.9.w.w.9.*.0.*.e.9.5.4.4.4.4.4.4.4.4.4.4.4.4.4.4.5.9.9.9.w.w.9.9.9.9.9.9.9.9.9.9.6.9.w.9.9.9.r.6.9.6.5.7.7.r.r.q.r.7.7.q.q.w.w.6.w.9.9.9.9.9.w.9.9.w.w.w.w.w.9.9.q.q.q.9.9.9.w.w.9.9.e.w.w.9.9.9.w.w.w.w.9.9.w.9.9.w.w.w.w.w.w.w.w.w.w.w.w.9.9.9.9.w.w.9.9.9.w.w.9.9.6.6.r.q.w.7.7.q.w.r.r.w.q.6.6.r.r.r.9.w.w.w.t.t.w.t.u.q.r.6.q.q.r.u.u.9.w.9.w.w.w.9.9.9.w.9.9.9.w.9.w.9.9.9.9.9.9.9.0.e.e.9.9.9.9.9.6.r.9.9.6.4.5.9.9.6.5.5.9.9.6.r.r.r.6.9.9.9.9.9.9.w.w.9.9.9.9.9.9.9.9.8.6.4.5.6.6.9.9.9.9.9.9.9.5.9.9.9.6.9.9.9.8.8.9.4.5.9.9.9.9.5.4.4.$.9.8.8.9.9.9.9.8.9.8.8.9.8.$.8.9.9.$...$.",
"^ ~ E E ! ! Q Q ~ ^ ! ! ! ! ! Q ! ! Q Q ! ! ! Q E Q Q ! ! _ ! ! ! ! ! ! ! ! ! ! ! ! ! ! ! / / ! ! ! ! ! ! ! ! ! | | X./ / ( O.O.#.X.! o.o.O.) ( O.O./ X.| ! ! O.X./ O.( ( O.O.O.O.+.$.$.+.O.O.O.O.O.@.5.@.@.o.+.+.+.@.O.O.O.O.O.O.O.O.O.O.O.O.O.#.#.O.( O.O.O.O.O.#.O.O.#.@.+.O.O.O.( X.O.O.O.O.O.X.X.O.O.O.#.X.X.O.O.O.O.O.O.O.O.O.O.X.O.O.X.O.O.O.O.O.O.O.O.O.O.O.O.O.O.O.O.O.O.O.O.O.O.O.O.X.X.X.X.X.O.O.X.| X.O.O.O.O.( O.O.O.O.O.X.X.#.( / O.O.O.O.X.| O.X.X.) /  .V a a x {  .| | ! ! / X.X.O.O.X.| | | | O.O.| | | | X.| | | ~ N z a & a x x z d & + + + + + + + + a z [ i.I.!.G.V a a a a f z C C { x s a a a a a d s C m x a , + + # + , s x a + + + a x s % @ $ $ @ + @ .       O . $ $ $ @ @ + + + # f C B x a & % + + @ @ , A  . .V a % + & a a % X   X , a a a %         O , a a a % .     . # , a , + X   . $ # 1 a , # @ + + @ + $ $ $ $ .         . @ + + + @ .   X * * .                     O + + + @ + , B ..+.o.O.+.%.$.$.$.$.$.#.+.$.+.#.#.O.4.@.$.$.O.#.O.O.O.O.4.4.4.4.@.5.4.4.4.@.4.@.@.@.@.@.@.@.+.5.8.8.8.8.8.9.9.9.9.w.9.*.*.w.e.e.8.9.8.8.9.w.w.0.*.*.e.9.6.4.4.4.4.4.4.4.4.4.4.4.4.4.4.4.4.5.5.6.9.9.9.9.5.5.9.9.9.9.9.9.5.5.6.5.9.9.6.8.9.7.r.r.r.r.6.r.r.r.r.q.w.w.9.9.9.9.9.9.9.9.9.9.9.9.w.w.w.9.9.6.q.q.w.w.9.9.w.w.w.w.w.9.9.9.w.w.w.w.w.w.w.w.9.9.w.w.w.w.w.w.w.w.w.w.9.9.9.9.9.9.9.9.9.9.9.w.9.9.9.9.6.r.w.9.4.7.r.r.6.9.w.w.7.r.r.r.r.6.6.9.9.w.w.w.w.w.q.r.6.6.w.u.u.u.w.w.9.9.9.9.9.9.9.w.e.w.w.w.9.9.9.9.9.9.9.9.9.9.9.9.9.9.9.9.9.9.5.9.9.4.4.7.7.4.6.9.6.6.6.r.r.r.r.6.6.9.9.9.9.9.9.9.9.9.9.9.9.9.9.9.9.9.9.9.9.9.9.9.9.9.9.9.9.4.5.9.9.7.6.9.9.8.8.9.8.8.8.9.9.9.8.5.5.8.9.8.$.$.8.8.9.9.$.%.$.8.8.%.8.9.8.%.,.%.",
"Q ! _ E E Q ! / ' ' Q E Q Q E Q ! ! Q Q Q ! ! ! ! W E W ! _ / ! ! ! ! ! ! ! ! ! ! ! / ! ! ! ! ! / ! ! ! ! ! ! / | _ / ! / / ( ( O.X./ +.@.o./ ( / ! X.X.| / X.O.O.O.O./ ( O.O.O.O.+.$.%.` X.O.#.+.O.&.&.=.=.$.$.$.o.@.O.O.O.O.O.O.O.O.O.4.O.O.O.O.+.#.( O.O.O.O.O.O.O.O.+.+.O.+.#.O.( O.O.O.O.O.O.X.X.O.O.O.X.X.O.O.O.O.O.O.O.( O.O.X.O.O.O.X.O.O.O.O.O.O.O.O.O.O.O.O.O.O.O.O.O.O.O.O.O.O.O.O.X.| | | X.O.O.X.X.| | O.O.X.X.O.O.X.X.O.O.O.O.O.O.O.O.O.O.X.| X.| | +.O.| V a % a Z ^ | | | X.X.O.O.X.X.| | | | X.O.X.| | | | /  .W N d & & + & z m B m d & + + + + + + + % a C 0.P.P.I.=.V a , a a a d x C { x d a a a a a d x C m d a % # # < < f f f a % $ O % s d % @ + O @ @ @ O X     $ $ + + + X O + # # + % f Z s a % + + @ @ % x  .| |  .A s , % , a & $ . X % a d a , O       O , a a a , O     . ; a a a , O .   O @ # , a , + + @ $ O .     .           O + + # + @ .   X # # X                     X $ $ + + + + d ^ o.+.O.+.+.o.o.%.+.+.+.+.+.$.+.+.@.4.@.$.+.#.+.+.O.#.+.O.@.5.@.$.$.@.@.4.&.4.@.$.$.$.$.$.$.8.$.@.5.9.9.8.5.8.8.9.9.e.*.*.w.e.e.*.9.9.9.9.q.e.i.i.i.e.9.5.4.4.4.4.4.4.4.4.4.4.4.4.4.4.4.4.4.4.4.9.9.9.9.5.4.r.6.9.8.8.6.4.4.5.9.9.9.9.9.9.5.7.r.r.r.r.6.r.r.6.q.q.w.9.9.w.w.w.9.9.9.9.9.9.9.9.w.9.9.9.9.6.q.q.w.w.w.w.9.9.w.w.w.9.9.9.w.w.w.w.w.w.0.9.w.w.9.w.w.w.w.w.w.w.w.w.w.9.9.9.9.9.9.9.9.w.w.9.9.9.6.6.r.6.9.6.6.6.r.6.6.q.q.q.r.r.r.r.6.9.9.9.9.w.w.w.t.6.q.r.6.u.t.t.u.w.t.9.9.9.9.9.9.9.w.a.a.e.9.9.9.9.9.9.9.9.9.9.9.9.9.9.9.9.9.9.9.9.9.5.4.4.r.r.r.7.7.7.4.4.7.r.r.r.r.4.6.9.8.8.9.9.9.9.9.9.9.9.9.9.9.9.9.9.9.8.9.9.9.9.9.w.9.9.4.4.9.9.9.9.9.5.9.8.8.$.@.8.8.8.9.9.8.9.9.9.9.9.9.9.8.$.8.8.$.8.8.$.$.$.8.0.>.>.>.",
"Q Q Q E Q Q Q ! _ ~ Q ! ! E Q Q Q E E Q ! ! Q W ~ ^ W W ! ! ! Q Q ! ! ! ! ! W ! ! / / ! ! ! / / / / ! ! ! ! ! / ! ! ! ! / / ! / / / / X.+.o.o.) / / +.X.X.X.o./ O.O.X./ O.#.O.O.O.#.+._ ` #.O.#.+.#.O.O.#.$.$.$.$.X.@.+.O.O.O.O.O.O.#.O.@.+.O.O.O.#.#.O.O.O.O.O.+.O./ O.O.O.O.+.+.O.+.O.( X.( / O.O.O.O.X./ O.O.O.O.O.O.O.O.( ( O.#.X.O.O.O.O.O.O.O.O.O.O.O.O.O.O.O.O.O.O.O.O.O.O.O.O.O.O.O.O.O.O.X.X.X.O.O.O.O.X.X.X./ X.O.O.O.X.O.( ( ( ( ( +.X.X.X.X.X.| | | | X.X.| N V & , f x ^ _ X.X./ X.X.X.| | X.X.X.X.O.X.|  .N N N V d a % + @ @ & z B B B z a + + + + + + % a d B i.y.y.a.-.d , + % + % a x C B x a a a , a a d C C B x a % + ; 1 g f g j j < # . O & a % + + O $ @ $ @ @ O X $ + + + $ . O @ + + % # , 1 , % + + + + + a A ~ !  . . .A x a & + % @ O . O & d a , $       O , a a a a + O   . # a a a , % O O O @ + + % % + + O                       O @ + # + @ O .                         X O O O O O @ + + % x ..o.O.+.+.o.o.$.+.$.o.X.o.$.$.$.$.@.+.#.O.+.+.+.O.4.+.O.@.5.+.$.$.@.@.4.4.4.@.@.5.5.5.+.5.5.5.@.@.8.8.8.5.8.5.5.8.*.$.8.w.9.8.=.9.9.9.9.5.8.e.d.i.e.9.4.4.4.4.r.q.4.7.7.4.4.4.4.4.4.5.6.5.4.4.5.5.5.5.4.7.q.6.5.8.5.6.7.9.9.9.9.8.5.9.9.4.4.6.r.7.7.q.q.4.4.7.q.6.q.q.q.q.q.w.9.q.6.w.6.6.9.w.9.w.w.6.q.q.q.w.w.9.9.9.0.e.e.e.e.8.e.e.e.e.e.e.s.e.9.9.9.9.9.w.w.w.w.9.w.w.w.9.9.9.9.9.9.9.9.9.w.w.9.9.9.r.6.6.9.9.9.w.w.6.q.6.q.q.q.6.6.6.6.9.9.w.w.9.9.q.6.6.r.r.q.6.r.t.t.t.w.t.w.w.9.9.9.9.9.w.d.s.s.0.w.9.9.w.9.9.9.9.9.9.9.9.9.9.9.9.9.9.9.6.7.7.r.6.7.6.7.7.7.4.7.6.7.6.6.6.5.5.6.6.8.9.0.0.9.9.9.9.9.9.9.9.9.9.9.9.8.8.9.9.9.8.9.e.0.6.6.9.9.9.9.9.5.9.8.8.8.8.9.+.$.8.8.9.9.9.8.0.<.0.0.$.%.$.8.$.$.8.8.$.$.$.8.*.,.,.",
"E E E E E E E ! ! Q Q ! ! E ! ! E E Q ! ! ! Q Q _ ^ ~ ! ! W Q E E Q ! ! ! W W ! ! ! ! ! ! ! / / ! ! / ! ! ! | X./ ! ! / ( / / ! ! / / / O.+.+.X.O.( ( | | ! ! ! X.O./ / ( O.O.O.O.O.O.O.O.O.O.O.O.O.O.O.4.@.+.+.+.#.+.#.O.O.O.O.O.O.O.O.#.+.O.O.O.+.+.O.O.O.O.O.+.O.O.O.O.#.+.+.$.X.X.( ( O.+.#.O.O.+.O.O.O.O.O.O.( O.O.O.O.O.O.@.@.O.O.O.O.O.O.O.O.O.O.O.O.O.O.O.O.O.O.O.O.O.O.O.O.O.O.O.O.O.O.O.X.| X.( ( O.O.O.O.X.! ( O.O.O.X.X.( ) ( O.+.%.o.! X.X.| | | | | | | | | N a a a g x ^ _ / / X.| | | | X./ O.X.|  .~ V V z z a % + + + + @ & l B ^ ^ x a % + + + + + % , a x %.9.w.e...d % @ @ + + & s B ^ x a a , , f f Z 3.,.B z a % # - < g f f j L L L : # $ % , % + + + @ + @ @ @ O @ + + + $ . . O @ + + + ; * # @ + + + + , C  .| | | | | |  .V a % @ O .   X % a a a % O     O , a a a a % $ . . + , a a a % + # + + @ # < % # + .                         . X O O X .                         . $ + # * O O @ + + @ & C %.+.+.%.$.$.$.$.$.| | o.$.+.$.$.$.#.O.O.O.O.4.4.4.4.O.5.4.5.$.$.4.4.4.4.4.4.@.4.4.4.4.4.4.4.5.@.$.8.8.9.9.6.5.e.e.8.9.9.9.8.8.9.9.9.9.@.$.8.9.0.9.9.4.4.4.4.7.4.4.7.r.4.4.4.4.4.4.6.9.8.5.4.4.4.4.4.4.4.4.5.5.7.7.r.r.6.9.5.5.5.&.5.4.4.4.6.7.4.4.4.7.7.7.r.q.q.q.q.q.q.w.w.9.q.q.q.6.r.6.w.9.9.9.r.q.q.q.w.9.9.9.9.0.0.e.i.e.e.e.*.e.e.0.e.e.9.9.9.9.9.9.9.w.w.w.9.9.9.9.9.9.9.w.9.9.9.9.9.9.9.9.9.w.9.9.9.9.w.w.w.w.w.w.9.9.w.w.9.w.6.w.9.9.w.w.9.9.6.6.r.r.q.q.q.6.7.9.t.w.w.w.w.w.w.9.9.9.9.9.e.s.0.9.9.9.9.9.9.9.9.9.9.9.9.9.9.9.9.9.9.9.7.4.7.r.6.9.6.6.r.4.4.6.5.O.4.7.9.9.6.4.7.9.8.0.0.0.9.9.9.9.9.9.9.9.9.9.9.9.9.9.9.9.9.9.8.0.9.9.9.9.9.9.9.9.8.8.8.5.8.8.$.%.8.8.8.9.9.9.*.>.>.g.8.8.8.$.$.%.8.8.$.$.$.$.$.$.e.",
"E E E E E E E ! / ! E ! Q E ! Q E E E ! ! ! ! ! ! Q ! ! Q E E E Q ! ! ! ! W W ! ! ! ! ! ! ! / / / ! ! ! ! / ! o.! ! / / / / / ! ! O.( ) O.@.@.+.+.@.o.| / ! ! X.O.O./ / / / +.5.O.X.X.#.+.O.X.X.O.O.O.O.O.#.+.+.O.+.O.#.X.O.O.+.#.O.O.O.O.O.O.+.+.+.+.O.O.O.O.O.O.O.O.+.O.#.$.+.#./ ! / ( O.+.+.O.#.O.O.O.O.O.O.O.O.O.O.O.O.O.O.X.O.O.O.4.O.O.O.O.O.O.O.O.O.O.O.O.O.O.O.O.O.O.O.O.O.O.O.O.O.O.O.O.O.X.O.+.O.O.O.O.O.X.! ) ( X.X.| | X./ / X.o.+.+.X.! X.X.| | | | | | | | N V a a g g x ~ ! ! | | | | | ! ! W  .B z d d x x x , + + + + + + & z B ^ B V a % @ + + + + + + , x ^ %.e.e.A d & # + + @ & s ;...A , , < < a f S G.G...x a % # - < Y f f g j K U Z.K 1 % & a & % + # # % & % + @ @ + + @ $ X   O + + + # + + + $ $ + % x ^  .| W | | | |  .V d , + O .   X + & a a a % . . $ % a a a a , # @ $ + % , & % + + # $ $ O # < a & + .         X .                                                 O @ + $ O X X + # # + % x  .o.$.$.o.o.$.$.$.| o.$.+.O.+.$.+.O.O.O.O.O.5.5.4.4.4.5.5.5.$.@.4.O.+.O.O.O.@.O.O.4.4.@.@.4.5.@.5.8.9.9.9.9.9.8.9.9.9.9.9.9.9.9.9.9.8.8.9.9.9.9.8.5.5.5.4.4.4.4.4.4.4.4.4.4.4.4.4.4.4.4.4.4.4.4.4.4.4.4.4.4.4.4.4.r.6.5.4.5.9.9.q.4.4.7.4.4.4.7.7.r.r.r.r.q.w.q.q.q.w.9.9.6.9.9.6.q.6.r.6.6.9.9.6.r.r.q.6.6.6.6.9.9.9.w.9.e.e.w.w.9.9.w.w.w.w.9.9.9.9.9.9.9.9.w.w.9.9.9.9.9.9.w.9.9.9.9.9.9.9.9.w.9.9.6.6.9.9.w.w.9.w.w.w.6.6.9.9.9.w.6.q.w.9.6.r.q.q.q.q.r.r.q.q.q.4.7.r.6.6.6.w.w.9.9.9.w.9.w.9.9.d.w.9.0.9.9.9.9.9.9.9.9.0.0.9.9.9.9.9.9.5.9.4.5.6.9.9.5.4.4.4.4.5.9.6.4.4.6.9.9.6.5.9.9.9.9.9.9.9.9.9.9.9.9.9.9.9.9.9.9.9.9.9.9.9.9.e.9.9.9.9.9.9.9.9.$.+.4.4.5.8.9.8.8.9.9.9.9.9.8.=.,.8.9.9.9.$.8.8.%.%.$.$.@.$.$.$.8.",
"! ! ! E E E Q / ! Q ! ! ! Q E E E E E W ! ! ! ! ! Q ! Q E Q E E ! ! ! ! ! W ! ! ! ! ! ! ! ! / ! ! ! ! ! / / ! ! ! ! ! ! ! ! ! ! ! X.o.+.+.+.+.+.+.o.o.| ! ! ! O.O.( / / ( ( ) +.X.| | o.+.o.| X.#.+.+.O.O.O.+.+.#.4.4.&.@.+.+.#.O.O.O.O.O.O.#.+.+.#.O.O.O.( O.O.O.O./ O.O.#.+.#.O.X.X.( ( / ! X.O.O./ / O./ X.X.X.X.O.O.O.( X.O./ O.O.O.O.O.O.O.O.O.O.O.O.O.O.O.O.O.O.O.O.O.O.O.O.O.O.O.O.O.O.O.O.O.O.#.+.O.O.O.O.O.X.! ) ( / X.O.X.X.| | ! ! / / o.X.| X.| | | | | X.X.X.W N V a f g d x ^ _ | | | | | |  .x d a % & s C B s & + + + + + @ p l B ^ A V a % @ + + + + + # % a B -.*.*...s , # + @ @ & x ..-.A a , < < a f ;.!.y.o.V , + % < < f f Z C Z I (.rXrXS.I s x s d a a , a a a & + + + + + O     O + + + $ O O O . O + a B  .o.o.| | | | |  .A x , # + # O O + + % a a % $ @ + + % a a a , # + + + @ & & % + @ O O O O + & a & $ .       . O .                       X O # X                   X X O .   X # * * < # % x ^ | | | | | +.o.$.o.o.+.+.#.O.4.O.O.O.O.O.O.O.O.@.5.4.4.$.@.@.4.O.O.#.#.+.O.+.+.O.O.+.$.$.@.5.4.4.4.5.5.9.9.5.&.5.9.9.5.6.9.9.9.9.9.4.5.5.6.6.5.4.4.4.5.&.4.4.4.4.4.4.4.4.4.4.4.4.4.4.4.4.4.4.4.4.4.4.4.4.4.4.7.7.r.6.6.4.9.9.w.w.7.4.4.7.4.4.r.r.r.r.r.r.q.9.9.9.w.9.6.6.r.6.9.9.6.r.r.r.q.6.q.q.6.6.r.r.r.r.6.9.9.9.w.w.w.9.w.w.9.w.w.w.w.w.w.9.9.9.9.9.9.9.9.w.w.9.9.9.9.9.w.9.9.9.9.9.w.w.w.9.9.9.9.9.w.9.9.9.9.w.w.6.r.r.6.9.6.w.7.6.w.9.6.r.6.q.q.q.r.r.r.q.6.7.9.r.r.r.r.6.w.9.9.9.9.9.w.9.9.9.9.d.d.d.0.9.w.9.9.9.9.9.0.9.9.9.9.9.5.4.@.8.9.9.9.9.9.9.4.4.4.4.5.5.4.4.4.5.9.9.9.9.9.9.9.9.9.9.9.9.9.8.e.9.9.9.9.9.9.9.9.9.9.9.9.0.0.8.9.9.9.9.8.8.8.5.4.4.6.9.9.8.$.8.8.8.9.9.9.*.e.9.9.9.8.8.8.8.+.+.+.@.5.5.$.$.8.",
"! W Q E E Q Q ! ! ! ! ! Q Q E E E E E W W ! ! ! ! Q Q Q ! ! E E Q Q W W ! ! ! ! ! ! ! ! Q ! _ ! ! ! ! ! ! / ! ! ! ! / / ! ! / / / X.X.o.o._ ) O.O.o.X.X./ / X.O.O./ ( ( O.O._ _ | | o.o.X.| X.+.+.+.+.O.O.4.#.O.#.O.@.@.o.o.+.+.O.O.O.#.#.O.X.o.+.X.O.O.O.( ( O.O.O./ O.O.+.O.O.O.X.O.O.O.X.X.| X.O.+.X.X./ X.X.X./ O.#.X./ | | / O.O.O.O.O.O.O.O.O.O.O.O.O.O.O.O.O.O.O.O.O.( O.O.O.O.O.O.X.X.X.O.( O.O.( / / O.#.O.O./ ( ( / ( ( ( ( X.| | | | X.o.#.X.X.| | | | | X.X.X.|  .N s a f f a z ^ X.| | X.| W V a , < # a x ....d % @ + @ + + @ & z B ^ B V a % @ + + + + + # % d B -.-. .A s & + + + + , C ,.-.A a < - # & d >.Y.t. .V a , a a , & a Z Z F h.l.).)./.G ;.A A A N V d a a a a % @ + + + $ X X O + + + O . .       % x .. .! _ o.| | | |  . .V & + + # + + + + @ & % + % & % + + % a a , @ + + + + , a , % $ . O . . + % & & % X       . .                         O # # O                     . .     . O O + @ + & C ..| | | | | X.| o.o.X.+.$.+.O.O.O.O.O.O.O.#.O.O.#.#.4.5.+.$.@.5.+.O.+.%.$.+.+.+.#.O.+.@.@.@.@.4.4.4.5.5.9.5.4.4.4.9.9.7.5.6.8.5.5.5.4.5.5.4.4.4.7.4.4.5.&.5.5.4.4.4.4.4.4.4.5.4.5.4.4.4.7.4.4.4.4.4.4.4.4.4.4.7.7.6.7.7.6.9.5.4.5.4.4.4.4.4.7.6.6.6.r.r.r.q.6.6.9.9.9.9.7.7.7.9.9.6.6.4.4.q.6.q.r.6.6.r.r.6.r.r.9.9.9.9.w.y.w.w.9.9.w.w.9.9.9.w.9.9.9.9.9.9.9.9.9.w.9.9.9.9.9.w.9.9.9.9.w.w.w.w.9.9.9.9.9.w.w.9.w.9.9.9.6.r.6.6.9.6.q.q.q.w.9.6.6.6.r.q.q.6.r.r.q.w.9.6.6.6.r.r.6.6.9.9.9.9.w.w.9.w.0.0.i.i.i.i.0.d.9.9.9.9.9.8.9.9.8.9.9.4.5.8.9.9.9.5.5.5.5.7.7.4.4.O.4.4.4.4.4.6.9.9.9.9.e.$.*.0.0.w.0.9.9.8.9.9.9.9.9.9.9.9.9.9.9.0.e.>.,.*.8.9.9.8.8.8.9.5.7.6.9.9.8.$.$.$.$.8.9.9.8.$.9.9.9.$.$.%.+.#.+.+.+.+.@.$.$.8.",
"~ E E E Q Q E E Q ! E Q E E E E Q Q E W ! ! ! ! ! Q ! ! ! Q Q W W Q E E Q ! ! Q Q Q ! ! ! / o.! ! ! ! ! ! ! ! ! ! ! _ _ ! ! / ( / O.X./ ` _ ) ( O.#./ ( / O.O.O.( / O.( O.X.| | | | #.+.o.X.O.#.O.O.+.+.O.@.+.@.+.O.#.#.+.+.+.#.O.O.+.+.+.O.o.#.#.O.O.O.O.O.( / +.@.%.+.O.O.O.+.O.O.O.O.O.#.+.o.X./ O.O.X./ O.O.O.O.O.#.| X./ X.O.O.O.O.O.O.O.O.O.O.( O.O.O.O.O.O.O.O.O.O.( ( O.O.O.O.O.O.X.| | X.O.( ) ( O.X.#.#.O.( ( O.( ) ( O.O.O.X.X.O.X.| X.#.O.O.X.! o.o.X.o.X.! X.o.|  .V d a a % & z ~ o. .~  .B d , - # % a B ..A a + + + + + + @ % a B B N V a % @ + + + + + + + d A ......x a % + + + + & C >.-.S a < * + % D '.Y.e.-.A s a a s , + % 1 Y I I h.h.j.j.F S S ^  .|  .V V V d d & % + @ + + + + + @ @ O X         X a A  .~ | | | | | | |  . .V , + + @ @ + + + + , % $ % a a % + + a a a % + + + + % a a & @ .     . @ + & , % O                                   X + + X             . . $ X               $ @ + % , x ^ ..%.o.o.o.o.O.+.o.+.+.+.#.O.O.O.O.+.+.$.+.+.4.4.4.@.+.$.$.$.+.#.+.$.$.%.+.+.$.@.4.4.4.&.&.&.5.9.8.8.8.&.&.4.6.9.9.8.5.5.5.$.@.4.4.4.4.4.4.4.4.4.4.4.@.5.5.4.4.4.4.O.4.4.6.5.@.4.4.7.4.4.4.5.6.4.4.4.4.4.4.4.4.4.4.7.6.9.4.4.4.4.4.4.4.4.6.r.7.q.r.r.r.r.q.w.9.9.9.9.7.4.7.9.9.9.6.r.7.6.7.7.7.r.r.6.r.6.r.r.r.9.9.9.9.w.w.w.w.9.9.9.9.9.9.9.9.9.9.9.9.9.w.w.w.w.w.w.w.w.9.9.9.9.9.9.w.w.9.9.9.9.w.9.9.9.w.w.9.9.9.9.6.r.9.9.9.6.q.q.q.6.6.9.w.q.r.r.r.r.6.4.r.6.9.9.6.6.6.6.r.r.r.6.9.9.9.9.9.9.<.f.>.>.>.i.>.i.e.9.9.9.9.9.9.9.9.9.5.4.9.9.9.9.9.5.4.4.7.7.4.4.4.4.4.4.4.7.7.5.9.8.9.9.9.*.,.*.e.0.<.<.8.9.9.9.9.9.9.9.9.0.0.9.9.*.<.>.>.<.i.9.9.9.6.9.9.9.9.6.9.9.9.8.$.8.8.$.8.9.8.8.9.9.8.$.8.$.$.$.$.$.$.$.+.+.$.$.",
"E E E E ! ! Q ~ Q Q E Q E E E E Q ~ E E Q ! ! ! ! ! Q ! ! ! ! ! ! Q Q Q Q ! W Q ! ! ! ! ! ! / Q Q ! ! ! ! ! ! ! ! ! / ! ! ! / / / ( / X._ _ +.+.( O./ / / ( O.( ( / / ( ( O.X.X.| X.O.#.+.+.+.o.O.#.$.$.#.+.+.8.+.O.O.O.+.+.O.O.O.O.+.+.O.O.@.+.O.O.O.O.X.O.O./ O.+.+./ O.#.#.#.#.X./ X./ / #.+.X./ O.O.O.O.O.O.O.O.O.X.| / X.O.O.O.X.O.O.O.X.4.O.O.( O.X.O.O.O.O.O.O.O.O.( ( X.O.O.O.O.O.X.| ! ! / ( ( O.O.X.X.O./ / O.X.X.O.O.O.O.O.X.X.O.O.| X.O.O.O.X.| X.X.X.o.#.| o.o.! | N s & % + + % l B ^ B x a & # + % , d B B V a + + + + + + @ % a x x V x d % @ + + + + + + + a x A A A A a & + + + + & Z S ..J , % + @ & S 1.<.-.-.A a % , s , + + # 1 L 1 a d Z :.F D S B  .| | A  .W M N V a & % + + @ @ + $ O X X .     . % x A | | | | | | | | | | A V a # + + + @ $ @ & s , O X # , % + + % , a a % @ + @ % a a & + O   X $ @ % , , + X                                   . $ O .             O + ; O               . O O . O $ + a x B ..%.O.X.o.$.#.+.+.#.#.O.O.4.+.+.+.+.@.4.4.4.+.9.$.%.$.$.+.O.+.$.$.#.O.#.+.4.4.4.&.&.&.@.$.8.8.$.&.&.5.9.9.8.&.&.&.&.@.@.4.4.4.4.4.4.5.@.4.4.6.5.4.4.4.4.4.4.4.4.4.5.9.5.4.4.4.4.4.4.4.4.4.4.4.4.4.4.4.4.4.4.4.7.9.4.4.4.4.4.4.4.7.r.7.4.4.7.7.r.r.6.6.6.6.9.9.6.r.4.r.4.9.7.6.6.q.r.6.r.7.7.r.r.r.r.r.r.9.9.9.9.9.9.w.w.w.w.9.9.9.9.9.9.9.9.6.q.5.6.6.9.9.9.9.9.9.9.9.9.9.9.9.9.9.9.9.8.8.s.s.9.9.9.9.9.9.9.w.6.r.6.6.6.r.r.q.q.q.q.q.q.q.r.r.r.r.r.r.r.7.6.6.6.q.w.6.6.r.6.9.9.w.w.9.d.d.e.*.<.>.>.f.>.i.0.8.9.9.8.9.9.9.9.9.5.4.5.9.9.9.9.9.4.4.4.4.4.4.4.4.4.4.4.7.4.5.9.8.9.9.9.9.e.e.e.f.f.f.i.9.9.9.9.9.9.9.9.0.e.e.e.=.*.,.>.f.i.9.9.9.9.8.9.9.9.8.9.9.9.8.8.9.9.8.5.$.$.8.9.8.$.$.8.$.$.+.$.$.@.+.%.$.$.$.",
"E E E E ! ! Q ^ Q E Q E Q E E E ~ ^ E Q ! ! ! ! ! Q E Q ! Q Q ! ! ! ! ! ! ! ! ! / / ! ! ! Q Q ! / ! ! ! ! ! ! ! ! ! ! ! ! ! / / / / / O.X./ ) ) / ( / X./ / O.) ` +._ / / O.O.X.X.X.O.#.#.X.X.o.+.#.$.+.+.#.O.+.+.O.#.#.o.#.O.O.#.O.X.O.#.O.#.+.#.X.O.X.| ( O.+.+.#.#.O.O.X./ O.O.X./ ! / O.O.O.#.#.O.O.O.O.O.O./ ( X.X.X.( O.O.O.O.O.O.O.O.O.O.O.O.O.X.| X.O.O.O.O.O.X.O.O.O.X.X.X.| X.O.X.! ! ! / / ( O.O.! X.O./ ! | | | X.O.( O.X.| X.O.O.X.X.X.O.O./ X.X.X.O.X.+.| | _ ! | N s % @ + + @ & z z z a % @ + + + & z m V V a & @ + + + + @ & a x x x x s , + + + + + + + + a x B B A x s , + + + + & s x x a + + + + + a x V V x s , + a s & @ * * # < - < f D S H J J A A W |  .W W W W N A x s a a & % % % % & + O .   + s ^ ! | | | | W W W | |  .N d , # @ + + @ X + s A d + . . $ + @ + @ % a a % @ + @ % a a a & @ $ @ + + # + $ .                                       .               . O + $ .                 . . .       O + & d C ..o.| o.+.%.$.%.@.#.O.O.O.O.O.O.O.O.@.@.$.8.$.$.$.$.$.O.4.@.@.4.4.4.4.4.4.&.&.4.4.@.@.5.8.$.&.&.&.q.9.$.&.&.&.4.4.4.@.@.5.4.4.4.&.&.4.4.6.w.4.4.4.4.4.4.4.4.4.4.9.4.4.4.4.4.4.4.4.4.4.4.4.@.4.4.4.4.4.4.4.4.7.4.5.&.6.r.4.7.r.7.4.4.r.r.r.r.r.r.r.r.6.9.9.w.7.4.4.4.7.9.6.4.q.4.4.4.4.7.7.4.7.r.r.6.7.9.9.9.9.9.w.w.w.w.w.w.9.9.9.9.9.5.5.q.6.6.6.9.9.9.9.9.9.9.9.9.9.9.9.9.9.9.w.9.8.0.e.8.9.9.9.w.9.6.w.w.6.r.r.r.r.r.6.w.u.q.r.r.6.6.r.r.r.r.r.7.7.6.r.q.q.9.9.9.9.9.9.9.w.w.9.e.e.e.*.e.e.i.i.>.s.0.9.*.0.,.e.9.9.9.9.9.4.4.9.9.9.9.9.5.4.r.4.5.4.4.4.4.4.4.7.4.4.9.5.9.9.9.d.0.0.s.p.v.b.p.0.9.9.9.9.9.9.9.d.i.d.s.i.8.*.>.>.*.9.9.9.9.$.8.9.8.$.8.9.9.9.9.8.8.8.9.$.%.$.$.$.$.$.$.%.@.#.+.+.+.O.+.%.` %.",
"~ Q E E ! Q E E Q Q ! Q ! Q ~ E W W E W ! ! ! ! ! Q Q Q ! E E E E E E E E Q Q ! ! / ! ! ! ! ! Q Q ! / ! ! ! ! ! ! ! ! ! ! ! / / ( / / X.O./ +.( / X.X.O./ X.o._ ` %.` / ( ( O.X.X.O.O.#.#.+.+.+.+.+.+.O.@.@.@.+.+.#.+.@.X.X.O.4.O.O.X.X.X.O./ O.o.| X.X.| O.O.+.+.O.X.X.O./ / X.O.O./ ! X.O.O.O.O.O.O.O.O.O.O.O./ / / X.O.O.O.O.O.O.O.O./ X.O.O.O.O.X.| | X.O.O.O.O.O.| X.X.X.X.X.| | X.#.X./ ! | O.O.( ( / ! / ( / ! | | | X.O.( ( X.| X.O.#.O./ / O./ ! X./ X.o.+.$.o.X./ / | W d & + @ @ + , d z z & @ + + + + % d x B V d & @ + + + + % a d B B B x x a % @ + + + + + @ & s x x x x s , + + + + + , a a & + O + # + , s V x x d , + a s % @ ; : O # + % g S s a I /.S A  .|  . .| | | | |  . .N N V V V x x x a % + % s A ! | W | | | W W W  .|  .V , + @ @ + + $ + a B  .V & O   . # % + $ + + % + @ @ + + a a a a % + @ $ O X .                                             .             O # # @ .     o o .       O @ O     . O O @ % & d B %.o.$.o.+.$.@.+.O.4.O.+.O.4.+.+.+.$.$.$.$.$.$.$.%.+.5.4.4.4.4.4.4.4.4.&.&.&.&.8.8.5.5.9.5.&.&.5.9.$.#.&.4.4.4.5.@.$.5.4.4.4.4.7.4.4.4.4.4.4.4.4.4.4.4.4.4.4.4.4.4.4.7.6.5.4.4.7.5.6.8.5.&.4.4.4.4.4.4.4.4.7.9.5.7.7.4.7.7.4.4.4.6.7.4.4.7.r.7.q.6.9.w.w.7.4.4.4.7.w.6.4.4.4.4.4.4.4.7.r.7.7.6.7.4.6.9.9.w.9.9.e.e.9.w.w.w.9.9.9.9.4.6.9.w.w.9.9.9.9.9.9.9.9.9.9.9.9.9.w.w.e.e.w.w.9.w.w.w.9.w.e.9.w.w.6.9.r.r.u.r.6.r.6.9.6.6.6.9.6.7.r.r.6.r.q.r.r.r.q.q.6.9.9.9.9.9.w.y.e.0.=.e.e.e.*.e.p.i.s.s.0.0.<.>.,.*.9.9.9.8.8.5.5.9.9.9.9.9.6.4.r.5.5.5.4.4.4.4.4.4.4.4.5.5.9.9.9.d.d.0.0.f.p.v.p.0.9.9.9.9.9.0.0.s.<.i.s.i.0.9.0.f.0.9.8.8.8.$.8.8.8.8.9.8.8.8.9.8.%.$.8.$.8.0.$.$.$.%.%.%.$.+.+.$.+.+.+.+.` %.",
"! E E ~ Q E E E Q ! Q ! Q E E E Q Q Q W W W ! Q Q ! ! ! W E E E E Q Q ! Q Q ! ! ! ! ! ! ! ! ! ! ! ! / ! ! W W W ! ! / ! / / ! / ( ( / / ) ( / +.+.o.| ) ) / ! ! ! _ ` ` ) O.O.O.O.O.O.O.O.#.+.+.%.$.#.X.#.@.@.+.+.+.#.O.X.O.O.O.O.O.O.| X.X./ X.O.O.O./ / O.O.O.O.O.O.| X./ X.X.#.O.( X.| X.X.X./ / O.O.O.O.( O.O.O.O.O.O.O.O.O.O.X.X.O.X.O.O.O.O.O.O.O.( / ( O.O.O.O.| | ! X.O.O.O.O./ #.O./ / X.O.O.X.| | / / / / X.| X.( / / / O.O./ _ ) ( X.( ) ( | | | | o.o.%.o.| ! ! / _ W V , + @ % a a x C s a % + + + + % a z B N V a + + + + + & a d B A A A A s & + + + + + + + & a x x x x s a % @ + + + % f a % # + + + @ , x V V x s , + , s J < ; * $ + + , a , + % K I Z x  .| | | | | | ! | | | | | W W | | |  .V d d V N | W W W W W | | |  .~ | N a % @ @ @ + + @ , x  . .A a + .   O , a % $ O O @ $ . O + % a a a % + O                                                   X $ .           . $ + @ .     . X .     X O O           O @ + @ + & z ^ %.o.o.@.O.#.4.O.O.O.4.+.$.$.$.$.$.$.8.$.$.$.%.%.$.$.@.O.O.4.4.4.4.4.4.&.@.$.@.&.4.5.8.5.&.4.4.6.4.4.4.4.6.5.5.9.6.4.4.&.4.4.4.4.4.4.4.4.4.4.4.4.4.O.4.4.4.4.4.4.4.4.4.4.4.4.4.5.9.5.4.4.4.4.4.4.4.7.7.4.4.5.4.4.4.4.q.r.4.4.7.6.r.7.7.7.r.4.4.4.6.9.9.5.9.9.9.u.u.7.4.r.7.4.4.4.4.4.4.r.7.4.4.9.9.9.9.9.9.w.w.9.w.9.9.9.9.u.6.9.9.9.8.9.9.9.9.6.9.9.9.7.4.4.6.w.9.9.9.w.w.w.w.w.w.w.w.w.w.w.w.w.w.6.9.u.u.r.9.9.9.6.u.r.r.r.r.r.r.r.6.r.r.r.r.r.r.r.r.4.6.9.9.9.9.d.s.s.d.e.0.d.9.*.i.i.i.s.f.,.0.s.f.<.9.9.6.8.$.$.$.$.9.9.7.6.9.9.5.6.6.4.4.4.4.4.4.4.7.9.6.5.9.9.9.9.9.9.9.9.0.<.p.s.9.9.9.9.9.0.i.>.<.>.<.f.<.0.d.f.>.f.9.$.8.8.$.8.$.8.9.9.9.9.9.9.8.%.%.%.$.8.9.8.$.8.$.%.$.$.$.$.$.$.$.$.$.%.$.",
"! Q E ~ E E E E Q Q Q W E E E E Q E E E E Q ! Q Q Q Q Q ! E E E E Q Q ! Q ! ! ! ! ! ! ! Q Q ! ! ! ! ! ! ! ! ! ! ! ! / ! / ( / ! / ( / ! / ! ! X.$.o.! _ _ ! ! ! ! ! _ ) ) ( O.O.O.O.O.O.O.$.+.X.+.+.@.+.O.O.O.O.#.+.X.X.O.O.O.O.O.O.X.X.X.O.#.X./ / O.O.O.O.O.O.O.O.O.X.| X.X.#.+.#.O.O.O.#.+.#.X./ O.O.O./ O.O.O.O.O.O.O.O.O.O.O.o.o.X.X.O.O.O.X.O.O.O.O.O.O.O.O.O.O.X.| X.O.O.O.O.O./ X.O./ ! X.O.O.X.! X.O.O./ ( X.| / / / ! / O.O.X./ / / O.+.X.X.| X.X.X.$.o.o.| | | | X./ W V a % @ & a a d x d a a % @ + + % a z B N V d & + + + + + , d x A A A A s & @ + + + + + + , a x V V x x a + @ + + + # < < < + $ @ # + a s x V x d & + & s H j g < % , , a a % + < f a d x  .| | | | | ! | W W | | | W W | | | | W N A N ! | | | W W W W ! | | !  .V & + + + + + + , x A | | W V % O     O d x a + . . X   . $ + , & + $ O .                                                 X @ O             O + + @ .             X @ $ O         . . O $ + + + % a B ..o.+.X.+.+.#.O.#.#.#.$.$.$.8.$.$.$.$.$.$.$.$.$.$.4.+.O.4.4.4.4.4.4.4.@.$.@.4.4.4.4.&.4.&.4.4.4.4.4.4.4.4.4.4.4.4.4.q.5.4.4.4.4.4.4.4.4.4.4.4.4.O.4.4.4.4.4.4.4.4.4.4.4.4.4.4.4.4.4.4.4.4.4.4.4.r.7.4.4.5.7.4.4.4.7.7.4.r.q.7.r.7.4.r.r.4.4.4.4.9.6.4.9.9.9.6.7.4.r.r.r.r.r.7.4.4.4.4.4.4.4.q.9.9.9.9.9.w.w.9.w.9.9.9.9.9.9.9.9.9.9.9.6.4.7.6.6.9.9.9.6.9.9.9.w.w.9.9.w.9.9.9.w.w.w.w.e.w.9.9.w.r.9.9.6.6.9.w.6.6.r.r.6.6.6.r.r.r.r.r.r.6.r.r.r.6.6.6.5.9.9.9.9.9.s.e.d.a.a.d.9.*.<.i.i.s.i.<.e.e.i.i.0.9.5.5.9.9.9.9.9.5.4.6.9.9.9.9.6.7.4.4.4.4.4.4.6.9.5.4.9.9.9.9.9.9.9.9.9.0.0.i.0.9.9.9.9.0.i.>.>.,.,.,.,.0.e.0.f.i.0.8.9.9.$.8.9.9.8.$.8.8.9.8.$.$.8.$.8.$.$.$.%.%.$.%.$.$.+.+.$.$.%.%.%.%.%.",
"Q E E E E E Q ! Q Q E Q E E E E E E E E E Q ! E Q E E E Q E E E E E Q ! Q ! ! ! ! ! ! ! ! Q ! ! Q Q ! ! ! / / ! ! ! / ! / ( / ! | / / ! ! ! / / / / / ! / _ _ ! ! ! | o./ X.X.( ( O.O.O.4.+.+.O.O.O.+.@.@.O.O.O.O.+.X.#.O.O.O.O.O.O.O.O.O.#.+.#./ O.O.O.O.X.X.O.O.O.O.O.X./ / / / X.X.O.O.O.( ( ( X.X.O.O.O.O.O.O.O.O.O.O.O.( O.#.#.o.| o.#./ O.@.+.O.O.O.O.O.O.O.O.O.X.X.O.O.O.O.O.X.| | X.! ! X.O.O.X.! / O.O./ ( X.| / / / ! / O.O.O./ | o.+.o.| | | X._ _ o.| | | | | | / ! | V d & % a a d x V V V d , + @ + % a z B N V V a + + + + + & d x A B B N s , + + + + + + + a d x A V x s a % @ + + + + - - # # o * # % f s x x s a & + & a a d f f s s a a , + < a a d x A W ! | | | ! ! | ! W ! | W W | | | | | | | | | ! ! ! | W W W W ! W | | N , + + + + + @ & x A W | W W N a + O .   O , Z d + .       O @ @ X                             .   .                       . O .             O + + @ .             O + + @ .     .     O $ @ O @ + + & B ..%.o.+.$.$.+.#.+.$.$.$.$.$.$.$.$.$.$.$.$.$.$.@.4.@.#.4.4.4.4.4.4.4.4.5.4.4.4.4.4.4.4.4.4.4.4.&.&.&.4.4.4.4.4.4.4.6.5.4.4.4.4.4.4.4.4.4.4.4.4.O.4.4.4.4.4.4.4.4.4.4.7.7.4.4.4.4.4.4.4.4.4.4.4.4.4.7.4.4.r.4.4.4.4.4.4.6.6.7.r.r.7.r.r.4.4.O.4.9.9.4.4.5.5.4.4.4.r.7.4.7.7.4.4.4.4.4.4.4.7.q.q.6.9.9.9.9.9.9.0.9.9.9.9.9.9.7.6.9.w.9.6.4.7.6.6.6.9.9.9.7.w.9.9.w.w.w.9.9.9.0.e.s.s.i.d.e.9.9.9.6.9.9.9.7.4.w.6.7.r.7.6.6.6.6.6.q.q.r.r.7.r.r.6.9.9.9.6.6.6.9.9.9.<.i.d.i.f.0.w.9.i.f.i.s.s.<.,.0.e.i.0.9.8.+.9.9.9.9.5.5.6.9.9.9.9.4.4.6.5.4.4.4.4.4.7.4.4.4.5.5.9.9.9.9.9.9.9.9.9.0.e.9.9.9.9.0.>.>.>.f.<.>.<.i.0.0.0.e.9.9.9.8.$.8.8.8.9.8.$.8.8.$.$.$.$.$.8.$.+.%.%.%.8.$.$.$.#.+.$.$.$.+.+.+.+.",
"E E E E E E Q ! Q E E E E E E E E E E Q E E ! E E E E E ! Q Q Q Q W W ! E ! ! Q ! ! ! ! / _ ! ! W Q W ! / ( / / ! ! / / / / ! ! ! | ! ! ! ! ! / / ( ( / / ) _ / ! | | o.+.+.X./ ) O.O.O.O.O.O.O.#.O.O.+.+.#.O.O.O.o.o.+.O.X.O.O.O.O.O.O./ O.O.O./ O.O.O.X.| | / O.O./ O.O.o._ / / X.| X.O.O.( ( ( ( O.O.O.O.O.O.O.O.O.O.O.O.O.O.O.@.X.| o.X./ ( +.#.O.O.O.O.O.O.O.O.O.X.O.O.O.( O.X.| X.| X.X.! X.O.O.X./ O./ ( / ( X.| / / ! ! X.O.O.O.X.| | o.o.| | | +.o.o.o.| | | | | | ! ! | V d a a a a z N ~ W W N V a & + % u l V V V V a % + + + + & d m N N N V V , + + + + + + + % d x V V x s a % @ + + + + < < < < * # @ + a s z d a a % + # % a a a s s s a a a , a a s B A  .| | | W | | ! ! ! ! ! | W | | | | | ! ! | | | | ! ! W W W W W ! | | ! V % @ + @ @ @ # f B ^ W W N ~ W V , + X     . % d a X         .                             . O $ O O                     .                   X @ + $ .           . @ + + @ .   X + X X $ + + + + + + + & B ..X.O.@.%.%.+.+.$.$.$.$.$.$.8.8.$.$.$.$.$.$.@.4.O.O.4.4.4.&.&.4.4.4.5.4.4.4.4.4.4.4.4.4.4.&.&.&.&.4.4.4.4.7.4.4.4.4.4.4.4.4.4.4.4.4.4.4.4.4.4.O.4.7.7.4.4.4.4.4.4.7.9.5.4.4.4.4.4.4.4.4.4.7.7.4.4.4.4.4.4.4.4.4.4.4.6.7.4.4.7.7.4.r.4.4.4.5.5.5.4.6.w.&.q.4.7.7.4.4.4.4.4.4.4.4.4.4.4.4.4.4.4.4.7.6.6.6.9.9.9.w.w.9.9.6.4.5.9.w.w.5.4.4.7.6.r.6.9.9.6.6.w.9.9.w.w.9.9.0.s.s.s.s.i.d.s.9.9.w.6.6.9.9.9.4.7.r.r.r.r.r.r.7.r.q.q.r.6.r.r.6.r.6.9.9.9.9.9.7.9.9.0.<.s.d.i.f.0.i.i.e.0.e.s.i.,.>.>.,.0.0.9.8.8.9.9.9.9.5.9.9.9.8.8.9.9.5.5.5.4.6.4.4.4.4.4.4.4.4.4.6.9.9.9.w.9.9.8.9.0.$.9.9.9.0.0.<.,.>.f.>.<.<.f.f.,.0.9.8.9.9.8.$.8.$.8.8.8.8.$.$.$.8.8.$.$.+.5.5.%.%.%.8.$.%.+.#.+.$.$.%.O.O.O.O.",
"~ ~ Q E E ~ ~ ^ Q Q E W M E E W E E E E E E E E E W E E E Q Q Q ! ! ! ! Q E E E Q ! ! ! / _ ! ! / _ Q ! ! ! ! ! / ( ) / ! ! / ! / / ! ! ! | | / / / / X.+.! ! / ! | | | ! X.X.X.O.O.O.O.#.O.X.#.+.+.#.O.+.+.$.+.O.O.O.O.O.O.O.O.( ( O.O.O.O.O.O.X.+.#.O.X.X.+.O.X.X./ O./ / / / O.#.O.O.+.#.O.O.O./ X.O./ X.O.O.( ( O.O.O.X.X.O.O.O.O.O.O.O.X.| | | X.O.O.O.O.O.O.O.O.O.O.O.O.O.O.O.X./ / O.O./ / ( ( ( O./ ! / / / / X.| ! ! ! / / / / O.O.X.| | | | | X.| #.#.X.| | o.| / X.| | V a a a a a x _ / | | | N V a & % p l n N N V d & + + + + % p z V N N V V d % @ + + + + + + d x V V x V a % @ $ # # < f f 1 % @ + @ % a d z z a a % + + % a a d d x x a a a d V V A | | | | | | | | W W | W W W W | | | | | W W ! ! | ! ! ! | ! ! W | W W ! ! N a + @ + O . $ a A ~ ^ ^ ~ W | W B V & $ .       X # X                       .                 O $ O $ .                   O $ O X             $ + + @ .         O + + + + O     O * O $ O @ # # + + + + + , C  .X.#.%.+.O.+.$.$.$.$.$.$.5.4.&.@.$.$.$.$.4.4.O.O.4.4.4.O.4.4.5.8.@.5.4.$.8.5.4.6.4.4.4.5.5.4.@.4.4.4.4.4.4.4.4.4.4.5.+.@.4.4.4.4.4.4.4.4.4.4.4.4.7.r.7.4.+.@.4.4.4.5.5.5.9.9.5.4.4.4.4.4.4.4.4.4.4.7.7.7.r.7.7.4.4.4.7.5.4.4.7.r.4.4.q.4.4.4.6.6.9.w.q.q.4.4.7.7.4.4.4.4.4.4.4.4.7.7.4.4.4.4.7.6.r.r.6.9.9.7.4.7.9.9.9.8.8.5.&.4.4.4.7.7.4.7.6.6.9.9.9.9.9.9.9.0.0.s.d.s.s.s.s.d.d.e.w.w.w.q.9.9.9.9.6.q.q.r.r.r.7.6.u.6.q.6.6.r.r.7.6.r.6.9.w.w.w.9.9.w.w.0.e.s.<.>.i.>.>.e.9.d.s.>.>.>.>.<.0.0.9.9.9.9.9.9.9.5.9.9.8.8.8.8.9.8.8.8.9.6.7.4.4.4.4.4.4.4.5.9.9.9.e.9.8.9.8.8.8.$.e.*.<.i.f.>.=.*.0.>.0.9.0.,.>.>.*.$.8.9.9.9.9.8.%.%.8.8.$.$.8.8.8.8.$.$.%.%.+.4.#.8.g.0.@.+.+.+.8.+.+.+.4.O.",
"^ ^ ~ E Q ~ E R Q ! _ ^ W W E E W E E E E E E E E E E E E E E E Q Q E Q ! W E E E Q ! ! ! ! ! ! ! _ ! / ! ! | ! / ( / / ! ! ! ! ! ! ! / ! ! | ! / ( / o.+._ _ O.#.o.o.| ! X.X.X.O.O.O.O.O.O.O.#.$.+.O.O.O.#.+.+.O.O.O.O.O.O.O.O.( O.O.O.X.| X.O.O.X.+./ X.#.+.#.X.O.O./ ! / / / / / / / / O.O.O.O./ / O./ O.O.O.( / O.O.X.X.O.O.O.O.O.O.O.O.X.| X.X.X.O.O.O.O.O.O.O.( O.O.O.X.O.O.( ( / / ( O./ / / / / / / ! ! ! ! ! ! ! ! ! ! ! / / / ( O.+.o.| | | | | _ +.+.O.| ! +.o.| X.| N d a a a a d B | ! | | | | W V a & & p l V N V d , + + + + + a m V V V V V V & + + + + @ @ + d z V x x V d % @ # - < 1 f a a & + + + + , d z z a a & @ @ % a a a a d s a a d V N W W W | | | | | | | W W | | | | W | | | | | ! ! ! ! ! | W ! ! ! ! W W | W W | V & + + + @ O % x  .W W ~ ^ ~ W W ^ B a @ .                               . .                   . O + $                     $ + + $ .           X @ + $ .         X @ + + + O     # ; $ O O + @ + + + + + + % x ^ | o.$.$.+.+.$.$.$.$.8.$.@.@.@.$.$.@.@.$.@.#.O.4.4.4.4.4.4.4.5.5.4.4.4.5.5.5.5.9.4.4.4.5.4.@.$.5.4.4.4.4.4.4.5.5.4.4.5.4.4.4.4.4.4.4.4.4.4.4.4.4.4.4.4.4.5.4.4.4.4.4.4.5.5.5.4.4.4.5.5.4.4.4.4.4.4.4.4.4.4.r.r.4.4.4.6.q.4.4.4.4.4.4.4.4.4.7.6.6.6.6.q.q.4.4.4.4.4.4.4.4.4.4.4.4.7.7.4.4.4.4.7.r.r.r.r.9.6.4.7.7.6.9.9.9.9.5.4.4.4.7.7.4.7.6.6.9.9.9.9.9.9.9.9.w.s.s.9.d.s.s.s.s.s.e.9.9.9.5.6.w.t.t.6.q.q.6.r.r.6.r.9.9.9.6.6.6.6.r.r.6.6.9.w.9.9.9.9.9.w.w.e.s.>.>.>.>.>.<.e.e.i.>.>.0.9.0.9.9.9.9.5.$.9.9.8.4.5.8.$.@.$.8.8.5.5.9.7.7.7.4.4.4.4.4.4.4.4.9.8.8.9.9.9.9.9.w.9.i.e.*.<.i.f.>.>.,.*.0.9.9.*.>.>.>.*.8.8.9.9.9.9.9.$.$.$.8.%.8.9.9.9.9.8.$.$.%.+.O.+.8.0.$.%.%.+.#.+.) %.+.O.+.",
"^ ^ ~ E E E E ~ Q Q ! Q E E E ~ ~ E E E E E E E E E E E W Q E Q ! Q Q ! ! W W ! Q Q ! ! Q Q ! ! ! ! / _ ! ! ! ! ! ! ! ! / ! / o.| ! ! / ! ! | / O.#.+./ | / ! / O.o.o.X.! X.X.X.( ( O.O.O.O.O.O.#.O.O.O.O.O.O.X.O.O.O.O.O.O.O.X.( ( O.X.| | X.O.O.X.X./ X.X.| | ! O.#./ / O.O./ ! / / O.O.O.O.O.X./ ( O.( O.O.O.O./ O.O.X.O.O.O.O.O.#.O.O.O.X.X.O.O.O.O.O.O.O.O.O.O.( O.O.X.| / / / / / / ( O.O./ / / ( / / ! / / / ! ! ! ! ! ! ! ! ! ! ( ) +.$.o.X.| | | _ _ o.O.X.! +.@.| | | V a & a a a x ..| | | | | | |  .V V a p u l V V V a % @ + + + & z V V V V V V , + + + + @ @ + p z V x z V a % @ + # & d d d d a % + + + & d z z z a & @ + + % , a a a d d x N | | | W W ! | o.| | ! ! ! | | | | | W | | | | | | ! ! W W W W W ! W W | | W W W | V % @ + + @ % s N W W W W ~ ^ W ~ ^ B V & O                               . .                 . . . O O .                   O @ + $ .             $ + $ .         . @ + + + O   . # # O # < # O + # , < # + , Z ..o.o.$.$.$.$.$.$.$.$.$.$.$.$.$.$.@.&.+.5.$.#.4.4.O.4.4.4.4.4.+.O.4.4.4.4.4.@.$.9.4.@.5.4.4.5.8.8.5.4.@.5.9.8.$.5.5.4.5.4.4.4.4.4.4.4.4.4.4.4.4.4.4.4.4.4.4.4.4.4.4.4.4.4.4.4.4.4.7.9.9.5.4.4.4.4.4.4.4.7.4.4.4.4.4.4.4.4.4.4.4.4.4.4.4.4.4.7.6.r.4.4.r.r.4.4.4.4.4.4.4.4.4.4.7.4.4.4.7.7.7.4.7.7.r.r.r.6.4.4.7.7.r.6.9.9.9.5.4.4.4.7.r.4.4.6.9.9.9.9.9.9.9.9.w.e.d.d.d.d.d.s.d.i.e.9.9.9.9.9.9.9.w.t.r.r.6.9.6.9.9.9.9.9.9.9.6.4.q.6.9.9.9.9.9.9.9.9.9.9.w.w.9.e.>.f.<.<.f.<.0.9.8.*.f.9.9.9.8.9.9.9.5.$.9.9.$.5.4.5.+.5.5.6.6.4.4.7.r.7.4.4.4.4.4.4.4.4.7.6.9.9.9.9.9.9.8.9.9.e.e.*.,.>.>.>.>.>.,.0.9.9.*.>.<.i.i.e.9.9.9.9.9.9.8.$.$.$.$.8.9.9.9.8.8.8.8.8.$.+.+.%.%.$.%.%.+.#.+.+.$.+.+.+.",
"' _ ! ! Q W E W E E E E E E ~ ^ ~ W W W E E W E E E E W W Q E E Q ! ! ! ! ! ! ! ! ! ! ! E Q ! ! ! ! ! ! ! / / ! ! ! ! ! ! / o... .W W ! ! ! / O./ O.O.! ! / / / / / X.o.! X.O.o.O.( ( O.O.O.O.O.O.O.O.4.+.+.#.o.O.O.O.O.O.O.X.| / ( O.| | | X.X./ o.+.O.+.| ! X.X.X./ X./ X.O.O.O./ / / X.X.O.O.X./ O.( / / O.O.O.( O.O.O.O.O.O.O.O.O.O.O.O.O.X.| X.O.( O.O.O.O.O.O.O.O.X.| | / / / / ( / ( X./ O./ X.O./ / ! / O.O./ ! ! ! ! ! ! ! ! ! / O.X.| X.( O.+.o.| | | X.X./ +.+.| |  .V % @ % a Z C _ | | | | | | | / |  .N V d l d V V d % @ + + @ & z V N V V V V , + + + + @ @ + p z z V z V , + + + % a z z V d a % @ + + & d l z z a , + + + & a a a d V N W W W ! | | ! W | #.! ! ! ! | | | W W | W | | | | | | | ! | W W W W W W W W W W | | ~ V % + + @ # a B W W  .W W ~ ~ W ' W W N d O                                   .                 X O . O X                     X @ X             . # + $ .         O @ @ + + @ . X # * O $ : # . @ % a , # + , x ^ %.$.$.o.o.$.$.$.$.@.5.$.$.8.$.$.5.4.4.4.+.+.O.O.O.4.4.4.4.4.5.O.4.4.4.4.4.$.$.9.5.8.5.4.4.5.9.8.5.&.5.8.9.9.9.8.8.5.4.4.4.4.4.4.4.4.4.4.4.4.4.4.4.4.4.4.4.4.4.4.4.4.4.4.4.4.4.4.7.6.9.9.4.4.4.4.6.7.7.r.4.7.4.7.4.4.4.4.q.4.4.4.4.4.4.4.4.4.6.r.4.4.7.7.4.4.4.4.4.4.4.4.4.4.4.4.7.4.4.7.r.4.7.4.7.r.6.4.5.7.4.7.r.r.6.9.9.4.4.4.4.4.7.7.4.5.9.9.9.9.9.9.e.e.e.s.d.s.i.s.s.s.s.i.d.9.9.9.9.9.9.w.q.u.r.6.7.6.9.9.9.9.9.w.9.6.5.6.6.6.9.9.9.9.9.9.9.9.9.9.9.w.w.e.<.>.i.s.s.>.f.9.9.9.e.9.9.9.5.8.9.9.9.9.9.9.8.9.5.4.4.4.4.4.7.7.4.4.4.4.4.4.4.4.4.4.4.4.7.4.6.9.8.8.9.9.8.8.8.$.e.e.<.>.<.>.>.>.>.>.0.9.0.>.>.,.e.9.9.9.9.9.9.9.9.8.$.%.%.8.8.$.$.@.$.$.$.$.8.$.8.8.%.$.%.$.%.+.%.$.$.$.$.$.",
"! ! Q Q W ~ E W E E E E E E E W ^ W E Q Q E E E E E E E W E E Q Q Q ! ! ! ! ! Q Q W W W W Q Q Q ! ! W ! ! ! ! ! ! | ! ! ! / / / / ! ! ! ! / / / ! / ( / ! ! / / / X.+.X.| | ! / O.O.O.X.X.o.o.o.O.O.O.O.X.X.o.o.O.O.O.O.( ( X.X.O.O.O.X.X.X./ / / O.+.#.+.! ! ( O.O./ / ) ( ( O.O./ / X.o./ / / O.O.O.+.O./ ( ( ( ( ( ( O.O.O.O.O.O.X.X.X.O.X.X.X.X.| / O.O.O.O.O.O./ X.X.O.X./ / ( / / X.O.( / X.X.X./ / / / ( O.( / _ / / X.X.X.X.X.O.O.O.O.X./ / +.$.$.o.| | | | | _ +.o.o. .V % @ % a C ^ | X.X.| | | | | / ! | |  .N V d d d a & @ + + @ & z m z z V V V a % @ + + @ @ + a z V V V V a % @ @ % a d z z z d & + + + % a d z z d a a , a a d x V N  .| | | | W | | W ! | | | | | | | | | W ! | W ! ! | W W W | | | | W W ! ! ! ! ! W | | W  .V , + + % d B W W W  .| W W ! W | ~ W W d O                                   O                 . X O O X                       O X             O O X O .         O + + + + $ . . O < < # $ @ $ + # % + + + + & x %.$.$.$.$.$.$.$.$.+.+.%.$.$.$.$.$.+.O.4.4.4.4.4.4.4.4.4.4.4.4.q.4.4.4.4.4.4.5.5.4.4.5.4.4.5.$.8.8.&.&.5.9.9.8.8.9.9.5.4.4.4.4.4.O.O.4.4.4.4.4.4.4.4.4.4.5.5.4.4.4.4.4.4.4.4.4.4.4.4.6.6.4.7.7.5.9.6.r.7.4.4.4.7.4.7.7.4.4.7.7.4.4.4.4.4.4.4.4.4.4.4.4.4.4.4.4.4.4.4.4.4.4.4.4.4.7.4.4.7.7.4.4.r.r.7.4.4.4.4.4.4.r.r.7.4.7.4.4.4.4.7.9.6.4.4.5.9.9.9.9.9.w.w.d.s.s.s.i.s.i.e.y.y.y.9.9.9.9.9.9.9.9.r.r.r.6.6.9.9.9.q.q.w.9.9.9.9.w.9.9.9.9.9.9.9.9.9.9.9.9.9.9.0.*.>.i.s.i.i.f.f.i.,.*.9.9.9.9.8.9.9.9.9.9.9.5.4.4.4.7.4.4.4.7.7.4.4.4.4.4.4.4.4.4.4.4.4.4.4.4.5.4.5.9.9.8.9.9.8.0.i.i.<.i.>.0.<.>.0.0.0.9.g.f.,.8.8.9.9.9.8.8.9.9.$.$.%.%.8.8.8.$.$.8.8.$.$.$.8.9.$.$.%.%.$.%.%.%.$.$.$.$.$.",
"E E E Q Q ^ W E E E E E E E E E ~ ~ E E E E E E E Q Q E E E E Q Q Q ! ! ! ! ! ! / / W W ! ! ! ! ! ! ! ! ! ! ! ! ! ! ! ! ! ! ! ! ! ! ! ! ! / / ! ! ! / / ! ! ! ! ! / O.X.| | ! / O.O.O.#.o.o.| | O.O.O.5.+.#.O.+.#.O.X.X.X.O.O.O.O.O.O.O.O.O./ / / X.O./ / ! / O.O.X.O.( ( ( ( / ( O./ X.X./ / ! O.O.+.O.( ( ( ( ( O.O.O.O.O.O.O.O.O.X.O.O.O.O.X.O.O.X.O.O.O.O.O.O.O.( X.X.O.( / / ( / ( O.O.( / ! ! ! ! / ( / / / / ! / ! / X.X.O.O.O.O.O.O.O.O.X.( +.$.$.$.#.#.| | | / ) o.| N d % @ % d B ~ | O.X.| | | | | ! ! | | | |  .N V a a + @ + @ + & d z l V V V V a & @ + @ @ @ + a l V V V V a & @ + , a z z z z d a % + @ @ % a d z z d x x x x x A A  .~ W W | | | | | | | | | | | W W W | | ! ! | ! ! ! | W W W W W W W W W ! ! ! ! ! ! W W | W N x a a s B W W W W W W W W W W | W W W a $           . X X .                 . .               X $ $ @ O                   .   . O .           . .               O + @ + $ .       O * - # + + @ @ @ + # % , a B o.+.$.$.$.$.$.$.$.$.$.$.$.$.$.$.$.+.O.O.4.4.4.4.4.4.4.4.4.4.4.5.5.4.4.4.4.4.4.q.4.4.4.4.5.8.$.$.$.@.&.5.8.8.9.8.9.9.9.8.4.4.4.4.O.O.4.4.4.4.4.4.4.4.4.4.5.5.4.4.4.4.4.4.4.4.4.4.7.7.r.7.4.4.4.4.7.7.7.r.r.4.4.4.4.4.4.4.4.4.7.r.4.4.4.4.4.4.4.4.4.7.4.4.4.4.4.4.4.4.4.4.4.4.4.4.4.4.4.4.4.4.4.7.7.4.4.4.4.4.4.4.4.4.4.4.4.4.4.4.4.r.5.5.4.4.9.9.9.9.9.9.9.w.d.s.i.s.s.s.s.e.w.w.w.w.9.w.9.9.9.9.9.6.6.9.9.9.9.9.9.w.w.w.9.9.w.9.9.9.w.9.9.9.9.w.w.9.9.9.9.9.9.9.e.,.>.>.>.<.>.>.<.>.<.9.9.9.9.9.5.5.5.9.9.9.4.4.4.4.4.4.4.4.4.4.4.4.4.4.4.4.4.4.4.4.4.4.4.4.4.4.4.4.9.9.8.9.9.e.,.f.s.s.d.*.*.*.0.9.9.9.9.0.g.0.9.9.9.9.8.$.$.8.$.%.$.$.$.$.8.$.%.%.%.$.$.$.$.8.9.$.8.,.%.$.$.%.%.%.%.$.$.$.",
"E E E Q Q ~ E E W E E E E E E E E E E E E E E E E W E E Q E E E Q ! ! Q ! ! Q Q ! ! W ! ! ! ! ! ! Q ! ! ! / ! ! ! ! / ! ! ! ! ! ! ! ! ! ! / ! ! ! ! ! ! ! ! ! X.X.! / | | | X.O.O.O.O.O.+.5.+.X.O.O.O.$.%.+.#.+.#.O.X.| X.O.O.O.O.O.O.O.X.O.O./ O.O.O./ / / ( X.| | X.O./ ( ( / X.#.X.! | / ( / O.O.( / O.#.O.O.( ( O.O.O.O.O.O.O.O.X.X.O.O.O.O.O.O.O.O.O.O.O.O.O.O.O.X.X./ / / / / ( / / / O./ ! ! ! ! / ( ( / / ! ! ! ! O./ / / O.( ( O.O./ / / O.+.$.$.o.$.%.` | ! _ o.| | N d % @ % x ^ ~ X.O.X.| | | | | | | ! ( X.| | | A V a + @ + + + a d V V k V V V a , + + % % % p l V V V V V d a % % a d z z l V V d a & % % & a d V V V B N  . . . .| | ~ ~ W ! | | | | | ! ! ! | | o.| W | | ! ! ! ! ! ! | W W W W W W W ! ! ! ! ! ! ! ! W W W W W A A A A W W W W W W W | N N ~ n n n d % .         . & s a a % O             O O .             O + + + @ .                 $ $ $ + $                           . $ + + + O           O + + + + @ @ + @ % a s A  .o.+.$.$.$.$.%.$.$.$.$.$.$.$.$.$.@.4.O.O.4.4.4.4.4.4.4.4.4.@.4.4.&.4.4.4.4.4.4.4.4.&.&.5.8.8.$.$.5.4.4.4.5.$.5.5.9.5.9.5.5.O.4.4.4.4.4.4.5.4.4.4.4.4.4.4.4.4.4.4.4.4.4.4.4.4.4.7.6.7.4.7.r.4.4.4.7.r.r.r.7.4.4.4.4.4.4.4.4.7.6.7.4.7.7.7.r.r.4.4.7.r.4.4.4.4.4.4.4.4.4.4.4.4.4.4.4.4.4.4.4.4.4.4.4.4.4.4.4.4.4.7.7.4.4.7.4.4.4.4.4.4.4.4.4.6.9.9.9.9.9.w.9.w.y.d.i.s.s.s.s.e.w.w.w.w.w.w.9.9.9.6.6.6.6.9.9.9.9.9.9.w.9.9.9.9.9.9.9.9.9.w.9.9.w.9.9.9.9.9.9.9.9.9.9.e.i.i.>.>.>.>.i.i.0.9.9.8.5.4.4.4.7.6.9.9.@.4.4.4.4.4.4.4.5.5.4.4.4.7.6.4.5.5.4.4.4.7.4.4.4.4.4.4.6.9.8.9.9.8.0.0.i.f.<.0.*.*.0.9.9.9.9.,.0.9.9.9.9.8.%.$.$.%.%.$.$.$.$.$.$.%.%.%.%.$.$.$.8.8.8.$.$.....$.$.%.$.+.+.$.$.8.",
"E E E E E E E E ~ E E E E W E E ~ E E Q E E E E E M W E Q E E E Q ! ! E E Q E Q ! / ! ! ! ! ! ! ! Q ! ! ! / ! ! ! ! ) / ! ! ! ! ! ! ! ! ! X./ ! ! ! ! ! ! ! ! X.X./ X.! ! X.O.O.O.O.4.O.X.o.X.O.O.O.+.#./ O.O.( X.X.| | X.O.O.O.( O.O.O.O.O.#.O./ X.O.O.O.( O.X.| | | X./ / / / / / / ! | / +.+.X./ / ( O.#./ / / / O.O.O.O.O.O.O.O.O.O.O.( ( O.O.O.O.O.O.O.O.O.O.O.O.! ! / / ( ( / / / / / O./ / / / / / / / / / / ! ! ! X./ / / / ( ( / / _ ) ) ( +.$.o.| o.o.o.| ! o.#./ X. .A , + a C ^ | | / _ | | | | | | | | _ | | | | |  .V a % @ @ & a d V V V V V V V d , , a a a a l V V V V V d a & , a z z V V V V V V V V d s x V N  . . .| | | |  .| | W W ! ! ! W W | ! ! ! ! W | =.<. .| | ! ! ! _ _ ! ! W W W W W ! ! ! ! W W W W | ! ! ! W ! ! W W W W ! ! ! ! W W W N d p % @ @ @ $ .           # x A W A x a O         . O $ X             $ + + + + X                 $ + + + $ .                   .     . $ + + + O           O + + + + @ @ + + a A  .| o.+.+.$.$.$.%.%.$.$.$.$.$.$.$.$.$.5.4.4.4.4.4.4.4.4.4.4.4.4.@.@.O.&.4.4.4.4.4.4.@.@.@.@.8.$.$.8.9.6.4.4.4.4.8.5.5.8.4.9.5.@.4.4.4.4.4.4.4.4.4.4.4.4.4.4.O.4.4.4.4.4.4.4.4.4.4.4.4.7.4.r.6.7.6.7.7.6.6.7.4.7.4.4.4.4.4.4.7.7.7.6.6.7.r.4.4.4.7.r.7.4.4.4.4.4.4.4.4.4.4.4.4.4.4.4.4.4.4.4.4.4.4.7.4.4.4.4.7.r.r.r.6.7.4.4.4.4.4.4.7.7.4.4.4.5.9.9.9.9.9.9.w.9.9.w.w.d.s.e.0.0.w.w.w.e.w.w.9.9.9.6.r.6.r.r.6.6.9.9.9.9.w.9.9.9.9.9.9.w.9.9.9.w.9.9.9.9.9.9.9.9.9.0.9.w.e.i.s.s.f.>.>.i.e.0.e.9.9.8.5.5.4.7.4.9.9.$.4.5.6.5.4.4.4.9.5.4.4.4.7.9.9.9.9.4.4.4.4.4.4.4.4.6.5.4.5.8.9.9.9.9.9.,.>.>.>.,.,.f.g.0.f.,.>.*.8.5.6.8.$.%.%.$.$.$.$.$.$.$.$.8.$.%.8.8.8.$.$.$.+.%.%.%...%.$.8.$.8.8.+.$.$.%.",
"E Q E E E E E E E E E E E E E E W W E W E W E E E E E E Q W Q E Q ! Q E E E Q ! ! / ! ! W W ! ! ! Q Q Q / / / ! ! / ( ( ! W ! / ! ! ! ! ! / ! ! / / / ! ! ! ! / / / X./ / / O.O.O.O.X.X.| #.O.X.( O.#.O.X.X.O.O.X.X.X.| / X.O.O.O.O.O.( O./ X.@./ X.+.| X.( O.O.X.| ! / / / / ( / / / ( ( / X.o.| ! X.X.X.X.! X.( ( O.O.O.X.X.X.X.X./ ( ( ( O.O.O.O.O.O.O.O.X.X.X.O.O.| ! / / / ( / / ( X./ / / / O.O.O./ / / / / / ! ! | | ! ! / O.O.O./ ! / / / X.X.o.o.| X.| | o./ / | / ( o.G.H , x .. .| | / ! | | X.X.! ! | | | | | | ! ! W N V a & , a V V N W W W N N N N V V V V V V N N N N N V V V d V V V V V V V N N N N N N N N W W | | | | | | |  .| | | | | | ! ! ! W ! X.! | | | o.H.S ~ | W W ! _ ! W W W W ! W W W ! | | W W W W ! ! ! ! W ! / ! W W W _ ! W W W W W d + X               . X . . # a d x z z x a O .     . X $ X             $ + + + + X                 $ + + + + X         X O O O O .     . $ + + $ X           X @ + + + @ + , a A o.| X.+.@.+.+.+.$.+.%.$.$.$.$.$.$.$.+.@.4.4.4.4.4.4.4.4.4.O.&.&.4.4.4.4.4.4.4.4.4.4.4.$.8.$.$.8.$.@.5.9.9.5.4.5.6.8.8.8.8.@.8.8.5.5.4.O.4.4.7.5.4.4.4.O.@.5.+.O.4.4.4.4.5.5.4.5.5.5.4.4.4.4.6.6.6.r.7.7.r.7.4.4.7.7.6.7.r.4.4.6.6.5.9.9.9.5.4.6.5.4.7.7.4.4.4.4.4.4.4.4.4.4.4.4.4.4.4.4.4.4.4.4.4.4.q.4.4.4.4.r.r.6.9.6.4.4.7.5.4.4.4.4.7.4.4.4.7.9.9.9.9.6.w.9.9.9.e.e.e.f.e.e.e.9.9.w.w.w.9.9.9.6.6.r.6.6.r.6.q.9.9.9.9.0.9.9.9.9.9.9.9.9.9.w.9.9.w.9.9.9.9.9.9.9.0.9.e.9.<.i.e.0.f.f.i.s.s.f.8.9.8.8.5.5.4.4.9.8.$.5.5.7.6.4.4.4.5.4.4.4.4.5.9.9.9.8.4.4.4.4.4.7.4.4.9.8.4.4.+.8.9.9.9.0.0.0.f.<.>.f.0.0.0.0.0.0.8.8.5.6.8.%.%.$.$.$.$.8.$.$.+.5.8.+.%.8.8.8.+.+.$.%.%.%.$.%.%.%.8.$.$.@.+.8.8.$.",
"E E E E E E E E E E E E E E E E E E W E E W E E E E E E Q E Q ! E Q Q E E E E E E Q Q ! ! W ! ! Q Q ! / / / ! ! ! ! / / ! W _ o.! ! / / ! ! ! ! ! / / | ! / / / X./ X.( ( O.O.O.O.X.| | | O.O.O.O.O.O.#.O.O.O.O.#.+.X.! / X.O.O.X.O.( ( ( O.X.o.X./ O.X./ / ( ( ( X./ / +.+.O./ / / / ) ) / ! | ! ! X.X.X.+.o.#.( / O.O.X.X.| | X.O.( / / ( O.O.O.O.( O.O.O.X.| X.O.O.! ! ! / / / / / / ! ! / ( / O.O.O.O./ ! | / ! ! ! ! ! ! ! X.O.X.X.! ! ! ! ! X.X.X./ O.X.| | o._ | | X.O.@.G.D.x A | | | ! ! | | | X.X.| ! ! ! | | | | ! ! W W N V d V V N W W ! ! ! W W W W W W N W W N W W W W W W N N N N W W W A W  .W W W W W W W W W W | | | | | | | | | | | | | ! ! o.o.! ! | ! | | | | A s x ~ W W W | W W W W W ! ! W ! ! ! W W W W W ! ! ! ! ! ! W ! W W W W W W W _ M d + .                 O + + .   . X O O % & % + O       . + X             $ + + + + X                 $ + + + + O         O + @ + @ O .     O + + @ .           . O @ @ + % a x A  .X.X.X.+.%.%.+.$.$.$.$.$.$.$.%.%.%.%.$.@.4.O.4.4.4.4.4.4.4.4.4.&.&.4.4.4.4.4.4.4.4.4.@.$.9.8.$.$.$.8.@.8.$.8.5.@.8.@.@.$.$.$.$.6.4.4.4.4.4.4.4.4.O.4.4.O.4.4.4.4.4.4.4.4.5.4.4.4.5.4.4.4.4.4.4.4.7.r.r.r.7.4.4.4.4.7.6.r.r.7.4.9.9.8.9.9.9.5.4.5.4.4.4.4.4.4.4.4.4.4.4.4.4.4.4.4.4.7.7.4.4.4.4.4.4.4.4.4.4.4.4.r.r.7.9.9.r.4.4.4.4.4.4.4.4.4.4.7.4.9.9.9.9.9.9.9.9.9.e.d.i.<.*.*.e.9.9.w.9.9.9.9.9.9.6.r.6.9.6.6.9.9.9.9.9.9.9.9.9.9.9.9.9.9.9.w.w.9.w.w.9.9.9.9.9.9.$.9.9.9.0.0.9.9.,.>.>.<.f.0.9.9.8.+.4.4.4.4.4.5.$.5.4.4.7.6.9.5.4.4.4.4.4.4.4.5.9.9.5.4.4.4.4.4.4.4.8.$.@.5.8.9.9.8.0.i.0.0.s.i.>.0.0.9.9.9.9.8.8.9.5.5.5.$.$.$.$.$.8.8.$.$.+.+.$.+.$.$.%.$.%.+.$.$.$.$.$.$.$.$.$.$.$.$.$.$.$.$.",
"Q E E E E E E E E E E E E E E E E E E E Q W E E E E E E E E Q ! Q Q E E Q Q E Q Q Q Q Q ! ! W W E E ! / / ! ! ! ! ! ! ! ! ! / ! Q ! / / ! ! ! ! ! ! ! ! ! ! ! / X./ X./ O.+.X.X.O.O.+.o.X.X.O.O.O.O.#.+.O.O.O.4.+.$./ / O./ / O.X.X.( ) ( #.X.! / ) ( / / / / / / O.( ( ( O./ / +.o./ / / / ! / ! ! / O.O.#.+.O.O./ ( O.X.| X.X.O.O.( / ( O.O.O.O.O.O./ ( O.O.X.X.( / ! ! / / / / / / / ! ! ( ) / / / X.O./ ! ! / / ! ! / / / / / / ! ! ! ! | | | X.O./ / O.! / | | | | | | / o.*.-. .W | X.| | | | | | ! ! | ! ! ! | | | ! | | | | | W N W | | | ! ! / / / ! ! ! ! ! W ! W W W W W W | | | | W ! ! W W W W ! ! ! ! ! ! W W W W W W | | | | | | | | | W W ! W ! | | ! | | | | ! ! W d + & B ~ ! W ! W W W W W ! W W ! ! W E W W W W ! ! ! ! ! W W W W W W W W W ] l & O .                   $ + O .         . @ @ @ X         . + O .           $ + + + + O                 $ + + + @ X         O + @ + + @ X     O + + + @ X       . $ @ + % , x A  .| | X.O.O.O.+.%.%.$.+.$.$.$.$.$.$.%.%.$.$.+.O.O.#.#.#.#.O.O.4.4.4.&.&.5.5.4.4.4.O.+.@.@.@.8.8.$.$.$.$.8.$.$.$.$.@.&.&.&.&.@.$.$.$.8.4.4.4.4.4.4.4.4.O.4.4.O.4.4.4.4.4.4.4.4.4.4.4.4.4.5.5.4.4.4.4.4.4.7.7.7.4.4.4.4.4.7.7.r.r.7.9.9.9.9.9.9.8.5.4.4.4.4.4.4.4.4.4.4.4.4.4.4.4.4.4.4.4.4.7.4.4.4.4.4.7.r.7.4.4.4.4.4.4.4.7.6.7.4.4.4.4.4.4.4.4.4.5.9.4.5.5.7.9.9.9.9.9.9.0.e.d.i.*.e.e.8.w.w.9.9.9.9.9.9.6.r.6.9.9.6.9.9.9.9.9.9.9.9.9.9.9.9.9.9.9.9.w.w.9.9.9.9.9.9.9.9.$.8.9.9.0.9.9.9.0.<.>.>.,.9.9.9.9.5.5.4.4.4.4.5.9.5.4.@.8.9.8.5.4.4.4.4.4.5.4.4.5.9.8.@.4.4.O.4.5.5.$.$.$.9.9.9.8.$.0.e.0.8.0.0.0.<.0.9.9.9.9.8.$.8.$.4.5.$.$.$.$.$.8.9.8.$.$.$.$.%.%.$.$.$.$.$.%.$.$.$.$.$.$.$.$.$.$.$.$.$.$.$.",
"Q E E E Q E E E E E E E E E E E E E E E W E E E E Q Q E E E E E E E E E W W W ! ! ! ! ! ! ! E E E E Q / / ! ! ! ! / ! ! ! ! _ ! ! | ! ! / / ! / / ! ! ! ! ! / / X./ X.! X.O.O.X.O.X.| o._ / ( O.O.O.O.O.O.X.X.#.| X./ ( ( ( / ( O.O./ ( ( ( X.! / / / / / / / / / ( / / ( O.O.O.O.X.X.! ! / X.O.O./ / X./ ( ( / / X.O.O.X.X.X.O.O.O./ / ( O.O.O.( ( O.( / ( / | X./ / / / / / / / / ! ! ! ! / ( / ! ! / / ! ! / / / ! / / / / / / ! ! / ! | | X.O.O.( / ( X.! _ o.| X.#.+.+.+.o.X.X.X.| | | X.| | | | | / / ! ! ! ! | | ! ! | | | | | ! / | | | ! ! ! / / / ! ! ! ! ! ! ! | | ! ! ! ! | | ! ! ! ! ! W W W ! ! ! ! ! ! W W W | | | | | | | ~ _ | | | ! ! ! | | | | ! ! | | | W ! ! | V + O & m ~ W | W W W W ! | ! W W W W W W W W | W W ! ! ! W W W W W ~ ^ N d & O O @ O                 . @ + O           X @ + O           . + + $ O .       O + + + + $                 $ + + + $           O + + + + + X     . O + + + $ O O O O + % a s A  .| | | o.#.O.O.O.O.+.%.+.O.@.$.+.+.+.$.$.%.%.%.+.O.4.+.+.%.%.O.O.4.4.4.&.@.8.5.4.4.4.4.@.$.$.$.9.8.$.$.=.$.=.*.$.$.8.8.@.$.$.$.$.$.$.$.@.4.4.4.4.4.4.4.4.O.4.4.O.4.4.4.4.4.4.4.4.4.4.4.4.4.4.4.4.4.5.4.7.7.4.4.4.4.5.6.6.6.6.r.4.4.6.9.4.4.4.&.&.&.&.4.4.4.4.4.4.4.4.4.4.4.4.4.4.4.4.4.4.4.4.4.4.4.4.4.4.4.7.6.4.4.4.4.4.4.4.4.7.4.4.4.4.4.4.4.4.4.4.4.5.&.4.4.7.7.9.9.9.9.9.9.9.d.i.*.8.9.8.9.w.9.9.9.9.9.9.9.6.6.9.9.9.9.9.9.9.9.9.9.9.9.9.9.9.9.9.9.9.w.d.0.9.9.9.9.9.9.9.8.9.9.9.9.9.9.9.0.e.e.,.0.9.9.6.7.9.9.4.7.4.4.4.6.8.$.$.8.9.8.5.4.4.4.4.5.5.4.5.8.$.$.$.5.4.$.$.8.9.$.$.8.8.9.9.9.9.9.9.$.$.9.0.0.9.9.9.9.9.8.8.$.8.8.@.$.%.%.$.$.$.%.$.%.$.$.$.$.%.$.%.$.$.$.$.%.$.$.+.@.$.$.$.$.$.$.$.8.8.$.$.",
"E E E E Q E E E E E E E E E E E W E ~ W E E E E E Q Q E E E E E Q E E E Q E E E Q ! Q Q Q Q Q Q Q Q Q ! ! ! ! ! ! / / W ! ! / ! ! ! / / / / ! / / ! / | / / / ( / / / / X.X.X.X.X.X.X.+.) / / X.O.O.O.o.+.X.| | ! / / / ( ( ( O.#.X./ / / / / / / / / | ! / / ( ( / / / / / X.X./ X.| | ! | X./ O.( ( ( ( O.( / / X.X./ X.O.O.O.( O.O.( X.X.X.O.( ( X.X./ / / X./ / ( / / / / ! ! / / / / / / ( / / ! ! ! ! ! ! / / ! / / / / / ! ! ! / / ! ! / X.O.( / X.X.| X.+.X.+.+.+.o.X.o.X.X.o.X.| ! X.| | ! ! | X.X.! | | | | | ! ! | | | | ! ! ! ! ! ! ! ! ! ! ! W W W ! W ! ! W W W ! | | W W W ! ! W W W W W W W W | | W W W W W | | | | ! ! | | | | | W W ! | | | | | ! W W | | W ! ! W N a O $ a B _ | | W W ! W W W W W W W W W W W W W W W W ! ! W ! ~ n d & + . . O # + @ .               O + + X           O + + O           O + + + + $     . O $ + + + @ X             O + + + @ X           O # + + + + $ .     . @ @ @ + + & , a d x A  .| X.O.X.o.+.O.O.O.O.O.O.+.#.O.O.+.+.+.#.@.@.@.@.$.@.4.4.5.@.5.5.4.4.4.4.4.4.4.@.5.4.4.4.+.@.$.$.$.8.8.$.$.$.=.*.8.0.8.8.8.8.8.8.8.@.&.@.4.4.4.O.4.4.4.4.4.O.4.4.4.O.4.4.4.4.4.4.4.4.4.4.4.4.4.4.4.4.4.6.7.4.4.4.4.7.7.6.6.9.9.6.7.4.4.7.7.4.7.7.5.5.5.5.4.4.4.4.5.4.4.4.4.4.4.4.5.4.4.4.4.4.r.6.7.4.4.4.4.7.4.4.5.4.4.4.4.4.4.4.7.4.4.4.4.4.4.5.4.5.5.4.4.4.4.4.4.4.6.9.9.9.9.w.9.9.e.e.e.e.0.9.9.e.w.9.9.w.9.6.6.r.7.9.9.9.q.e.8.9.9.9.9.9.9.9.9.9.9.9.9.0.e.e.e.0.8.9.9.9.9.9.9.9.9.9.9.9.9.9.9.9.9.9.9.9.5.7.4.5.5.O.5.4.4.4.4.8.8.8.9.9.9.9.5.4.4.4.5.5.$.9.8.$.0.8.@.4.6.8.8.9.8.$.8.8.8.8.9.g.0.9.8.8.0.%.%.8.8.9.9.9.8.5.$.8.5.$.$.$.%.$.8.8.%.%.%.%.%.%.@.+.%.%.$.$.@.+.%.$.+.+.+.$.$.$.%.$.$.$.$.8.$.8.",
"Q R R E E E E E E E E E E E E E E E ~ W E E E E E E E ! Q W E E Q Q E E E E Q Q E E E Q Q Q ! ! ! ! ! ! ! W ! ! ! / / ! ! ! ! ! ! ! / / ! ! ! ! ! ! ! ! / ! ! / / ! ! / O.O.X.X.O.O.O.O.O.O.X.| O.O.O.o.+.X.| X./ O.O./ / O.O.#.X.! / / / / / / / / / | | | | O.O.| ! ! / X.! ! / / | | X.X.| / / / ( / ( O.O.X./ O.| | X.O.O.O.O.O.( O.X.| X.( ( / / | X./ ( ( ( / ( ( / / ! | ! / / / / / ( ( ( / ! ! ! ! ! ! ! ! ! ! ! ! ! ! | ! ! / / ! ! ! ! / ( O.X.| | X.O.O.+.+.X.| | X.O.X.#.#.| | | ! ! ! ! | | | | | | | | | ! ! ! X.| | ! ! ! ! ! ! ! ! ! ! | | W W | ! | | | W W ! | W W ! ! ! ! W W W W W ! W W W W W W W ! ! ! ! | ! ! ! | | | ! | W W | | | | | | ! W W | | | ! ! W W V + . $ a ^  .| ! ! W W W W W W W W W W W W W W | | W ~ ~ B l p + O         $ + + $ .             O + + @ .           O + + O           $ + + + + O       X $ + + + + X             X @ + + @ O         . $ + + @ @ @ + $ . . O % & & a s x x A A | | | | X.O.O.O.O.O.O.#.#.O.O.#.O.O.O.+.$.$.+.+.@.@.@.$.+.4.4.4.4.4.4.4.4.4.4.4.4.4.4.4.4.4.4.+.@.@.$.$.8.8.$.$.$.$.$.$.8.9.8.8.8.8.8.9.5.&.4.4.4.O.O.4.4.4.4.4.4.4.4.4.O.4.4.4.4.4.4.4.4.4.4.4.4.4.4.4.4.4.7.4.4.4.4.7.4.r.4.5.9.9.6.4.4.4.7.r.4.7.6.9.5.4.5.4.4.4.4.4.4.4.4.4.4.4.4.6.7.4.4.4.4.7.r.7.4.4.4.4.4.4.4.4.4.4.4.4.4.4.4.7.7.4.4.4.4.4.4.4.5.6.4.4.4.4.4.4.4.9.9.9.9.9.9.9.9.w.9.9.9.9.9.9.0.0.9.9.9.9.r.r.r.6.9.9.9.w.5.w.w.w.u.9.9.*.e.9.9.9.9.9.9.9.9.9.9.9.9.9.9.9.9.8.9.9.9.9.9.9.9.8.8.8.9.9.9.5.5.8.8.5.4.4.4.4.4.4.5.8.8.8.9.e.9.5.4.4.4.4.@.$.9.9.9.9.8.8.8.9.8.$.8.8.$.%.$.$.$.8.g.f.0.0.0.0.8.$.8.8.8.8.8.8.%.$.$.@.$.$.%.%.$.9.8.$.$.%.%.%.%.$.$.$.%.+.$.$.+.+.+.+.$.+.$.$.$.%.$.$.$.%.%.%.$.",
"_ R R R Q E E E E E E E E E E E W ^ W E E E E E E E E Q E E E E Q Q E E W E Q ! E E ! ! ! Q ! ! ! ! ! ! ! E Q ! ! ! ! ! ! ! W W ! ! / ! ! ! ! ! ! ! ! ! ! ! ! / / X.| X.O.O.X.X.O.O.O.O.O.O.X.| | X.O.O.O.! ! O.O.O.O.O./ / / / / / ( ( / ! / / / / O.X./ ! ! / X.| ! ! ! X.| ! / / ! ! X.X.X.O.X.X./ / O.O.| X./ / | | X.O.O.O.O.O.( O.O.X.| / / / / ! / O.O.X./ / / / / / ! | ! ! / / ! / / / / / / / / / ! ! ! ! ! ! | ! ! ! ! ! ! / / ! ! ! ! ! / O.X.| | ! / X.#.O._ ! ! / O.O.+.o.| | | ! ! | | | ! ! | | | | | | ! ! ! ! ! | ! ! ! ! ! ! ! ! ! | | | W ! ! W ! | | ! ! ! | W W ! ! ! ! W W W W W ! W W W W W W W ! ! W ! | ! ! ! W ! ! ! | ! W ! | | | W | W W | | | | W W W W A a $ @ % d B ' ! ! W W W W W W W W W -.-.N W W | ~ ] n i p + .             $ % + $ .             O + + @ .         . + % + X         . @ @ + + @ .     . O @ + + + + O               $ + + + + O O O O $ + + + % & & & & % , a s x A B N | | | | X.X.X.X.X.O.O.O.O.O.O.#.+.+.#.#.#.O.+.%.$.$.+.+.+.#.#.#.O.4.4.O.4.4.4.O.4.4.4.4.O.4.4.4.4.4.@.$.5.$.$.$.8.$.$.$.=.$.$.$.8.8.%.$.8.8.8.8.5.4.4.4.4.4.4.4.4.O.O.4.4.4.4.4.O.4.4.4.4.4.4.4.4.5.4.4.4.4.4.4.4.4.4.4.4.4.4.4.4.r.4.5.9.8.4.7.w.7.7.4.4.4.7.6.4.4.4.4.4.4.4.4.4.4.4.4.4.4.7.7.4.4.4.7.4.4.7.4.4.4.4.4.4.4.4.4.4.4.4.4.4.4.4.4.4.4.4.4.4.4.4.4.5.9.5.4.4.4.4.4.4.9.6.9.9.9.9.9.9.9.9.9.9.9.9.9.9.0.0.9.9.7.r.r.r.6.9.9.9.8.w.w.9.9.9.9.9.e.e.9.9.9.9.9.8.9.9.9.9.9.9.9.9.9.9.8.9.9.9.9.8.8.8.8.8.8.9.9.9.8.8.0.9.9.9.4.4.4.4.4.5.9.8.$.9.9.8.4.4.4.@.8.8.$.$.8.9.9.8.8.9.9.8.$.9.9.9.8.$.$.$.$.0.>.>.>.g.0.9.8.$.$.%.%.$.8.%.$.$.%.$.$.$.$.$.$.$.$.$.%.$.$.$.$.$.$.%.%.%.$.+.#.+.$.$.$.$.$.$.$.$.$.%.%.%.%.$.",
"R R R Q E E E E E E E E E E E E ~ ~ E E E E E E E E E E E E E E E E E E W E Q Q E E ! ! ! Q ! ! ! ! W ! ! E E ! ! ! ! ! ! W W W ! ! ! ! / _ ! ! ! ! ! ! ! / ! / ( O.X.X.O.O.X.X.O.O.O.X.X.O.X.| | | O.O.O.! ! / O.X./ O./ / ( ( ( ( / / / ! ! / X.| O.( / ! ! ! ! ! ! ! ! / X.X.O.X.! ! ! X.X.X.| | / X.O.O.| | ! ! | | X./ X.O.X.O.O.O.O.O.X.| X.( / / / O.O.| ! / / / / / / O.O./ / ! ! ! ! / ( / / O./ ( / / ! ! ! ! | ! ! ! ! ! / / / ! ! ! / / ( O.X.| | ! / ` +.+.' _ / / / / O./ / | | | | | | | ! ! ! ! ! | | | ! ! / ! ! | | | ! ! ! ! ! ! ! ! W W W W ! W ! | | ! ! ! ! W W ! ! ! ! W W W W W ! W W W W W W W ! ! ! ! ! ! ! ! W W W ! | | | | W W W | | ! W W ! | W W W W | W V & + @ + p ^ ! ! W W W W W | W W W =.L...B ^ B l p u p + X             X % a & @ .           . + & % @ .         . % , + .         O # % + + $       . @ @ + + + + @ $ .           O + # < , a a a a a d d d x x x x x A A A  . .|  .X.X.X.| | X.+.( O.O.O.O.O.O.O.+.#.+.+.#.+.O.O.O.+.@.%.%.+.#.+.+.#.O.4.4.4.4.4.4.O.4.4.O.4.4.4.4.4.4.O.$.$.9.$.$.$.8.8.8.@.*.*.8.9.$.%.$.%.8.8.8.$.5.4.4.4.4.4.4.4.4.4.O.O.O.4.4.4.O.4.4.4.4.4.4.4.6.8.4.4.4.4.4.4.4.4.4.4.&.&.4.4.4.7.4.5.9.$.5.7.7.4.4.4.4.4.4.7.4.4.4.4.4.4.4.4.4.5.7.4.4.4.7.4.4.4.4.4.4.4.4.4.4.4.O.4.4.4.4.4.4.4.4.4.4.4.4.4.4.4.4.4.4.4.4.4.5.9.6.4.4.4.4.4.4.5.5.9.9.9.9.9.9.9.9.9.9.9.9.9.9.w.9.9.6.7.7.r.r.6.9.9.9.9.w.w.9.9.9.9.9.9.9.9.9.9.0.<.<.<.0.9.9.9.9.e.9.0.,.8.9.8.8.8.$.8.8.8.9.9.9.9.9.9.9.8.8.8.5.4.4.4.4.4.4.5.$.8.9.6.5.4.5.$.$.8.9.8.8.9.8.8.9.9.9.9.9.9.9.9.9.e.$.$.$.$.9.0.0.0.8.8.9.8.$.$.8.$.8.9.$.$.$.$.%.%.%.$.8.$.$.$.%.8.8.$.8.$.+.%.@.+.%.$.$.+.$.$.$.$.$.$.$.$.%.%.%.%.%.f.,.",
"E E E E E E E E E E E E E E E E E W W E E E E E E ~ E E E E E E E E E E W W E E E Q Q Q Q Q Q Q Q Q W ! ! ! Q ! ! ! / / ! ! W ! / / / ! / _ / ! ! ! X./ ! / / / / / O./ X.X.| X.X.O.O.X.O.#.X.|  .X.O.O.O./ / / / ! / / / / / / / / / / ( X./ / X.X.X./ / X./ / / / ! ! / / / ! ! o.o./ ! / X.| X.X./ X.O.O.X.o.X.! | | | ! X.X.! O.O.X.X.O.o.X.O.O.O.( O.O.X.| ! ! ! ! / / / / O.O./ ! ! / / / / / ! / / / / / / / ! ! ! ! / / / / / / / ! ! ! / X.X./ X.X.X./ / ` +.+.' _ _ ! / / / / / X.| | | ! ! | | | ! ! | | | | | | / ! ! | | | ! ! ! ! ! ! ! ! ! ! ! ! ! ! ! | | ! W ! ! W W ! ! ! ! W W W W W ! ! W W W W W W ! ! | ! ! W ! ! W W W W | | | ! ! ! ! ! ! ! ! W ! | | W W W ! W N V , + @ + d ~ ! W W W W ! W W W W _ ;.d a a % @ $ & , + O             O , a & @ .           O , a a + .         O , a + .         $ , a % + $         $ @ + $ $ + + @ .         . O + + % & a d x B B ^ A A A ~ W  .| _ ! | | | | | | | | | | _ ) ( ( O.O.O.#.#.#.+.#.X.O.X.#.#.O.O.#.+.+.+.+.O.$.$.@.#.O.4.4.4.4.4.O.O.4.O.O.4.4.4.4.O.O.@.@.5.8.$.8.8.9.9.e.$.$.8.$.$.8.8.$.5.@.@.+.@.4.4.5.4.O.4.4.7.4.O.O.O.4.4.4.O.4.4.4.4.4.4.4.5.4.4.4.4.5.5.4.4.4.4.4.&.&.4.4.4.7.5.5.9.5.5.7.5.4.4.4.4.5.7.5.4.4.r.4.4.4.7.6.8.5.5.4.4.4.5.5.4.4.5.5.5.5.4.4.4.4.4.4.4.4.4.7.4.4.4.4.4.4.4.4.4.4.4.4.4.4.4.4.5.6.5.4.4.4.4.4.4.8.5.9.9.9.9.9.9.8.9.9.9.9.9.9.9.9.9.9.9.5.7.7.6.6.9.9.9.9.9.9.9.9.9.9.9.9.9.9.9.9.0.f.s.i.>.e.9.9.9.8.8.*.<.*.*.%.%.8.%.$.8.8.8.$.8.8.9.9.9.9.$.$.@.5.5.5.5.5.O.4.5.9.5.4.5.5.8.8.8.$.$.5.9.9.8.8.9.9.9.9.9.9.8.9.9.e.8.$.$.$.8.$.$.8.8.8.8.8.8.%.%.%.$.8.$.$.$.$.$.8.8.$.8.$.$.$.%.$.$.$.$.$.+.%.+.+.+.$.$.@.$.$.$.$.+.+.+.+.%.%.%.....,.,.",
"E E E E E E E E E E E E E E W W E E E E E E E E E E E E E E E E E E E E E W E E E E E E E E E Q Q E ! ! ! ! ! ! ! ! ! ! Q Q W ! / / / ! ! ! / ! ! ! ! ! ! / ( / ! ! / X.X.| | | | X.O.O.O.#.X./ 8.+.#.O.( / / / / ! / / ! ! ! ! ! ! ! ! / O.( / / / / ( / X.! ! X./ ! ! / ( / ! ! / / / / / / / X./ O.O.O.X.o.+.#.X.X.| | X.X.| X.O./ ! X.O.X.O.O.O.X./ ! ! ! ! ! ! ! ! ! / / / / / ! ! ! ! / / / ! ! ! ! ! ! / / / ! ! ! / ( ) ) ) / ! ! ! ! ! ! | ! ! X.O.O.( O.X._ ) ) / | / O./ ! ! | X.! | ! ! ! | ! ! | ! ! ! ! ! ! | ! ! ! | ! ! ! ! ! ! ! ! ! ! ! ! ! ! ! ! ! ! ! ! ! ! W W W W ! ! ! ! ! ! ! W W ! ! | | W W W W W W W W W | | ! ! ! ! ! ! ! ! | | | ! ! ! ! ! ! | | ! ! ! ! W W N d , + + % z ^ ! | W W W W W W ~ ~ d @ X .     X & a & $             O a a a + .           O , a a + .         # a d + .       . @ & a % + @ X .     $ + + $ $ + + $ X         X + + + + O O $ & d B ^ A ^ ~ ! ! / X._ / _ _ ! | | | | | | X.X.( O.O.O.O.+.$.#.+.#.O.O.O.X.o.O.O.@.+.O.4.4.4.5.$.@.4.@.O.O.O.4.4.O.O.O.4.O.O.O.O.O.O.O.4.4.4.5.@.9.9.9.9.9.9.$.8.$.$.8.9.8.8.5.4.4.@.@.4.@.$.+.O.4.4.4.4.O.4.4.4.O.4.4.4.4.4.4.4.4.4.4.4.4.4.4.5.5.4.4.5.4.4.4.4.4.4.7.6.9.5.7.6.7.7.5.4.4.4.4.9.9.8.4.4.7.4.4.4.4.4.5.4.&.4.4.4.6.5.5.9.9.8.$.8.6.4.5.4.4.4.4.4.4.7.4.4.4.4.4.4.4.4.4.4.4.4.4.7.4.4.4.4.4.7.7.4.4.4.6.7.4.9.9.r.6.9.9.9.9.9.9.9.9.9.9.9.9.9.9.9.6.9.9.9.8.9.9.9.9.9.9.9.9.9.9.9.9.9.9.9.9.9.s.i.>.<.9.9.9.9.9.9.9.*.*.*.$.8.$.8.8.8.8.%.+.8.9.9.9.8.$.$.%.+.4.4.4.4.4.4.4.8.5.5.8.9.9.9.9.8.8.8.9.9.9.9.8.9.9.8.8.9.9.8.9.9.9.9.8.$.8.9.9.9.9.8.%.%.%.$.$.$.8.8.8.$.$.$.$.8.$.%.$.$.$.$.$.$.$.$.$.$.$.$.$.$.$.$.@.@.%.%.$.$.#.+.O.+.$.$.%.%.......",
"E E E E E E E E E E E E E E E E E E E E E E E E E E E E E E E E E E E E E E E E E E E E E E Q ! ! Q ! E ! ! Q ! ! ! ! Q Q ` o.| W Q ! W W W W ! ! ! ! ! ! ! ! / / ! / | ! | | ! | X.X.X.O.X.X.+.O.X.O.O.O.X./ / X./ / X.| ! ! ! / / ! ! ! / O./ ! / / X.X.! / / ! ! ! ! / / / / ! / ! ! / / / O./ / O.X.| | | | X.O.O.O.O.O.O.O.O./ ( / O.O.X.O.O.( / / / / / ! ! ! ! / / / / / / / ! ! ! ! / / ! ! ! ! ! ! ! / / ! ! ! ! ! / ( ( / ! ! ! | | ! ! ! ! ! ! / ( O.X.! / O.( / X./ X.! ! ! | X./ ! ! ! | | | | ! ! ! ! | ! ! ! ! ! ! | ! ! ! ! ! ! ! ! ! ! ! ! ! ! ! ! W ! ! ! ! W W W W ! ! ! ! W W ! W W W ! ! W W W W W W W W W W W ! ! W ! ! | ! ! | ! W ! | | | ! ! ! ! | ! ! ! ! ! W W W V a & + + % d B ! W ! W Q ! ^ m p @           O a a , O             O a a a % .           O a a a + .       . < d z +       . O % a a , + $ # $ .   $ + + + + + + + @ O       X + + $ . .   . X O % a m B ~ / ! ! ! | | | | ! ! | | | | | X.O.( O.O.O.O.+.+.#.O.O.O.O.O.O.O.O.#.+.+.#.O.4.O.$.$.+.4.O.O.O.O.4.4.O.O.O.4.O.O.O.O.O.O.4.O.4.@.$.$.8.9.9.9.8.$.8.9.$.$.8.8.8.8.5.4.@.$.@.@.$.$.+.4.4.4.4.O.O.4.4.4.4.4.4.4.4.4.4.4.4.4.4.4.4.4.4.4.4.4.7.6.4.4.4.4.4.4.7.6.9.4.4.7.4.4.4.4.4.4.4.7.7.4.4.4.4.4.4.4.4.7.4.5.5.4.4.4.7.6.5.9.9.9.$.8.5.5.6.4.4.4.4.4.4.4.4.4.4.4.4.4.4.4.4.4.4.4.4.4.4.4.4.4.4.7.6.4.5.4.7.4.4.4.5.7.7.5.5.9.9.w.9.9.9.9.9.6.9.9.6.6.5.9.9.9.9.9.9.9.9.9.9.9.9.9.9.9.9.9.9.9.9.9.e.i.>.e.9.9.9.9.9.9.8.9.9.9.8.8.8.8.8.+.+.%.8.9.9.9.8.$.8.8.$.O.4.4.4.O.4.4.4.4.4.4.$.8.9.9.9.9.8.8.9.8.8.$.$.$.$.$.$.8.*.%.8.9.9.9.9.$.$.8.9.9.9.8.$.%.$.8.9.9.8.8.8.$.$.$.$.$.%.$.$.$.$.$.%.%.%.%.$.$.$.$.$.$.$.$.$.$.%.%.$.$.+.+.+.+.+.$.$.$.%...%.",
"E E E E E E E E E E E E E E E E E E E E E E E ~ E E E E E Q E E E E E E E E E E E E Q Q W W ! ! Q E ! ! ! ! ! | ! W W W Q _ o. .W Q ! W W W ! _ ! ! ! ! ! ! ! / / / / X.! ! ! ! / | | X.O.X.X.o.O.X.O.O.X.O.! ! / ! / / ! / / / / / ! ! ! / / / ! X./ ! W ! X.X.! ! ! ! / / / / ! ! ! ! ! ! / +.X./ O.O.X.X.X./ / O.O.O.O.O.X.O.O.( ( O.O.O./ / / / / / ( ) ( ! ! ! ! ! ! ! ! ! / ! ! ! ! / ( / ! ! ! ! ! ! ! / / ! ! ! ! ! ! / / ! ! | | | | | | ! ! ! / / ( O.X.| ! O.( o.o./ X.! ! ! ! / / ! ! ! | | | ! ! ! ! ! | ! ! ! ! ! | | ! ! ! ! ! ! ! ! ! ! ! ! ! ! ! ! W ! ! ! ! ! ! ! ! ! ! ! ! W W ! W W W ! ! W W W W W ! ! W ! W W W ! ! ! ! | W W W W W W W | | | | | ! ! ! ! ! ! ! W W W N V , + @ X X & z ] ' ~ ~ ~ z & O             $ a d a + .         . % a d d , O           O a d a + .       O 1 s x &       X < a d d & $ . % % O   . O + + + @ + + + @ .     O + + O           . @ + & a m ^ _ _ | | ! | | | | | | | X.o.X.X.+.O.O.O.O.+.+.O.O.O.#.+.O.O.O.X.X.O.+.+.#.O.#.$.+.O.O.O.O.O.O.4.4.4.O.O.4.O.4.4.4.4.4.4.4.4.5.$.$.8.8.8.9.8.$.8.8.$.$.8.$.8.5.$.%.%.$.$.$.$.$.@.4.4.4.4.O.4.4.4.4.4.4.4.4.4.4.4.4.4.4.4.4.4.4.4.4.4.4.4.4.4.4.4.4.O.4.4.4.4.4.5.4.4.4.4.7.7.4.4.4.7.4.4.4.4.4.4.4.4.4.7.7.4.4.4.4.4.9.5.5.8.9.$.5.5.4.4.4.4.4.4.4.4.4.4.4.4.4.4.O.O.O.4.4.4.4.4.4.4.4.4.5.5.5.5.9.9.6.4.4.4.4.4.4.4.4.4.6.9.9.w.5.5.5.6.r.r.r.r.7.5.9.9.9.9.9.9.6.9.9.9.9.9.9.9.9.9.9.9.9.9.9.9.*.0.9.8.8.$.,.>.0.$.8.9.9.9.8.9.8.%.%.%.8.9.9.9.$.@.5.5.6.5.4.4.4.4.4.5.4.4.4.5.@.$.8.9.8.8.9.8.8.8.$.8.$.$.$.$.9.0.>.>.>.>.0.8.9.9.$.%.$.8.9.9.9.8.$.$.$.8.8.8.$.8.$.$.$.$.$.%.$.$.$.$.$.%.$.$.%.$.$.$.$.@.+.$.$.+.$.%.%.$.$.+.#.+.) ) +.+.%.%.%.%.",
"E E E E E E E E E E E E E E E E E E E E E E E E ~ E E E E W Q Q Q Q E E E E E E E Q ! ! ~ ~ Q Q E E ! _ Q ! ! o.| W W W ! ! ! ! ! ! / / ! ! / _ ! ! ! ! / / / / / / O.X.| | ! / X.X.| o.O.X.X.X./ O.O.X.X.X.| ! X./ ! / / / / / / ! ! ! / / ! ! ! | ! Q Q ! / / / / / / / / / / ! ! / ! / ! / +.O./ ( O.O.O.O.O./ / O.O.O.O.X.O.O.( O.O.O.O./ ! / / / / / / / ! ! / / / ! ! / ! ! ! ! ! ! ! / / ! ! ! / / ! ! ! / / ! ! ! ! ! ! / ! | | | | | | | ! / / _ ) ) O.X.| ! X./ / X.X.+./ ! ! ! / / / ! ! | | | ! ! ! ! ! | ! | ! ! | | ! / ! ! ! ! ! ! ! ! ! ! ! ! ! ! ! W ! ! ! ! | | | ! ! ! ! | ! ! ! W W W ! W W N N W W W ! ! W W W W W ! ! ! ! | W W W W W W W W | | | | ! ! ! ! ! W W | W W V & $ O       $ & d z k k a + .           X , x x d % .           & x x x d +         . # d z d & X       O f x x %       X , a d a % . . 1 , @ X     . O + + + + O $ O   . $ + + O           X @ + @ + & z ^ ' ! ! | | | | | | | | X.O.X.X.O.O.O.O.( ( O.O.+.#.#.+.O.O.+.+.O.#.#.%.#.O.+.$.@.#.O.O.O.O.4.4.4.4.O.O.4.O.4.4.4.4.4.4.4.4.+.$.$.$.$.$.8.9.$.$.8.8.$.$.8.5.5.5.8.$.$.8.$.$.@.4.4.4.O.O.4.O.4.4.4.4.4.4.4.4.4.4.4.4.4.4.4.4.4.4.4.4.4.4.4.4.4.4.4.4.4.5.9.4.4.6.6.4.4.4.4.4.4.4.4.4.4.4.4.4.4.4.4.4.4.6.4.4.q.4.4.7.9.8.5.5.@.$.5.9.9.8.4.4.4.4.4.4.4.4.4.4.4.5.O.O.O.4.4.4.4.4.4.4.4.5.9.9.4.5.8.9.6.5.4.4.4.4.4.4.4.6.7.5.9.e.5.4.4.7.6.5.5.7.7.8.5.8.9.w.6.7.6.9.9.9.9.8.9.9.9.8.9.8.8.9.9.9.9.9.9.9.0.,.>.>.8.8.9.9.9.9.8.8.8.$.8.8.8.9.9.9.$.5.5.5.4.5.8.5.4.4.5.8.5.4.5.@.$.$.$.8.8.8.9.8.9.8.$.8.8.8.9.9.9.0.>.>.>.,.0.8.8.8.$.0.$.$.8.9.8.9.8.$.8.9.9.9.0.8.$.$.8.8.+.%.%.%.$.$.$.$.$.$.$.$.$.$.+.+.O.+.+.O.%.%.+.+.%.+.O.) ` ) ) ) O.%.$.%.",
"E E E E E E E E E E E E E E E E ~ E ~ W E E ~ E E E E E E W ~ ~ W ~ W E E E E E E E E ! ! ! Q W W W E ! ! ! ! W W W W W ! ! ! ! ! ! / o.! ! ! ! ! ! ! ! _ ( / O./ / ( ( +./ / O.| | X.+.o.| ! / ! ! X./ | | | | O.X./ / / ( / ! ! ! ! ! ! ! ! ! / ! ! ! / / ( / / O./ / X./ ! ! ! ! O./ ! / / / / / / ( O.O./ / / / / / / O.O.O.O.O.( ( O.X.! ! / X.! ! ! / ( / / / / | ! ! ! ! ! ! ! ! ! ! ! ! ! ! ! ! ! ! ! ! ! ! ! ! ! ! ! ! ! ! ! ! / ( O.O.X.! ! ! / _ _ ! | o.X.| | | | O.) / ! ! | | ! ! | ! ! ! ! ! ! ! | | ! ! ! W | | | ! ! ! ! ! ! ! W W W ! ! ! ! ! ! ! ! ! W W W ! ! ! ! ! ! W W W W W W W W W W W N V m ^ ! ! ! W W W ~ ~ W ! ! ! W W W ! ! ! ! ! ! ! ! ! ! W W ! ! ! W W W ~ ~ V % X           . @ + & & & $             O 1 x x d % X           % x x x d % .         # s x x a $       . , x s $       O , d x d & X . 1 a + . o o     + a & + @ @ @ O O + + + O           . @ + + + + & z ^ ~ _ o.| | ! ! | | | X.X.| | X.O.O.O.O.O.O.O.O.O.#.O.O.#.O.O.O.#.+.%.+.#.%.%.O.O.O.4.O.O.4.4.4.O.O.O.O.4.4.4.4.5.@.#.+.#.+.5.+.%.$.8.9.8.$.$.$.8.8.$.$.8.$.8.9.9.9.9.$.$.5.4.4.O.O.O.+.#.O.4.4.4.4.O.O.4.O.4.O.4.4.4.4.4.4.4.4.4.4.4.4.4.4.4.4.4.4.4.8.4.4.5.9.9.4.4.4.4.7.7.4.7.4.4.4.4.4.4.4.4.4.4.4.4.4.r.6.6.5.@.5.4.@.8.9.9.9.r.4.4.4.4.4.4.4.4.4.4.4.4.4.4.4.O.O.O.O.4.4.5.8.8.5.4.4.@.@.4.5.9.4.7.4.4.4.4.4.6.5.4.5.9.9.5.4.4.5.$.8.9.9.4.4.6.9.6.4.6.9.9.9.9.9.9.9.9.9.9.9.8.8.8.9.9.9.9.9.9.=.>.>.,.0.9.9.9.9.9.$.$.9.9.8.$.$.9.9.9.$.%.+.5.5.$.$.8.8.8.9.9.9.9.6.8.$.$.$.5.@.%.8.9.9.9.9.9.8.9.9.9.9.8.>.>.=.*.e.8.8.8.8.0.0.9.$.8.$.8.8.$.5.8.8.8.8.8.%.$.8.$.$.%.` %.$.$.$.$.$.$.$.$.%.+.O.4.( O.#.O.) %.+.O.+.+.) ) ) +.) ( ( +.$.+.",
"E E E E E E E E E E E E E E E ~ ^ E E E E E E ~ ~ E E E E W W W W W E W W W E E E E Q ! ! Q ! ! W W ! ! ! ! W W W ! W W ! / ! ! ! ! ! ! ! ! / ! ! ! ! ! ! ! / / / / / / ( / / O.X.| X.+.@.| | ! ! / / / | ! ! | O.O.O.O.( / ! ! ! ! ! ! ! ! ! ! ! / X.! ! / / ! / / ! ! ! ! ! ! ! X.( / / / / / / / ( O.O.O.X.X.X./ / / / / ( O.O.O.O./ / X.O./ ! ! ! ! / / ( / / / / ! ! ! ! / / ! ! ! ! ! ! ! ! ! ! ! ! ! ! ! ! ! ! ! ! ! ! ! ! ! ! X./ / / / / ! ! ! ! | | | | X.X.| | | | / ) / ! ! | | ! ! | | ! ! ! ! | ! ! ! ! ! ! | ! | ! ! ! ! ! ! ! W W W W ! ! ! ! ! ! ! ! ! W W W W W W W W W W W W W W W W W W b k a & & i m ~ ! | W W W W E ! ! ! W W W ! ! ! ! ! ! ! ! ! W W W ! ! W W ~ k i l d & X             $ % , a & $             O 1 z z d a +           % x x x d , O         < s B x d $       . f x a O       # f z z x a X . & s % . o o   . $ % , % + + + + + % & + O           . $ + + + + + & d B _ ! ! ! | | o.X.O.X.| | | | O.O.O.O.O.O.O.X.+.O.O.+.#.O.O.O.+.O.#.O.O.%.+.O.O.O.4.O.O.4.O.O.O.O.O.O.4.4.4.4.4.5.#.+.+.5.4.4.+.%.$.$.5.5.$.$.$.8.8.$.@.@.8.9.8.8.8.@.+.+.+.O.O.O.#.@.5.O.O.4.4.4.O.4.4.4.4.4.4.4.4.4.4.4.4.4.4.4.4.4.4.4.4.4.4.4.4.4.4.4.4.4.4.4.4.4.4.7.7.4.4.4.4.4.4.4.4.4.6.4.4.4.4.4.4.4.4.5.5.+.@.5.5.5.5.7.7.4.4.4.4.4.4.4.4.4.4.4.4.4.4.4.4.4.4.4.4.4.4.4.5.4.4.4.4.4.4.5.9.7.4.4.4.4.4.4.4.5.6.5.5.5.4.4.4.5.9.9.9.9.6.6.4.4.4.4.9.9.9.9.9.9.9.9.9.9.9.9.9.8.8.9.9.9.9.9.9.*.>.>.>.*.0.9.9.9.8.$.$.8.8.$.$.$.8.9.8.%.%.$.5.@.$.%.$.@.5.9.4.5.5.4.5.5.@.$.8.%.%.%.8.9.9.9.9.9.0.9.9.9.9.>.>.>.$.8.9.8.8.9.0.0.9.$.$.$.$.$.%.%.%.$.$.$.$.$.$.$.$.$.%.+.%.$.$.$.$.$.$.$.$.$.+.O.( ) ) ) +.` +.$.O.+.+.) ) ) ) O.#.( ) +.) ",
"E E E E E E E E Q E E E E E E E E E E E E E E E ^ W E E Q W ~ ^ W E _ ^ W W W E E E E E E Q ! ! W W W ! ! ! ! ! ! Q E W W Q ! ! ! ! ! ! ! ! ! ! ! ! ! ! ! ! / / / / / / / / / ( ( O.O.O.o.X.| ! ! / / / / ( ( / / ( / O./ ! ! ! ! ! ! ! ! ! ! ! / / / ! ! ! ! ! / ! ! ! ! ! ! ! ! / / / / / / / / ( O.O.O.O./ O.X./ | X.( / ( O.O.O.X.! / ( O./ ! ! ! ! ! ! / / / / / ! ! ! / / / / ! ! ! ! ! ! ! ! ! ! ! ! ! / ! ! ! ! ! ! ! ! ! ! / ( / ! ! ! ! ! ! ! ! X.X.| | | | | | | | / / ! ! ! ! ! ! | | | | ! ! ! ! ! ! ! ! ! ! ! ! ! ! ! ! ! ! W W W W W W W ! ! ! ! ! ! ! ! W W W W W W W W W W W W W W W W W W k p + + + + p l ^ ~ W W W W W W W W W W ! ! ! ! ! ! W W W W W W W W W | | z & @ @ % % X           . % & a a , + O           X & z z x d %           % x x x x a O         < x B x s + .     . , d & O       ; s z x x & . . % s f $ O X . O # + % $ $ + + + , a a % .   . # O     . @ + + + + + % p B  .! ! | o.$.#.X.| | X.X.X.( ) ( +.O.O.O.X.O.O.#.o.X.O.O.O.O.O.O.O.#.+.#.O.O.O.O.O.O.4.O.O.O.O.O.O.4.4.4.4.4.5.O.+.+.5.4.4.@.$.$.$.+.4.$.$.$.$.@.5.4.4.5.$.@.$.+.O.O.#.+.O.O.O.O.@.@.O.O.4.4.4.4.4.4.4.4.4.4.4.4.4.4.4.4.4.4.4.4.4.4.4.4.4.4.4.4.4.4.4.4.4.4.4.4.4.4.7.7.4.4.4.4.4.O.4.4.4.4.4.4.4.4.4.4.4.4.+.4.5.@.5.4.4.4.4.4.4.4.4.4.4.4.4.4.4.4.4.4.4.4.4.4.4.4.4.4.4.4.4.4.4.4.4.4.4.4.8.9.6.4.4.4.4.4.4.4.5.9.8.8.5.4.4.4.5.5.5.4.5.9.9.5.4.6.9.9.9.9.9.9.9.9.9.9.9.9.9.9.8.8.9.9.9.9.9.9.9.0.,.>.<.,.e.9.8.8.$.%.%.$.$.$.$.$.8.8.%.8.8.%.+.8.8.$.5.4.4.4.4.4.4.4.4.5.5.+.+.$.8.8.8.8.8.8.9.0.9.9.9.0.>.>.%.$.9.8.8.9.9.8.8.8.8.%.%.$.$.$.$.$.$.8.$.$.8.$.$.%.$.$.$.$.$.$.$.$.$.$.%.%.$.+.( ) +.) O.( ) +.+.O.O.+.) +.) ) O.#.O.O.O.O.",
"E E E E E E E E Q Q ~ T ] W E E E E E E E E E ~ ~ E E E ! W E E E Q _ ~ ~ W W E E E E E E E Q ! E E E ! ! ! ! ! ! Q W ! ! Q ! ! ! ! ! ! ! ! W W ! ! ! | ! ! ! ! / / / O.O./ / / / / O.O./ ! / X./ / / / / / / / / / ! ! ! ! ! | ! ! ! ! ! ! ! ! ! ! ! ! ! ! Q ! ! ! ! ! ! ! ! ! ! ! ! O./ / ( ( / ( O.O.O.O./ O.O.X.| | O./ O.O.O.O./ ! / / / ! ! ! ! ! / / / ! ! ! ! ! ! ! / / / / / ! ! ! ! ! ! ! ! ! ! ! / / X./ ! / / ! / ! / / / / / ! ! ! ! ! ! ! ! ! ! _ | | | | | | | ! ! ! ! ! ! ! ! | | | | ! ! ! ! ! ! ! ! ! ! / ! ! ! ! ! ! W W W W W W W W ! ! / W ! ! ! W W M M W W W W W W W W W W W W W ! W V % @ O O O $ & i B W W W W W W W W W W W ! ! ! ! ! W W W W W W W W W W W p X   . O + X           O a a a a a , +           X & z z x z & X         % C x B B d +         , C B B s % .     . < a % O     . < s z V x %   . # a d , , < # + + $ O O + % # % a a a % .   O 1 #     . $ @ + + @ @ @ + z ~ | ! ! _ +.o.| | X.O.O.o.+.O.( / O.O.O.#.O.O.X.| X.O.O.O.O.O.O.O.O.O.O.O.O.O.4.O.O.4.O.O.O.O.O.O.4.O.O.4.4.5.O.+.@.5.5.@.@.8.8.@.$.&.$.$.8.$.+.4.4.4.4.4.4.4.O.O.O.O.+.O.O.4.4.+.#.4.4.4.4.4.4.4.4.O.4.O.4.4.4.4.4.4.4.4.4.4.4.4.4.4.4.4.4.4.4.4.4.4.4.4.4.4.4.4.4.7.4.4.4.4.4.4.4.4.4.4.7.4.4.4.4.4.4.4.4.4.O.6.5.4.4.4.4.4.5.5.@.+.4.4.4.4.4.4.4.4.4.4.4.4.4.4.7.4.4.4.4.4.4.4.4.4.O.O.4.9.9.9.5.4.4.4.4.4.4.6.5.8.8.5.4.4.&.5.5.5.4.7.9.9.9.6.5.9.9.9.9.9.9.9.9.9.9.9.9.9.9.8.$.9.9.9.9.e.9.9.9.*.,.>.,.*.*.=.*.8.%.%.%.$.8.$.$.8.8.8.9.8.%.$.9.9.8.5.@.4.4.4.7.4.4.5.5.4.O.$.$.$.%.$.$.%.8.9.9.9.9.9.0.0.$.8.8.9.8.$.9.9.$.$.$.8.$.%.$.$.$.$.$.$.$.$.8.$.$.$.%.$.$.+.+.$.$.+.%.%.%.` +.$.+.( ) +.O.O.O.%.$.+.( +.+.+.+.) ) O.O.+.+.%.%.",
"T T E E E E Q R E E E E E E E M M W E E E Q E E Q E E E E W E Q Q ! ! E E E E E E E E E E Q Q W E E ! ! ! W W Q ! ! ! o.+./ Q ! ! W W ! ! ! Q ! ! ! ! ! | ! ! | | / ( O.X.| | ! ! ! | X./ / / O.( ( ) ( | | | | | ! ! ! ! ! _ / / / ! ! ! ! ! ! ! / ! ! / ! ! ! ! ! ! ! ! ! ! | ! ! ! / ( ( / / / / O.O.( / / ( ( ( ! / ( / X.O./ O./ / X.! ! ! ! ! ! ! ! ! ! ! ! ! ! ! ! ! / / ! ! / / / ! ! ! ! ! ! ! ! ! ! ! ! ! ! ! / ! ! / / | ! ! ! ! ! ! ! ! ! ! ! ! ! ! ! ! ! ! ! ! ! ! ! ! ! ! ! ! / / X.N l m ~ ! ! ! ! ! ! ! ! ! ! ! ! | ! ! ! ! ! ! ! W W ! ! W W W ! ! ~ n u u u p i l n ~ ~ ~ W W W W W ~ ~ W V , + O . X . @ + & m ~ W W W W W ! W W W W W W W W W W W W W W ! ! W N p @ .     . + O   . .   O + d V V x s a , X         O a z V V x a O         % x x B B x +         , C B x s % .     . # # @ O     X 1 d m z x %     X + + + & % + % % O + , a , & a a a a & .   $ , $     X . X @ + $ $ + O , x ~ / | _ | | | | ! | X.O./ / / / X.O.O.O.( #.o.X.+.#.O.O.O.O.O.O.O.O.O.O.O.O.O.O.4.O.+.$.+.O.O.O.4.4.4.O.4.4.+.@.O.O.+.4.4.4.4.@.$.$.$.$.$.@.+.%.+.@.@.5.5.5.O.O.O.O.O.O.O.O.O.4.4.O.O.O.O.O.4.O.O.4.4.O.O.4.4.4.4.4.4.4.4.4.4.4.4.4.4.4.4.4.4.4.4.O.O.4.4.4.4.4.4.4.4.4.4.4.4.4.4.4.4.4.4.4.O.4.4.7.4.4.4.4.4.4.6.8.@.4.4.4.4.4.#.O.O.4.4.O.O.4.4.O.4.4.4.4.O.4.4.4.4.4.4.4.4.4.4.4.4.4.4.4.4.6.4.4.4.4.4.4.r.6.4.4.5.5.4.4.7.7.4.4.7.r.4.4.4.4.7.7.4.4.8.8.9.9.5.5.9.9.0.0.9.9.8.8.9.9.9.*.$.8.e.*.,.,.8.9.9.9.8.8.$.$.$.$.8.$.$.8.8.8.8.5.+.8.5.5.8.8.O.4.4.4.4.4.4.5.8.$.$.$.$.$.8.8.8.8.8.9.9.8.8.8.8.9.9.9.8.8.8.$.8.8.$.$.%.8.9.8.%.%.$.8.8.$.$.+.$.$.$.%.%.%.$.@.$.$.@.#.+.$.$.%.%.$.$.+.) ) ) +.+.%.%.%.$.) ( ( ) ) ` +.O.) ` ` ` ",
"R R T T E E E T E E E E E E E E M M E E E E E E E E E E E E E E E E E E E E E E E Q ! Q E Q W ! ! ! Q ! ! W ! ! ! ! ! ! ! Q Q W ! W W Q ! ! Q W W ! ! ! | ! ! | ! / ( ( O.o.| ! ! ! | ! / / / / / / ( O.| ! ! ! X.! ! / / ! ! ! / / / ! ! ! ! ! Q ! ! / O.! ! ! ! / / / ! ! ! X./ ! ! / ( ( / / / / / / O./ / / / / ! / / ! X./ ! O.X.X.X.X./ ! ! ! / / ! ! ! ! ! ! ! ! ! ! ! ! ! ! ! ! ! ! ! ! ! ! ! ! ! ! ! ! ! ! ! ! ! ! ! / / ! ! | ! ! ! ! ! ! ! ! ! ! ! ! ! / ! ! ! ! ! | ! ! ! ! ! ! / W N d & p n ~ / ! | | ! ! ! ! ! ! ! ! ! ! ! ! ! ! ! ! ! ! ! W W W ! ! N a + + $ @ + + & p p l m B ] ] ^ ^ ^ ~ N d % @ $ $ X @ @ + & d ^ ~ W W W ! W W W W W ! W W W W W ! ! _ ^ m l & $ O O     . # # + $ $ $ @ @ & z z B B V d +         . & z z V V d +       . & z x x B d & .       & x B x s % .     X # # % # .   X < f z z d %       $ + + @ + & f , % , a a % & a a a a , . . $ , O   X .     $ # % + + + 1 J  ./ / / | | X.O.O.X.| X.( ( ( ( O.O.O.O.( +.+.O.O.O.O.O.O.O.O.#.+.#.+.+.#.#.O.O.O.O.$.+.#.O.O.O.O.4.4.4.O.4.4.@.+.#.O.4.4.4.4.@.$.$.$.$.$.O.@.$.%.$.#.#.O.O.O.O.O.O.O.O.O.O.#.@.@.+.O.O.O.4.4.4.4.4.4.+.@.@.@.+.#.O.4.4.4.4.4.4.4.4.4.4.4.4.4.4.4.O.O.4.4.4.4.4.4.4.4.4.4.O.4.4.4.4.4.4.4.O.O.4.4.4.4.4.4.4.4.4.5.5.5.4.4.4.4.4.O.O.O.O.4.4.4.4.4.4.4.4.4.6.5.O.O.4.4.4.4.4.4.4.4.4.4.4.4.4.4.4.4.4.4.4.4.4.4.7.4.4.4.5.5.7.6.7.4.4.4.7.4.4.4.4.4.4.4.4.9.9.9.8.5.4.4.9.9.9.8.9.9.9.9.9.8.8.9.9.9.*.,.,.8.9.9.9.9.9.9.$.$.8.8.9.$.$.8.$.$.$.@.+.+.5.$.8.8.5.4.4.4.4.O.O.@.$.+.$.$.8.8.8.8.$.$.8.9.9.9.%.8.9.9.9.9.9.9.8.8.8.$.,.,.9.9.8.%.%.$.$.$.$.$.$.$.$.%.%.$.$.$.$.$.$.$.+.+.$.$.$.$.$.$.%.+.) %.$.%.$.%.%.%.) ) ) ( ) ` ) ) ) ` ` ` ",
"R R T T T E E E E E E E E E E E E E E E E E E E E E E E E E E E E E E E E E E E E E E E ! Q E E E Q E W ! ! ! ! ! ! ! ! E E E Q ! ! Q Q ! ! Q ! ! ! ! ! ! | ! ! ! ! / / / +.o.| | X.X.X.! / ! ! ! / / / ! ! / X.! ! ! ( / ! ! ! ! / _ ! ! ! ! / ! ! ! ! / ! ! / / ! ! ! ! ! / X./ ! ! / / / ! ! / / ! ! X.X.O.O.X./ / / / / X./ ! X.X.| X.( O.X.! ! ! ! ! ! ! ! ! ! ! ! ! ! ! ! ! ! ! ! ! ! / / ! ! ! ! ! ! ! ! ! ! ! ! ! ! ! / / ! ! ! ! ! ! / / ! ! ! ! ! ! ! / / / ! ! / X.X.! ! ! ! ! / ! W V & @ + p n ' / | ! ! ! ! ! ! ! ! ! ! ! ! ! ! ! ! ! ! ! ! W W W W W V % @ O   . O . O @ + & p p p p p p p p p & + @ @ + $ $ + + @ + d ^ ~ ~ W W W W | W W W W ~ ~ ^ B n l p p + @ O O . .     . + , , % + $ X . O @ % p p a a & X         # d z z l l %         & z x x x x a X       % s B x d & .     $ 1 a a & O     # f z z d %       X @ + @ % a a a a a & + $ , a a a s , .   O & @ X X .   . $ % , & + # 1 J W / X.( X.X.O.O.O.X.| / O.O.O.O.O.O.X.| X.+.+.O.O.O.O.O.O.O.+.+.+.$.$.+.%.+.O.O.O.4.@.O.O.O.O.O.O.4.4.4.O.O.O.+.@.+.O.4.4.4.4.@.$.$.$.$.+.O.+.$.$.+.#.O.O.O.O.O.O.O.O.O.O.O.#.+.+.+.O.O.4.4.4.4.4.4.O.+.$.$.$.8.8.#.O.4.4.4.4.4.4.4.4.4.4.O.4.4.4.4.4.O.4.4.4.4.4.4.4.4.4.4.O.4.4.4.4.4.4.O.O.4.4.4.4.4.4.4.4.4.4.4.@.+.4.4.&.4.4.4.4.4.O.4.4.4.4.4.O.4.4.6.8.@.O.4.5.4.4.4.4.4.4.4.4.4.4.4.4.4.4.4.4.4.4.4.5.4.4.6.9.9.9.9.9.6.4.4.4.4.4.4.4.4.4.4.5.9.9.9.9.8.@.4.4.5.9.9.5.8.9.9.9.9.8.8.9.9.9.,.<.>.,.8.9.9.9.9.9.8.8.8.9.9.8.$.$.$.8.@.@.#.#.@.$.8.9.9.4.4.4.4.O.O.+.@.+.+.@.$.$.8.9.$.$.$.8.9.9.$.8.9.9.8.9.0.9.9.9.9.=.*.%.$.%.%.$.%.$.$.%.%.$.$.$.$.$.$.$.$.$.$.$.$.$.%.%.$.%.%.$.$.$.$.$.$.%.%.%.+.+.+.+.) +.) ) ` ` ` ) ) ) ) ) ",
"E E E E E E ~ ^ ~ T E E E E E E E E E E R E E E E W M M W N W E E E Q E E W W W W E E E E E E E Q W E E ! ! Q ! ! ! ! ! Q E E Q ! ! ! Q / _ ! ! ! ! ! ! ! | ! / ! ! ! / / O.X.! ! / X.| ! ! ! ! ! ! ! ! ! ! / / / / ! / / / ! | | | | ! ! ! ! | ! ! ! / / ! ! / / ! ! ! ! ! / / ! ! ! / / / ! ! / / ! ! | ! | | | | X.O.O.O.O./ ! X.X.! ! / ( X.! ! ! ! ! ! ! ! ! ! ! ! ! ! ! ! ! ! ! ! ! / / / ! ! / / ! ! ! ! | | ! ! ! ! ! / / / ! ! ! ! / O./ ! ! ! | ! ! ! / / / / X./ O.( / ! ! ! ! / / W N d + @ + u ] / | ! ! ! ! ! ! ! ! ! ! ! ! ! W W ! ! ! ! ! W W W W V p $ .           . O @ @ @ @ @ O O X X . O + @ $ X $ . X $ + + @ + a m m ] ^ ^ W W W W W n n l p & + $ . O . . X . . .     O + & , # + X         . . . X $ O .         O a z z z z +         & z x x x x a O     . # f m x x , O   . % f x d a O     O f x x d +         X @ + + , a a a % $ . O , a a a s , X   X % + % O X O @ + + % + @ # f x W / | O.O.O.O.X.X.| X.O.O.O.O.O.( O.X.| | X./ O.O.O.O.X.X.#.+.$.@.$.+.+.$.+.O.O.4.4.O.O.4.4.4.4.O.O.4.4.O.O.4.O.+.+.#.5.4.4.4.@.$.$.$.5.4.4.@.$.+.$.+.O.O.O.O.O.O.O.O.4.O.O.O.O.O.4.4.O.O.O.O.O.O.4.O.#.@.8.*.8.8.+.4.4.4.4.4.4.4.4.4.4.4.4.4.4.4.4.4.O.4.4.4.4.4.4.4.4.4.4.4.4.4.4.4.4.4.O.O.4.4.4.4.+.0.5.4.4.4.+.@.4.4.4.&.4.4.O.4.4.4.4.4.4.4.4.4.4.4.5.@.@.5.5.5.4.4.O.O.4.4.4.4.4.4.4.4.4.4.4.4.7.7.5.@.@.5.9.9.9.6.5.4.4.4.4.4.4.4.4.4.4.4.4.5.8.9.9.9.9.5.4.4.6.9.9.8.$.8.8.8.8.9.8.$.8.9.0.>.>.,.%.8.9.9.9.8.8.9.9.8.9.9.$.$.9.9.5.4.@.+.$.$.+.5.5.4.4.4.4.O.O.O.#.O.4.4.@.%.$.<.,.%.9.8.9.8.$.8.8.5.$.9.9.8.8.$.8.$.,.,.*.8.$.$.%.$.$.$.%.$.$.$.$.$.$.$.$.$.$.$.$.%.%.+.%.%.+.$.%.$.$.$.%.` ` +.O.O.O.O.) %.%.` %.+.` ` ) ) ) ) ",
"M b T T T E ^ ] T T E E E E E E E E E E E E E W W W W W ~ M M E E E E E E W W W E E E Q E E E E E E W ! Q Q Q ! ! W Q Q Q E E W W W W ! Q ! ! ! ! ! ! / ! ! ! ( ( / ! ! ! / ! ! / / / / / ! ! ! ! ! ! ! / / / ! / ! ! ! / / ! ! ! | ! ! ! / ! ! ! ! ! / / ! / / / ! ! ! ! ! ! ! ! / / / / ! ! ! ! / ! ! ! ! ! | | | | X.X.( ( / ! X./ ! ! / / / / / / ! ! ! ! ! ! ! ! ! ! ! W ! ! ! / / ! ! / ! ! ! / / ! ! ! ! / / ! ! ! ! ! / / / ! / / ! / ( / ! ! ! ! ! X./ / / / / / ! / / ! ! ! ! ! / / ! W V & + + & l ~ _ ! ! ! ! ! ! ! ! ! ! ! ! W W W ! ! ! ! ! ! ! W d & $ .               . $ + + + @ X         X + + @ . .     O + + + @ + % % p l n B ^ N l p & + + @ O . .       . .   . .     O % & % + O                                 . % a z m z & X       # s V V x x a $     . # s x x x , O   . + f x z z & .   X 1 Z x a , O       . @ & , a a a % O     O a a a d d % .   . @ + & , % + + + + @ + # 2 I ;...W X./ ( ( ( ( / / O.O.X./ O.O.O.O.O./ / / O.O.O.O.X.X.X.#.%.%.+.O.@.+.#.+.+.@.4.O.O.O.4.4.O.O.5.O.O.+.O.+.@.@.#.O.4.4.O.4.5.$.$.$.O.4.4.5.+.+.#.+.#.O.O.O.O.O.O.O.4.O.+.#.O.O.O.O.4.4.4.O.+.4.4.4.O.4.4.8.9.8.$.#.4.7.O.O.4.4.4.4.4.4.7.4.4.4.O.O.O.O.4.4.4.4.4.4.4.4.4.O.4.4.4.4.4.4.4.4.4.4.4.4.4.4.9.5.4.4.4.O.4.4.4.4.4.4.@.+.4.4.4.4.4.4.O.O.4.4.4.4.4.4.4.5.7.4.O.O.4.4.4.4.4.4.4.4.4.4.4.4.4.5.5.9.8.8.8.5.9.5.4.6.9.4.4.4.4.4.4.4.4.5.9.9.5.4.7.5.4.5.5.9.5.8.9.9.9.8.5.4.@.8.9.8.$.8.9.8.0.0.0.0.8.9.9.9.9.9.8.8.$.$.8.8.8.9.8.$.@.+.+.@.#.O.O.O.4.4.4.4.5.5.O.O.O.O.5.@.%.$.0.0.0.9.9.9.9.9.8.8.8.$.$.$.8.8.8.8.*.%.0.$.$.$.$.$.%.5.+.%.$.$.%.%.$.%.%.$.$.%.%.$.%.+.%.$.$.%.%.+.%.$.%.%.` +.$.+.( O.O.` +.%.$.$.$.` ` ) ) ) ) ",
"v T E E E E ~ E T T E E E E E E E E E E E E E E W W W W W W M E E E E E E E W W E E E E E E E E E E W ! Q E E ! W W Q E E E Q Q ! ! W ! ! ! ! / ! ! ! ! ! ! ! / / / ! | X.X.! / / ! ! ! ! ! ! ! ! ! ! ! / / ! ! ! ! ! ! ! ! ! ! ! ! / / / / ! ! ! | W Q W ! ! ! ! ! X.! ! ! ! ! ! / / / ! ! | | | | ! ! ! / / / / / | | / / / / / | / / / / / / / / / / ! ! ! ! ! ! ! ! ! ! ! ! ! ! / ! ! ! ! ! ! ! ! ! ! ! ! ! / ! ! ! ! ! ! / / ! ! / / ! ! / / ! ! ! ! ! / / / / ! ! ! ! ! ! ! ! ! ! ! ! / ! W N a + + + p m ~ ! ! ! ! ! ! ! ! ! Q Q W W W W ! ! ! W ~ n l p % @ $ $ O             . $ + + + + X         . O + + .       . X O O O . . . O + & & d & @ . .   . .   O $                     O + & + + O .                                 . X % a a , X     . + d z V x x d $     O % s x V x a + .   $ f z m z a + O O % a d x d , + X . O % , a a a % $ .     O a a a a a +     . @ + + % + + + + + + # - < f x N | | X.( / ( ) / / ( O.X.X.O.O.O.O.O.( / ( O.O.O.O.X.O.#.@.%.+.+.O.@.+.+.$.$.$.@.+.O.O.O.4.4.O.4.O.#.+.O.O.#.O.4.O.4.4.O.4.@.@.@.$.#.O.4.4.O.O.#.+.#.O.O.O.O.O.O.O.4.O.+.#.O.O.O.O.4.O.O.O.+.4.4.4.O.4.4.9.9.8.+.O.4.4.O.4.4.O.4.4.4.4.6.4.4.4.O.O.O.O.4.4.4.4.4.4.4.4.4.O.4.4.4.4.4.4.4.O.4.4.4.4.4.4.O.4.4.4.O.4.4.4.4.4.4.4.@.@.4.4.4.4.4.4.O.O.4.4.4.4.4.4.4.4.4.4.O.4.4.4.4.4.4.4.4.4.4.4.4.4.4.4.4.5.5.8.8.8.9.5.4.9.9.5.@.@.@.@.4.7.4.4.5.5.4.4.4.4.4.4.4.5.$.$.8.$.$.$.@.5.8.8.8.8.$.8.9.9.9.9.9.9.9.9.9.9.9.9.$.$.$.$.8.9.8.$.$.%.+.O.+.4.4.O.O.O.4.4.4.4.+.@.O.O.O.4.4.$.%.$.8.8.0.g.0.0.0.8.$.8.8.$.%.$.$.9.9.9.,.,.,.*.$.$.$.$.%.8.+.%.$.$.%.%.$.$.$.$.$.%.%.$.%.$.$.$.$.$.$.$.$.$.%.%.%.$.$.%.O.) ( ) ` ` +.%.$.%.` ) ) ) ) ",
"T E E E ~ E E E T T E E ~ ~ E M M E E E E E E E E W W W M E E E E W W E E E W W E E E E E E E E Q W W Q E E W ! E W W ! ! W Q W ! ! W W ! ! / _ ! ! | ! ! ! ! ! ! ! / / X.! ! ! ! ! ! ! ! ! ! / o.| ! ! ! ! ! ! ! ! ! ! ! ! ! ! ! ! / / / ! ! ! ! W | W W ! ! ! ! / X.! ! ! ! ! ! / ( / ! ! ! ! ! ! ! ! / / / / / / X./ ! ! / ( / ! / / / / / ! / ! / / ! ! ! ! ! ! ! ! ! ! ! ! ! ! ! ! ! ! ! / ! ! ! ! ! ! ! ! ! ! / / ! ! ! ! ! ! ! ! ! ! ! ! ! ! ! ! ! ! ! ! ! ! ! ! | | | | | ! ! ! | ! / / ! W V a % @ + p n ~ ! ! ! ! ! ! ! ! ! ! ! W W _ ~ B l l & + O . . $ + + $ .             O + + + $ .           O + + .                           O + @ O               . .                     . @ + + $ O O O .                                 . X $ $ O .   . @ d z V V x s % .   O & s B B z d & O X # , x m z x a % @ + % d z x V s a a a a a & a a , % .     O , d d a a +     . @ + + + % & + @ + + # # , d x  .| _ +.X.! / / / / / ( O.O.O.O.X.X.X.X./ ( O.O.O.O.O.O.O.#.+.$.@.4.#.$.$.$.$.$.$.$.@.O.O.4.4.O.O.O.O.O.#.O.O.O.4.4.4.4.O.4.4.4.5.@.O.O.O.O.O.+.O.O.O.O.O.O.O.O.O.O.O.O.O.O.O.O.O.O.O.O.O.+.$.@.+.+.+.O.4.7.5.O.4.4.4.4.#.4.4.O.4.4.4.4.5.4.4.O.4.4.4.4.4.4.4.4.4.4.4.4.4.O.4.4.4.4.4.4.4.O.4.4.4.O.O.4.O.4.O.4.O.4.4.O.4.4.4.4.4.O.4.4.4.4.O.O.4.4.4.4.4.4.4.4.4.4.4.4.4.4.5.@.4.4.4.4.4.4.4.4.4.4.4.4.4.4.4.@.$.9.9.6.4.6.9.8.@.8.$.@.4.4.4.4.4.4.4.4.4.4.4.4.4.5.8.9.8.$.%.%.$.8.8.8.$.$.%.8.9.9.9.9.9.9.9.9.9.9.9.9.,.%.8.9.9.9.$.%.+.+.4.4.4.4.4.O.O.O.O.4.4.4.O.@.#.O.O.O.4.4.@.%.$.$.$.0.0.0.0.$.%.%.8.$.%.%.$.8.9.,.>.>.>.>.%.$.$.@.5.4.#.$.$.$.%.%.$.%.$.$.$.$.%.%.$.%.%.%.$.$.%.%.%.%.%.%.$.%.+.+.) +.+.` ` ` ` %.$.$.%.) ) ) ) ",
"R Q E M M E E Q R T E E W W M b b E E E E E E E E W W W M E E E E W W E E E W W E E E E E Q E Q ! ! W E E ! W W E ! W ! ! ! W ! ! ! W W ! ! ! ! ! ! ! ! ! | | | ! ! ! / / ! W ! ! ! ! ! ! ! ! ! X.! ! ! W ! ! / ! ! ! ! ! ! / ( / ! ! ! ! ! ! ! ! ! ! ! ! ! ! ! ! / / ! W ! ! ! ! ( O.X.| ! ! ! ! ! / / / / / / / X./ / | | / ( O.| ! ! ! ! ! ! ! Q ! / ! ! ! ! ! ! Q ! ! / / / ! ! ! ! ! ! ! ! ! ! ! ! ! ! ! ! ! ! / ( / ! ! ! ! ! ! ! ! ! ! ! ! ! ! ! ! | | | | | | ! ! | | | | / ! | | W ! / / ! W V a & + % u m ^ ! ! ! W ! ! ! W Q Q ! ~ n l p + O .         O + + + O             X + + + $             O + + .                           O @ $           . .                             O + @ X . O @ .                                         . .   . @ a x V V V V , $ X O a x m x m z , + $ # , z m z V d a % @ % a z z V V V l & + O O & d d , O     . % d d d a +     . $ + + & a a & + + % & a x B N W | X.+.X.! ! _ / / / / ( O.O.X.| | | | X.( O.O.O.O.O.O.#.O.+.%.%.+.#.+.$.$.$.$.$.$.5.4.4.4.4.O.O.O.O.O.O.O.O.O.O.4.+.@.O.O.4.4.4.4.O.O.O.O.( O.O.O.O.O.O.O.O.O.O.O.O.O.O.O.O.O.4.4.O.O.O.+.+.$.#.+.5.O.O.4.4.4.4.4.4.4.#.#.4.4.4.4.4.7.4.4.O.O.4.4.4.4.4.4.4.4.4.4.4.4.4.O.4.4.4.4.4.4.4.5.4.4.4.4.4.O.O.4.O.4.O.O.+.4.O.O.4.4.4.4.4.4.4.O.O.O.4.4.4.4.4.4.4.4.4.4.4.4.4.4.5.+.4.4.4.4.4.4.4.4.4.4.4.4.5.5.6.$.$.9.9.6.4.6.9.6.4.5.5.4.4.4.4.4.4.4.4.4.4.4.4.O.4.5.8.8.8.8.$.8.8.8.$.$.8.9.$.%.8.9.9.9.9.*.8.9.9.9.9.0.>.,.0.9.9.8.%.%.4.4.4.4.4.4.4.O.O.4.4.O.O.O.O.@.+.#.+.O.4.4.9.8.$.$.$.$.8.8.$.%.%.%.$.%.%.%.$.8.8.,.>.>.>.>.>.,.$.+.4.4.+.$.$.$.%.%.$.%.$.$.$.$.%.%.$.$.$.$.$.%.%.%.%.%.$.$.$.$.+.+.+.+.%.%.+.` ` +.) +.$.+.( ( ) ",
"R R T T T E E R ] T E E E E E T T T E E E E E E E W W M M E E E W E E E E E W E E E E E E E E ! ! ! E E Q ! W W Q Q W ! Q W E Q ! ! ! ! ! ! ! ! ! ! ! ! ! | X./ / / / / ! ! | ! ! / ! ! ! ! ! / / ! ! W W ! ! / ! ! ! ! ! ! ! / / ! ! ! W W ! ! W ! Q ! ! ! ! ! ! ! / ! / ! ! ! / ( ( ( / / / / / X.X./ / ( / ! ! X.X.X.| ! / / / ! ! ! ! ! | ! ! Q Q / ! ! / ! ! ! ! W W / / / ! ! ! ! ! ! ! ! ! ! ! ! Q ! ! ! ! ! / / ! / / / ! ! ! / / ! ! / / / X./ ! ! ! ! X.X.X.! ! | | | ! X.| | | ! ! / ! ! |  .V d , % & p m ~ Q W W ! ! W E c u i p & + + O             O + + @ .             X + + + $             X + + .                             . X           O . .             X             . X . O @ $ @ .       . .                                     X + a J m z V B d & @ + a x z z B B d & @ + a z m z V z z d & & a z l V l d % X     X & l k a +       $ d l l a + .     O + & a a a & & a a V N  .| ! _ ! ! / X.| | / / / O.X.( ( X.| / X.X.X.O.O.O.( O.O.O.O.+.+.$.+.$.%.+.+.@.+.$.$.@.+.O.O.4.O.O.O.O.4.4.O.4.O.O.O.O.O.+.@.4.4.O.O.O.O.O.O.O.O.O.#.#.( O.O.O.O.O.O.O.O.4.4.O.O.O.O.O.O.O.O.O.O.4.#.O.4.@.5.4.O.4.4.4.4.4.4.O.O.4.4.4.4.4.4.4.4.O.O.4.4.O.4.4.4.O.4.O.O.4.4.4.4.4.4.4.O.4.4.4.4.4.4.4.5.5.4.4.4.4.4.4.4.4.4.4.4.4.4.O.4.4.4.4.4.O.4.4.4.O.O.O.O.O.4.4.4.4.O.4.4.+.$.+.4.4.4.4.4.4.4.4.4.4.5.5.5.9.8.9.9.9.6.4.7.7.4.4.4.4.4.4.4.4.4.@.@.4.4.@.5.4.4.@.@.$.8.8.=.=.$.8.9.8.8.5.8.8.8.8.9.8.$.$.$.8.9.9.8.8.0.0.$.0.0.0.0.8.$.4.4.O.4.4.4.O.O.O.O.O.4.4.O.4.4.4.+.+.O.O.4.5.$.$.8.8.$.$.$.$.%.$.$.5.@.+.$.%.$.$.%.,.>.>.>.>.,.$.+.O.4.O.#.#.+.+.%.%.$.) +.%.%.%.$.$.8.8.$.%.%.%.%.%...%.%.%.%.%.$.%.%.%.%.+.` ) ) ) ) O.+.( ( ( ",
"T T T R T T E E ^ ~ M E W E E T T E E E E E E E E E W W M E E E E E E E E E E E E E E E E W Q ! ! ! E Q ! Q E E E Q / ! E E E E ! ! ! ! ! ! ! ! ! ! ! ! ! ! X./ / ( O./ ! | | / / / ! ! ! ! ! / / ! ! W ! ! ! ! ! ! ! ! ! ! ! ! ! ! ! ! W ! ! ! ! ! ! ! ! ! ! ! ! ! ! ! ! ! ! ! / ( ( / / / ( O./ ! ! ! ! / / / / / | | ! ! / / / ! ! ! ! ! | ! ! Q ! ! ! ! / ! ! ! ! W ! ! ! / / ! ! ! ! ! ! ! ! ! ! ! ! ! ! ! ! ! ! ! ! ! / / / ! / / / ! ! ! ! / O./ ! ! ! ! ! / / ! ! ! ! ! ! | | | | ! ! ! ! ! | W N V a % @ + p m ~ W W W b k & % O O @ @ @ @ X             O + + $               X + + + $             . $ + .                                           O .           . . $ O .               O @ @ @ @ O X O @ $ O                           . . . . O + % & & & p d B s a & a d x x d a a , + + a z l V V d p & % + a z V V z d @       X a l k d %       . & d a a & O . . $ % a a a a a d V N W W | ! ! ! ! | / ! | | | ! / O.O.) ( / ! / ( O.O.O.O.O.( O.O.O.O.+.$.$.$.$.$.$.$.$.@.$.+.O.O.O.O.O.O.O.O.4.4.O.O.O.O.O.O.#.+.$.@.4.O.4.O.#.+.O.O.O.O.O.O.O.O.O.O.O.O.O.O.O.O.4.4.O.O.O.4.O.O.O.O.O.O.4.O.4.4.O.O.4.7.4.4.4.4.4.4.O.O.O.O.4.4.4.4.4.4.4.O.4.4.4.4.4.4.O.4.O.O.O.4.4.4.4.4.4.4.O.4.4.4.4.4.4.5.5.4.4.4.4.4.4.O.4.4.4.4.4.4.4.O.4.4.4.4.4.4.4.O.O.O.O.O.O.4.4.4.4.O.O.5.5.@.4.4.4.4.4.4.4.4.4.4.4.4.4.6.9.9.9.9.5.4.4.5.5.4.4.4.4.5.5.4.4.4.@.@.4.4.@.@.4.4.@.$.$.8.$.$.8.0.9.9.9.8.@.$.$.$.8.8.$.$.%.8.8.<.0.$.$.8.9.8.8.9.0.0.8.$.O.4.4.4.4.4.O.O.O.O.O.4.4.4.4.4.O.#.O.O.O.4.@.$.$.8.8.8.9.8.8.$.$.$.@.$.$.$.%.%.$.$.%.%.%.%.*.%.$.#.O.O.O.O.O.O.) %.%.%.) ) ) ) %.%.%.%.%.............,.%.%.%.%...%.` +.%.` ` ) ) ) ) ) ) ) ( ) ( ",
"E E T T E E E ~ ~ E E E W E E E E E b b E E E E E E W E E E E E Q Q E E E E E E E E E E E W E Q ! ! E ! ! E ! X.E Q ! W E E E E ! ! ! ! ! ! ! ! ! ! ! ! ! ! ! ! ! / X.| ! ! ! X./ ! ! ! ! ! ! ! ! ! ! Q ! ! ! ! ! ! ! ! ! ! ! ! ! ! ! ! Q ! ! ! ! ! ! ! ! ! ! ! ! ! ! ! ! ! ! ! / ( / / / / / / X./ ! ! / / / O.O.! | | ! ! / ( / ! ! ! ! ! ! ! ! ! ! ! ! ! ! ! ! ! ! ! ! ! ! / ! ! ! ! ! ! ! ! ! ! ! ! ! ! ! ! ! ! ! ! ! ! ! / / ! ! / ! ! ! ! ! ! ! ! ! | ! ! / ! ! ! ! W ! ! ! ! ! ! ! ! ! ! ! ! ! ! W V a % @ + + p l ~ W V p @ .       O + + O               O + + $               X + + + $               O + .                   O . O O O X           X @ $ .         O @ + @ .             . O $ + + + @ @ + + + @ O O                     . @ @ @ X X X O O X O @ % d B N V d a p a % + + + @ # , z z V d % O O . O a z z z z a +       X , d k d & X       O & a a a & % + + % a a d d V V N W W ! ! ! / / / ! / / ! ! ! ! / ( O./ / / / / / O.O.O.O.O.O.O.O.O.+.$.$.$.$.$.$.%.%.$.$.@.O.O.+.4.O.O.O.O.4.4.O.O.O.O.O.O.O.+.$.+.+.O.O.O.O.+.@.O.O.O.O.O.O.O.O.O.O.O.O.+.+.+.#.#.O.O.O.4.O.O.O.O.O.O.O.4.4.4.O.#.#.O.4.4.4.4.4.4.4.4.O.O.O.4.4.4.4.4.4.4.4.4.4.4.4.4.4.4.4.O.O.O.4.4.4.4.4.4.4.4.4.4.4.4.4.4.4.4.4.4.4.4.4.4.O.O.4.4.4.4.4.4.O.4.4.4.4.4.4.O.O.O.4.4.4.4.4.4.4.5.@.@.@.5.4.4.4.4.4.4.4.4.4.4.4.4.4.6.9.9.9.9.9.4.7.7.9.9.9.4.4.4.5.5.4.4.4.4.4.4.4.@.$.$.8.5.@.$.$.$.8.9.9.9.9.8.$.$.8.8.8.8.8.9.9.*.0.9.8.0.$.$.8.9.0.8.$.$.$.$.$.O.O.4.4.4.4.O.O.O.O.O.O.O.O.O.O.O.O.O.O.O.O.#.+.+.$.$.$.$.@.@.$.$.$.$.$.$.$.$.%.$.*.8.$.$.$.8.$.$.#.O.O.O.O.O.#.%.%.+.+.+.+.+.+.%.%.%.$.%.............,.,...%.$.$.%.` ` ` ) ) ) ) ) ) ) ) _ / ) ) ",
"E E E T E E E E E E T T b T E E E E E E E E E E E E E E E E E E Q W W W M E E E E E E E W W E E E ! E Q Q W X.| W E Q E E E E E ! ! Q ! ! ! ! ! _ _ ! ! ! ! ! ! ! ! ! | | ! ! / / ! ! ! ! ! ! ! ! ! ! ! ! ! ! ! ! ! ! ! ! ! ! ! ! ! ! ! Q Q ! ! ! ! ! ! ! ! ! ! ! ! ! ! ! ! ! ! / ( / / / / / / X.X.| ! O.O./ / / / ! ! ! ! / / / ! ! ! ! ! ! ! ! ! ! ! ! ! ! ! / / ! ! ! ! ! ! ! ! ! ! ! ! ! ! ! ! ! ! ! ! ! ! ! ! / ! ! ! ! ! ! ! ! ! ! ! ! ! / ! ! ! X.| ! / ( / / / ! W ! ! / ! ! ! ! ! ! ! ! ! ! / W N a % $ O O $ & i l d % .       . @ @ + O               O + + @ .             X @ + + $             X @ + .                 . @ @ + + + @ O O X   . $ + + O         X @ + $ .             X @ + + + + + + + + + + + @ X           . . .   . O $ O               . O + p z B A x a % @ O O $ $ + , x z z d + X     X & z z z z d % .     X a d k l , @ .     . % a a a d d a a a d x N N W W ! ! ! ! ! ! X.O.O./ _ ' ! ! ! ! ! / / ! ! / ( ( ( ( ) / O.( O.O.O.#.+.$.$.$.$.$.$.%.$.%.+.O.O.O.O.4.4.+.#.O.4.4.O.O.O.O.O.O.O.#.#.O.+.O.O.O.O.+.+.O.O.O.O.O.O.O.O.O.O.O.O.#.+.+.+.+.O.O.O.O.O.O.O.O.O.O.O.4.4.O.O.4.O.O.4.4.4.O.O.O.O.O.O.O.O.4.4.4.4.4.4.4.4.O.4.4.4.4.4.4.4.O.O.O.4.4.4.4.4.4.4.O.4.4.O.O.#.+.O.O.4.4.4.O.4.4.4.O.4.4.4.4.4.4.4.4.4.4.4.O.O.O.#.4.4.4.4.4.4.4.4.5.5.5.4.4.4.4.4.4.4.4.4.4.4.4.4.4.4.9.9.8.9.9.4.7.7.4.4.6.9.6.6.4.4.4.4.4.4.4.4.4.O.O.@.%.%.8.$.$.$.+.5.9.9.8.$.$.5.5.9.8.8.8.8.9.8.=.*.8.$.$.%.$.%.8.8.$.$.$.+.+.8.9.5.O.O.O.O.O.O.O.O.O.O.O.O.O.4.O.4.( ( 4.O.( O.+.$.$.$.+.O.O.+.$.$.$.0.g.8.$.%.%.0.9.8.$.%.$.+.+.O.) ( O.O.O.#.+.+.) ) O.+.+.+.+.$.$.......,...............%.$.$.$.%.+.` ) ) ) ) ) ) ) ` ` ` ) ` ",
"T T T E E E E E W T T b b b E E E T E E T E E E E E E E E M M E E W E W M W E E Q W Q E E E E E Q Q E E E W W E E E E E E E E E Q ! Q ! ! ! / / _ _ ! ! ! ! ! ! ! ! ! ! ! ! ! / / / / / / ! ! ! ! ! ! / ! ! ! W ! ! ! ! / ! ! ! ! ! ! ! ! ! ! ! ! ! ! ! ! ! ! ! ! ! ! ! ! ! ! ! / / ( / / / / / ! / X.X.O.X./ ! ! / | ! ! / / ! ! ! ! ! ! ! ! ! ! ! ! ! ! ! ! ! / / ! / ! ! ! / ! ! ! ! ! ! ! ! ! ! ! ! / / ! ! ! / / ! / ! ! ! ! / / / / ! ! ! / ! ! ! X.| ! / / / / / ! ! ! ! / ! ! ! ! ! ! ! ! ! ! / W N a % X     . @ & & % @ .       X + & + O               O + + @ X             X + + + $ .           X + + .                   X O O $ O O $ + @ O $ + % + $ X       O + + $ . . O X       . $ + + + + + + + + + + + + $ .         $ @ @ O .   .               X . . $ $ & d N ~ V , $ X X $ $ @ % d z z z & $ X   . % d z z l d & O     X & d l l a % O       O % a d z z V V N N N W W / / ! / ! ! ! | X./ / / / ) / ! ! ! ! ! / / / ( O./ / ( ( / / / O.X.X.O.+.+.+.+.5.@.$.$.$.$.+.+.@.@.#.O.O.+.O.4.5.5.+.+.O.O.O.O.4.O.#.O.#.O.O.O.O.O.O.O.O.O.O.( ( ( ( O.O.O.O.O.O.#.+.+.O.O.O.O.O.O.O.4.O.O.4.4.4.O.O.O.O.O.4.5.5.O.O.4.4.O.4.4.4.4.4.4.4.4.4.4.4.O.4.4.4.4.4.4.4.O.#.O.4.4.O.4.4.4.4.4.4.4.4.4.4.4.4.O.4.4.4.O.4.4.4.4.4.4.4.4.4.O.O.4.4.4.O.#.O.O.+.O.4.4.4.4.4.4.4.4.O.O.4.4.O.O.O.4.4.4.4.4.4.4.4.4.7.8.9.$.8.9.6.6.6.5.+.5.8.5.8.8.4.5.O.+.5.O.4.O.+.+.4.+.@.5.5.@.+.4.4.4.5.5.@.@.4.5.5.+.%.$.$.$.8.8.9.8.$.%.%.%.%.*.$.%.%.%.+.@.@.5.5.O.O.O.O.O.O.O.O.O.O.O.O.O.4.O.4.4.O.5.+.O.O.O.@.@.%.$.5.4.+.$.$.$.0.0.$.$.$.$.$.$.5.O.+.5.( O.O.( O.#.+.+.O.+.+.) +.O.) ( +.+.$.%...;.,.>.,.,.>.,.,.....%.%.$.%.$.+.+.) ) ) ) ) ` ) ) ) ) _ ) ",
"E E E E E E E T M E Q ^ ~ M M E E T E E E E E E E E E E M M M E E E E E E E E E Q ! ! E E E E E E E E E E E E E E E E E E E E E E Q ! ! ! ! / / ! ! ! ! ! ! ! ! ! ! ! ! ! ! ! / / ( / ! ! ! ! ! ! ! ! ! ! ! ! ! ! ! ! ! ! ! ! ! ! ! ! ! / / ! ! ! ! ! ! ! ! ! ! ! ! ! ! ! ! ! ! / / / / / / ! ! ! ! / X./ ! / ! ! | | | ! ! ! ! ! ! ! ! ! ! ! ! Q ! ! ! ! ! ! ! ! ! ! ! ! ! ! ! ! ! ! ! ! ! ! ! ! ! ! ! / ! ! ! ! ! ! ! / ! ! ! ! / / / / ! ! ! ! ! ! ! | ! ! ! ! ! ! ! ! ! ! ! ! ! ! ! ! ! ! ! ! ! ! / W N a % O     O + @ @ @ O         O % a & O               O % & + O             X + + & % X           X + + .                 X       O O   X @ @ + + + % + + $ .     O + + + $ # , .       . @ + + + + + + + + + + + + @ .         O @ + + O . .           X . . X O X O @ % z .. .s + @ O $ @ @ % a z V V d & & $ O & d V V V k a + O   X % & p d a a & % + % % , d V B B N W W W ! ! ! ! ! ! ! | | ! ! ! / / / / / / ! ! ! ! / / / O.O.O.! X.( ( O.X./ O.O.O.O.O.O.O.O.4.5.$.$.$.$.$.$.+.+.O.O.O.O.4.4.+.%.%.$.#.O.O.#.#.O.#.O.O.O.O.4.O.O.O.O.O.O.O.( ( ( ( O.O.O.O.O.O.O.+.+.O.O.O.O.O.O.O.O.O.O.O.O.O.O.O.#.O.O.4.9.5.4.4.4.4.4.4.4.4.4.4.4.4.4.4.4.4.O.O.4.O.4.O.O.4.O.5.4.O.O.O.4.4.4.4.4.4.4.4.4.4.4.4.4.4.4.4.4.4.4.4.4.4.4.4.4.4.4.4.4.4.4.4.O.O.O.O.O.O.O.O.O.4.4.O.O.O.O.O.O.O.O.O.O.4.4.4.4.4.4.4.4.7.7.5.$.8.9.6.9.9.8.%.$.@.5.$.$.+.5.+.@.+.O.4.O.+.O.4.4.4.4.4.4.4.4.4.4.$.+.+.+.+.@.5.+.$.$.$.$.$.$.$.8.8.,.,.,.>.>.$.8.$.%.+.$.5.4.O.O.4.4.4.O.O.O.O.O.O.O.#.#.O.O.O.4.O.#.+.O.O.O.O.@.%.$.@.4.+.$.$.$.%.%.%.$.$.$.$.+.O.O.O.O.) +.+.O.O.#.$.+.#.$.%.+.+.` ) O.%.+.%.....;.,.>.>.>.>.,.>.,.%.%.......$.+.O.) ) ` ` ` ' _ / ( ( / ( ",
"E T T E T T T b b E ~ ^ ~ M M E E E E E E E E E E E E E E E E E E E E E E E E E E Q Q E E Q Q E E E E Q ! E W | | W E E E E E Q E Q ! ! ! ! / / / ! ! ! ! ! ! ! ! ! ! ! ! ! ! / / / X.! Q ! ! ! ! ! ! ! ! ! ! ! ! ! ! E E ! / ! ! ! ! ! ! ! ! ! ! ! ! ! ! Q ! ! ! ! ! ! ! ! ! / ( / ! ! ! ! ! ! / / / / ! / / / ! ! | ! ! ! ! ! ! ! ! ! ! ! ! Q ! ! ! ! ! ! ! ! ! ! ! ! ! ! ! ! ! ! ! ! ! ! ! ! ! ! ! ! ! ! ! ! ! ! ! ! ! ! ! ! ! ! ! ! ! ! ! ! ! ! ! ! ! ! ! ! ! | ! ! ! ! ! ! | ! ! ! ! ! ! ! ! / / ! W V a & + O . $ + & % @ X         . % a & $ .             O % , + O             . % a a & X           X + $ .                 .       O + $ X . O + + + & + % + @ $ O @ + + + + # # .       X @ + + + + + + + + + + + + @ X         X @ + @ $ O $ O X X .   X O O @ + @ @ + + & C ^ A a % @ + % & a x x N  .A x x s d V N N N N V d + O     $ + & d z V V V V V V N N N ~ ~ W ! ! W ! ! ! ! ! ! ! | | ! ! / / ( ( ( / ! ! ! ! ! / / ! / O.O.X.O.O.) O.O.( / O.O.O.O.O.O.O.4.5.$.$.$.$.$.$.#.O.O.O.O.O.4.4.@.$.$.+.O.O.@.+.O.O.O.O.O.O.O.O.O.O.O.O.O.O.O.O.O.O.O.O.O.O.4.4.O.O.+.+.O.O.O.O.O.O.O.O.O.O.O.O.O.O.O.#.O.4.4.5.5.4.O.O.4.4.4.4.4.O.4.4.4.4.O.4.4.O.O.O.4.4.4.4.O.4.4.4.4.O.4.O.4.4.4.4.4.4.O.O.O.O.O.O.O.O.O.4.4.4.O.O.4.4.4.4.O.O.4.4.4.4.4.O.O.O.O.4.O.O.4.O.O.4.O.4.4.O.O.4.4.4.4.4.4.4.4.4.4.4.4.4.7.4.4.8.9.9.4.5.9.9.8.$.@.9.$.+.8.5.O.4.4.4.4.@.$.#.4.4.O.4.4.4.4.4.#.@.$.+.#.+.+.$.$.$.$.$.$.$.$.%.$.8.9.0.<.,.,.<.8.9.8.$.$.$.@.4.4.O.4.4.4.O.O.O.O.O.O.O.O.O.O.O.O.4.O.O.O.( O.O.O.O.O.+.O.+.$.%.%.%.%.%.%.$.+.#.O.O.O.+.O.) +.+.%.+.+.O.+.+.O.%.%.+.+.` ' %.+.` %.......,.,.,.,.>.>.,.%.$.$.$.....+.) ) O.%.+.` ` ' _ ) ) ) _ ) ",
"R R R R Q E E M E T E E M M E E E E E E W E E E E W E E R E E E E Q E E E E E E E E E E E Q E E E E E Q W E W W W W E E E E E E E Q ! ! ! ! / X.X./ _ ! ! ! ! ! ! ! ! / ! ! ! / ! ! W Q Q ! / ! W ! ! ! W ! ! ! ! ! Q Q Q ! ! ! ! ! ! ! ! ! ! ! / ! ! ! ! Q Q ! ! ! ! ! ! ! ! / ( / ! ! ! ! ! ! / / O./ ! / / ! ! | ! ! ! ! ! ! ! ! ! ! ! / / ! ! ! / / ! ! ! ! ! ! ! ! ! ! ! ! ! ! ! ! ! Q / / ! ! ! ! ! ! ! ! ! ! ! ! ! ! ! ! ! ! ! ! ! ! ! ! ! ! ! | ! ! ! ! ! | ! ! ! ! ! ! | ! ! ! | | ! ! ! / ! W N a & + + @ $ + & d a , + X       X + , & + O             O % a % O             . % a a , $           . X .                     .     . $ + $     X @ + + % p + @ + + + + + + + + + $ .     $ + + + + + + + @ + + + + + @ O         $ + + + + + + + + + $ O X O O + + + @ + @ + x ^  .A x d d x x A A  .| | | | W  . .| W W W W V a % % % % & a s V N N M M W W W W W W ~ ! / _ _ ! ! ! W W ! ! / | | ! ! / / / / / ! ! ! | | ! / / / O.O.O.( O.( ) O.O.O.( O.O.O.O.O.O.O.4.5.$.$.$.$.$.$.+.O.O.+.O.O.4.4.@.$.$.+.#.+.$.$.+.4.4.O.O.O.O.O.O.O.O.O.O.O.O.O.O.O.O.O.O.O.O.O.O.O.+.+.O.O.O.O.O.O.O.O.O.O.O.O.O.#.O.O.4.4.4.4.4.4.O.4.5.4.4.4.O.O.O.O.O.4.O.4.4.4.4.4.4.7.4.4.4.4.4.4.4.O.4.4.4.4.4.4.4.O.O.O.O.4.4.O.O.O.O.O.O.4.O.O.4.O.O.O.O.O.4.4.4.O.4.O.O.O.O.4.4.4.4.O.O.4.4.5.5.4.4.5.4.4.4.4.4.4.4.4.4.4.4.4.4.4.4.5.8.5.4.4.5.4.5.@.@.$.8.5.4.4.4.4.4.4.4.4.+.5.4.4.4.@.@.4.4.4.5.$.$.+.O.$.$.$.$.$.$.$.8.$.$.$.@.%.$.8.9.8.8.8.$.@.+.@.@.$.#.4.4.O.4.4.4.4.O.O.O.O.O.O.O.O.O.O.O.4.O.O.O.O.+.+.+.+.O.+.O.O.%.$.%.$.%.%.%.+.O.O.( ) O.#.O.O.( %.$.%.+.O.O.+.` %.%.+.+.%.%.%.%.%...' ' ..%.....,.,.>...%.$.$.$...' ` ) ) ) +.` ` ' / / / _ ` ` ` ",
"R R R R Q E E E b b T b b M E E E E E E E E E E W M W E R E E E W E E E E W ~ Q E E E E E E E E E E E Q Q E E E Q W E E E E E E E W Q Q ! ! ! ! ! ! ! ! / / / ! ! ! ! / ! ! / / _ ! W W Q ! / / W ! ! Q E ! ! Q ! Q Q ! ! ! Q ! / ! ! ! ! ! ! ! / ! ! ! ! / ! ! ! Q ! ! ! ! ! / / / ! ! ! ! ! ! / ! / ! ! / / ! ! ! ! ! ! ! ! ! ! ! ! ! ! / / ! ! ! / / / ! ! ! ! ! ! ! ! ! ! ! ! ! ! ! ! ! / / ! ! ! ! ! ! ! ! ! ! ! / / ! ! ! ! ! ! ! / ! ! ! ! ! ! ! ! ! ! ! ! ! ! ! ! ! ! ! ! ! ! ! | | W ! ! ! W N d % @ + + + + % d V N x a % X     O + , a & $           . $ & a , @ .           . & a a a @                                   O O       . O X     X $ + @ + & % % + + @ + + % + + + + O . X + + + + + + + + $ $ $ + + + O       . X O @ @ @ @ @ $ + + @ X # *     O @ + % + + + d ^ ~  .N A  . . .| | | / | | | W ! ! ! W W W W W N V V V V N W N W W W W W W W Q ~ W W W ! ! ! / ! / / | W W ! / X.o.| ! / / / / / ! / / | | ! ! / o.X.O.O.( ) ) ) ( O.O.X.X.X.X.O.O.X.O.4.4.@.@.$.$.+.$.$.$.@.$.+.O.4.O.+.@.+.O.O.@.@.+.#.O.O.O.O.O.O.O.O.O.O.O.O.O.O.O.O.O.O.O.O.O.O.O.O.O.#.+.#.O.O.O.O.#.O.O.O.#.#.O.#.@.4.O.O.O.4.4.4.4.#.@.5.5.4.4.O.O.O.O.O.4.4.4.O.4.4.4.4.4.O.O.4.4.4.4.4.O.4.4.4.+.O.O.O.O.O.O.O.O.O.4.4.4.O.O.O.O.O.O.4.O.O.O.O.O.O.4.4.O.O.O.O.O.4.4.4.4.4.O.O.4.4.4.4.O.@.5.5.5.4.4.4.4.O.O.4.4.4.4.4.4.4.4.5.5.4.4.4.4.4.4.5.@.5.5.4.5.+.5.+.4.4.4.+.5.4.4.5.+.+.4.4.4.O.+.+.@.4.+.%.%.%.@.+.$.$.$.$.%.5.@.$.%.8.$.$.$.$.+.O.5.4.O.O.4.5.4.4.4.4.4.4.#.#.O.O.O.( O.O.O.O.O.O.O.#.O.+.+.+.+.O.O.O.) +.5.$.$.$.%.) ) O.( ) ) +.O.O.#.( +.+.O.+.O.#.+.) +.+.+.%.%.+.+.%.%...%.` ` %.........,.,.%.$.$.%...` ` ) ) ) ) ` ` ' _ _ ) _ ` ` _ ",
"T R T E R R Q T b b b b T b b E M M E E Q E E E ~ N M E E M E E E E W W E E W E E E E W W M E E E E E E E E E W W W E E E E E Q W ! ! Q Q ! ! ! / ! Q ! / X.! ! ! ! ! ! ! ! ! ! ! ! ! ! ! ! ! ! ! ! ! Q E E E E E Q Q Q ! ! ! ! ! ! ! ! W W ! ! ! ! ! ! ! ! ! ! ! ! ! ! ! ! ! ! ! ! ! ! ! ! ! ! ! ! ! ! ! / ! ! ! ! ! ! ! ! ! ! ! ! ! ! ! ! ! ! ! ! ! ! ! ! ! ! ! ! ! ! ! ! Q ! ! ! ! Q ! ! E ! / ! ! ! ! ! ! ! ! ! ! ! ! ! ! ! ! ! ! ! / ! ! ! ! ! ! ! ! ! ! ! ! ! ! ! ! ! ! ! ! ! ! ! / ! ! ! ! ! W V & + + + + + & d N W W W V d & O   . + a d a & .           $ , a a & O           . % a a a @ .             . .               O + O             . O @ + & , % @ + & + + % & p a % @ + + + $ O + + + + + + + + + @ $ + @ O .       O + @ + @ @ + @ @ + + @ O $ *     O @ + % + + @ & x ~ W W | | | | | | ! ! ! | | | ! ! ! ! ! ! ! W W W W W W W W W W W W W ! ! ! Q ! ! ! ! ! ! ! ! ! ! ! ! ! ! / / | | | | ! ! ! ! / ! / / / ! ! / / X./ / O.) ) ) ) O.O.O.X.| | | O.o.X.+.#.O.4.5.$.+.+.$.$.%.%.$.@.4.O.O.#.@.4.4.4.O.+.+.#.O.O.O.O.O.O.O.O.O.O.O.O.O.( O.O.O.O.O.O.O.O.O.O.O.+.+.+.O.O.O.O.O.O.4.O.O.O.O.O.4.4.4.O.O.O.O.4.4.O.4.5.@.5.4.4.5.O.4.4.O.O.O.O.O.O.4.4.4.4.O.O.O.O.4.4.O.O.4.O.O.4.4.4.4.O.O.O.O.O.O.4.O.4.4.O.O.O.4.4.O.O.O.O.O.O.O.O.O.O.O.O.O.4.O.4.4.4.4.5.4.O.4.5.O.+.+.@.5.4.O.4.4.4.4.4.4.4.4.4.4.4.4.6.5.4.4.7.4.4.4.5.5.4.O.O.5.+.+.+.4.4.4.O.4.4.@.$.) O.O.4.O.O.#.#.@.@.+.%.%.+.@.@.$.$.$.$.%.$.$.$.%.8.$.$.$.$.+.O.5.4.O.O.+.$.+.O.O.O.4.4.+.+.O.O.+.O.O.O.( ) ( O.O.O.O.O.O.O.O.O.O.( ) ) ) +.%.$.+.O.O.O.( +.$.O.O.O.O.+.O.O.O.O.%.%.+.+.O.( ) +.` ` ` %.+.%.+.+.%.........' ......%.%.....%.` ` ` ` ` ) ) ' ` ` _ / ) ) / ",
"T T T E E E E T v v b M M b v b b b E E E E E E E M M E E M M M M W W E E E E E E E E E W W E E E E E Q E Q ! W W W E E E E Q Q Q ! ! ! ! ! ! ! ! ! ! ! ! ! ! ! ! | ! ! ! ! ! ! ! ! ! ! ! ! ! ! ! ! ! ! E E E E Q ! ! ! ! ! ! ! ! ! ! ! ! ! ! ! ! ! Q ! ! ! ! ! ! ! ! ! ! ! ! ! ! ! ! ! ! ! ! ! ! ! ! ! ! ! ! ! ! ! ! ! ! ! ! ! ! ! ! ! ! ! ! ! ! ! ! ! ! ! ! ! / ! ! ! ! Q Q ! ! ! ! Q Q Q Q ! ! ! ! ! ! ! ! ! ! ! ! ! ! ! ! ! ! ! ! ! ! ! ! ! / / ! ! ! ! ! ! ! ! ! ! | ! ! ! ! ! ! ! ! ! ! ! ! W N d + + + + + & x N W W W W W N d % X   O & a a a O           O , a a , @           . % a a a % O         . $ $ $ .           O @ + O           O + % % a x x d & + + + & u u d a a + @ + + @ @ + + + + + + + + + + + @ O           O + + + + + + + + + + + $ O X     $ + + @ + + % a B ' | | | | | | | | / ! ! | ! ! ! ! ! / _ / ! ! ! ! W W W W W W W E W W ! ! ! W ! ! ! ! ! ! ! ! ! ! ! ! ! / / ! ! ! ! ! | ! ! ! ! ! ! / X.! ! / O.X.O.O.O.) ) ) ) O.O.X.| X.X.X.O.O.O.+.$.+.+.$.$.$.$.$.+.+.+.$.$.@.O.O.#.@.@.4.O.O.+.%.#.O.O.O.O.O.O.O.O.O.O.O.O.O.( O.O.O.O.O.O.O.O.O.O.+.$.+.+.O.O.O.O.O.4.4.O.O.O.O.O.O.O.4.4.O.O.O.4.4.O.4.4.+.4.4.4.4.O.O.4.O.O.O.O.4.4.4.4.4.4.4.4.O.O.O.4.O.4.4.O.O.O.4.4.4.4.4.O.O.O.O.O.O.4.4.4.O.O.4.4.O.O.O.O.O.O.O.O.O.O.O.4.4.4.O.O.4.O.+.@.4.4.4.9.4.5.O.4.4.4.4.4.4.4.4.4.4.4.4.4.4.4.4.5.4.4.4.5.5.4.4.4.@.#.O.O.O.#.O.O.4.4.4.O.4.@.$.$.O.O.O.4.O.O.O.O.#.+.+.%.%.+.+.5.$.$.$.$.$.$.$.%.%.8.$.$.$.+.O.#.O.O.@.+.+.+.O.O.O.O.O.O.+.+.#.+.+.+.O.O.O.O.O.O.O.O.O.O.O.O.O.O.O.( ) ) ) ) ) +.) ( 5.O.O.+.%.%.+.O.O.O.O.( ) ) +.O.+.+.+.+.%.%.` ` ` %.$.%.` %.%.....%.%.........` ,.,.%.+.) ) ` ) ) ( ) ` ` ` / _ ` ` _ ",
"E E E E E E E b b b b b b v b b T b T E E E E E E E E E E M E E E E W E E E E E E E E E W W W E E E E E E Q ! W E W W E E E E E Q Q ! ! ! ! ! ! ! ! ! ! ! ! ! ! ! ! ! ! ! ! ! Q ! ! ! W ! ! ! Q ! ! ! ! E E E E Q Q ! ! ! ! ! ! / / ! ! ! Q Q / / ! Q ! ! ! ! ! ! ! ! ! ! ! ! ! ! ! ! ! ! ! ! ! ! ! / ! ! ! ! ! ! ! ! ! ! ! ! ! ! ! ! ! ! / / ! ! ! ! ! ! ! ! ! ! ! ! ! ! Q Q Q Q ! ! ! E E ! ! Q Q ! ! ! ! ! ! ! ! ! ! ! ! ! ! ! ! ! ! ! ! ! ! / ( / / ! ! ! ! ! ! ! ! | ! ! ! ! ! ! ! ! ! ! ! ! W N a + + + + & x N W ! ! W Q W W N s , + + + a l d +         . + a a a a % O         . % a a a & X         X % & % .         X + & & + .     . O % , d V N W W N V a % + % & d u p d , & + @ + + + + + + + + + + + + + $             O $ $ + + + % + + + + + + + $ O X @ + + @ % , d x ~ _ | | o.o.| ! ! ! ! _ ! ! ! ! ! ! ! ! _ / ! ! ! ! ! W W W ! ! W W W ! ! ! ! W ! ! ! ! ! ! ! ! ! ! ! ! ! ! ! ! / ! ! ! ! ! ! ! ! ! ! / / ! / / X.| X.O.O.O.O.O.O.O.O.X.| X.O.O.O.O.O.+.$.$.$.$.$.$.$.+.#.O.O.#.4.4.O.O.+.@.#.O.O.4.5.%.#.O.O.O.O.O.O.O.O.O.O.( ( O.O.O.O.O.O.O.O.O.O.O.#.+.+.+.$.+.#.O.O.O.4.4.O.O.O.O.O.O.O.4.4.4.4.4.4.4.O.O.O.O.4.4.4.O.O.O.#.4.4.O.O.4.4.4.4.4.4.4.O.O.O.O.4.4.4.O.O.O.O.4.4.4.O.O.O.O.4.4.4.4.4.4.4.O.O.O.O.O.O.O.O.O.O.O.O.O.O.O.4.5.+.4.4.4.4.5.4.4.4.4.9.9.8.@.5.4.4.4.4.4.4.4.4.4.4.4.4.4.4.4.4.4.4.5.5.4.4.4.4.5.O.O.O.4.4.4.4.O.O.O.+.@.@.@.+.O.O.O.4.O.O.O.O.O.+.%.%.%.$.+.$.$.$.$.$.$.$.$.$.%.8.%.$.$.+.) +.O.+.$.+.+.+.O.O.O.O.O.#.+.+.#.O.O.O.O.O.O.O.O.O.O.O.) ) O.O.4.O.O.( ) O.) ) ) +.+.O.O.O.+.$.$.$.+.O.+.) ) ) ) ) ) ) ) ) ` %.$.%.%.%.$.$.%.$.%.$.%.....%.%.%.......' %.%.%.O.( ) ) / / / ' _ ` ` _ _ ` ` ` ",
"T T T T T b M b T M b b b b b E E T E E E T E E E E E E M M E E ~ W W E E E E E E E E E E W ! W E E E E E Q Q E W W W E E E Q ! / ! ! ! ! ! ! / ! ! ! ! ! ! ! ! ! ! ! ! ! ! W W ! ! ! o.X.! ! ! Q ! ! ! E E Q Q Q Q ! _ ! ! ! ! / / ! ! / / ! / / Q E ! ! ! ! ! / ! ! / / W ! ! ! ! ! ! ! ! ! ! ! / / ! ! ! ! ! ! ! ! ! ! ! ! ! ! ! ! W ! / / ! ! ! ! ! ! ! ! ! ! ! ! ! ! ! Q Q Q Q ! ! Q E ! ! Q Q ! / ! ! ! ! ! ! ! ! ! ! ! ! ! ! ! | ! ! ! / / ( ( / ! ! ! ! ! ! ! ! ! ! ! ! ! ! ! ! ! / ! ! ! ! W V , + + & x ~ W W ! W ! ! Q W W N V V a % & d d & X       . % a d a a & @ .       . & a p d & O         O , a % X         X & a a & @ O X + , d N M W W Q ! Q W N d % @ + & a a a a a & + @ @ + + @ @ + + @ + + + + $             O O $ % & % & % + + + + @ + + + + + + + % a x W W o.! ! / _ _ o.| ! | | _ ! / / / ! ! ! ! ! ! ! ! W W W ! ! ! ! ! ! ! ! ! ! ! ! ! ! ! ! ! ! ! ! ! ! ! ! ! ! ! ! ! o._ ! ! ! ! / / / ! / / / ! / ( / / / O./ X.X.X.X.O.O.X.| X.O.O.O.O.O.+.@.@.+.+.@.@.@.O.O.O.O.O.4.O.O.O.+.4.+.#.O.O.+.+.+.#.#.+.#.O.#.O.O.O.O.O.( O.O.O.O.O.O.O.4.O.O.#.+.+.+.#.$.+.+.+.O.O.O.O.O.O.O.O.O.4.4.4.4.4.4.O.O.O.O.O.O.4.4.4.4.4.O.+.+.4.#.( O.4.4.4.O.O.O.O.O.O.O.O.4.4.O.O.O.O.4.4.4.4.O.O.O.O.4.4.4.4.O.O.O.O.O.O.O.4.O.O.O.O.O.O.O.O.O.O.O.+.%.+.4.O.O.4.4.4.4.5.8.9.9.$.$.@.5.5.4.4.4.4.4.4.4.4.4.4.4.4.4.4.4.@.5.4.4.4.4.4.4.4.4.4.4.4.4.O.O.O.+.+.+.+.O.O.O.O.O.O.O.O.( O.+.+.+.+.$.$.$.8.$.$.$.$.$.+.+.$.8.%.%.$.$.+.$.O.@.%.O.O.O.O.O.O.4.O.+.+.+.O.O.( O.O.O.O.O.O.O.O.O.) ) ( O.4.O.O.( ) O.) ) 5.O.O.+.+.O.+.+.+.+.O.O.+.) ) ) +.+.+.$.+.%.` %.....%.$.%.%.$.$.+.+.%.....' ` +.......$.%.+.+.( ) ) ( / _ ' ~ _ ) ` ` ` ` ` ` ",
"E E E T b v v v v v b M E M M E E b b E T b E E E M M M M M E E E E E E E E E E E E E E E Q  .~ W E E E E E E E W W Q E E W W ! / ! W W W ! ! ! ! W W ! ! ! ! ! ! ! | ! W W W Q ! Q Q ! W W E ! ! ! ! ! W ! ! ! ! Q ! ! ! ! ! ! Q E Q ! / / ! ! ! E Q ! ! ! ! / / ! ! ) _ ! ! ! ! ! ! ! ! ! ! ! ! ! ! ! ! ! ! ! ! ! / / ! ! ! ! ! ! ! ! ! ! ! ! ! ! ! ! ! ! ! Q Q Q Q ! ! ! Q ! ! ! ! ! ! ! ! ! W Q Q ! ! ! ! ! ! ! ! ! ! ! ! ! ! ! ! ! ! ! ! / / / / ! ! ! ! ! ! ! ! ! W ! ! ! ! ! ! W ! ! ! ! ! ! W A s a a l W W / ! W W W W W W E W W W N V , p a & O       . + a k d a p + .       X , a a a a @         $ , a & @ O X .     $ % p p % & a V V N W W ! Q E W W W W N d & @ @ + p p d a a , % % @ % & + & + + @ + O X .   . . O O O @ @ @ + & a & + @ @ + + + @ @ + + @ + & s B W W ! _ +./ _ / _ ! ! ! | | ! ! | | ! ! ! ! ! ! ! W W ! ! W ! ! ! W E E ! ! W W W W W W W ! ! ! ! ! ! ! ! ! ! ! ! ! ! _ / ! ! ! ! / ) / ! ! ! ! ! ! / / / / / / | | | o.O.O.O.( ( O.O.O.O.O.4.4.#.O.O.4.4.4.O.O.O.O.O.O.O.O.O.O.O.O.O.O.O.O.#.+.%.%.%.$.+.#.O.O.O.O.O.O.O.O.O.O.O.O.O.O.O.O.O.O.4.+.#.+.O.O.O.#.O.O.O.O.O.O.4.4.4.4.4.4.O.4.4.+.+.O.O.O.O.O.O.4.+.+.+.+.O.O.O.4.4.4.4.O.O.O.O.O.O.4.4.4.) ( 4.O.O.O.O.O.O.O.O.O.O.O.4.O.O.O.O.O.O.O.O.O.4.4.O.O.O.O.O.O.O.O.O.O.#.@.#.O.O.O.O.4.4.$.$.$.9.8.$.$.8.5.4.4.4.4.$.5.4.4.4.4.O.4.O.4.4.4.$.5.4.4.4.4.4.4.4.4.4.4.4.O.O.O.O.4.O.#.#.4.O.O.O.O.O.O.O.O.O.O.O.O.#.$.$.$.%.$.$.$.$.@.+.+.$.$.%.%.+.%.%.%.+.+.+.#.O.#.%.%.%.$.+.%.$.$.#.O.O.) ( O.O.O.O.O.O.O.( O.O.O.O.O.O.( 4.4.) ) O.( O.O.4.O.O.O.O.( ) ) ) ) ) ) %.$.$.+.' ..%.` ` %.` %...%.%.$.%.` ..%...%.%.' ^ ..%.$.) ) ) O.( ) ( ) ` ` ' _ ` ` ` ` ` ` ` ",
"E T T T T T T T b v b E E M M E E b M E E M E E E M M M M M M E E E E E E E E W E E E E E E E E E E E E E E E E W M E E E W E Q ! ! | W W ! ! ! ! ! ! ! ! ! ! ! ! ! ! ! ! ! Q ! ! Q Q ! W W E ! ! ! Q Q ! ! ! W ! Q E E Q ! ! ! ! ! ! ! ! W W W W E W ! ! ! ! ! ! ! ! / ! ! ! ! ! ! ! ! ! ! ! ! ! ! ! ! ! / ! ! ! ! / ! ! ! ! ! ! ! ! ! Q ! ! ! ! ! ! ! ! ! ! ! Q Q ! ! ! ! ! ! ! ! ! ! ! ! ! ! ! ! ! ! ! ! ! ! ! ! ! ! ! ! ! ! ! ! ! ! ! ! ! ! ! ! ! ! ! ! ! ! ! ! ! ! ! ! ! ! ! ! ! ! ! ! ! ! ! W W | N N V W ! / ! / ! ! W W W W E W W W W N V a % @ O       . $ a k l a a + X       $ p a a a a + X       + a a a , & + $ . . $ & d l V V N M N E ! Q E E E W W W W W N s & $ O + & p a a a a a & a a & a p p % @ X . O O $ + , + + + @ + @ % u & % & % + @ + + @ @ + & a s B W W ! ! ! / ! ! o.o.! ! ! | ! ! ! ! ! ! ! ! ! ! ! ! W ! ! ! ! ! ! ! ! Q Q ! ! ! W W W W Q ! ! ! ! ! ! ! ! ! ! ! ! ! ! ! ! / _ _ / ! / / / / ! ! ! ! ! ! / / ! ! / ! | X.O.O.O.O./ ( O.O.O.O.O.5.O.X.O.O.O.O.O.O.O.#.O.O.O.O.O.O.O.O.4.O.#.O.#.+.@.%.%.$.$.$.+.O.O.O.O.O.O.O.O.O.O.O.O.O.O.O.O.O.O.O.#.O.O.O.O.O.#.O.O.O.O.O.4.4.4.4.4.4.O.O.4.4.4.O.4.4.O.4.4.4.4.$.$.$.$.O.O.O.4.4.4.4.O.4.4.4.O.4.4.O.O.O.#.O.O.O.O.O.O.O.O.O.O.#.O.4.4.O.O.O.4.O.O.O.4.4.4.O.O.O.O.O.O.O.X.O.O.O.4.O.O.O.4.O.O.4.$.$.8.9.8.8.8.9.5.4.4.4.+.@.4.4.4.4.4.O.4.O.4.4.O.#.4.4.4.4.4.4.4.4.4.4.4.4.4.O.4.O.O.+.+.+.+.@.+.O.O.O.O.O.O.O.O.O.O.#.+.+.@.@.$.$.%.+.+.@.$.+.+.$.$.+.+.%.+.+.+.#.O.O.#.+.+.+.$.$.$.8.8.+.O.O.) ) ( O.4.O.O.O.+.#.O.O.O.O.O.O.O.( ) ) O.O./ ( O.O.O.O.O.O.( ) ) ) +.$.$.$.%.) ` ` ` ` +.%.%.` ` %.' +.%.$.%.o.$.%.%.+.` ' %.$.$.O.) ) ) ) ) ( ` ` ` ` _ ' ` ' ' ` _ ` ",
"T T T T R T T T T T T E T b M E T b M M E E M E E M M M M M M M E E E E E E E E M E E E E E E E E E E E E E E E E W E E Q E E ! ! | | W W ! / ! ! ! ! ! ! ! ! ! ! ! Q ! ! ! ! ! ! Q Q ! ! W W E Q ! ! ! ! ! ! W W E E E E Q Q ! Q ! ! ! W W W W W E W ! ! ! ! ! W ! ! ! Q ! ! ! ! ! ! / / ! ! ! ! ! ! ! / / ! ! ! ! ! ! ! ! ! ! ! ! ! ! ! ! ! ! ! ! ! Q Q Q Q ! ! ! ! ! ! ! ! ! ! ! ! Q Q ! Q Q ! ! ! ! ! ! ! ! ! ! ! ! ! ! ! ! ! / / ! / ! ! ! ! ! ! ! ! ! ! ! ! ! ! ! ! ! ! ! ! ! ! ! ! ! ! ! ! W W ! ! ! W ! ! / W ! ! ! ! ! ! ! W W W W W W N V & O           O & k k d a % $ . . O + u k l d a % O .   X & a a a d d a & & & a V N N N W W W W ! ! Q E Q Q Q ! W W W W N s & $ @ @ % u l d l d a a a p a p d & + @ @ + + + % % + @ + @ + @ & p p a a a & + + + & & a V A  .! | | ! ! ! ! ! ! | | ! | | _ / ! ! | ! ! ! ! ! ! ! ! ! Q E Q Q ! ! ! ! ! ! ! ! ! ! ! ! ! ! ! ! ! ! ! ! / _ ! ! ! ! ! ! ! ! / ) ` _ ! ! ! / / ! ! ! ! ! ! ! ! ! ! ! ! ! / / X.o.O./ / O.O.O.O.O.#.#.o.+.+.O.O.O.O.O.+.#.O.O.O.#.O.O.O.4.5.+.+.+.$.$.%.%.$.$.+.O.O.O.O.O.O.O.O.O.O.O.O.O.O.O.O.O.O.O.O.O.O.O.O.O.O.O.O.4.4.O.O.4.4.4.4.4.4.O.O.4.4.4.4.4.4.4.4.4.4.4.+.+.+.+.4.4.O.O.4.4.O.O.4.4.O.O.O.4.4.O.O.#.O.O.O.O.O.O.O.#.O.O.O.4.4.4.4.O.O.O.O.4.4.4.4.O.O.O.O.O.O.5.w.$.#.O.4.4.4.4.O.4.O.O.4.8.8.8.9.9.9.9.8.4.4.4.4.4.4.4.4.4.4.4.O.4.4.4.4.O.4.4.4.4.4.4.@.@.@.5.5.4.4.4.+.@.4.O.+.+.+.+.+.#.O.O.O.O.O.O.O.O.O.O.O.O.O.4.4.+.@.O.O.+.@.+.O.O.+.$.+.+.%.+.+.+.O.O.#.#.O.O.+.$.$.+.#.+.O.O.O.O.( ( O.4.O.O.O.O.#.O.O.O.O.O.( O.( ) O.O.O.( O.O.O.O.O.O.( ) ) ) ) ) %.$.$.%.%.%.%.%.` ` $.$.%.+.` ' ` %.%.%.o.%.` ` ` ) +.+.%.$.+.) ) ) ) ( ( ` ` ` ` ` ` _ / / / / _ ",
"b T T R T T T T T T T T T M E E b M M M M M M b b M M M M M M M M E E E E E M E E E E E E E E E Q E E E E E E E Q E E E Q E Q ! ! ! W ! ! ! ! W ! ! Q ! ! ! ! ! ! ! ! ! ! ! E W ! Q Q ! ! W W W ! ! Q Q / ! Q E E E Q Q E E Q ! Q Q ! Q Q ! ! ! ! E Q Q ! ! ! ! W / / / / / ! Q Q ! / / / / ! ! / / ! ! / / / / ! ! ! ! ! ! ! ! ! ! W W ! Q Q ! ! Q Q ! ! ! ! ! ! ! ! Q E Q Q ! ! ! ! Q E Q E E E Q Q Q ! / / ! ! ! ! ! ! ! ! ! / / / ! / / ! W W ! ! ! ! ! ! ! ! ! ! ! ! ! ! ! ! / ! ! ! / / ! ! W W W ! W ! ! ! ! W W W ! ! ! ! ! ! ! ! ! ! W W N V % X   . . . O % i l l d a % @ + + & l c l l d a & + + % a z V V V V V V V V N W W W W Q W ! ! W W W Q ! ! Q ! ! ! ! ~ W N V & % % & l V V N V V l d a a d a a & & & p p a a & & & % % % % p a a a a a a a a d V V N W ! ! ! W W ! | ! ! ! | ! | | | _ ' _ ! | | / ! ! ! ! W ! ! ! ! Q Q Q ! ! ! ! ! ! ! ! ! ! ! ! ! ! ! ! ! ! ! ! / ) / ! / / ! ! ! | ! _ ' / ! ! ! ! _ _ _ _ ! / ! ! ! ! ! ! ! / / / X.| | | X.O.O.O.O.O.X.#.@.@.+.#.O.O.O.+.$.+.+.+.+.+.+.#.+.+.$.$.$.$.$.$.%.%.+.+.+.+.O.O.O.O.O.O.O.O.X.O.O.O.( ( O.O.O.O.O.O.O.O.O.O.O.O.O.O.O.O.O.4.4.4.4.4.4.O.O.4.4.4.4.4.4.4.4.4.4.4.O.O.O.O.O.4.4.O.O.O.O.O.4.4.O.O.4.4.O.O.O.O.O.4.4.O.O.O.4.+.#.O.O.4.4.4.4.+.#.O.O.O.4.4.4.4.O.O.O.O.O.+.8.$.+.O.4.4.4.4.4.O.O.O.4.8.8.*.9.9.9.8.5.5.4.4.4.4.4.5.4.4.4.O.#.+.8.5.4.4.4.5.&.&.4.5.8.$.$.+.4.4.4.4.+.#.O.4.O.O.O.O.O.O.O.O.O.O.O.O.O.O.O.#.O.) 4.4.4.4.4.4.4.4.+.#.O.+.+.@.+.+.%.%.%.+.O.+.+.+.O.O.#.+.+.+.O.O.( O.O.O.) ) O.O.#.O.) ) O.O.O.( ( ( ) ) ) O.O.O.O.O.O.( ( ( O.O.( ) ) ) ) ) ` %.%.+.` %.%.%.` +.%.%.$.$.%.......%.+.+.` ` ` ) ( O.) ` +.+.) ( ( ) ) _ ' ` ` ' ` ' / ! / / / / ",
"T T T v v T T T T M b b b b T E E b M E E M M M M M M M E E M E E E M M W W M E E E W W E E E E E E W W W W E E ! ! Q E E E W ! ! ! W ! ! ! ! ! ! ! ! ! ! W W ! ! ! ! W W ! Q Q ! / ! ! ! ! W Q ! Q E E Q Q E E Q E ! ! E E E E Q ! Q E Q ! ! ! E E E E E Q ! ! / / / ! ! / / ! ! ! ! ! ! ! ! ! ! ! ! ! ! / / ! ! ! ! ! ! ! / / ! ! Q E E E ! ! ! ! ! ! ! ! ! ! E Q Q Q E E Q Q Q ! ! Q Q ! ! Q Q ! ! ! ! ! ! ! ! ! ! Q ! ! ! ! ! ! ! ! ! ! ! W W ! ! ! ! ! ! ! ! ! ! ! ! ! ! ! / X.! ! ! / / ! ! W ! ! ! W ! ! ! / ! ! W W W W W W W ! ! W W W W W N V & O $ $ + % & k V M M V V V V V V N M N N V V V V V N M W W W W W W W W W W W W E Q Q E W Q E E W Q ! ! W W W W W W W W W V V V V W W W W W M M M N V V l d l d d a d p p u p u a a a a a a a d V V V V A N W W ~ ! ! ! ! ! ! ! ! ! ! ! ! ! ! ! ! ! / / ! | | ! ! ! ! ! ! ! ! ! ! ! ! ! Q Q ! ! ! / ! _ / ! ! ! ! ! ! ! ! ! ! ! / / / _ _ ! W ! / / ! ! ! ! ! ! ! ! ! / / / / ) / ! ! | W ! / / / / X./ / X.O.O.O.O.O.O.O.+.+.#.#.O.O.O.O.O.#.#.#.#.O.#.+.+.+.+.$.$.+.+.%.8.$.+.#.#.#.O.O.O.O.O.O.O.O.O.O./ / O.( O.O.O.O.O.( O.O.O.O.O.O.O.O.O.O.O.O.O.O.4.4.4.O.O.4.4.O.4.4.4.4.4.4.@.4.4.O.4.O.O.4.4.O.O.( O.O.O.4.4.O.O.O.O.O.4.4.O.O.O.O.O.O.O.O.( O.O.O.O.O.O.( O.O.O.O.O.O.O.O.O.O.O.O.O.O.O.O.O.O.O.4.4.4.4.4.4.5.@.5.8.8.$.9.9.8.8.9.$.%.%.5.4.4.4.4.4.4.O.+.@.4.4.4.4.5.8.$.$.$.8.$.+.4.4.O.#.+.+.#.O.O.O.4.4.4.O.O.O.O.O.O.O.O.O.O.) ) +.%.%.+.) ) 8.+.O.+.O.O.O.O.+.#.#.4.4.+.5.4.O.O.+.$.$.+.#.O.O.O.O.O.O.( +.$.+.) +.) +.%.%.+.+.+.) ) ( O.) ) ) ) ( ( O.O.O.O.) ) ( ) ( O.O.O.O.O.o.` +.` ` %.%.%.%.%.` ` ) +.$.%...%.%.$.O.( ) ` ` ) ( ) ) ` ` ` ` ` _ / / ' ` ` ` ' ' ' _ _ / _ / / ",
"T T v v T T T E E E b b b b v b E M E E E M M M M M M M E E M E E E E E E E E E E E E W E W E E E E E E E E E E E E E E E E Q ! Q ! ! ! ! ! ! ! ! ! ! ! ! ! ! / ! Q ! W ! ! Q ! ! ! ! Q Q ! ! Q E E E E ! ! ! Q Q E E Q E E E E Q ! ! ! Q Q ! ! Q Q E E E ! ! ! ! ! ! ! ! ! ! ! ! ! ! ! ! ! ! ! ! ! ! ! / / / ! ! ! ! ! ! ! ! ! ! ! Q Q ! Q Q Q Q Q ! ! ! ! ! ! Q E E E E E E Q ! ! ! ! Q Q ! ! ! ! ! ! Q Q Q ! ! ! ! ! ! ! ! ! ! ! ! ! ! ! ! ! ! ! ! ! ! ! ! ! ! ! ! ! ! ! ! ! ! W W W W ! ! ! ! ! ! ! ! ! ! ! ! ! ! ! W W ! ! ! ! ! ! ! W W W W W M N V a & & a d V N M W W W N N N N W W E E W W M W W W W W W W W W W ! E W W W W W Q E E E Q Q W W ! ! ! W W W W W W ! W W W W M W W W W W W E E E W W W W M N N N N V d & & p u u d V V V V V N N N W W W W W W W W ! ! ! ! ! ! ! ! ! ! ! ! ! ! ! ! ! / / ! ! ! ! ! ! ! ! ! ! ! ! ! ! ! ! ! ! ! ! Q ! Q ! ! ! ! ! ! ! ! ! ! ! ! ! ! W W W _ | | _ ~ ~ ~ _ _ _ _ ~ _ _ / / _ ' _ _ _ _ _ _ _ _ / / / / / / / ( O.O.O.O.O.O.O.+.+.O.O.O.O.X.O.O.O.O.O.O.#.+.+.O.O.+.+.$.+.O.+.$.$.+.O.O.O.O.O.O.O.O.O.O.O.O.#.O.( O.( O.( ( O.O.O.O.O.O.O.O.O.O.O.O.4.O.O.O.O.4.4.4.O.O.O.4.O.O.4.4.4.4.O.#.O.4.4.4.4.4.O.O.O.O.O.O.O.O.4.O.O.O.O.O.4.4.O.O.4.O.O.O.O.O.4.O.O.4.O.O.O.4.O.O.O.O.O.O.4.O.O.O.O.O.O.O.O.O.O.O.O.O.4.4.4.4.4.4.@.5.4.@.@.8.9.9.8.8.9.8.%.%.+.4.4.4.4.O.O.O.O.+.4.4.4.5.8.$.$.$.$.$.$.@.4.4.4.O.+.#.O.#.O.O.O.O.O.O.O.O.O.O.O.O.O.O.O.( O.+.$.$.$.+.+.+.+.+.#.O.#.#.+.+.#.+.5.5.+.@.+.O.O.#.+.%.%.#.O.O.O.O.+.+.O.O.+.O.5.+.5.O.%.$.$.$.+.) O.O.( ) ) ) ) / ( ( O.( ( ) ) ) ) ) O.O.( O.O.+.%.+.` ` $.$.%.%.%.` ` +.%.%.%.` ` %.$.%.) ` ` ` ) ) ) ` ` ` ` ` ` _ ! ! _ _ ` ` ` ' ' ` ) _ _ _ _ ",
"T T T b T T T E E E M M M b b M M b b b b M M M M M M M E M M E E E E E E E E E E E Q ! W M E E E E E E E E Q Q Q W E E E Q ! ! E Q ! ! ! ! ! ! ! ! ! ! ! ! / / Q E ! ! ! ! ! ! ! Q ! Q E Q ! ! E E E E ! ! ! Q Q E Q Q W ! ! ! ! ! ! ! ! Q E Q ! Q E E E ! ! Q ! ! ! ! ! ! ! ! ! ! ! ! ! ! ! ! ! ! ! ! / X.! ! ! ! ! ! ! ! ! ! ! ! ! ! ! Q E E E E Q ! ! ! ! ! Q E E ! Q Q W W W ! ! Q Q E Q ! ! ! Q Q W E Q ! ! ! ! ! ! ! ! ! ! ! ! ! ! ! ! ! ! ! ! ! ! ! ! ! ! ! ! ! ! ! ! ! ! W W W W ! ! ! ! ! ! ! ! ! ! W E Q ! ! ! ! ! ! ! ! ! ! W W W W W E W W M N V V N M E W E E W ! W W W W W W W ! ! W W ! ! ! W W W W ! ! Q ! Q ! W W W ! ! E E Q W ! ! ! ! ! ! W W W W W W ! ! W W W ! W W W W W W W Q Q W W W E W W W W W N d & & p d V N W W W W W W W ! ! W W ! ! W W W ! ! ! ! ! ! ! ! ! ! ! ! ! ! ! ! ! / / ! ! ! ! ! ! ! ! ! ! ! ! ! ! ! ! ! ! ! ! ! ! ! ! W W ! ! ! ! ! ! ! ! ! ! / _ ' ^ ] n n n l l n n n n n n n c v T n n n n n n n ] ] ~ ~ ^ _ _ _ _ / X.O.O.O.O.O.O.O.O.O.O.O.O.X.X.O.O.O.O.O.O.+.+.O.O.O.#.#.+.+.O.O.#.+.+.O.O.O.O.O.O.O.O.O.O.O.O.#.O.O.O.( O.O.O.O.O.#.O.#.#.O.O.O.O.O.O.O.4.O.O.O.4.4.4.O.O.O.4.O.O.4.O.O.O.O.O.O.4.O.O.O.O.O.O.O.O.O.O.4.O.4.4.O.O.O.O.O.( ( O.4.O.O.O.O.4.4.O.4.4.O.O.4.4.4.4.O.O.O.O.O.O.O.O.4.4.4.4.O.O.O.O.O.O.4.4.4.4.4.4.@.@.@.@.5.9.9.8.$.9.9.8.%.%.@.4.4.4.4.O.O.O.O.#.+.+.+.+.$.8.8.8.$.$.$.$.$.8.@.@.+.O.5.+.#.O.#.O.O.O.O.O.O.( ( O.O.O.O.O.O.+.$.$.$.$.%.( +.%.+.#.+.+.$.$.+.$.$.$.@.$.@.#.O.O.+.+.4.O.#.#.#.+.$.$.#.O.O.O.5.+.8.+.+.$.+.O.) ) +.( ) ) ) O.O.( ( O.O./ ( ) ) ) ) ) ( ( ( ( O.+.` ` %.+.$.%.` ` ` +.` ` +.` %.` +.%.` ` ` ` ` ` ) O.) +.` ` ` ) +._ ! ! _ / / ` ` ~ ^ ` _ _ ` _ _ ",
"T T T T E E E E E E E M M M M M b b b b T M M M M M M M E M M E E E E E E E M E E E Q Q W M E E E E E E E E Q W W Q Q E Q ! ! ! ! ! ! ! ! ! W ! ! ! ! ! ! ! / ! Q E E ! ! ! ! ! ! Q E E E Q ! W E E E E Q Q E E E E E ! W W W W E E Q ! ! Q E E E E E E Q ! ! ! ! ! ! ! ! / ! ! ! ! ! ! ! ! ! ! ! ! ! ! / / ! ! / ! ! ! ! ! ! ! ! ! ! Q E E Q ! ! ! ! ! ! ! ! ! E E E ! ! ! W W W W ! Q E ! Q ! ! Q W W W W ! Q ! ! ! ! ! ! ! ! ! ! ! ! ! ! ! ! ! ! ! ! ! ! ! ! ! ! ! ! ! ! ! ! ! ! ! ! ! ! ! | ! ! ! W W W E Q Q Q ! ! ! ! ! ! ! ! ! W W W W W E E E W Q W W W W W W Q Q ! ! W W ! Q W ! ! ! ! W W W W ! W W W W ! ! ! W W E W W W W ! Q Q ! Q W W ! ! ! ! ! ! ! ! ! ! ! ! ! ! W W _ / W W W W W E W W W W W E Q W W W W W N V V N N N W W W W W ! W ! / ! ! | W W W W ! ! | ! ! ! | ! ! ! ! ! ! ! ! ! ! ! / / ! ! ! ! ! ! ! ! ! ! ! ! Q ! ! ! ! ! ! ! ! ! ! ! W W ! ! ! ! ! | | ! ! ! ! ~ l p & + + + % % p p % + @ + % % u u p % % % + % & i i i u l m ^ ^ ' / | X.O.O.O.O.O.O.O.O.O.O.O.X.X.O.O.O.O.O.O.O.X.O.+.+.@.+.O.O.#.O.O.#.+.O.O.O.4.O.O.O.O.O.O.O.O.O.( ) ( ( O.O.O.O.O.O.O.O.#.O.O.O.O.O.O.O.O.O.O.O.4.4.4.O.O.O.O.O.O.O.O.O.O.O.O.O.O.O.O.O.O.4.4.O.O.4.4.4.4.O.4.4.O.O.O.O.( ( ( O.O.O.O.O.4.4.4.4.4.4.O.4.4.O.4.4.O.O.O.O.O.O.4.4.4.O.O.#.O.O.O.O.O.O.O.4.4.O.#.@.$.$.@.5.9.8.@.5.9.9.8.$.%.5.4.4.4.4.4.O.O.O.O.O.+.+.+.$.@.@.$.$.$.$.$.$.%.$.+.#.+.+.+.+.#.+.+.O.O.( O.O.O.O.O.O.O.O.O.O.+.$.$.$.%.) O.O.+.%.%.$.$.%.$.$.$.$.$.$.$.@.#.O.O.+.+.4.O.+.+.O.+.$.$.#.O.O.+.5.@.+.$.$.%.+.+.( ) ) ) ( ( ( O.O.O.O.O.O.( ( ) ( ) ) ) ) ( ( ) ) ) ` ` +.o.%...` ` ' $.+.` ` ` %.+.+.` ` ` ` ` ` ) ( ( ) ) ` ` ` _ / _ ! ! _ ( / / _ ^ ^ ' ) ) ` _ _ ",
"b b b T T E T T T E E M b b M M M M M E E E E M W M M M M M M E E E E E E E E E E Q Q Q W W E E E Q E E E Q E E E E E E Q ! ! ! _ _ W W W W W ! | ! | ! ! ! ! Q W W E W ! ! ! W E Q W Q ! Q Q E E Q ! Q Q Q E E E E E Q E E E E E E E Q ! ! ! Q Q ! ! ! ! ! Q E W W W ! ! / ! ! ! ! ! ! ! ! ! / / / ! ! ! / ! ! ! ! Q Q Q ! ! ! Q Q Q ! ! ! ! ! ! ! ! Q ! ! Q W ! ! Q E Q ! ! ! ! ! ! ! ! ! ! / / W W W W W ! ! ! ! ! ! ! ! ! ! ! ! ! ! ! ! ! ! / ! ! ! / / ! ! ! ! ! ! ! / ! ! ! ! ! ! ! / ! ! ! ! W ! ! W ! Q ! ! ! ! ! / ! ! ! ! ! ! ! ! W W W W W W W ! W W W E Q ! ! Q ! E W ! ! W W E Q W W ! ! W W W W W W W ! ! ! ! Q E E W ! Q E Q ! W W W ! ! W W W ! ! ! ! ! ! ! ! ! W W / / ! W W W W W E E W Q E W E E W W W W W W W W E W W ! ! ! ! ! ! ! / ! W W ! ! ! W ! ! ! ! ! ! ! / ! ! ! ! ! ! ! ! ! ! / ! ! ! ! ! ! ! ! ! / ! ! / o.! ! ! ~ W ~ _ ! ! ! ! W W W W W W W | | W ! _ n p % O . . . X + & & + $ .   . O & u u & O . . X @ + & % @ @ % & u l n ^ _ / O.O.O.#.O.O.O.O.O.O.O.O.O.O.O.O.O.O.O.O.O.O.#.#.#.#.O.O.O.O.#.O.X./ O.O.O.O.( ( ( O.O.O.O.( O.O.O.O.O.O.O.#.O.O.O.#.O.O.O.O.O.#.#.O.O.O.O.O.@.@.@.+.O.O.O.O.O.4.O.O.O.O.O.O.O.4.O.O.O.O.O.O.O.O.O.O.O.O.O.4.4.O.4.O.( ( O.O.O.O.O.O.O.O.4.O.4.O.4.4.4.4.O.O.O.O.O.O.O.O.O.O.O.O.O.O.4.4.4.O.O.O.O.O.O.O.+.@.$.$.@.4.5.8.8.5.8.8.8.8.5.5.4.5.4.4.4.4.4.4.4.4.O.O.4.4.O.5.$.$.$.$.$.$.%.%.%.+.+.4.O.4.4.#.+.4.O.( ) ( O.O.O.O.O.O.O.O.+.+.+.#.O.O.+.O.+.%.+.O.O.+.%.+.$.+.+.+.+.O.5.#.O.( O.O.O.O.4.O.O.5.@.#.O.#.%.$.+.O.O.+.%.+.O.O.( O.) ( / O.O.O.( ( O.O.( ( ( ) ) ) ) ) ( O.( ( ( ( O.+.$.$.%.%.+.%.%.+.` ' ....` +.+.%.%.` ` ` ( ) ) ) ` _  ._ ' _ _ / ) ) _ / / ~ ^ ^ ^ ' ` ` ` ` ",
"T T b v T T T v T T M M b v b b M M M M E b M M W M M M E M M M M M M M E E E E E E E E W M W E E E E E E Q E E W W E E Q Q ! ! ! ! Q W ! ! W ! ! ! ! ! ! ! ! Q W ! ! W ! ! ! Q W Q Q ! ! Q E E E E Q E E E E E Q E E E Q Q E E E E E E Q ! ! ! ! ! ! ! ! ! Q Q W ! ! Q ! ! ! ! ! ! ! ! ! ! Q / / / / ! ! ! ! ! ! ! ! ! ! ! Q E E E Q ! ! ! Q E Q ! ! Q ! ! Q E ! ! Q E E Q ! ! ! ! ! ! ! ! ! ! ! ! W W W Q ! ! ! ! ! ! ! ! ! ! ! ! ! ! ! ! ! ! ! ! ! ! / / ! ! ! ! ! ! ! ! ! ! ! ! ! ! ! ! ! ! ! ! ! ! W W ! ! ! ! ! ! ! ! ! ! ! W ! ! ! ! W W W W W W W Q E W W W W ! Q E E W ! ! Q W W E Q W W ! ! W E W ! ! W ! ! Q ! ! Q E Q ! ! E E Q ! ! W E W Q E W W ! ! ! ! ! ! ! ! ! W ! ! ! ! W W W W W W W ! Q E W W E W W W E W W E E W ! ! ! ! ! ! Q ! ! ! ! W ! ! ! ! ! ! ! ! ! ! ! ! / ! ! ! ! ! ! ! ! ! ! ! ! ! ! ! ! ! ! ! ! ! ! W W ! ! ! ! Q ! _ ` / ! ! ! W W W W W W | | W ! ~ l & @ X         O + p & + O       O & u & O       . @ % % $     X $ % & p p n ^ ` o.O.O.O.O.O.O.O.O.O.O.( O.O.O.#.O.O.O.O.O.O.O.O.O.O.O.O.O.+.+.+.X.O.O.O.O.( ( ( O.O.O.O.O.O.O.O.O.O.O.O.O.O.O.O.O.O.O.O.O.O.O.O.O.O.O.O.O.#.#.#.O.O.O.O.O.O.O.O.O.O.O.O.O.O.O.O.O.4.O.O.O.O.O.O.O.O.O.4.4.4.O.+.+.#.O.O.O.O.O.4.O.O.O.O.O.O.O.O.4.4.4.O.O.O.O.O.O.O.O.O.O.O.O.O.O.4.4.4.O.O.O.O.O.O.O.4.+.+.+.4.4.4.9.9.$.$.$.@.@.4.4.O.4.4.4.4.4.O.O.O.O.O.O.4.4.4.4.$.$.$.$.$.$.$.$.$.$.8.@.$.@.4.+.+.O.O.O.O.O.O.O.O.O.O.O.O.O.) ) $.+.#.+.%.$.$.$.#.#.+.O.+.#.+.+.+.#.O.( O.+.O.O.O.( O.O.O.O.O.#.O.+.+.+.%.$.$.+.O.+.%.O.O.O.( ( ) ) ( ( O.O.( ( ) ( ( ( ( ) ) ) ) ) ) ( ) ( ( ( O.+.%.` ` %.` ` +.$.+.%.%.%.` %.$.%.` ` ` ) ) ) ` ` ` ) o.' ` ` ' _ ` ` ' ' ' ^ ^ _ _ ~ _ _ _ ` ",
"v b b v v v v v b v b M M b b M M M M M E E E M M M M E E E M W M M M M E E E E E E E E M M E E E E E E E E E W W E E Q E E Q ! ! ! ! ! Q W ! ! ! ! ! W ! ! ! Q ! ! ! W W Q E E ! Q E ! ! Q Q Q E E E E E E Q ! ! ! Q E ! ! ! ! ! ! Q E E E Q Q Q Q Q ! Q Q ! ! ! ! ! Q ! ! ! ! ! ! ! ! ! ! ! ! ! / / ! ! ! ! ! ! ! ! ! ! ! Q ! ! ! Q E E E E Q Q Q E E Q ! Q E E E E E E E Q ! ! ! ! ! ! ! ! Q Q ! ! ! ! ! Q Q ! ! ! ! ! ! ! ! Q ! ! ! ! ! ! ! ! ! ! ! ! ! ! ! ! ! ! ! ! ! ! ! ! ! ! ! ! ! ! ! ! ! ! ! W W ! ! ! ! ! ! ! ! W ! W W ! ! ! ! ! ! ! ! ! W Q E E W W W E Q Q Q W W ! Q E W W W W W W ! ! ! ! ! Q ! ! ! ! ! ! ! ! ! ! Q Q W E Q ! ! W ! ! ! E W W ! W ! ! ! ! ! ! ! W ! ! ! ! E W W W ! ! ! ! Q E ! W E E W W Q ! ! W W ! ! ! ! ! ! ! ! ! ! ! ! ! ! ! ! ! ! ! ! ! ! ! ! ! ! ! ! ! ! ! ! ! ! ! ! ! ! ! ! ! ! ! ! ! ! W W W W | ! ! ! ! ! ! ! ! ! ! ! ! ! W W W W ! _ ~ b p % + O .         $ % p & O       . @ & & $         O % p p @ .     . @ @ @ + & p n ^ %.O.O.O.O.O.( O.O.( ( ( O.+.O.O.O.O.O.O.O.O.O.O.O.O.O.O.O.O.O.O.O.O.O.O.O.O.O.O.O.O.O.O.O.O.O.O.O.( ( O.O.O.O.O.O.O.O.O.O.O.O.O.O.O.O.O.O.O.O.O.O.O.4.O.O.O.O.O.O.O.O.O.O.O.O.4.4.O.O.O.O.O.O.O.O.O.4.4.4.O.O.+.+.O.4.4.4.4.4.O.O.4.O.O.O.O.O.4.4.O.O.O.O.O.O.O.O.O.O.O.O.O.O.O.4.4.4.O.O.O.O.O.O.4.4.@.$.5.4.4.4.5.8.@.5.5.5.4.4.4.4.4.4.4.O.4.4.4.4.4.#.O.O.O.O.O.+.$.+.+.$.$.$.8.$.+.$.$.$.$.@.$.+.O.O.O.O.O.O.O.O.O.O.O.O.O.O.+.$.%.+.%.%.$.$.$.#.+.+.O.O.O.+.+.+.+.+.+.+.$.+.O.O.O.O.O.O.( O.O.#.%.%.%.%.+.%.@.+.+.+.O.( O.( ) ) ) ) ) ) ) ) ( ( ( O.( ( ( ) ) ) ) ) ) ) ) ) ) ( +.+.` ` ` ` ` +.$.$.%.%.+.O.+.+.` ` ` ` ) ) ) ` ` ` ` ` _ _ ` ` ` ` ' ~ ~ ~ ' _ / / / _ / / ` ",
"T b b b b v v v T T M M b T M M M M M M b E E M b b M E E E b W M M M M E E E E E E M M M M E E E E E E E E E E E E Q ! ! E Q ! ! ! ! ! ! ! ! ! ! ! Q ! ! ! Q W ! W E W W E E E E Q W ! ! ! ! ! E E Q ! W E W ! ! ! ! ! ! ! ! ! ! W E E Q Q E Q E Q Q W Q E ! ! ! ! ! ! ! ! ! ! ! / ! ! ! ! ! ! ! ! / ! ! ! ! ! ! ! ! ! ! ! ! ! ! ! Q E E E Q Q E E E Q ! ! ! E E E E E E E E ! ! ! ! ! ! ! ! Q E ! ! ! Q ! Q E ! ! ! ! ! ! ! ! ! ! ! ! ! ! ! ! / / ! ! ! ! ! ! ! ! ! ! ! ! ! ! ! ! ! ! ! ! ! ! ! ! ! ! W W ! ! ! ! ! ! ! ! W W W W ! ! ! ! ! ! ! ! ! ! ! Q ! ! W W W E Q ! W W ! ! ! ! ! W W W W ! ! ! ! Q ! ! ! ! ! ! ! ! ! ! ! E E W Q Q ! ! W W ! ! W W W ! W ! ! Q Q ! ! W W Q ! ! ! W W W W Q ! ! E E E ! W E E W W Q ! ! ! ! ! ! ! ! ! ! ! ! ! ! ! ! ! ! ! ! ! ! ! ! W ! ! ! ! ! ! ! / ! ! ! ! ! ! ! ! / / ! ! ! ! ! ! ! ! ! ! ! W W ! ! ! ! ! ! ! ! ! ! W W W ! ! W ! ~ n & + + % + O         $ , u & X       . % a & O         + a d p $         $ + + + @ + & p m ~ ( ( O.O.( ( O.O.O.O.+.$.O.O.O.( O.O.O.O.O.O.O.O.#.O.O.O.#.O.( O.O.O.O.O.O.O.O.O.O.O.O.O.#.O.( ) ) ( O.O.O.O.O.O.O.O.O.O.O.O.O.O.O.O.4.4.4.4.O.O.O.O.O.O.O.O.O.O.O.O.O.O.O.O.O.O.4.O.O.O.O.O.O.O.O.O.O.O.O.+.+.O.O.O.O.O.O.O.4.4.O.O.O.O.O.O.O.O.O.O.( O.O.O.O.O.O.O.O.O.O.O.O.4.4.4.4.4.4.4.4.4.4.@.+.4.4.4.O.+.$.@.4.4.4.4.4.4.4.O.4.4.O.O.O.4.O.O.O.O.O.O.4.O.O.+.#.#.$.$.$.$.+.#.+.+.%.$.$.%.$.$.+.+.#.O.O.+.O.) ( ( ( O.+.$.$.$.$.$.$.$.$.+.O.O.O.O.O.O.+.+.+.+.$.%.%.+.$.#.#.%.%.#.O.+.%.) +.%.%.%.%.%.+.%.$.$.@.#.( ) ) ) ) ) ) ) ) ) O.( ) O.O.( O.( ( ( ) ) ) ) ) ) ) ) ) ) ` ` ` ` ` ` ` $.%.%.o.X.O.( ) ) ) ) ` ) ) ) ` ` ` ` ` _ / ( _ ` _ ' ` ' ' ` ) ) ) _ _ ` _ ` ",
"T M b b b b b b v b M M M b b b b E E M b M E M M M M M E E E W M M W W M M M E E E M M W W E E E ~ E E E E E E E E ! ! ! Q Q ! ! / / ! ! W W W Q W W W W W Q W W W W W W E E E E E Q Q Q Q ! ! E E Q Q ! W W W Q Q Q ! ! Q E W E E E E W Q Q W E Q ! ! ! ! ! ! ! ! ! ! ! Q Q Q Q / / ! ! ! ! ! ! ! ! ! ! ! ! ! ! ! W W ! ! Q Q Q Q Q Q Q Q Q ! ! Q E Q Q W ! Q Q Q Q E E Q Q ! ! Q ! W W W W Q ! ! ! ! / ! ! Q Q Q Q Q ! ! ! ! ! ! ! ! ! ! ! ! / / ! ! ! ! ! ! ! ! ! ! ! ! ! ! ! ! ! ! ! ! W W ! ! ! ! W ! ! ! ! / / ! ! Q W W W W ! Q Q ! Q Q Q Q Q Q Q Q Q Q Q E E W W Q E E Q W ! ! ! W W W W W ! Q E W ! W W W ! | | ! W Q ! E E W W Q Q W W ! ! ! ! W W W W ! ! ! Q Q Q ! W W ! ! ! ! ! W E Q ! ! Q E E Q ! ! W W Q E Q Q ! ! ! ! ! ! W ! ! ! ! ! ! ! ! ! ! ! ! ! ! ! W ! ! ! ! ! ! ! / ! ! ! ! W ! / ~ R ] ~ _ / / ! ! / W W W W W ! ! / ! ! ! ! W W E W W W ! / _ _ n p % X $ & & + .       . % a d % .       X & d & X       . & a l & X         O + + + + + @ + & z ~ _ +.X.X.X.X.X.X.+.+.$.O.O.O.( O.#.O.O.O.O.O.O.#.O.O.#.+.( ) ( ( ( ( ( O.O.O.( O.O.O.O.#.O.O.( ( O.O.O.O.+.+.O.O.O.( O.O.O.O.O.O.O.4.O.O.O.4.4.4.O.O.O.O.O.O.O.4.+.+.+.O.O.#.O.O.O.O.O.O.O.O.#.O.O.O.O.O.#.#.O.O.O.O.O.O.O.O.O.O.O.O.O.O.O.O.O.O.O./ / ( O.O.O.O.O.+.+.+.+.+.@.O.O.@.5.5.+.O.4.4.@.+.+.+.+.+.+.+.+.4.4.4.4.4.O.O.O.O.4.4.4.4.O.( 4.O.O.O.O.+.#.O.O.O.#.+.$.$.$.+.#.5.+.%.%.%.+.#.+.%.%.+.O.O.+.#.O.) ( ( ( +.%.+.+.+.+.%.$.%.%.+.X.#.O.+.#.O.#.O.O.#.#.O.+.$.+.+.#.#.O.O.+.$.+.+.+.+.+.+.+.O.O.#.+.O.) ) ( ) ) ) ) ) ) ) O.O.O.( ( O.( ( ( ( ) ) ) ) ( ) ) ) ) ) ) ) ) ) ) ) o.%.%.' ` _ _ ) ) ) ) ` ` ` ) ) ) ` ` ` ` ` _ _ _ _ ' ' ` ` _ ' ' ) ) ) _ ' ^ ~ ' ",
"v b b v v b b b v b b M M M b T T E E M M M M M b M M M M E M b M M M M M M M E E E W W M W E W W W E E E E E E E E Q Q E E Q ! ! ! ! ! ! W W ! W W ! W W E E W W W W W E E E E E E E Q E Q ! Q E E E E E Q ! W E E Q ! Q Q Q Q E E E W W Q Q W E E ! ! ! ! ! ! ! ! ! ! ! ! Q Q Q Q Q ! ! ! ! ! ! ! ! ! ! ! ! ! ! ! W W ! ! E E E E Q ! ! Q Q ! ! Q E E E E E ! ! ! ! E E ! ! ! ! Q Q W W ! ! Q ! ! ! ! ! ! Q Q E E E E ! ! ! ! ! ! ! ! ! ! ! ! ! ! ! ! ! ! ! ! ! ! ! ! ! ! ! ! ! ! ! ! ! W ! ! ! ! ! ! ! ! ! ! ! ! ! ! ! ! W W W W ! ! ! ! Q E E E E E E E E E E E E W W E E W ! ! / ! Q W W W W E E E W W ! ! W W W ! | ! ! Q Q E W W ! ! E W ! ! ! ! ! ! ! W Q ! ! ! ! Q Q ! W ! ! ! ! ! ! W W E ! ! ! E E Q ! ! ! ! ! W E Q ! ! ! ! ! ! ! ! ! ! ! ! ! ! ! ! ! ! ! ! ! ! ! ! ! ! ! ! ! ! ! ! ! ! ! W ! ~ l p & p m ~ ! _ _ / W W W W W ! ! ! ! ! ! ! W W W W W ! ~ ~ ] i & @ . . $ % p + X       X % a a +         O , l & .       O , d z % X   O .   . O + + + + @ + @ & B %.o.X.O.O.O.X.X.O.$.@.#.#.O.O.O.O.O.O.O.O.O.O.O.O.O.( ( ) ) ) ( ( / ( O.O.( / ( ( O.O.O.O.O.O.O.O.O.O.+.%.%.#.#.O.O.O.O.O.O.O.O.O.O.O.#.O.O.4.4.O.O.O.O.O.O.O.5.$.@.5.+.O.O.O.O.O.O.O.O.O.O.O.O.O.O.O.O.O.O.O.O.O.#.O.O.O.O.O.O.O.O.O.O.O.O.O.O.O.( ( ( ( O.O.#.%.8.8.$.$.$.$.+.#.+.@.$.+.O.O.4.O.+.$.$.$.8.$.$.+.4.4.4.4.4.O.4.4.O.4.4.4.4.4.O.O.O.O.O.O.O.#.#.O.O.O.+.+.+.+.+.O.4.%.+.+.#.O.+.%.$.$.%.#.O.O./ +.( O.O.) O.$.%.%.%.%.%.....%.$.+.+.+.#.O.O.O.O.O.O.O.O.+.%.+.O.O.O.O.O.O.%.O.O.%.%.) ) O.O.) ( O.) ) ) ( ( ( ( ( ) ) ) ( ( ( ( ) O./ / / ) ) ) ) ( ( ) ) ) ) ) ) ) ) ) ) ) o.$.%.%.) ` ` ` %.+.` ` ' _ ` ` ` ` ` ` ` ` ` ` ` ` ` ' ' ' ^ ^ ^ ' ` ` ` ' ^ ^ ^ ",
"v b b b v b v b b v b b M M b b E E M M M M M b b M W E M M b b b E E M M M M M M E M W M E E ~ ^ E E E E E E E E E Q W E W Q Q ! ! ! ! ! ! ! ! ! ! ! W E E E E E W W E E W E E E E E Q E E Q Q E E E Q Q Q E E E E Q ! Q Q ! Q E E E E E Q Q E E Q ! ! ! Q Q Q Q Q ! ! ! ! ! ! ! ! Q ! ! ! ! ! ! ! ! ! ! ! ! ! ! ! W W ! ! Q Q Q Q Q ! Q E Q ! ! E Q ! Q E E ! ! ! ! Q ! ! Q Q Q Q Q ! ! Q Q E E E E Q ! ! Q Q E E E E ! ! ! ! Q ! ! ! ! ! ! ! ! ! ! ! ! ! ! ! ! ! ! ! ! ! ! ! ! ! ! ! ! ! ! ! ! ! ! ! ! ! ! ! ! ! W W W Q ! ! ! ! ! ! ! ! W W W W W W W W E E E E Q ! W W W W E W ! ! ! ! W W W W Q W W W W W W W W W ! ! ! ! E E Q ! ! ! ! ! ! ! ! ! ! ! ! ! ! ! ! ! ! ! ! ! W ! ! ! ! Q Q ! W Q Q ! ! Q E Q ! Q Q ! ! ! W W ! ! Q ! ! ! ! ! ! ! ! ! ! ! ! ! ! ! ! ! ! ! ! / ! ! ! ! ! ! ! ! ! ! ! ! E u + O . . % d ] ^ Q ! ! ! ! ! W W ! ! ! ! ! ! W W Q E Q ~ m l p + O .   . + & p $         O , d d % .       O a l & .       # d z z O   O , $     . $ + + + + + + + a ../ ( O.O.O.O.O.O.#.+.+.+.O.O.#.O.O.O.O.O.O.O.O.O.O.) ) ) ) ( / ( ( O.O.O.( ( / ( O.O.O.O.O.O.O.O.O.O.#.+.$.$.+.O.O.O.O.O.O.O.O.O.O.#.+.O.O.O.O.O.O.O.O.O.O.O.5.5.+.O.4.O.O.O.O.O.O.O.O.O.O.O.O.O.O.O.O.O.O.+.#.+.@.5.O.O.O.O.O.O.O.O.O.O.O.O.O.O.O.O.O.( O.( O.+.$.$.$.$.$.$.$.4.O.O.+.#.O.O.O.5.+.+.$.8.8.$.$.$.$.$.$.+.O.O.O.O.O.O.O.O.O.4.4.O.O.O.O.O.O.O.+.O.O.O.#.#.O.O.O.O.O.+.O.O.O.4.+.%.$.8.%.+.O.( ( +.#.#.O.( +.$.+.) +.$.,.>.,.,.$.$.$.+.( O.O.O.O.O.O.O.+.%.+.O.O.( O.O.( O.O.O.O.` ` O.O.O.O.( ) ) ) ( ) ( ( ( O.O.) ( ) / ) ) ) ) ) ) ( / ) ) ) ) ) ) ) ) ) ` ) ` ) ) ) ) ) ` ` +.+.) %.+.` ) ) ` ` ` ` ' ' ` ` ' _ ' ` ` ` ` ` ` ' ' ^ ^ ~ ^ ' ` ` ` ' ^ ' ^ ",
"b v b v v b b M b v v v b M b b T b b M b M M E E E E E M M M b M E E E E M M M M M W W W E E E Q E E E E E E E E E W W W W W ! ! ! ! ! ! ! ! ! ! ! W W W Q Q E E E E E Q ! W E E E E E E E Q W E E E E W Q E Q E Q Q Q ! Q Q E W W E Q Q E Q ! ! ! ! ! ! ! ! ! ! ! ! ! Q ! ! ! ! ! ! ! ! ! ! ! ! ! ! ! ! Q ! ! ! ! ! Q E ! ! ! Q Q ! Q E E ! ! Q E Q ! Q E Q ! ! ! ! / ! Q E E E Q Q ! ! E Q Q Q Q Q W ! ! W E E E E E ! ! ! ! ! ! ! ! ! ! ! ! ! ! ! ! Q ! ! ! ! ! ! ! ! ! ! ! ! ! ! ! ! ! ! ! ! / ! ! ! ! ! ! ! W W W W ! ! ! ! Q ! ! ! Q E W W W W W W W E E E E Q ! ! W W W W W W W W ! ! W W ! ! W W W W E W W W W Q Q ! ! Q Q ! ! ! ! ! ! ! ! ! ! ! ! ! ! ! ! ! ! ! ! ! ! W ! ! ! Q Q E Q ! ! ! ! ! Q E Q ! ! ! ! ! W W W ! ! Q ! ! ! ! ! ! ! ! ! / ! ! ! ! ! ! ! / / / / / ! ! ! ! ! ! ! ! ! ! Q b & X         O a B ^ ! ! ! ! ! W ! ! ! ! W W ! W ! Q Q ~ l u p & O       . + p p O         $ a z z & O       O d m p O     . & d m l O   O , $ X O   . $ % , a & + @ & B | / ( ( ( O.O.O.O.#.#.O.O.+.+.O.O.O.( / ( O.O.O.O.( ( ) ( / / ( O.O.O.O.O.O.( O.O.O.O.( O.O.O.O.O.O.O.O.O.+.#.O.O.O.O.O.O.O.O.O.O.O.O.O.O.O.O.O.O.#.O.O.#.( O.O.O.O.4.4.4.O.O.O.O.O.O.O.O.O.O.O.O.O.O.O.+.$.$.@.$.$.5.+.O.O.O.O.O.O.O.O.O.O.O.O.O.#.+.O.( ( ( O.O.%.$.$.$.$.@.O.O.O.O.O.O.4.4.5.4.+.+.$.$.$.$.$.@.@.+.#.O.O.O.O.O.4.O.O.O.O.O.O.4.4.O.O.O.O.O.O.O.O.O.O.4.O.O.O.O.O.O.O.O.#.+.$.$.$.$.%.+.( ) +.#.+.O.O.#.@.+.+.+.%.%.>.>.,.$.$.%.+.( O.O.O.O.O.O.O.O.) ) ( O.) ( ( ) O.O.O.O.%.+.) ( O.O.O.O.( ) ( ) ) ) ( ( ( ( ) ( ( ) ) ) ) ) ) ) ( _ ` ` ` ` ` ` ) %.` ` ` ) ) ) ) ) ) / / #.+.$.+.` ) ) ` ` ` ` ' ^ ' ' _ / ` ` ` ` ` ` ` ` ' ^ ' ' ' ` ` ` ` ^ ^ ' ^ ",
"T b v b v b b b b v v v b M b v b b b M b M M E T b M M M M E W M M T E W W M M E M M M E E E E E E E E E E E E E Q W W W E Q W ! Q ! ! ! ! ! ! ! ! Q W W W W Q E E E E Q W W E Q W W W W E Q ! Q E E E E E E Q E Q Q Q W Q Q W Q Q E ! Q E E Q ! W W Q ! ! ! ! Q ! ! ! Q Q Q Q Q Q ! ! ! ! ! ! ! Q E Q Q E Q ! ! ! Q E E ! Q E E E Q Q E E Q Q ! Q Q Q Q E Q ! ! Q Q ! Q E E Q Q E ! ! W Q W ! ! ! ! ! Q Q E E Q Q Q Q ! ! Q ! ! ! ! ! ! ! ! ! ! W W W W ! ! ! ! ! ! Q ! ! ! ! ! ! ! ! ! ! ! ! / ! ! ! ! W W ! W W W W W W ! ! Q Q ! ! ! Q W W W W W W W W Q Q Q E E Q Q W W W W Q Q Q ! / ! W W ! ! Q W E E E W W W W E E E Q Q ! ! ! ! W W W ! ! W ! ! ! ! ! / ! ! ! ! ! ! ! ! ! ! W E ! Q Q ! ! ! ! ! Q E Q ! ! ! ! ! W W W ! ! ! ! ! ! ! ! ! W W ! ! ! ! ! ! ! ! ! / / ! / / ! ! ! ! ! ! ! ! ! ! ! ~ a X           O & l ^ ! W W ~ W W W E W W Q W ! ! b l p p u % @ O       O % a a @         O a z z & O       # s B d $     . , z V l $   O , + @ O .   O % & & % + + % s ~ / ( ( O.O.( ( O.O.O.#.+.+.O.( O.O.( ( ( ( O.O.O.O.( ( / / / ( O.O.O.O.O.#.+.O.O.O.O.( ( ( O.O.O.O.O.( O.O.( O.O.O.O.4.#.O.O.O.O.O.O.O.#.O.O.O.O.@.+.O.+.O.( O.4.O.+.@.+.O.O.O.O.O.O.O.( O.O.O.O.O.O.O.@.+.+.+.@.@.$.+.O.O.O.O.#.X.+.@.O.O.+.#.O.O.+.O.O.( O.O.O.+.8.$.$.+.+.O.O.O.O.O.+.5.4.O.4.5.+.+.$.$.$.@.4.4.4.O.O.O.O.O.O.O.O.O.O.O.O.O.4.O.O.O.O.O.O.O.O.O.O.O.4.O.( ) ) O.O.O.+.O.O.+.$.$.$.%.O.O.( +.+.+.O.+.+.+.+.+.+.%.%.$.=.=.$.+.+.+.+.+.+.+.#.O.O.O.O.O.( O.+.) ( ) ) O.O.( ( ) ) ) O.O.+.O.( O.( ( ) ) ) ) ) ) ( ) ) ) ) ) ) ) ) ) ( ( ) ) ` ` ` %.` ) %.` ` ` ) ) ) ) ) %.) ( ) %.+.` ` %.+.` ` ` ` ' ' ~ ` _ / _ _ _ _ ' ` ` ` ' ^ ' ` ` ' ' ' ' ~ ^ ^ ~ ",
"v b v v v v v v v v v v b b b v b M M M M b M M M b M M M b M M M M M M W W M M M E M M E E E E E E W E E E W W E E E W W E E Q ! Q W ! Q Q ! ! ! ! ! W E W W W E W W E E E E E ! ! W W W E Q Q Q E E E E E E E E E E W W W Q Q Q E E ! Q E E E Q W E E Q ! ! ! Q ! ! ! ! Q E Q Q W ! ! ! ! ! Q E E Q Q E E ! ! Q ! E E E E E E E E Q ! E E E E Q E E E E E E ! ! E E E E E E ! ! E Q ! W E E Q ! ! ! ! E E E E ! ! ! ! ! ! ! ! ! ! ! ! ! ! ! ! ! ! W W W ! ! ! ! ! ! ! ! ! ! ! | ! ! ! ! ! ! ! ! Q ! ! ! W W ! ! ! ! ! ! ! ! ! ! ! ! ! ! ! ! ! ! ! ! ! ! ! ! ! ! W W ! W W W W ! ! Q ! ! ! / ! ! ! ! ! ! E E Q ! ! ! ! Q Q Q Q E ! ! ! ! W W W ! W W W ! ! ! ! ! ! ! ! ! ! ! ! ! ! ! W W ! ! ! ! ! ! ! ! ! E E Q ! ! ! ! ! ! ! ! ! Q ! ! ! ! ! ! ! ! ! ! Q Q ! ! ! ! ! ! ! ! ! ! ! ! ! ! ! ! ! ! ! ! W W d O             . + z ^ _ ! ^ W W W W W Q W ~ ~ k p $ O & d & O         $ , d z %         X a x N d +       O s B z $     . a V N z %   O a & + O . . $ + + + @ + & & d ^ / ) ) ) ) ) ( O.O.O.+.$.+.O.O.O.O.O.O.( O.O.O.O.O.( / / / / ( O.O.O.( O.#.$.O.O.O.O.O.) ) O.O.O.O.O.O.O.#.O.O.O.O.O.4.+.+.+.+.O.O.O.O.O.O.O.4.5.$.$.+.O.O.O.O.O.O.O.+.+.O.O.O.O.O.O.( ) ( O.O.O.O.O.@.$.+.#.O.5.4.+.#.O.O.O.5.+.o.$.$.+.O.+.O.O.O.O.O.O.O.O.O.O.#.+.8.8.+.+.O.O.O.O.O.O.O.O.O.O.+.@.+.O.+.+.O.O.O.4.4.O.O.O.O.O.O.O.O.O.O.O.O.O.O.O.O.O.O.O.O.O.O.O.O.( O.( ) O.O.O.O.+.O.O.#.%.$.$.+.) ( O.O.+.+.+.$.%.) O.O.#.%.` $.$.%.%.$.+.%.$.$.$.$.+.O.O.O.O.O.O.O.O.) ) ) ) ) ) ) ) ) ) ) +.) ) O.O.O.O.( ) ) ) ) ) ) ) ) ) ) ( ( ) +.) ) ) ( ) ) ` ` ` %.%.%.+.) ) ) ) ( ) ` ` ` ` ` +.+.` ` ` %.` ` ` ` ` ` ' ' ` _ ! ! ! _ ! W ' ` ` ' ^ ^ ' ` ' ^ ^ ^ ' ~ ~ ~ ",
"b v v v v v b v v v v v v v v v b b b b b v b b E M M M M b M M M M M M W W M M M M E M M M E E E E W W E E W W E E W W E E E W ! Q E E E E Q Q Q ! ! E E W W W E E E E E E E Q ! ! ! W E E E Q ! E E E E E E Q E E E E W W E E E E E ! Q E E E E W Q E Q / _ / ! ! ! Q E Q ! Q ! ! E Q ! ! ! ! ! Q ! ! Q ! ! ! Q Q E E E E E E E E Q ! E E Q E E E E E E E Q ! Q E E E E E E ! ! E E Q Q E E Q Q Q Q Q E E E E ! ! ! ! ! ! ! ! Q ! ! ! ! ! ! ! ! ! ! W W ! ! ! ! ! ! ! ! / ! ! ! ! ! ! ! ! ! ! ! ! ! ! ! ! W ! ! ! ! ! ! ! ! ! ! ! ! ! ! ! ! ! ! Q Q Q Q Q ! ! ! ! W ! ! ! W W ! ! ! ! ! W ! ! ! ! ! ! ! Q ! ! ! ! ! ! ! ! ! ! Q ! ! ! ! ! ! W W W W W ! ! ! ! ! ! ! ! ! W ! ! ! ! ! ! ! ! ! ! ! ! ! ! W W ! ! ! ! ! ! ! ! ! ! ! ! ! ! ! ! ! ! ! ! ! ! ! ! ! ! ! ! ! ! ! ! ! ! ! ! ! ! ! ! ! ! ! ! ! W W V & O         X $ @ % p m ' ^ ^ W W W W E ~ n p % X   O & a & O       . # a d x & .       O f x N z %       O f z a O     O a x N B & . . % , a % $ $ + + + @ % & a a x  ./ ) ) ) ( O.O.O.O.O.#.$.+.+.#.O.( ( ( ( ( ( ( / ( O.( / / / / O.O.O.( O.#.+.O.O.O.O.O.) ) ( O.O.O.O.O.O.O.@.O.4.O.O.O.O.O.O.O.O.O.O.O.O.O.O.4.4.5.$.$.+.O.O.O.O.O.O.O.O.O.O.O.O.O.O.) ) ( O.O.O.O.O.#.$.+.+.5.4.+.O.O.O.O.+.@.#.+.$.+.O.O.( O.( O.O.O.O.O.O.O.O.O.O.#.O.( ( O.O.O.O.+.#.O.O.O.O.O.#.O.O.O.O.O.O.O.O.O.O.O.O.O.O.O.O.O.O.O.O.O.O.O.O.O.O.O.O.O.O.O.O.O.O.( ) O.#.O.O.O.O.O.O.O.O.#.O.O.( ( O.O.+.%.$.$.$.+.+.+.+.%.+.+.+.+.$.$.$.$.$.$.$.$.+.O.O.O.O.O.O.#.O.( ) ) ) ) ) ) ) +.) +.$.%.) ( O.O.O.( ) ) ) ) ) ( ( ) ) ) ( ) ( +.) ) ) ) ) ) ` ` ` +.$.$.+.) O.( ( ) ` ` ` ` ` ` %.` ` ` ` ` ` ` ` ` ` ` ` ` ` _ ! ! ! _ _ _ _ _ ` ' ^ ^ ' ' ' ^ ' ~ ' ' ^ ^ ",
"T v T v v v b v v v v b b v v v b v v b v v b M M M M M M M M M M M M M W M M M M M E E W M E E E E E W W W E E E E E W W E E W ! Q E W W W W E E E E E ! ! E E W W W E E E E Q Q E Q Q E E E E E E E E E E Q Q E E Q E E W W W E E E ! Q E E E Q ! ! Q Q Q ! ! Q ! ! Q ! ! Q E ! ! W ! ! ! ! ! ! ! ! ! ! ! ! ! ! Q Q Q ! Q ! ! ! ! ! ! E E E E Q E E E E E E ! ! E E E E E E ! ! Q E E ! Q E ! Q Q E E E E E E W ! ! ! ! ! ! ! ! ! ! ! ! ! ! ! ! ! ! ! W ! ! ! ! ! ! ! ! _ ! ! ! ! ! ! ! ! ! W W ! ! ! ! ! ! ! ! Q ! ! ! ! ! ! ! ! ! ! ! ! ! Q Q E Q ! ! ! ! ! ! ! ! W W ! ! W ! ! Q Q Q E E Q ! ! ! W Q ! ! ! ! ! ! ! ! ! ! ! E ! ! ! ! ! ! ! W W W W W ! ! ! ! ! ! ! ! W ! ! / ! ! ! ! ! ! ! ! ! ! ! ! ! ! ! ! ! ! ! ! ! ! ! ! ! ! ! ! ! ! ! ! ! ! ! ! ! ! ! ! ! / / ! W W ! ! ! ! ! ! ! ! ! ! ! ! W ! W s % .     . $ + % + + & z ^ ^ ~ W W ~ W n p $ .     O & d a O         + d x x & O       $ d m B x +       . , a & $ .   # f B N m & O   O + % + + @ + + + # , a a V N | X.O.O.O.O.O.O.X.X.O.O.#.+.#.#.O.O./ O.( ( ( ( ) ) ( ( ( ( ( / ( O.O.( O.O.O.O.O.O.( ) ) ) ( O.O.O.O.O.O.4.O.O.4.O.O.4.4.4.4.4.O.O.O.O.O.O.O.O.4.4.#.+.+.O.O.O.O.O.O.O.O.O.O.O.O.O.O.( ) ( O.O.O.O.O.O.#.+.#.+.+.O.O.O.O.O.+.+.O.#.#.O.O.O.O.O.O.O.O.O.O.O.O.O.O.O.O.O.O.O.O.O.O.O.O.#.O.4.4.O.O.O.O.O.O.4.4.4.4.O.O.O.O.O.O.O.O.O.O.O.O.O.O.O.O.O.O.O.O.O.O.O.+.O.O.O.O.( ( #.$.+.O.O.( O.O.O.O.O.O.O.O.O.O.O.+.$.%.$.$.$.$.$.$.+.O.O.O.+.+.+.+.O.+.%.%.%.O.O.O.O.O.O.O.+.+.O.( ) ) ) ) ) ) ) O.$.%.%.+.) O.O.O.( ) ) ) ( ( ( ) ) ) ) ( ( ) ) ) ) ) ) ) ) ) ` ` +.` +.+.` +.) ) ) ` ` ` ` ` ` ` ` ` ` ` ` ` ) ) _ ) _ _ ` ` ` ' _ ! _ ` _ ! / ) ) ' ' ~ ' ' ^ ' ' ' ' ^ ^ ",
"b v T v v v v b b b b b b b b b b v b b v b M M b M M M M M M M M M M M M M E M M M E E E E E E E E E W E W E E E Q E E E E E W E E W ~ ~ ~ W W E E Q Q ! ! E E W E W Q E E E Q Q E E E E E E E E E E ~ E E Q E E E Q Q E E E E E E E W Q Q E E Q ! ! ! Q Q Q Q Q ! ! ! ! ! Q Q W W ! ! ! ! Q Q Q Q ! Q ! ! ! Q Q ! E E Q Q Q Q Q Q Q Q E E E Q Q Q Q E Q W Q ! ! E E E E E E Q Q Q E Q ! Q E Q Q E E Q E E Q Q W W ! Q ! ! ! Q ! ! ! ! ! ! ! / / ! ! ! ! ! ! ! ! ! ! Q Q Q ! ! ! ! ! ! ! W W W W W Q ! ! ! ! ! Q Q ! ! ! ! ! ! Q ! ! ! ! ! Q E E E Q ! ! ! ! ! ! ! Q E E E W W ! ! Q Q Q Q Q ! ! ! W E Q ! ! ! W W ! ! ! ! ! ! Q Q ! ! ! ! ! Q E E W W W ! ! W W W ! Q ! ! ! / / ! ! ! ! ! ! ! ! ! ! ! / / ! ! ! ! ! / / ! ! ! ! ! ! ! ! ! ! ! ! ! ! ! ! ! ! ! ! / / / ! W W / / ! ! ! ! ! ! ! ! ! ! ! ! ! W d & + % + % , a a , + % d B ^ ~ Q ~ W l % .       X % i d @   .     # d z z d O       $ s B B x & .       $ & + O .   $ s B N n & .   . $ + + @ @ + + + & , & s A  .| O.O.#.#.O.O.O.X.| O.O.O.+.O.O.O.O./ O.O.( ( ( ) ( ( / / / / / ( O.O.O.O.O.O.O.O.( ( ( ( ( ( O.O.O.O.O.O.4.O.O.O.O.O.4.4.4.4.O.4.O.O.O.O.O.O.O.O.O.O.O.#.O.O.O.O.O.O.O.O.O.( ( O.O.O.O.( ( O.O.O.O.O.O.O.O.O.#.O.O.O.O.#.#.+.#.O.O.O.O.O.( O.O.4.O.O.O.O.O.O.O.O.O.( ( O.O.4.O.O.O.O.O.O.4.O.O.O.O.O.4.O.4.4.4.4.4.4.O.O.O.O.O.O.O.O.O.O.O.O.( O.O.O.O.O.O.O.O.#.O.O.O.O.( ( O.+.+.O.O.) O.O.O.O.O.O.O.+.+.#.O.O.) +.$.$.%.+.$.%.+.O.+.+.%.O.O.#.( +.+.+.+.) ) O.#.O.( O.O.) O.) ) ( ( ( ( ) ( O.+.+.+.O.( +.O.O.( ) ( ( ( ( ( ) ) ) ( ( / ( ( ) ( ( ) ) ) ) ` ` +.` ) ` ` ` ` ` ' ' ` ` ` ` ` ` ` ` ` ` ` ` ` ) _ ) / ! ) ` ` ` ' _ ' ` _ / _ _ ' ) ' ~ ' ' ~ ` ' ' ' ~ ^ ",
"v v v v v v v v b b T T b v b M b v v v b b M M b M M M M E M M M M M M M E E M M M E E E E E E E E W E E Q W E E Q Q W Q Q E W W W W ! W W W W Q E Q Q Q Q W W W W W E E E E E E E E E E E E E E E E E E E E E E E E Q E E E E E E E E W ! E E Q / ! ! E E E E E ! ! ! W ! ! ! W W ! ! ! ! ! ! ! ! E E E E E E Q ! E E E E E E E E E E E E E E E Q Q E Q ! Q Q E E E E E E E E E E E Q ! E E E E E ! ! Q Q Q Q ! W W ! ! ! ! ! ! ! / / ! ! ! / / ! ! ! ! ! ! ! ! ! ! Q Q ! ! ! ! ! ! ! ! ! W W ! W ! ! ! ! ! ! ! ! ! ! ! ! ! ! Q Q ! ! ! ! ! W W W W ! Q Q W Q ! Q E E E E W ! ! ! ! ! ! ! ! ! ! Q E W W ! ! W W W ! ! ! ! ! ! ! E Q ! ! ! Q E Q Q E Q ! ! ! W W W ! ! ! ! ! ! W ! ! ! ! ! ! ! ! ! Q Q ! ! ! ! ! W ! / / ! W ! ! ! ! ! ! ! ! ! ! ! ! ! ! ! ! ! ! ! ! ! ! ! / / / ! | ! ! ! ! ! ! ! ! ! ! ! ! W V d d a a a a & % O O O % p m c m m z % .       O , p p %       . # d m m d $       O d B N B d O       . X O X     X a B N V & .     O + @ @ @ + + % % a a V  .| X.O.O.#.O.( ) ( O.X.O.O.O.O.#.#.O.O./ ( ( ) ( ( ( ( / / / / / ( / ( ( ( O.O.O.( ( / / O.O.( ( O.O.O.O.O.O.O.O.O.O.O.O.O.4.4.4.O.4.O.O.O.O.O.O.O.( O.O.O.O.O.O.O.O.O.( O.O.O.O.O.O.O.O.O.O.O.O.O.O.( ( O.#.+.O.#.O.O.O.+.+.#.+.O.O.4.O.O.O.O.O.O.O.O.O.O.O.O.O.O.O.O.( O.O.O.O.O.4.4.O.O.O.O.O.O.O.O.O.O.O.O.#.#.O.O.O.O.O.O.O.4.O.O.O.O.O.O.O.( O.( ( O.O.O.O.O.O.O.O.O.O.) ) ) O.O.O.( ) O.O.O.O.O.O.O.+.+.+.) ) ) +.+.%.+.O.@.$.%.` %.+.+.+.#.+.#.$.+.+.#.) ` +.$.+.O.O.+.` ) ) ) ( O.#.+.@.#.O.+.+.) ( O.) ) ) ) ( / ( ) ) ) ) ( ( ( ( ( ) ) ) ) ( / ( ) ` ` ` ` ` ` ` ` ` ` ` ' ' ` ` %.` ` ` ` ` ` ` ` ` ` ` ` ) / ! _ _ ` ` ` ` ` ` ` ` ' ~ ^ ' ' ^ ^ ^ ^ ' ' ~ ~ ` ' ",
"v v v v v v v v v v T T b v v b b v v b b M M b b M M M M M M M M M M M M E E M M M M E E E E E E E E E W E W W E E W | ! ! W W W W Q ! ! W W W Q E E E E E Q W W W W E E E E W E E E E E E E E E E E E E E E E E E E E E E E E E E Q ! W E E E Q Q Q Q Q ! ! ! ! ! ! ! W W ! ! ! ! Q E Q Q ! ! ! ! E E E E E E Q ! E E E E E E E E E E E E E E E E E E E E Q E E E E E E E E E W ! Q Q Q E E E E E Q ! ! ! Q Q ! W ! ! E Q ! ! Q / / / / Q ! ! ! ! ! ! ! ! ! ! ! ! ! ! ! ! ! / ! ! ! ! ! ! ! ! ! ! ! ! ! ! ! ! ! ! ! ! ! ! W ! ! Q ! ! ! Q ! ! W W W ! ! ! W E E Q ! Q Q W W ! ! ! _ ! ! ! ! ! ! ! ! ! ! ! ! ! ! ! ! ! ! ! ! W Q Q Q ! Q Q Q ! Q Q ! ! ! ! W W ! ! ! ! ! ! ! ! ! _ ! ! ! ! ! ! ! ! ! ! ! ! ! ! ! ! ! ! ! ! ! ! ! ! ! ! ! ! / / ! ! ! ! ! ! ! ! ! ! ! ! ! ! / / / ! ! ! ! ! ! ! ! ! ! ! ! Q ! ! W M V V V a & @ X       . O + & p p p @ .       O , a d , O     X % z B B V &       X a B N N z % .     . $ + % O     % x M N a O     . O @ @ @ % % & a V N ! ! / ) ( O.O.O.O.( ( O.O.( O.#.#.+.+.O./ / ( / ( ) ) ( / / / / ( ( / ( ( O.X.O.O.O.) ) ) ) ( ( ( O.O.O.O.O.O.O.O.O.O.O.O.O.O.O.O.O.O.O.O.O.O.O.O.O.O.O.O.O.O.O.O.O.O.O.O.( O.O.O.O.O.O.O.O.O.O.#.O.O.O.O.O.O.O.+.#.O.O.#.O.O.O.#.O.O.O.O.O.O.#.+.O.O.O.O.O.O.O.O.O.O.O.O.( O.O.O.#.O.O.O.O.O.O.O.O.O.O.O.O.O.O.#.#.O.O.O.O.O.O.O.O.O.O.O.O.O.O.O.( O.( ( ( ( O.O.O.O.O.O.O.O.O.) ) ( O.( ) ) ( O.O.O.O.( ( O.O.+.+.+.%.%.+.) +.+.+.+.+.%.%.%.%.+.+.+.+.+.$.$.$.$.%.$.%.%.+.( O.O.) ) ) ) ) +.$.+.+.+.$.%.) ) ` ` ` ) ) ) ( / ( ) ) ) ) ) ( / / O.) ) ) ) / ( ( ) ) ` ` ` ` ` ` ` ` ` ` ' ' ` +.%.` ` ` ` ` ` ` ` ` ` ` ` ` _ / ! / ` ` ` ` ` ' ' _ ` ' _ ' ' ~ ^ ^ ^ ^ ` ' ~ ~ ~ ",
"v b b b b v b b b v T T b v v v v v b b M b M M M b b M M M M M M M M M E E E M M M E E E E E E E E E E W W W E E Q Q W E E ! ! ! ! Q Q W W W E E E E E E E Q E E E E E E E Q E E E E E E E E E E E E E E E E E E E E E E E E E E E E Q E E E Q Q E E E ! Q Q Q Q ! ! ! W W W ! ! ! ! Q E Q ! ! ! ! E E E E E E Q E E E E E E E E E E E E E E E Q E E E E E E ! Q E E E E Q ! W W ! Q E E Q Q E E Q Q Q E Q ! ! E Q Q W Q ! ! ! ! ! / / ! ! ! ! ! ! ! ! ! ! ! ! ! ! ! ! ! ! ! ! ! ! ! ! ! ! Q ! ! W ! ! ! ! ! ! ! ! ! ! ! ! W W ! Q Q Q Q ! Q Q ! W W ! ! ! W W Q ! _ ! ! W W W W ! _ W W ! ! ! ! ! ! W ! Q ! ! ! ! ! ! ! ! ! W ! W ! ! ! Q Q Q E Q ! ! ! ! ! ! ! ! ! ! ! ! ! ! W ! ! ! ! ! ! ! ! Q ! ! Q Q ! ! ! ! ! ! ! ! ! ! ! ! ! ! ! ! / / ! ! ! ! ! ! ! ! ! ! ! ! ! ! ! ! ! ! ! ! ! ! ! / / ! ! ! Q Q W W ! ! E M n p X .             O @ % % % $         O , s x d +       + d B N V a O     . & z M M m a O     # f d d % .   O a B N l % .     X + + % % & a x  .| ( ( / / / O.O.O.O.O.O.( ( ) +.+.%.O.O.O.O.O./ / ( ( ( ( ( / / / / ( ( ( +.+.$.+.) / ( O.O.O.( O.O.O.O.O.O.O.O.O.O.O.O.( O.O.O.O.O.O.O.O.O.O.O.O.O.O.O.O.O.O.O.O.O.O.O.O.( ( O.O.O.O.O.O.O.( ( O.+.#.O.O.O.O.O.O.O.O.O.O.O.O.O.#.+.O.O.O.O.+.#.+.+.+.+.#.+.#.O.O.O.O.O.O.O.O.O.O.O.#.O.O.O.O.O.O.O.+.O.O.O.#.+.@.@.+.O.O.O.O.O.O.O.O.O.O.O.O.O.( O.O.O.O.O.O.( ( O.O.O.O.O.O.O.O.O.O.( O.( ) ) ) ) ( O.O.( ) O.O.+.$.$.$.) +.%.+.+.%.+.) ` %.$.$.+.O.+.+.) +.+.%.$.$.%.%.+.) O.O.O.( ( ) ) ) 8.8.%.%.$.$.O.) ) ) ) ) ) ) ) ) ( ( ( ) ) ) ) ( / O.( ( ) ) ) / / / ( ) ` ` ` ` ` ` +.+.` ` ` ` ` ` ` ` ` ` ` ` ` ' ` ` ` ` ` ` ` _ / / / / / / _ ' ' ' ' ' / ~ ^ ^ ^ ! ! ~ ' ' ^ ^ ^ ",
"v b M M b v v v v b T b v v v v b v b M M M M b b b b b M M M M M E E E E E E M M M M E E E E E E E E E W M W E E E E E E Q ! ! ! ! Q Q W W W E E E E M W E E E E E E E E E E E E E E E E E W W E E E E E E E E E E E E E E E E E E E E E E E Q W E E E Q E E Q Q ! ! ! W W W W ! / ! ! Q Q ! ! ! Q E E E E Q E Q Q E E E E E E E E E E E E E Q ! Q E Q E E E ! Q E E Q Q ! W W W Q E E E Q Q E W W W Q Q ! ! ! E Q Q E ! ! ! ! W W ! ! W W ! ! Q Q ! ! ! ! ! ! ! W ! ! / ! ! ! ! ! ! ! ! ! Q ! W Q Q ! ! ! W W W W ! ! ! ! Q W ! W E Q ! ! ! ! ! Q E E ! W E E E Q ! ! ! ! W W W W ! W W W ! ! ! ! ! ! ! Q ! ! ! ! ! ! Q ! ! ! ! W W ! ! ! Q E Q ! ! ! Q E ! ! Q Q ! / / _ ! ! W ! ! ! ! ! ! ! ! ! ! ! W W ! ! ! ! ! ! ! ! ! ! ! ! ! ! ! ! / / ! / ! ! ! ! ! ! ! ! / / ! ! ! ! ! ! / ! ! ! ! / / ! ! ! ! ! W E ! / W W l % .             . # , a a a , O       O & V N m a O     $ f B V N d $       % z M M N l + .   $ d V V d $   . % d l k d % O . O + % , a s V  .| X.( O.X.| X./ / / ( O.O.( ( ( +.+.+.+.#.O.( X.X.( O.( ) ) ( / / / / ( O.( +.%.%.$.%.+.O.O.O.O.O.O.O.X.o.O.O.O.O.O.O.O.O.( O.O.O.4.O.O.( O.O.O.O.O.O.O.O.O.O.O.O.O.O.O.O.O.( ( O.O.O.O.O.O.( O.O.( ( O.#.+.O.O.O.O.O.O.O.O.( ( ( O.#.O.O.O.O.#.O.+.+.+.+.+.+.+.O.O.O.O.#.O.O.O.O.O.O.O.O.#.#.O.O.O.#.+.O.O.+.+.+.+.+.O.O.O.O.O.O.O.O.O.O.O.O.O.O.( ( O.O.O.O.O.( ( O.O.O.O.O.O.O.O.( O.( ( O.( ) ) ) ) ( O.( ) O.O.X.o.+.+.) ) ) +.+.+.) ) ) ) O.+.O.O.) +.) ) ` %.%.+.O.) ` ` ) O.O.O.O.O.) ) +.5.+.+.$.+.( ) ( ( ) ( ( ) ) ) ( ( ( ) ( ) ) ) ( X.O./ ( ( ( ( / / ( ) ` ` ` ` ` +.%.%.` ` ) ` ` ` ` ` ` ' ` ` ` ' ' ` ` _ _ ` ) _ / ! ! ! ! ! ! / _ ~ ^ _ / ! ~ ^ ^ ' / _ ~ ~ ^ ^ ^ ",
"v v v v v v v v v v v v v v v v b b b b b M M M b b v v b b M M M M M M M M M M M b b M E E E E E E E E E W E W W W Q W W W W W W W W W W W W E E E E W W E E E E W M E E E E W W E E Q E Q ! E E E E E E E E E E E E E E E E E E E E E E E E E E E E E E E Q Q Q Q E E W W Q Q ! ! ! ! ! ! ! Q E E E E E E ! Q E E E E E E E E E E E E E E Q Q E E Q ! E E E E E E E ! ! ! ! Q E E E E E E Q ! Q E Q ! E Q ! ! Q E E W Q ! ! ! ! ! ! ! Q Q ! ! ! ! ! ! ! ! ! / / ! ! ! ! ! ! ! ! ! W W ! Q ! ! ! W W ! Q E W W ! W E ! ! ! ! W W W ! ! ! ! ! ! Q E W W W W E E E E E E E ! ! ! ! W W W W W W ! ! ! ! ! ! ! ! ! ! ! ! W ! ! ! ! ! ! ! ! Q ! Q E Q ! ! ! Q Q ! ! ! ! _ _ ! ! ! ! ! ! ! ! ! ! ! ! ! ! ! ! ! ! ! ! ! ! Q ! ! ! ! ! ! / ! ! ! ! ! ! ! ! ! ! ! ! ! ! ! ! ! / ! ! ! ! ! ! ! ! ! ! ! ! ! ! ! ! ! ! W E E Q ! W l % .             O & d V V V d & .     O & z n V d + .   X a x N N V & .     + z n b b c & .   O a l V V a O   . % z n l d a & % % , d V N | | | O./ ( X.| | / / X.X.) ) ( O.O.O.O.X.O.O.O.O.O./ / ( ) ) ( / / / O.O.O.( ) ) ) +.+.+.O.( O.O.( O.O.O.O.#.O.O.O.O.O.O.O.( O.O.O.O.O.O.O.O.O.O.O.O.( ) ( O.O.O.O.O.O.O.O.O.( O.4.4.O.O.O.O.O.O.O.O.O.O.O.O.O.O.O.O.O.O.O.O.O.( O.O.O.+.#.+.+.O.O.O.O.O.+.+.+.#.O.O.O.O.#.+.O.O.O.O.O.O.O.+.$.+.#.O.O.#.O.O.O.5.$.+.#.O.O.O.O.O.O.O.O.O.O.O.O.O.O.O.O.O.O.O.( ) ) ) ) ) ) O.O.( ( O.O.) ) ) ) ) ) ) ) ) ) ) ) ) ) ( ( ) O.O.) ) ) ) ( ) +.+.+.O.( O.#.+.+.) ) ( O.+.$.` ) O.+.%.%.+.( ( O.( ) ) ) ) ) ) +.+.+.) ) / ) ) ) ( ( ) ) ) ) ) ) ) ( ) ) ) ) ( / ! / O.( ) ) ( / ) ` ` ` ` ' ' +.` ) ) ` ` ` ` ` ` _ _ ` ` ` ` ` ` / _ ` ` _ _ ! ! ! ! ! ! ! / ' ' _ / ! ~ ~ ^ ' ' ' ~ ^ ^ ^ ^ ",
"v v v v v v v v v v v v v v v v v v b b b M M M b b b b M M M M M M M M M M M M M M M E E E E M E E E E E Q W W W W E E E W W W W E W W W W W E E E E E E Q Q E E W W E E E E E E Q Q ! Q E Q E E E E E E E E E E E E E E E E E E E E E E E E E E E E E E E E Q ! Q Q E W W Q E ! ! ! ! ! ! Q E E E E E E E ! Q E E E E E E E E E E E E E E E E E E Q E E E E E E E E Q Q Q Q Q E E E E E Q E E E E E Q E Q ! ! ! Q W ! Q ! Q ! ! ! ! ! ! ! ! ! ! ! ! ! ! ! ! ! ! ! ! ! ! Q Q ! ! ! ! ! ! ! ! ! ! ! ! Q E W W ! ! Q E Q ! ! ! W W W W ! ! ! ! Q Q ! W W W W W Q Q E E E Q ! ! ! ! ! W W W W W W ! ! ! ! ! ! ! Q ! ! ! ! Q ! ! ! ! ! ! ! Q Q E E Q ! ! ! W W ! ! ! ! ! _ ! ! ! ! ! ! ! ! ! ! ! ! ! ! ! ! ! ! ! ! ! ! ! ! ! ! ! ! ! ! ! ! ! ! ! ! ! ! ! ! ! ! ! ! ! ! ! ! ! ! ! ! ! ! ! ! ! ! ! ! ! ! ! ! ! ! W E Q W W W V & O             O a V N M M N a @ O     + d m N V a O   . % x b b b d O     X a m m m m & O   X & z M N V & X   . % l l l d a d s x N W W | | ! O.( ( X.| | ( O.O.O.( ( O.O.O.O.X.X.O.O./ / O.( / ( ( ( ) ( / / ( O.O.( ( ) ) +.O.O.O.( ( ( ( O.O.O.O.O.O.O.O.( O.O.O.O.O.O.O.O.O.O.O.O.O.O.O.O.O.O.O.O.O.O.O.O.O.( ( ( O.O.O.O.O.O.O.O.O.( ( O.O.O.O.O.O.O.O.O.O.O.O.O.O.O.O.O.O.#.+.%.) O.O.( O.#.+.$.$.+.O.O.O.O.O.O.O.O.O.O.O.O.O.+.$.+.O.O.#.%.+.+.+.@.$.#.O.O.O.O.O.O.O.O.O.O.O.O.O.O.O.O.O.O.O.( ) ) O.) ) ) ( O.( ) ( ( ( ( ) ) ) ) ) ) ) ) ) ) ( ( ) ) ( ( O.O.) ) ) ) ) ) %.@.+.+.+.+.O.) ) O.O.( O.+.$.%.%.+.#.+.$.$.) ) ( ( ) ) ) ) ) ) ) ) ) ) ) ( ( ) ( ) ) ) ) ) ) ) ) ) ) ) ) ) ( / / / ( ( ) ) ) / / _ ` ` ` ` ` ` ` ` ) ) ` ` ` ) ` ` _ o._ _ ) ` ` ` ` ` ` ` ` _ ! ! ! ! ! ! ! ! _ _ _ ! ~ ^ ^ ^ ^ ^ ' ' ^ ^ ^ ^ ",
"c v v v v v v v v v v v v v v v v v b b b M M M b M M M E M M M M M M M M M M M M M M M M M W M M M E E E E W W W E E E E E E E E E E W W W E E E E E E E Q Q E E M W W E E E E E Q Q Q E E E E E E E E E E E E E E E E E E E E E E E E E E E E E E E E E E E Q ! ! Q W W ! Q Q ! ! ! ! ! Q E E Q Q E E E E ! Q E E E E E E E E E E E E E E E E E E E E E E E E E E E E E E E E E E E E E E E E E E E E E E W ! E E E Q Q ! Q ! ! ! ! ! ! ! ! ! ! ! ! ! ! ! ! ! ! ! ! ! ! Q Q ! ! ! ! ! Q ! ! ! ! ! ! E ! W W ! ! Q W W ! ! ! W W W W ! ! ! ! ! ! ! W W W W W ! ! W Q ! ! ! ! ! ! ! ! ! ! W W W ! ! ! ! ! ! ! ! ! ! ! ! ! ! ! ! ! ! ! ! ! ! Q E ! ! ! ! ! ! ! ! / ! ! ! ! ! ! ! ! ! ! ! ! ! ! ! ! ! Q Q ! ! ! ! ! ! ! ! ! ! ! ! Q ! ! ! ! ! ! ! ! ! ! ! ! ! ! ! ! ! ! ! ! ! ! ! ! ! ! ! ! ! ! ! ! ! ! Q Q ! W W ! W W W M d & O O O O O O , x W W W W W d % + .   O , x m V l % .   O a n b M V & X   . & z m m n l +     % d n M c d + X . . + p u d V N N | | ! / / ! / O.( ( X.| X.) O.O.( O.O.O.O.O.O.( O.O.( ( / O.( / / / / ( ) ( ( / ( O.( ( ( ( ( ( ( ( O./ ( O.O.O.O.O.O.O.O.( ) ) ( O.O.O.O.O.O.O.O.O.O.O.O.O.O.O.O.O.O.O.O.O.O.O.( ( O.O.O.O.O.O.O.( / O.( ) ) ( ( O.O.O.O.O.O.O.O.O.O.O.O.O.O.O.O.+.%.+.O.O.( O.X.X.+.%.%.O.O.O.O.O.O.O.O.O.O.O.O.O.O.+.O.O.#.@.$.$.$.$.$.$.+.O.O.O.O.O.O.O.O.O.O.O.O.O.O.O.O.O.O.( ( ( ( +.+.) +.) ( ) ) ) ) ( ( ) ( ( ( ) ) ( ( ( ( O.( ) ( ( O.O.( ( ( ) ) ( +._ X.#.+.+.` O.( ) O.O.O.+.+.$.$.$.+.O.O.O.) ) ( O.O.) ) ) ) ) ) ) ) ) ) ) ( ) ) ( ) ) ) / ( ) / / ( ( ) ) ( ( ) ) ) ) ( ( ( ) ( ( ) ` ` ` ` ` ` ` ` ` ` ` ` ) ( ) ` _ ! ! / ( ) ` ` ` ` ` _ _ _ Q ! ! ! ! ! ! ! _ Q R ' ^ ^ ^ ^ ^ ^ ' ` ^ ^ ^ ^ ",
"b b v v v v v v v v v v v b b b b b b v b M M M M M M M M M M M M M M M M M M M M M M M M M M M M M E E E E W W W E E E E E E E E E E W W W E E E E E W W E E E E W M W W W W E E E E E E E E E E E E E E E E E E E E E E E E E E Q Q E E E E E E E E E E W E Q ! ! ! Q ! ! Q Q ! ! ! ! ! Q E E Q Q E E E E ! Q E E E E E E E E E E E E E E E E E E E E E E E E E E E E E E E E E E E E E E E Q Q E E E E E E W Q Q Q ! Q ! Q ! ! ! ! ! ! ! Q ! ! ! ! ! ! ! ! ! ! ! ! ! ! ! ! ! W Q ! ! E Q ! ! ! ! ! ! ! W W ! ! ! W ! ! ! ! W W W ! ! ! ! W ! ! ! W W W W W ! ! ! ! ! ! ! ! W W ! / W W W ! ! ! ! ! / ! ! ! W W ! ! ! ! ! ! ! ! ! ! ! ! ! ! ! ! ! ! ! ! ! ! ! _ ! W ! ! ! ! ! ! ! ! ! ! ! ! ! ! ! ! ! Q ! ! Q Q ! W W W ! ! ! ! ! ! ! ! ! ! ! ! ! ! ! ! ! ! ! ! ! ! ! ! ! ! ! ! ! ! ! ! ! ! ! ! ! ! Q E ! W W W W W M M N d , % & , & a V W W Q E W W M V d , % @ % p d z z a O   . & z n M V a O     + d n M M V & .   O & l V k u & + + % , d V N  .W / ! ! / / / / O./ / ( X.| X.( O.O./ O.O.O.O.O.( ( +.) ) ( ( O.( / / ( ( ( ( ( ) ( ( ( ( ( ( ( ( ( ) ) O.( O.O.O.O.( ) ( O.O.( ) ) ( O.O.O.O.O.( ( ( O.O.O.O.O.O.O.O.O.O.O.O.( ( ( ( O.O.O.O.O.O.O.O.( ( O.( ) ) ( / ( O.O.O.O.O.( O.O.O.O.( O.O.O.O.#.+.( ( O.O./ / X.O.+.%.+.O.#.O.O.O.O.O.O.O.O.O.O.O.O.O.O.#.$.$.$.8.$.+.$.+.O.O.O.O.O.O.O.O.O.O.O.O.O.O.O.O.( ( ( #.+.O.) +.%.%.+.) ) ) ) ) ) ) ( ( ( ( ( ( ( ( / / ( ) ( / ( +.O.) ( O.) ) O.+.o.o.+.+.+.+.) ( O.O.O.O.+.+.$.$.$.+.( O.+.+.) ) ( O.O.O.) ) ) ) ) ) ( ( ) ) ) ) ) ) ) ( / / ) / ! X.) ) ) ) ) ) ) ) ) ( / ) ( / / / _ ` ` ` ` ` ` ` +.` ` ) ) ) ) ) ' / _ ) ' ' ' _ ' ' _ ! ! ! Q ! ! ! ! ! ! ! ! ! Q ~ ^ ^ ^ ^ ^ ^ ^ ' ~ ^ ^ ^ ",
"b v v c v v v v v v v v v b b b v v v v b b M M M E E M M T b b M M M W M M M M M M M M E E E W W M E E E E E E E W Q Q W Q E E E E E E E E Q ! Q E W E E E E W E E E E E E M W W E E E E E E E E E E E E E E E E E E E E E E E Q E E E E E E E E E E E E E E E E E E E Q Q ! Q Q Q E E E E E E E E E E E E E E E E E E E E E E E E E E E E E E E E E E E E E E E E E E E Q Q Q ! Q E Q Q E E Q E E E Q Q E E Q Q ! ! ! ! Q ! ! ! ! ! ! ! ! ! ! ! ! Q Q ! ! ! ! ! Q ! ! ! Q Q ! ! ! ! ! ! Q ! ! ! ! ! ! ! ! ! ! ! ! W E W ! ! ! ! ! ! ! ! ! Q E Q E Q ! ! ! ! ! E Q ! W ! ! ! ! ! ! ! ! ! ! ! ! ! ! ! / ! ! Q Q Q Q ! ! ! ! ! ! ! ! ! ! ! ! ! ! W W W E Q ! ! ! ! ! ! ! W ! ! ! / / / ! ! ! ! ! ! ! ! ! ! ! ! ! ! ! W W W W ! ! ! ! ! ! ! W ! ! ! / / ! ! X./ / ! ! / / / ! ! ! ! ! ! ! ! ! / / ! ! ! Q Q ! W Q W ! E N M n d a a a a s V N W W E Q ! ! Q ! W N V d a & & & p & O     O & z n n l & X   $ a l V M n l & O $ & l l V V V V x A N W W ! ! ! / / ! / ) ( / / / / / / O.O.O.( ( / | / ( / / ( ( O.( ( O.O.( / ( / / ( ( ( ) ( ) ) ) ) ) ( ) ) ) ) ) ) ( / O.O.O.O.) ) ( ( ( ( O.O.O.O.O.O.O.O.O.O.O.O.O.O.O.O.O.O.O.O.O.O.( O.( ( ( O.O.O.O.O.O.( O.O.O.O.( ( O./ ( ( O.( / O.( ( O.( O.O.O.O.) ) ) ) ( O.O.8.O.( O.O.O.$.%.+.#.O.O.O.O.O.O.O.O.O.O.O.O.O.O.+.+.$.$.$.$.+.#.O.O.O.O.#.O.O.O.O.O.O.( ( O.O.O.( ) ) ) ) O.+.+.+.@.$.+.+.+.) ) ) ) ) ) ( ( ) ) ) ) ( / / ( ) ( ( ( ( ) O.O.( ) ) ) ) ) %.+.( +.$.+.( O.O.O.O.O.#.+.$.+.` ) ) ) ) ) ) ( ) ) ) ) O.O.O.O.) ) ) ) ( ) ) ) ` ) ( ( ) ) ) / / ( ( ( ( / / ) ) _ / ! / ( / / / _ ' ` ) ) ` ` ` ` ' ' ` ` ` ` ` ' / _ ' ^ ' ' _ ! ! ! ! Q E Q ! ! ! ! Q ! / ! ! ! Q ~ ^ ^ ^ ~ ^ ^ ^ ^ ^ ^ ^ ",
"v c v v v c c v v v v v v b b v v v v v b M b b b b b b M b b M b b b M M M M M M M E M M E E E E M E E E E E E E W E E W W E E E E E E E E E Q Q E W E E E E W E E E E E W M W W E E E E E E E E E E E E E E E E E E E E E E E E E E E Q Q Q Q Q E E E E E E E E E E E E Q Q Q Q Q Q E E E E E E E E E E E E E E E E E E E E E E E E E E E E E E E E E E E E E E E E E E Q Q Q Q E E E E E Q Q E E E E E E E E E E Q Q ! Q ! ! ! ! ! ! ! ! ! ! ! ! Q Q ! ! ! ! ! ! ! Q ! Q ! ! ! ! ! ! ! Q ! ! ! ! ! ! ! ! ! ! ! ! W E W ! ! ! ! ! Q ! ! ! Q E E Q ! ! ! ! ! ! E Q ! ! ! ! Q ! ! ! ! ! ! ! ! ! ! ! ! ! ! ! W Q E Q ! ! ! ! ! ! ! ! ! ! ! ! ! ! E E W ! ! ! ! ! ! ! ! ! ! ! ! ! ! ! ! ! ! ! ! ! ! ! ! ! ! ! ! ! ! W W ! ! ! ! ! ! ! ! ! ! ! W ! / / / ! ! | ! ! ! ! ! ! ! ! ! ! ! ! ! ! ! ! / / ! ! ! ! ! ! W ~ ! ! E c i u p & , a a V N W Q W E Q ! ! ! ! ! W W N N N V x d & O     . O & l V N d & % & V V N W M N V s s x N E W W W W W W W W / ! ! ! / / / / ( ( / / / / / ( O.( / / / ! | / / / / / / / ( ) ( / / / / / / / / ( ) / ) ) ) ) ) ) ) ( ) ) ( ( O./ / O.O.O.O.O.O.( O.O.O.O.O.O.O.O.O.O.O.O.O.O.O.O.O.O.( / ( O.O.( O.O.( ( / ( O.O.( O.O.O.O.( O.( / / O.O.( O.O.( / O.O.O.O.( O.O.O.O.) ) ) ) ( ( ( +.+.( O.O.O.+.+.#.O.O.O.O.O.O.O.O.O.O.O.O.O.O.4.O.O.%.%.$.$.$.O.O.O.O.O.O.O.O.O.O.O.( ( ( O.O.O.( ) ) ) ) O.$.+.#.+.#.#.+.+.) ) ) ) ) ) ( ( ) ) ) ) ( ( ( ) ) ) ) ) ( ) O.O.( ) ) ) ) ) ) O.O.+.+.( ) ) ( O.O.O.O.O.+.) ) ) ( ( ) ) ) ) ) ) ) ) ( ( ) ( ) ) ) ) ( +.%.` ` ` ) ( ) ) ) ) ) / ( / / / _ ) ` ) / / ! ( ) ) ) _ / / ( ) ` ` ` ` ) ' ` ` ` ` ` ' _ ` ` ' ' ` _ / ! ! Q E E Q ! ! ! ! Q ! / _ / ! E W ^ ^ ~ ~ ^ ^ ^ ^ ^ ^ ^ ",
"v v v v v v v v v v v v v b b v v v v v v b v b b b E W M b b b b b b E M M M M M E E W M M E E E E E E E E E E E W W W W W E E E E E E E E E E E E E E E E E W W W W E E W W W W E E Q Q E E E E E E E E E E E E E E E E E E E E E E E Q W W Q Q E E Q Q E E E E E E E E ! o.! Q W W E E E E E E E E E E E E E E E E E E E E E E E E E E E E E E E E E E E E E E E E E E E E E E E E E E E Q Q E E E E E E E E E E E E ! Q ! ! ! ! ! Q ! ! ! Q Q ! Q Q ! ! ! ! ! ! Q Q ! ! ! ! ! ! ! ! ! ! ! ! ! ! ! ! ! ! ! ! ! ! W E W ! ! ! ! ! Q Q ! ! ! Q E Q ! ! ! ! ! Q ! ! Q Q Q E E Q Q ! ! ! ! ! ! ! ! ! ! ! ! ! ! Q E E ! ! ! ! ! ! ! Q ! ! ! ! ! ! Q E Q ! ! ! ! ! ! ! ! ! Q ! ! ! Q ! ! ! ! ! ! ! ! ! ! ! ! ! ! ! ! ! ! ! ! ! ! ! ! ! ! ! ! ! ! ! ! ! ! ! ! ! ! ! ! ! W ! ! ! ! ! ! ! ! ! ! ! ! ! ! ! ! ! ! ! Q Q ! E i p % + + @ + a d V W E ! ! Q Q ! ! ! ! ! ! ! ! ! W W W A x & O . . O & l N W W N V V N W W W W W | W  .| W ! ! ! ! ! ! ! ! / / ! ! ! / ( ( / / / / / / / / O.O./ / / / ! | / / / O.( ) ( ) ( / / / / ! ! / / / ( ) ( ) ) ) ) ) ) ) ( ( ( O.( O./ / ) ( O.O.O.O.O.O.O.( ( ( ( O.O.O.O.O.O.O.O.O.O.O.O.( / ( O.O.( O.O.( O.O.O.O.( / / O.O.( ( ( ( ( / ( O.O.O.O.( / / O.O.( ( O.O.O.( ) ( ) ) ( O.( O.+.#.( O.O.O.#.O.O.O.O.O.O.O.O.O.O.O.O.O.O.O.O.O.O.+.$.8.$.+.O.O.O.O.O.( ( O.O.O.O.O.( ( ( ( / ( ( ) ) ) O.$.+.+.+.+.@.$.+.O.( ( O.( ( ( ) ( ( ) ) ( ) ) ) ) ) ( ( ( ( ( ( ) ) ) ) ) ( ) O.O.O.( O.O.) ) ) ( O.( ) ) ) ) ) ) ( ( ) ) ) ) ) ) ) ) ) ) ) ) ) ) ) #.+.$.%.` +.` ) ( ( ) ) ) ) ) ( O./ _ ` ` ) ) / ! ( ( / ! ! / / ( ) ` ` ` ) ( ) ` ` ` ` ` ` ` ` ` ` ' _ _ ! ! Q Q ~ ~ ^ ~ W ! ~ E Q ! _ ! Q E E ~ ^ ~ ~ ^ ^ ^ ^ ^ ^ ^ ",
"v v v v v v v v v v v b b b b v v v v v v v v v b E E b b b b b E T E T E E E M E E M M M M E E E E E E E E E E E W M M W W W E E E E E W W W W E E E E E E E W W W W E E E W M W E E E Q E E E E E E E E E E E E E E E E E E E E E E E W E E E E E E Q ! E E E E E E E E Q ! W W W W E E E E E E E E E E E E E E E E E E E Q Q E E E E E E E E Q E E E E E E E E E E E E E E E E E E E E E E E E E E E E Q Q E Q E E E ! Q ! ! ! Q E E Q ! ! ! ! ! Q Q ! ! ! ! ! ! ! ! ! ! ! ! ! ! ! ! ! ! ! ! ! Q W ! ! ! ! W ! ! W E W ! W W Q E E Q ! ! Q E W E W ! ! ! Q Q ! ! E E E E Q Q W ! ! ! ! ! ! ! ! ! ! ! ! ! Q Q E E ! ! ! ! ! ! ! E Q ! Q Q ! ! ! ! ! Q Q ! ! ! ! ! Q ! / ! ! ! ! W ! ! ! ! ! ! ! Q Q ! ! ! Q Q ! ! ! ! ! ! ! ! ! ! ! ! / / / / ! ! ! ! ! ! ! ! ! ! ! ! ! / / / / / / ! ! ! W ! ! ! Q ! ! ! E Q Q i & O . . . X + a V N W Q ! ! ! ! ! ! W W W ! ! W ! ! _ _ W W V a & , a s N W W W W W W W W ~ ! W W / ! W ! ! ! ! ! ! ! ! ! ! ! ! / / / ! ( ) / / / / / / / / O.( ( O.( / / | / / / ( ) ) ) ( / / ( / ! ! ! / / / ( ) / ) ) ) ) ( ) ( / ( O.O./ ( ( / ) ) O.O.O.O.O.X.X.( ( ( O.O.O.O.O.O.O.O.O.( O.O.O.X.O.O.( ) O.( O.O.( O.O.X.( / ( ( / / / ) ( ) / ( O.O.O.( ( / / ( O.( ( ( ( ( ) ( O.( ) ( O.O.O.O.( ( ( O.O.O.O.O.O.O.O.( ( O.O.O.O.O.#.#.O.O.O.O.O.#.+.+.O.O.O.O.O.O.O.) ( O.O.O.O.( ) ( ( / ( / ( ) ) ) $.$.$.$.%.+.+.+.O.O.O.O.O.( ( ) / ( ) ) ) ) ) ) ) ) ) ) ( ( ( ( ) ) ) ) ) O.( / ( ( ) O.O.) ) ) ) O.O.O.) ) ( ( ) ( O.( ) ) ) ) ) ) ) ` ` ) ) ( ( ) #.+.$.$.+.+.` ` ) ) ) ) ) ` ) ) ( / / / _ ) ) ( / / ( / ! ! ! / / / _ _ / ( / / _ ` ` ` ` ` ` ` ` ` ! E Q ! _ ' ^ ^ ^ Q E E W ^ E ! ! Q E E E E Q ~ ~ ^ ^ ^ _ ! Q Q Q ",
"v v v v v v v v v v v b b v v v v v v v v v v v b T T v b b v b M E M M E E M M M M M M M M E E E E M W E Q E E W M W W E E E W M E E W W W E M W W E E E E E E W M E E E E E W W E M W E E E E E E E E E M W W E E E E E E E E E W E E E W W W W E E E E E E E Q E E E Q ! W E E E E E E E E E E E E E E E E E E E E E E E E E E E E E E E E E E E E E E E E E E E E E E E E E E E W E E E Q Q E Q Q E E Q E Q ! E E E E E E Q ! Q E E E W W ! ! ! ! ! ! ! ! Q ! Q E Q Q ! ! Q Q Q Q ! / / ! ! ! E Q ! ! ! ! ! ! ! E ! ! Q W W ! E E E Q Q W Q E E E ! ! ! ! ! ! ! W E E Q ! W W W W ! ! ! ! ! ! ! Q Q Q Q ! ! ! ! Q Q ! ! ! ! ! ! ! ! ! ! ! ! ! ! ! ! ! ! ! Q ! ! ! ! ! ! ! ! ! W W W W Q ! ! Q Q ! ! ! ! ! ! ! ! ! ! ! ! ! ! ! ! ! ! ! / / / ! ! ! ! ! ! ! ! ! ! ! ! ! / / / / / / ! ! ! Q ! Q ! ! ! Q ! Q ! E p X         . + d N W ! ! ! ! ! ! ! Q W W W ! ! ! ! ! ! ! / ! W W N N N N W ! ! ! ! ! ! ! _ ' _ ! ! ! ! ! ! ! ! / / / ! ! ! ! ! ! / ( ( / / / / / / ( / / / / / / / / / / / X./ / / / / / / ) ) ( ( O.X./ ! / / / / / O.O.X.X.O.O./ / ( ( ( O.O.O.O.( ( ( O.O.O.( O.X.X.( ( O.O.O.O.( ( O.O.( / / ( ( O.( ( O.O.( ( ( O.O.O.O.O.O.O.( ) ) ( ( ( ( ( ( / / / ( / ( ( / ( ) ( O.( ( O.( ) ( O.( ( ( ( O.O.( / ( ( O.O.( ( ( ( ( O.O.) ( O.O.O.O.O.#.O.O.O.O.O.#.O.O.O.O.( ( ( O.( O.O.O.( ( O.( ( O.( / / / ) ) ) +.$.$.$.%.%.%.%.' ( #.+.O.( ) ( ) ( ( ( ( ( ( ( ) ( ( ) ( ( ( ) ) ) ) ( ( / / / ( ) / ( O.O.O.( ) ( O.( / _ o.X.( ( ) ( O.( ) ) ) ) ) ) ) ) ( ( ( ) O.O.+.$.$.%.+.O./ / ) ) ) ) ` ` ) ) / / / / / / / / / / / / / / / / _ _ / ! / / / ) ` ` ` ` ` ` _ / / ! ! ! ! ~ ~ ! W W ! ! ! _ ^ ^ ~ Q ! ! ! ! ~ ^ ^ ^ ^ ^ ^ / _ W W W ",
"v v v v v v v v v v v b b v v v v v v v v v v v v b b v v b b b b M M M M E E M M E E E E E E E E E M W E E E W W M W W W E E W E W W W W W E E W W W E E E E E E E E E E E E E E E E E E E E E E E E E E E E E E E E E E E E E E W E E E E E E E E E E E E E Q ! E E E Q ! Q E Q Q E E E E E E E E E E E E E E E E E E E E E E E E E E E E E E E E E E E E E E E E E E E E E E E E E E E E E E E E E E E E Q ! ! E E E E E E E Q Q Q ! W W ! ! Q Q ! ! ! ! Q Q ! ! Q E E Q ! Q E ! Q Q ! ! ! ! ! Q Q ! ! ! ! ! ! Q E Q ! W W W W Q E Q ! Q ! ! ! Q E W ! ! ! ! ! ! ! E E W ! ! ! ! ! ! ! ! ! ! ! ! ! ! Q Q ! ! ! ! E Q ! ! ! ! ! ! ! ! ! ! ! ! ! ! ! ! ! ! X.! Q ! ! ! ! ! ! ! ! ! W W ! W ! Q Q ! ! ! ! ! ! ! ! ! Q ! ! ! ! ! ! ! ! ! / / ! ! ! | | ! ! ! ! / ! ! ! ! ! ! ! / / / / ! ! ! ! ! ! ! ! ! ! Q Q Q n %           O a V M E ! ! ! ! ! ! ! ! ! ! ! ! ! ! ! ! ! ! ! ! ! W W W W W W ! ! ! ! ! ! ! / _ _ / ! ! ! ! ! ! ! / / / ! ! ! ! ! ! / ( ( / ! ! / ( ( ( / / / ( ( / / / O.O./ / / / / / / / / _ / / / / / / / / / / ! / ( O.X.| X.O./ / ( / ( O.O.O.( ( / / ( O.O.( ( O.O./ / / ( ( / / / O.( / / / / / ( ( ) ( O.O.O.( / ( O.O.O.O.O.O.( ( O.O.O.( ( / / ( ( / / / ( ) ) ( ( O.( O.O.) ) ) ) ( / / ( / / ( O.( O.O.O.( ) ) ) ( O.O.O.O.O.O.O.O.O.O.O.O.O.O.O.O.O.O.O.O.O.( O.O.O.O.O.( ( O.O.O.O.O.( / / ( ) ) ) ) %.$.$.+.%.$.%.%.O.#.O.( ( ) ( ( / ( ( ) ) ) ( / ( ( ) ( / / ( ) ) ) ) ( / / / ) ) ( ( ( ( O.( ) ) O.O.) ) ) +.) ) ) ) ( ( ) ) ) ) ) ) ) ) ( ( ) ) ( ) ) %.$.$.+.O./ ( ( ) ` ` ` ` ) ( ) ( / / ! ! / / / / / / / ! ! ! _ ` _ / / / / ` ` ` ` ` ' _ ' _ _ / ! ! ! _ ^ W E W ! ! ! ! ^ ^ ^ Q ! ! ! Q E ~ ^ ^ ^ ~ Q / ~ ~ W ~ ",
"v v v v v v v v v v v v v v v v v v v v v v v v b b b b b M M b v b M M M E E M M M E E E E W W W W M M W E E W W M M W W W E E E W W W E E E E W E E E E E E E E E E E E E E E E E E E E E E E E E E E E E E E E E E E E E E E E E E E E E E E E E E E E W Q E Q E E E E E E E E W W E E E E E E E E E E E E E E E E E E E E E E E E E E E E E E E E E E E E E E E E E E E E E E E E E E E E E Q E Q E E E Q W Q E E E E E E E E E ! ! ! ! ! ! Q E ! ! ! ! Q Q ! ! ! Q E Q ! ! E E Q ! W ! ! ! ! ! ! ! ! ! Q Q Q Q E E Q ! W E Q ! E Q Q Q Q ! ! ! W E Q ! ! ! ! ! ! Q Q W W W ! ! ! ! ! ! ! ! ! ! ! ! ! ! Q ! ! ! Q Q ! ! ! ! ! ! ! ! ! ! ! ! ! ! ! ! ! ! / ! ! ! ! ! ! ! ! ! ! ! ! ! ! ! Q Q ! ! ! ! ! ! ! ! ! ! ! ! ! ! ! ! ! ! ! ! / ) / ! ! ! ` _ _ / ! / / ! / ! ! / / / / / / ! ! ! ! ! ! ! ! W ! Q E Q k $         X a N W Q E E Q ! ! ! ! ! ! ! ! ! ! ! ! ! ! ! ! ! Q Q ! ! ! ! ! ! ! ! ! ! ! ! _ / ! / ! / ! ! ! ! ! ! ! ! / / ! ! ! ! ! / / ( / ! ! / / / / / / ( ( ( / / ! / / / / / / / / / / / ( / / / / / / ( ( ( / ! / / / X.X./ O.( ( ) ( O.O.( ( ( ( ( ( ( O.O.( ( ( ( / ( ( / ( ( ( ( ( / / / / / / / / ( ) ( / ( ( ( ( ( ( ( ( ( ( O.O.O.O.O.O.O.O.( ( O.O./ / ( ) ) / / ( / ( ( ( ) ) ( / / ( / / / ( O.O.( O.( ( ( ) ) ) O.O.O.O.O.O.( O.O.O.O.O.O.O.O.O.O.O.O.O.O.O.O.O.O.O.O.O.( O.O.O.O.O.O.( / ) ) ) ) ) O.@.@.+.$.$.%...) O.( O.( ) ( ( / / ) ) ( ) ) ) ( / / / / ( ( ( ) ) ) ) ( ) ( ( ( O.O.) ) ) ) ) O.+.+.+.` ) +.+.) +.) ) ) ) ) ) ) ) ) ) ( / ( ) ( ) ) ) ) +.+.O.O.( ) ) ` ` ` ` ` ) ( ) ) ) / / ! / / / / / / / ! ! / _ _ ` ` ` _ / _ ` ` ` ` _ Q _ ` ' / ! / ! ! ! ~ ~ ~ ! ! ! ! E ~ E E ~ ~ E E E E ^ ^ ~ W Q Q ~ ^ ^ ^ ",
"v v v v v v n l c v v v v v v v v v v v v v v v b b v M b b b b b M M M b b E M M M M M E E E W W W M M M M E E W M W M W W W E E E E W E E E E E E E E E E E E E E E E E E E E E E E E E E E E E E E E E E E E E E W W E E E E E E E E E E E E E E E E E Q E E E E E Q E E E E E W W E E E E E E E E E E E E E E E E E E E E E E E E E E E W W W W E E E E E E E E E E E E E E E E E E W E E Q Q E ! W W E E E E ! ! E E E E E E Q ! W E E E E Q ! ! ! ! ! Q ! ! ! ! ! Q E W ! E E Q ! W E ! ! ! ! ! Q ! ! ! ! ! ! Q E Q ! W W ! Q E Q Q Q E E E E E E E E Q ! ! ! ! ! ! W E E E E E ! ! ! ! ! ! ! Q ! Q ! W E W W E Q ! ! ! ! ! ! ! ! ! ! ! ! ! ! ! ! ! ! ! ! ! ! ! ! ! ! ! ! ! ! ! ! ! ! ! ! ! ! ! ! ! ! ! ! ! ! ! ! ! ! ! ! ! ! / / ( ) ) ) / ! _ ` ` _ / / / ! / / / ! / ! ! ! ! ! ! ! ! ! ! ! ! W W ! Q / c + X     . % V M E Q E E E Q Q ! ! ! ! ! ! ! ! ! ! ! ! ! ! ! ! ! W ! ! ! ! ! ! ! ! ! ! ! / ! ! ! ! _ ! ! ! ! ! ! / / ! ! ! ! ! ! ! ! X.X.! ! ! / / / / / / ( ( / / / ! / / / / / / ( ( / / ( ( / / ! ( ) ( / ( ( / ! O.( / ! / / / ( ( ( O.O.( ) ) ) ( O.( / O.O.( O.O.O.( O.O.O.O.O.( ( / / / / / ( ( / ( O.( ( ( ) ( ( ( / ( ( / ( ) ( O.O.O.O.O.O.O.O.O.O.O.( ( ( ( ) ) ( ( ( ( / / ) ( / / ( ( ( ( ( O.( ( / ( ) ) O.( / ( ( O.X.X.O.O.( O.O.O.O.( O.O.O.O.O.O.O.O.O.O.O.O.O.O.O.O.O./ ( O.O.O.O.O.( ( ) ) ) ( O.+.$.$.$.+.' %.%.O.( ( ( ) ( ( / / ( ( ( ) ) ) ( / / / ( ) ) ) ) ) ) ( ( ) ( / ( +.+.) ) ) ) +.$._ ) +.` ) +.` ` ` ) ) ) ) ) ) ) ) / ) O./ / / ) ) ) ) ) / / ( O.) ` ` ` ` ` ` ) / ) ) ) ) _ ! ! / / ) / / / _ ! ! _ _ _ ` ` ` ` _ / / / / / ! ! ! _ ' / ! / Q ! ! ' ^ ' ! Q Q Q Q E E E ^ ^ ^ ~ ^ ^ ^ ] Q ! Q E ~ ^ ^ ^ ",
"c v v v v v n c c v v v v v v c c v v v v b v b b M b b b b b M M M M M M M b b M M M E E E E E W W W M M M E W W W W W W M E E E E E E E E W E W E E E E E E E M M E E E E E E E E E E E E E E E E W W E E E E E E E E E E E E E E E E E E E E E W E Q Q E Q Q E E E E E E E E E E E E E E E E E E E E E E E E E E E E E E E E E E Q E E E E E E E E E E E E E E E E E E E E E E E E W W E Q Q E E Q Q E E E W E W W E E Q Q Q Q ! ! ! Q E E E Q ! Q Q ! W W W ! ! ! ! ! E E ! ! ! ! Q E W W ! ! ! ! ! ! ! W W Q Q ! Q ! ! W ! ! W Q W ! ! E E E E Q W Q Q Q Q Q W W Q Q W W W Q Q Q ! ! ! ! ! ! ! Q ! ! ! ! Q E E E Q ! ! W W ! ! ! ! Q Q Q Q ! ! Q Q Q ! ! Q ! ! ! ! ! ! ! ! ! ! ! ! ! Q Q ! ! ! ! ! Q ! ! ! ! ! ! ! ! ! ! ! ! ! / / / / _ o.| ! _ ` ' _ ! / / ! / / / / / ! ! ! ! ! ! ! ! ! ! ! ! ! W Q Q ! M a $     + d N W E W ~ E Q Q Q ! ! ! ! ! ! ! ! ! ! ! ! ! ! ! ! W Q ! ! ! ! ! ! ! ! ! ! ! ! ! ! ! ! ! ! ! ! ! ! ! / / ! / / ! ! ! ! | | | | / / / ( ( ( / / ( ( / / ! ! / X.O./ / ( / / / / / / / / / ( ( ( ( ( ( / ! / ) _ _ _ ( ( ( O.O.O.( ( ) ( / / X.O.O.O.( ( ( ( ( / O.O.O.O.O.( / ( / ( O.O.( ( O.( O.( ) ( ( ) ) ( O.O.O.( ( ( O.( O.#.#.O.( O.O.( O.O.( ( ( ( ) ( ( ( ( ( ( / ( ( / / ( ( ) ( ( O.( ( O.O.( ( O.O.O.O.O.O.O.X.O.O.O.O./ ( ( O.O.O.O.O.O.O.O.O.O.#.#.O.O.O.( ( ( / ( ( ( O.O.O.O.O.O.O.O./ ( ( +.+.+.+.( +.+.) ( ( / ( ) ) ( ( ( ( ( ( ) ) ( ) ( / / / / ( ( ( ( ( ( ( ) ) +.+.+.) ( ( X.o.` o.+.+.( ) ) ) ) _ ` ) ) ( ( ( / / / / ( ) ` _ ) ) ) ) ) ( ( ( ( ) ) ` ` ` ` %.` _ _ ` _ _ _ ! ! / / _ _ _ _ / ! ! / ' ' ` +.) / / / / ! _ / ! ! ! ! ! Q Q ! ! Q Q ^ ~ ' / ! Q Q Q Q ~ ~ ^ ^ ~ ~ ~ ^ ^ ^ ^ ~ Q ! Q ^ ^ ^ ",
"v v v v v v v v c c v v c c v v v v v v b b b b b M M M b M M M M M M M b b v b M M M E E E E M M W M M M M W W W W W W M M E E E E E E E W W M W E E E E E E M M M M M E E E E E E E W E E E E E E W E W M E E E E E E E E E E E E E E E E E E E E E E ! E E E E E E E E E E E E E E E E E E E E E E E E E E E E E E E E E E E E E Q E E E E E E E E E E E E E E E E E E E E E E E E E E E Q Q E E E E E E E Q E E W W E Q ! ! ! ! ! ! Q E E E Q Q E Q ! W W W ! Q ! ! ! E E ! ! ! ! W W W W ! ! Q ! ! ! ! W E W W ! ! ! ! ! ! ! ! E W ! Q E Q Q E Q ! ! ! ! E E W ! Q W W ! ! ! ! ! ! ! ! ! ! ! ! ! ! ! ! ! Q E E E Q ! ! ! W Q Q Q Q E E E E Q ! ! Q ! ! Q Q ! ! ! ! ! ! ! ! ! ! ! ! ! E Q ! ! ! ! ! ! ! ! ! ! ! ! ! ! ! ! ! ! ! / / / ! | X.| | _ _ _ ! ! ! ! ! ! ! ! ! / ! ! ! ! ! ! ! ! ! ! ! ! ! ! Q E E E N a % + a V W ! W W W ! ! ! ! ! ! ! ! ! ! / _ _ ! ! ! ! ! ! ! ! ! ! ! ! ! ! ! ! ! ! ! ! ! ! ! ! ! ! ! ! ! ! ! ! ! / ! / / ! ! ! ! ! ! ! ! / ( / ( ( ( / / ( / ! ! ! ! ! / / / ( ( / / ( / ! / / ( / ( / / ( ( / / / / / / ) ( ( / / / / ( ) ) ) ( / / X.O.O.O.O.( ( ( ( / O.O.O.O.O.O.( ( / ( O.O.O.( O.O.( O.) ) ( ) ) ( O.O.O.O.) ( O.O.+.$.@.+.O.O.( ) O.( ( ( ( ( ) ( ( ) ( ( ( / / / / / ( O.( O.( O.O.O.O.O./ ( O.O.O.O.O.O.O.O.O.O.( / O.O.O.O.O.O.O.O.O.O.O.O.O.+.+.O.O.O.( / ( / ) ( ( O.O.O.( / O.O.#./ / ( ( ( ( O.O.( ( ) ) ) / ( ) ) ) ) ) ( ( / ) ) ) ) ) ( / ! / / / / / ( ( ( ) ) ) ) +.+.) X.X.) ) +.%.+.O.( ) ) ) ) ) ) / / ( ( / / ( ) ) ` ` ` ) ( ) ) ) ) ( ( ) ) ) ` ' ` ` ` ' ' ' ' ' _ _ ! ! ! ! ! Q _ _ ! ! ! ! _ ` ` ) / / / / / Q _ / ! ! ! ! ! Q E ! ! Q E ~ ^ Q ! ! ! Q Q Q ~ ^ ~ E ~ ~ ~ ^ ^ ^ ~ ~ ^ ^ ^ ^ ^ ^ ",
"v v v v v v v v b v v v b v v c c v v b M b b v v b b M M M M M M M M M b b b b M M M M E E E E W M M M M M W W W M M M M W E E E E E E E W E M M E E E E E E M M W M M E E E E E E E E E E E E E E W E W M E E E E E Q W Q E E E E E E E E E E E E E E Q Q E E Q W E E E E E E E E E E E E E E E E E E E E E E E E E E E E E E E E E E E E E E E E E E E E E E E E E E E E E E E E E E E E E E E E E E E E E Q E E Q ! E E Q ! ! ! ! ! Q E E E Q ! Q ! W W W W ! E Q Q ! E E ! ! Q E W W W ! ! ! ! ! ! ! ! W E W W Q Q Q Q ! ! ! ! W W Q E E Q ! E E Q Q Q Q E Q ! ! Q Q ! ! Q ! ! Q ! ! ! ! ! ! ! ! Q Q Q Q Q E E E Q ! ! ! ! Q E E E E E E E Q ! ! ! ! ! ! ! Q Q ! ! ! ! ! ! ! ! ! ! ! E Q ! ! ! ! ! ! ! ! ! Q Q Q ! ! / ! ! ! ! ! / ! | / ( ` _ ! ! ! ! ! ! ! ! ! ! ! ! ! ! ! ! ! ! ! ! ! ! ! Q Q Q ! ! Q E Q | N V V N W Q Q ! ! W Q ! ! ! ! ! ! ! ! ! _ ` _ ! ! ! ! ! ! ! ! ! ! ! ! ! ! ! ! ! ! ! ! ! ! ! ! ! ! ! ! ! ! ! ! ! ! ! ! ! ! ! ! ! / / / / / / / / / / / / / / ! ! ! ! ! ! ! / ( ( / / / / / / / / / ( / / ( ( / / ) ( / ) O.O.( ) ) ( / / ) ) O.O.O.O.O.O.O.O./ / ( O.O.( O.O.O.O.( ( / ( / ( O.O.O.O.O.( ( ( ( ( O.( ( ( ( ( ( ( ) ( ( #.+.+.O.) O.O.) ( ( / / / / ( ) ( / ( ( ( / / / ( ( ( ) ( / O.O.O.O.( / / / ( O.O.O.O.O.O.O.O.O.( / ( O.O.O.O.( ( O.O.O.O.O.O.O.#.#.O.O.O.O.( ( / ) ( / / / / / ( O.( ( / / ( ) ) ( ( ( / ) ) ) ) / / / ( ) ( ) ) ( / ( ) ) ) ) ) / ! / ( / ( ( ( ( ( ) ) ( ) ) %.O.( ( ) ) ` ` ` ) +.) ) ) ) ) ) ) ( / ( ( ( / ) ) ` ) ) ( +.) ) ( / / ( ) ( _ ` ` ` ` ' ~ ^ ' _ ` ` _ / ! ! ! ! / _ _ / ! ! ! _ ` ` _ _ / ` _ ! ! _ _ ! / / ! ! Q Q ! ! ! Q Q ~ E Q _ / Q E E E W E E ^ ~ ^ ^ ^ ^ ! _ ^ ^ ^ ^ ~ ^ ",
"v v v v v v v v b v v v b b v c c v b M M c v v v v b M M M M M E E M M M M M M M M M M E E E E W M M M M W W W W W M M M M E E E E E E E E M M M E E E E E E M W W M M M E E E E E E E E E E E M M M M W M E E E E E Q W E E E E E E E E E E E E E E E E E E E E W W E E E E E E W W E E Q E E E E E E E E E E E E E E E E E E E E E E E E E E E E E E E E E E E E E E E E E E E E E E E E E E E E E E E E E E E E E Q E E E ! ! ! ! ! Q E E E E Q ! Q E W W W ! Q E Q ! E E ! ! Q E W E Q ! ! W W ! ! ! W W E W W E E E Q ! Q Q ! W E E E E E Q E E E E E E E Q ! ! ! ! ! ! E ! ! ! ! ! ! ! ! ! ! ! Q Q E E E E E E Q ! ! ! ! ! ! Q E E E E E Q ! ! ! ! ! ! ! E Q ! ! ! ! ! ! ! ! ! ! ! E Q ! ! ! ! ! ! ! ! ! ! W E Q / / ! ! ! ! ! ! ! / / ) ) _ ( / ! ! ! ! ! ! ! ! ! ! W ! ! ! ! ! ! ! ! ! ! ! ! Q Q ! Q E Q ! W M W E Q Q ! Q ! ! W W W ! ! ! ! / / ! ! / / ! ! ! ! Q Q ! ! Q ! ! ! W ! ! ! ! ! ! ! ! ! ! ! ! ! ! ! ! ! ! | ! ! ! ! ! | | | ! / / / / / ! ! ! ! / / / / / ! ! ! ! ! ! / / / ( / ! / / ( / / / / ( / / / X.! / ) ) ) ) ( O.O.) ) ( O./ ( ) X.X.( ( O.O.O.O.O.( O.O.( ( O.O.O./ / / / ( / ( O.( ( O.O.) ) ( O.O.O.O.O.O.O.O.O.O.) ( O.O.O.( ) ) O.( ) ) ( / / ( ( ( ) ) ( ( ( ) ( / / / ( ( ) ) / ( O.( O.( / / / ( O.O.O.O.O.O.O.O.O.O.O.O.) ( O.O.O.( / / ( O.O.O.( O.O.O.O.O.O.( / / ) ( / / / / / ( ( / ! ! / ( ( ) ) ) ( / ) ) ( ( / / / ( ) / / ( ( / / / ) ) ) ) / ! / ( ( ) ( ( ( ( ( ) ) O.( +.X.) ) ) ` ` ` ) ) O.) ) ) ) ) ) ) ) / ( ) ) / ) ` ` ) ( ( / / / / / / / ) ( ) ` ` ` ' ' ' ^ ~ ` _ / / / ! ! ! ! ! ! ! ! / / / ! _ ' ` _ ' ` ` _ ! _ _ Q ! Q Q Q ~ _ ! Q ! Q ! ' Q Q Q Q ~ E E E E ~ ~ E E ^ ^ ^ ^ ^ ^ ^ ^ ^ ^ ^ ^ ",
"c c c v c v v v c c v v v v v v b b b M M c v v v v b b b b b b E T b M M M M M M M M M E E E E E E W E E E W E E W E E E E E E E E E E E E E M M E E W W E E E E W M M E E E E E E E E E E E E E E E M M M M E E E E E E E E E E E E E E E E E E E E Q Q E Q Q E E E E E E E E E E E E Q Q E E E E E E E E E E E E E E E E E E E E E E E E E E E E E E E E E E E E E E E E Q E E E E E E E E E E Q Q E E E Q Q Q Q Q Q E E E ! Q ! ! Q Q Q E E Q Q Q ! Q W W W W Q E Q ! Q E ! ! W W E E W ! W W W W W ! W W W E E Q Q W W W Q Q Q W Q E E Q Q E E E E E E Q E Q ! ! ! ! ! ! E W ! ! / ! ! ! ! ! ! ! ! ! Q Q Q Q Q Q Q Q Q Q Q ! ! Q E Q Q Q Q ! ! ! ! ! ! ! ! Q Q Q ! ! ! ! ! ! ! ! ! Q E Q ! ! ! ! ! ! ! ! ! ! ! W ! ! / ! ! ! ! W ! / _ ( ) ( ) ( ( / / / ! ! ! / / ! ! ! / / / ! ! ! ! ! ! Q Q ! Q Q Q ! ! W W W W E Q ! Q Q ! Q ! ! ! ! ! / / ! / / ! ! ! ! ! ! ! ! Q Q ! ! E ! ! ! ! ! ! / _ / ! ! ! ! ! ! ! ! ! ! ! ! ! ! ! ! ! ! / / ! ! ! / / / / / ! ! ! / / / / / / / / / / ! ! ! / / ( / / / / ( / / / / / / / ( / / ( ( ) ) ) ) ( ( ( ( ( ( ( / ( / / / / ( ( O.O.O.O.O.( ( ( ( O.O.( / / / O.( ( / ( ( ( / ( ) ( O.X.X.O.O.( ( ( ( ( ( ( ( O.O.( ) ) O.( ( ( ( ( ( ) ( / ) ) ) ( ( ( ( / ( ( ( ( ( ( ( ( ( ( ( ( ( ( ( ( ( ( ( O.O.O.O.O.O.O.O.O.( ( ( / O.( / / / ( ( O.O.O.O.( O.( O./ / / ( ( / / ( ( ( ( / / / / / / / ( ) ) ( ( / / / ( ( ( ( ( ( ( / / / / / / ( ( ( ) / / / / ( ) ) ( ) ) ( ) ) ) ) ) ( ) ) ` ` +.+.+.+.O.O.) ) ) ) ) ) ) ( ) ) ) ) ` ) ) ( ) ) ( ( / / / / / ) ) ) ` ` ` ` ' ..' ' ` / / _ ) / / ! ! ! ! ! ! / / / ! Q ' ` ` ` _ _ _ ! ' ' E Q Q Q ~ ~ ~ Q Q ! ! / ' ! Q R E ~ E E E Q ^ ~ E E ~ ~ ^ ^ ^ ^ ^ ^ ^ ^ ^ ^ ",
"k c v v v v v v v v v v c c v b v v b b v v v v v v b b v v b v b b b M M M M M M M M M E E E E E E W E E E E E E M E E E E E E E M W E E E E M M E E E E E E E E E M M M M M E E E E E E E E E E E E E E E E E E E E E E E E E E E E E E E Q E E E E Q Q E E E E E E E W E E E E E E E E E E E E E E E E E E E E E E E E E E E E E E E E E E E E E E E E E E E E E E E E E Q Q E E E E E E E E E Q Q E E E Q ! Q Q Q Q E E E Q Q ! ! Q Q Q E E Q Q E ! W W W W W E E ! ! ! E Q ! Q E Q E W W E E W W W ! Q ! Q E E Q E W W W W ! Q ! Q E E ! ! ! ! Q E E E Q E E Q ! ! ! ! ! Q ! ! ! ! ! ! ! ! ! ! ! W W ! ! ! ! ! ! ! Q Q ! ! ! ! Q E ! ! ! ! ! ! ! ! ! ! ! ! ! ! ! / ! ! ! ! ! ! ! Q ! Q Q ! ! ! ! ! ! ! ! ! ! ! ! ! ! ! ! ! ! ! ! ! / / ( ( / ( / / / / _ _ ! ! ! ! ! ! / / / / ! ! ! ! ! ! E E ! ! ! ! ! ! ! W W E E Q ! Q E ! ! ! ! ! ! ! / / ! ! ! ! Q Q ! ! ! ! ! ! ! ! ! ! ! ! ! ! ! ! / _ / ! ! ! ! ! ! ! ! ! ! ! ! ! ! ! ! ! / / / / ! ! ! ! ! / ! ! ! ! / / / ! ! / / / / / / ! / ! ! ( / / / / / / / / ! / / ( ( ( ) ) / ( ) ) ) ) ) ) ) ( ( ( / / / / / / / / O.O.( / ( O.( / / ( / / / / ( ( ( / / O.( / / / ( ( ( ( ( O.O.( ) ) ) ) ( / / O.O.O.( O.O./ / ( ) ) ) ) ( ( ) ) ( ( / / ( ( ) ) ( ( / / ( / / ( ( ) ) ) ) ) ) / ( ) ( O.O.O.O.O.O.( O.( ) ( O.O.( ( ( ( O.O.O.O.( ) ) / / / / / / / / ( ) ) ( / / / / / / ( ( ( ) ) ) ( ! / / O.( ) ) ) / ( / / / / ( ( ( ( / ) ( / ( ( / ( ) ) ) ) ) ) ` ` ` ) ) ` ` ) ) +.$.$.$.+.( ) ) ) ) ) ) ) ) ) ) ' ) ) ) ( ) ) _ / ) ( / ! ! ! _ _ _ ` ` ` ` ` ` ' ~ ' ' _ / / ( / Q ! ! ! ! ! ! ! ! ! ! _ ` _ _ ! / _ ! ! ~ Q ! ! Q ! Q E E ! ! Q ! _ ~ E ~ E E E E Q ! ^ ^ ~ ~ ~ ^ ^ ^ ^ ^ ^ ^ ^ ^ ^ ^ ",
"c c v v v v v v c c v v c v v v b b b v v v v v b b M M b b b b v b b M b M M M M M M M E E E E E E W E E E E E E M E E E E E E E M E E E E E M E E M M E E E E E E M M M M M E E M E E E E E E E E E E E E E E E E E E E E E E E E E E E E Q E E Q E E E E E E E E E E W E E E E E E E E E E E E E E E E E E E E E E E E E E E E E E E E E E E E E E E E E E E E E E Q E E E E E E E E E E E E E E E E E ! Q E E E E E E E E E ! ! ! Q Q E E ! Q E E E W W W ! ! E E Q ! Q E E E Q ! ! ! Q Q Q W W W Q Q Q Q E E W Q W W W W W W E E E E E Q ! ! ! Q E E E E E E E Q ! Q E Q ! ! ! ! Q ! ! Q Q ! ! ! Q Q ! Q E Q ! ! ! ! ! ! ! ! ! ! ! ! ! ! ! ! ! ! Q Q ! ! ! ! ! ! ! ! ! ! ! ! ! Q E ! ! ! ! ! ! ! ! ! ! ! ! ! ! ! ! ! ! ! ! ! ! ! ! ! ! / / / / ! ! ! ! / / ! ! ! ! ! ! ! / ! ! ! W ! ! ! ! Q E ! ! Q Q E E E E E Q Q E Q Q E Q ! ! ! ! ! ! ! ! ! ! ! ! ! Q ! ! ! ! ! ! ! ! ! ! ! ! ! ! / ! ! ! ! ! ! ! ! ! ! ! ! ! ! ! ! ! ! ! / ! / / / ! ! ! ! ! ! ! ! ! ! ! / / ! ! / / / / / / ! / / ! ! / / X./ / / / / / ! / / / / ( ) ( / ( ) ) ) ( ( ) ( / / / ( O.( / / / / / ( O.( / O.O.O./ / / / ( ( ( / / / / ( ( / / / / / ( ( ( / O.O.O.( ( ( ( ( / / ( ( O.( O.O./ / ( ) ) ( ( ) ) ( ( ( ( / / ( ) ( ( ) ) / / / / / / / ) ) ( / ) ) ) ( ( O.O.O.O.( O.O.( ( ) ( O.O.O.( ) ( / O.O.O.O.) ) ( ( / ( ( ( O.( / / ( ( ( ) ( / ! / / / / ( ) ) ) ( / / / ) ) ( ) / / ( ( / / / / / / / / ( ( / / / ( ( ( ( ( ) ) ` ` ) ) ) ) ` ) ) ) ) +.+.+.) ) ) ) ) ` ) ) ) ) / ( ) ` ` ) ) ) ( / / ( ( ( / / / / _ ` ` ` ` ' ' ` ' ~ ` ` ` ' / Q / / ! ! ! ! ! ! ! ! ! ! / _ ! Q ! ! ! ! Q Q Q ! ! Q Q E E E Q Q E Q ! Q E E E E E ~ ~ ~ ^ ^ ^ ^ ^ ^ ^ ^ ^ ^ ^ ^ ^ ^ ^ ^ ",
"k c v v v v v v c k c c c v v v b v v v v v v v b M M M b b v v v b M b v b M M M M M M E E M M M M M M E E E E E M E E E E E E E M E E E E E M M M M M E E E E E M M M M M M M E E E E E E E E E E E E E E E E W E E E E E E W W E E E E E E E E E E E E E E E E E E E W E E E E E E E E E E E E E E E E E E E E E E E E E E E E E E E E E E E E E E E E E E E E E E E E E E E E E E E E E E E E E E E E Q E E E E E E E E E E E Q ! Q Q Q E ! ! Q E E E Q ! ! Q E W E Q Q E E E E E E E Q ! ! Q E W Q Q Q E Q W W E E ! ! W W E E E E E E ! ! Q Q Q E E E E E E E E E Q Q Q Q ! ! ! Q Q Q Q ! ! ! ! Q E Q Q E Q ! Q E Q Q ! ! ! ! ! ! ! ! ! ! ! ! ! ! ! Q Q Q W ! Q Q ! ! ! ! ! ! ! Q ! ! ! ! ! ! ! ! ! ! ! ! ! ! ! ! ! ! ! ! ! ! ! ! ! ! ! ! ! ! ! ! ! ! ! ! ! ! ! ! ! ! ! ! ! ! ! W ! ! ! ! E E ! Q Q E E E E E E Q ! Q E Q Q E Q ! ! ! ! ! W ! ! ! ! ! ! ! ! ! ! ! ! ! ! ! ! ! ! ! ! ! / Q ! ! ! ! ! ! ! ! ! ! ! ! ! ! ! ! / / / / ! ! ! ! / / ! ! ! ! ! ! ! ! | | / / ( ( ( ( ( / ! / / / ! ! ! ! ! ! / ( / / ! ! / / ( / / / / ( O./ / / / ) ( / / / ( O.O./ / ( ( / ( O.O.( O.O.O./ / / ( ( ( ( / / / ( O.( / / ( / ( O.O.( ( / O.O.( ( ( ( ( ( / ( ) O.( O.O./ / ( ( ( / / ) ) / / / / / / ( ) ( ) ) ) ( / / / / / ( ( ) ) ( ( ( ) ( ( O.O.O.O.O.O.O.( ) ( O.O.( ( ) ) ( / ( O.O.( ( ( ( ( ( ) ) ( O.( ( ( / / / ) ( / / O.O./ ! / ) ) ) ( ( ) ) ) _ / ( / ( ) ( / / ( ) ( / / / / / ( / / ( ( ( ( ( ) ` ` ` ) ) ` ` ) ) ) ( ) ) ) ) ) ` ` ` ` ` ) ) ) / / / ) ` ` ) ) ) ( / / / ) ) _ ) ( _ _ _ ` ` ` ' ' ` ' _ ` ) ) ) / ! ! ! ! ! ! Q Q ! ! ! ! ! ! ! ! _ _ / Q ! ! ! _ ! ! ! E Q E E E E E E E E E E Q Q E ^ ^ ~ ^ ^ ^ ^ ^ ^ ^ ^ ^ ^ ^ ^ ^ ^ ^ ^ ",
"c c v c v v v v v c c c c c v b b v v v b b b v b b b b v v v v b M M b v b M M M M M E E T M M M M M M W E E E E E E E E E E E E M E E E E E M M M b M E E E E E M M M M E E b E E E E E E E E E E E E E E E E E E E E E E E E W E E E E E E E E W E E E E E E E Q E E E E E E E E E E E E E E E E E E E E E E E E E E E E E E E E E E E E E E E E E E E E E E E E E E E E E E E E E E E E E E E E E E E E E E E E E E E E E Q E Q ! ! ! Q E Q ! ! W W W Q Q Q E W W E E Q E E E W W E W ! ! ! E E ! ! Q Q E ! ! W W W ! ! W W W Q Q E E E Q Q Q Q Q Q Q Q Q E E Q Q E Q ! ! Q ! ! ! ! E E ! ! W ! ! ! E E E E ! ! Q Q Q Q Q Q ! ! ! ! ! ! ! ! ! Q Q / ! Q Q Q Q W ! / ! ! ! ! ! W W W Q W ! ! ! ! ! ! ! ! ! ! ! ! ! ! ! ! ! ! ! / / / ! ! ! ! ! ! ! ! ! ! ! ! ! ! ! / / / ! ! / ! ! W ! ! ! ! Q E Q ! Q Q Q W Q E Q Q E ! ! Q Q E Q ! ! ! ! ! ! ! / / ! ! ! ! ! ! ! ! ! W ! W W ! ! ! ! / / ! / ! ! ! ! ! / / ! ! ! ! ! ! ! ! / ( / / ! ! ! ! / / ! ! ! ! / / / / / ! / ( ( ( ( ( ( / ! / / / ! ! / ! ! ! / / / / / / / ( / / ( / / / / ! / / ( ( ( / / / / ( O.( ( / / ( ( X.X.O.O.O.O./ ( ( ( ( / / ( ( ( ( O.O.O.O.O./ / ( ( ( ( ( / / ( ( / ( / / ( ( ( ( ( ( ( / / ( ( ( ( ( ( ( / / / / ( ( ( ) ) ) ) ( ( / / / ( ( ( ( ( ( ( ( ( ( ( O.O.O.O.O.O.O.( ( ) ( O.( ( ( ( ( ( / ( O.O.( ( ( ( ( ) ) ( ( ( ( / / / / ( ) ( / O.O.X./ / ( ( ( ( ( ) ) ) ) ) / / / ( ) ) ( ( ) ) ( / ( ( / / ( / ( / / ( ) ) ) ) ) ) ) ) ) _ ) ) ( O.( ) ) ) ) ` ` ` ` ` ) ) ( / / / ( ` ` ` _ ) / / / _ / / _ ) ( / / _ ) ) ) _ ' ` _ _ / / / ( / ! ! ! / ! / Q ! / / ' ~ ! ! ! / ) _ ! Q ! ! _ _ / ! Q E Q Q E E E E E E E Q E Q Q E ~ ~ E ~ ~ ^ ^ ^ ^ ^ ^ ^ ^ ^ ^ ^ ^ ^ ^ ",
"c v v v c c c v v v v v v v v b b v v v b b v b T v v v v v v b M M M M b b M M M M M M M M M M M M M M M M E E E E E E E E M M M E E E E E E M M M M M M E E M M M M M M E E E E W M M E E E E E E E E E E E E E E E E E E E E E E E E E E E E E E E E E E E E E Q E E M E E E E E E E E E E E E E E E E E E E E E E E E E E E E E E E E E E E E E E E E E E W E E E E E E E E E E E E E E E E E E E E E E E W E E E E E E E Q E E Q Q ! ! ! ! ! ! W W W ! ! ! ! ! Q E E E E E E W W E Q Q Q ! Q E E ! Q E E ! W W E W W ! ! ! ! ! Q E E E Q Q ! ! ! ! Q ! ! E E ! ! Q ! ! ! ! ! ! ! ! Q Q ! Q E Q ! ! ! ! Q Q ! ! ! ! ! ! Q ! ! ! ! Q ! ! ! Q Q E E E Q ! ! ! W W ! ! ! ! ! ! ! W W W Q W W ! ! ! ! ! ! ! ! ! / / ! ! ! ! ! ! ! ! / / ! ! ! ! ! | ! ! ! ! ! ! ! ! ! / / / ! ! _ / W W ! ! ! ! ! Q ! ! ! ! ! ! ! Q ! Q E ! ! ! E E ! ! ! ! ! / / ! ! / ! ! ! ! ! ! ! ! ! Q Q ! ! ! Q ! ! ! ! / _ / ! ! ! ! _ _ ! ! ! ! ! ! ! / ( ( ! ! ! ! ! ! ! | ! ! ! ! / / / ( / ! / / / / ( ( / / ! / / / ! ! / / / ! / / ! ! / ( ( / / ( ( / / ! ! ! / / O.( ( / / / O.O./ ( O./ / O.O.| X.O.( / O.( ( ( ( ( ( / ( ) ) ) ) O.O.O.O./ ( ) ) ) ( ( / / ( ( ( ( ( / / / O.( ( ) / / / / ) ) ( / / / / / / / ( / ( ( O.( ( / ( ( ( / ( ( ( ( ( ( O.( ) ( ) O.O.( O.O.O.O.( O.) ) ( O.O.O.O.O.( / / ( ( ) ) ) ) ) ( / / / / / / ! / / ( ) ( / ) ( / O.( O.O./ ! / ) ) ) ) ) ) / / ( ) ) ) ) ) ( / / ( ) / ( ( ( / / / / ) ) ) ) ) ) ) ) +._ ) ) O.O.( ) ) ) ) ` ' %.%.` ) ( / ( ( ( ( ) ` ` ` ( ( ) / ! ! ! ! ( ( / _ ) ( / ( ) ` ` _ | ! ! ! ! ! ! ! ! _ / _ Q _ _ _ _ _ _ _ ! ! _ _ Q ! ! ! _ / ! Q E E E E E E E E E E E E E E E E E ~ ~ ^ ^ ^ ^ ^ ^ ^ ^ ^ ^ ^ ^ ^ ^ ^ ^ ",
"k c v v c c c v v v v v v v v v v v v v v v v v b v v v v v v b M M M M b b M M M M M M M M M W W W M M M M M E E E E E E E M M E E E E E E E E E M M M M E E W M M M M M E E E E M M E E E E E E E E E E E E E E E E E E E E E E E E E E E E E E E E E E E E E E E E E E E E E E E E E E E E E E E E E E E E E E E E E E E E E E E E E E E E E E E E E E E E W E E E E E E E E E E E E E E E E E E E E E E E W E E E E E E E E E E E E Q ! ! ! Q E E W W Q ! ! ! E E Q ! E E E W W E E E E E Q Q E E Q ! W W W E E E E E ! ! ! ! ! Q Q Q E Q ! Q E E E E E Q Q E ! ! E Q ! ! ! ! ! ! ! Q Q ! Q E E ! ! Q Q / / ! Q ! ! Q ! Q Q ! ! ! Q Q ! E E Q Q Q Q Q ! ! ! W E Q ! ! ! ! ! ! Q Q ! ! W W ! ! ! ! ! ! ! ! ! / / ! ! ! ! ! ! ! ! / ! ! ! ! ! ! | ! ! ! ! ! ! ! ! ! ! ! ! ! ! ! ! Q ! ! ! ! W ! ! ! ! ! Q E E Q E Q E E Q Q Q E Q ! ! Q E Q Q ! ! ! ! ! ! ! ! ! ! ! ! Q Q Q ! ! ! ! ! ! ! ! ! ! ! ! ! ! ! ! ! ! ! ! ! ! ! ! / ( ( ! ! ! ! ! ! ! ! ! ! ! ! ! / / / / ! / / / / / / / / ! / / / / ! ! / / / O./ ! ! / ( ( / / / / / / / ! ! ! ! / / / / ! / ( O.( / ( ( ( O.O.X./ ( / / ( ( ( / ( ) ( / ( ) ) ) ( O.O.O.O.( ( ) ) ( / ( / ( ( / ( ( / / / / ( ( ( ( ( / / / ) ) ( / / / / / ( ( ( ( ( ( ( ( / / / ( ( ( ( ( / / / / O.( ( / ) ( O.O.O.O.O.O.O.O.) ) ( O.O.O.O.O.( / ( O.O.O.O.O.( / ! ! / ( / / / ! / ( ) ) ( / ) / / / ( / / / ( ( ( ) ( ( ) ) ) ( ) ) ( ( ) ( / / ! / / / / / / / / / ( ) ) ) ) ) ) ) ) O._ / ) ) ( ( ( ) ) ` ` $.$.` ` ` ) / / / / / / _ _ ) ) ( ( / ! ! ! ! / ( / _ ) ( / / / ' ` _ ! ! ! ! ! ! ! ! ! / _ / Q Q ! ! ! _ ` _ ! ! / _ Q ! E E Q ! _ Q E E E ~ ~ E E E E E E E E E E E E ~ ^ ^ ^ ^ ^ ^ ^ ^ ^ ^ ^ ^ ^ ^ ^ ^ ^ ",
"c c v v v v v c v v v v v v v v v v v v v v v v v v v v v v v b M M M M v b M M M M M M M M M W W W E E E E M M M E E E E M M E E E E E E E E R E M M M E E E E M M E E E E E E E M M E E E E E E E E E E E E M M W E E W W W W E E E E E E E E E E E E E E E E E E E E E E E E E E E E E E E E E E E E E E E E E E E E E E E E E E E E E E E E E E E E E E E W E E E E E E E E E E E E E E E E E E E E E E E W E E E E E E E E E E E E E E E E E E E E E E E Q Q E E Q ! E E E E E E E E E E E E Q Q E Q ! W E E E E E Q ! ! ! ! ! Q Q ! ! ! ! ! Q E Q ! Q Q ! E ! ! E Q ! ! ! ! ! ! ! Q ! ! Q E E Q Q ! Q / / ! E ! ! Q Q ! ! ! ! ! ! E E Q Q ! ! ! ! ! ! ! ! ! Q Q Q Q Q Q ! ! E E ! ! Q E Q ! ! ! ! ! ! ! ! ! / ! ! ! ! ! ! ! ! ! ! ! ! ! ! ! | ! ! ! ! ! ! ! ! ! ! ! ! ! ! ! ! ! ! ! ! ! W ! ! Q Q Q E E E E E E E E E E E E Q ! ! ! Q Q Q Q ! ! ! ! ! ! ! / ! ! Q Q Q Q ! ! ! ! ! ! ! ! ! ! ! ! ! ! ! ! ! ! ! ! ! ! ! ! / / ( / ! ! ! ! ! / / ! ! ! / ! ! ! ! / / / / / / / / / ! ! ! / / / / ! / / ( ( / ! ! / / / / ! ! / / ( / ! ! ! ! ! ! ! ! / / ( O.( ( ( ( ( ( O.O.( ( ( ( / / / / ( ) ( / ( ( ( ( X./ ( ( ( / ( ) ) ( ( ( / ( / / ( O./ / / ( ( / ( ( ( ( / / ( / ( ( / / / / ( ) ( / / ( ( ! / / / ( ( ( / / / / / / ( ( ( / ( ( O.O.O.O.O.( ( ( ) ) ( ( / / / / / O.O.O.O.O.O.( ) ) / / / ( ( / / / / ( ( ( / / ( / / / / / ! ! ( ( X./ / ( ) ) ) ) ) ) ) / / / / / / / ! / / / / / ( / ( ) ) ) ) ) ) ) ) O._ / ) ) ) ) ) ` ' ' ` %.$.+.` ` ` ) / / / / ! ! / ( ) / / / ! ! ! ! ! / / ) _ / / / / ` ` ' _ ! ! ! ! ! ! ! ! / _ Q Q Q ! ! ! _ _ Q Q Q _ / Q Q E E E ~ ~ ~ ! Q E ~ ^ E E E E E E ~ ~ E E Q Q Q W ~ ^ ^ ^ ^ ^ ^ ^ ^ ^ ^ ^ ^ ^ ^ ^ ",
"c v v v c c v v b v v v v v v v v v b v v v v v v v v b b b b b M M M b b b M M M b b M W W M M E E E E E E M M M E E E M M M E E E E E E T R R T M M M E E T M E E E E E E E E E M M T T E E E E E E E E E M M W M E E E W W M E E E E E E E E E E E E E E E E E E E E E E E E E E E E E E E E E E E E E E E E E E E E E E E E E E Q Q E E E E E E E E E E E W E E E E E E E E E E E E E E E E E E E Q Q E E W W E E E E E E E E E E E Q Q Q Q Q E E E E E E Q E E E E Q E E E E E E E E E E E E Q ! E E Q W Q Q E E E ! ! ! ! ! ! ! Q Q ! Q Q ! ! Q ! ! ! ! Q E ! ! Q Q ! ! ! ! ! ! ! ! ! ! Q E Q ! Q Q Q Q ! ! ! ! ! ! Q ! ! ! ! ! ! E E Q ! ! ! ! ! ! ! ! ! ! Q Q E E Q Q Q ! Q Q ! ! Q E Q ! ! ! ! ! ! ! ! ! ! / ! ! ! / / ! ! ! ! ! ! ! ! ! ! ! ! ! ! / / ! ! ! ! ! ! ! Q ! / / / ! ! ! W ! ! Q Q Q Q E E E Q E E E E Q Q Q Q ! / / ! ! ! ! ! ! ! ! ! Q ! ! ! ! Q Q Q ! ! ! ! / ! ! ! ! ! ! ! ! ! ! ! ! ! / / / ! ! ! ! / / / / ! ! ! ! ! / ( / / / / / ! ! ! ! / / / / / / / / ! ! / / / / / / / / / / / / ! / / / ! ! ! ! / / / ! ! / / / / / / / / / O.( ) ) ( ( ( / O.( ( ) ) / / ( / / ) ( / O.( ( ( X./ / / / ( ( ) ( / O.O./ ( ) ( ) ) ( ( ( ( ( ( ( ) O.O.( ( / ( ( ( / / / / ( ) ( / ( ( / ! X.#.O.( ( O./ / / / / / ( ( ( / ( ( O.O.O.O.( ( ( ( ( ( ( ( ( ( / / ( O.O./ / O.( ) ) ) ) ) ) ( / / / ( ( / / / / / / / / / _ / / / / / / / / ( ( ) ) ) ` ) ) ) / / ! ( O.) / ! / ( ( / / / ) ) ) ) ) ( ) ) ( +._ / / ) ` ) ) ) ` ' ` ` %.+.) _ _ _ / ) ) ) _ ! / / ( / / / / ! ! / ! ! / ) _ ! / ( _ ` ` ` _ ! ! ! _ / ! ! _ _ _ Q ! W ! ! / _ _ _ ! ! _ _ Q E E ~ ^ R E ~ ! ! E E ~ ~ Q E E ~ ~ ~ ~ E E Q Q Q W E ~ ^ ^ ^ ^ ^ ^ ^ ^ ^ ^ ^ ^ ^ ^ ",
"c v v v c v v v b c c c v v v v v c v b v v v v v v v v v b M M b v b b b M M M M E E E E E M M E E E E E M M M M E E E M M M M M E E E E E E T T T E E E E E E E E E E M E E T E E E E M E E E E E E E M M E E E E E E E E E E E E E E E E E E E E E E E E E E E E E E E E E E E E E E E E E E E E E E E E E E M M E E E E E E E E E E E E E E W W E E E E E E E E E E E E E E E E E E E E E E E E E E E E W W W W W M E E E E E E E Q ! ! E E E E E E E E Q ! W W W E E E E Q E E E E E E E E E Q Q E E E Q ! W W E E E E E E E E Q ! Q Q ! ! ! E E E E ! Q E Q ! ! ! ! ! ! ! ! ! ! ! ! ! ! Q ! Q Q Q E ! ! ! ! ! E Q ! ! ! ! ! Q ! W E E E Q ! Q ! ! ! ! ! ! ! Q ! Q Q ! ! ! ! ! ! ! ! ! ! ! ! ! Q ! ! ! ! ! ! ! / ! ! / / / ! ! ! ! / Q ! ! ! ! ! ! ! ! ! ! ! ! ! ! ! ! / / / ! ! ! ! ! W W ! ! ! ! ! ! Q E Q Q Q Q E Q ! ! ! ! ! / ! ! ! ! ! / / ! ! ! ! ! ! ! ! ! ! ! ! ! ! ! ! ! ! W ! ! / ! ! ! ! ! ! / / / ! ! ! ! ! | ! / / / ! ! ! ! ! / / / / / / ! ! ! ! ! ! ! ! ! ! ! / / / / / ! ! ! ! / / / / / / / ! ! ! ! ! / ! ! / ( / / ! / ) ( ( O.X.X./ ( / ( ( ( ( ( / / ( ( ) ) / X.O.X./ / / / ( ) ( / / / / / / ( ( ) / / ( ( / ( ) ) ) ) ) ) ( O.) ) ) ) O.( ( ( ( ( ( ( / / / ! / ( ( ( ) ( / / ( +.O.( ( ( / / / / / / ( ( ( / ( ( / ( ) ) ( ( O.O.O.( ( O.O.( / / ( ) ( / / ( ( / / ) ) ) ) ( / / ( ( / / / / ( / / ) ) ( ( ( / / / / / ( ) ) +.) ) _ ) ) ) _ ! ! / ) ) ( ! / / ( ) ( / / ) ) ) ) ) ) ) ( O.( / _ ! ! _ ) ) ( ) ' ` ' ` ` _ _ ! / / / / / _ / ( / / _ / / ( / _ ) / / / / / ! ! _ ` ` ' _ _ ! ! ! / / ! ! Q / ! ! | W W / / _ _ ! ! ! ! ! Q ~ ~ E E Q E E E Q Q E Q / Q E R E Q Q Q Q ! E E E ~ ^ ^ ^ ^ ^ ^ ^ ^ ^ ^ ^ ^ ^ ^ ^ ^ ",
"c v v v v v v v v c k c v v v v b c n b v v v v v v b b b M b b b v b b b M M M M M E E E E M M M E E E W M M M E E E E M M M M M E E E E E E T T E E E E E E E M M E M M M E E E E E E E M E E E E E E M M E E E E E E E E E E E E E E E E E E E E E E E E E E E E E E E E E E E E E E E E E E E E E E E E E E E M E E E E E E E E E E E E E E W M E E E E E E E E E E E E E E E E E E E E E E E E E E E E E W W W M M E E E E E E E ! Q E E W Q E E E Q Q E E E E E E E Q E E E E E E E E E E E E E E E Q ! Q E E Q E Q Q Q Q E E E E ! ! ! ! ! Q E E E ! ! Q E ! ! ! ! ! ! ! ! ! ! ! ! Q Q E Q ! ! Q E Q ! ! ! ! E Q ! ! ! ! ! Q ! W E E E ! ! ! ! ! ! ! Q Q Q ! ! ! ! ! ! ! ! ! ! ! ! ! ! ! ! Q Q ! ! ! ! ! ! ! Q ! ! ! / / ! ! ! ! / / / / ! ! ! ! ! ! ! ! ! ! ! ! ! ! ! / ! ! ! ! ! ! W ! ! ! ! ! ! ! Q Q ! ! ! Q E Q ! ! ! ! ! ! Q ! ! ! ! ! ! ! ! ! ! ! ! ! ! ! ! W ! ! ! ! ! ! ! W ! ! ! ! ! ! ! ! ! / / / ! / ! ! ! ! / / ( / ! ! ! ! ! ! ! ! / / / ! ! ! ! ! ! ! ! ! ! ! / ( / / / ! ! ! ! / / / / ( ( / / / ! ! / / ! ! / / ! / / / ) ( / O.| X.( / / ( ) ( ( ( / ( ( / ( / ( O./ / / / / / ( ) ( ( / / / / / ( ( / / / / / / ( ) ) ) ) ) ) ) ( ) ) ) ) ( ( / / / / / / / / / / / ( ( ) ) ( / ( ( O.O.( / / / ( ( ( / / O.O.O./ / ( / / ) ) / ( O.O./ / / / / ( / / ( ( / / / ( ( / / ( ( ( ( ( / / / / ( / / / / ( / ( ( / / / / / ( ( / / ) ) ` ) ` ) ` ` ` ` _ ! / ) ) ( / / / / ( ( / ( / ( ( ) ) ) ) ) ) ( / / ! ! ! _ ) ) ` ) ) ) ` ) ) ) / / / / / ( _ ! / ( _ _ ! / ( / _ _ _ _ / / / ! ! ! _ _ / ! ! ! ! ! ! _ _ _ _ Q ! ! ! W Q ! ! ! Q Q ! ! ! Q E E E E E Q E E E E Q Q ! Q Q E E E Q Q Q Q Q E E ~ ^ ~ ^ ^ ^ ^ ^ ^ ^ ^ ^ ^ ^ ^ ^ [ ^ ",
"c v v c v v v v v c c v c c c v b ^ ^ n v v b b v v v b b b v v v v b b b M M M M M M M E E M M M E E E M W M M E E E E E M M M M M M M M M M b T E E E E E M M M b M b b M E E E E E E E E E E E E E E M M E E E E E E E W W E E E E E E E E E E E E E E E E E E E E E E E E E E E E E E E E E E E E E E E E E E E E E E M E E E E E E E E E E W M M E E E E E E E E E E E E E E E E E E E E E E E E E E E E E W W W M E E E E E E E W E E E Q Q E E E E E E E E E E E E Q E E E E E E E E E E E E E E E Q Q E E E E Q Q E W Q E E E Q ! ! Q Q ! ! W E Q ! ! ! Q E Q Q Q ! ! W W W W ! ! Q E Q Q ! ! Q E E E Q ! Q E Q ! ! ! ! Q Q Q E E E E ! Q Q ! ! Q E E E E Q ! ! ! ! ! ! ! ! ! ! ! ! ! ! ! Q Q ! ! ! ! ! ! / / / ! ! ! ! ! ! ! ! Q / / / ! W W ! ! ! ! ! ! ! ! ! ! ! ! ! Q ! ! ! ! ! W ! ! ! ! ! ! ! Q E E E E E E Q ! ! ! Q ! ! Q ! ! ! ! ! ! ! ! ! ! ! ! ! ! ! W W ! ! ! ! ! ! ! ! ! ! ! ! ! ! ! ! ! / / / ! _ _ / / / / / / / / ! ! ! ! ! ! ! / / / / / ! ! ! / / / ! ! ! / ( / / / ! ! ! ! ! ! ! ! / / / / / ! / / / / / ! ! / / / / ) / / ( / X.O.O./ / ( ( / / / ( ) ( / / X.O./ / O.( / / ( ) ( ( / / / / ( / ( ( / / / / ( ( ( ( ( ( ( ) ) ) ( ) ) ) ) ( / / ( / / / ( ( / ( / / ( / / / / ( ( ( O.( / / / / ( ( / / O.O.( / / ( O.( ( ( ( ( ( O./ / / / ( ( / / ( ( / / ( O.( ( ( ( ( ( ( ( / / / / / / / / / / / / / / / / / / ( ) ( ) ` ` ` ` ` ` ` ` ` ` ` / / ( ) ) ( / ( / ( ( ( ( / / ( ) ) ` ) ) ) ) / / ( / ! ( ) ` ) ( ( ( _ / ) ( / / / / / ( / / ) ) ( ) / ! ! ! ! ! / / / _ _ / ! ! W ! ! ! ! ! / ! ! _ _ _ _ ! ! Q ! Q ! _ _ ^ ~ ~ ! ! / Q Q Q E E E Q Q E E E Q Q Q Q Q E E E E E W E R E E ^ ^ ~ ^ ^ ^ ^ ^ ^ ^ ^ ^ ^ ^ ^ ^ ^ ^ ",
"v v c k c v v v c c c c c k c v b ~ N k v v b M b v b b v v v v v v b b b M M M M M M M M M M M E E E E W W M M E E E E E M M M M M M M M M b v b E M E E E M M b b M b b b E E E E E E E E E Q Q E E E M M E E E E E E M M W M E E E E E E E E E E E E E E E E E E E E E E E E E T T E E E E E E E E E E E E E E E E E E M W E E E E E E E E E E E E E E E E E E E E Q E E E E E E E E E E E E E E E E W E E E W W W W E E E E E E E E W W E E E E E E Q E E E E E E E E E E E E W W W E E E W E E E E E ! Q E W W E E E E E E E E W ! Q E E Q ! ! W E W ! ! W W Q Q ! ! ! ! W W W W W ! ! ! W ! ! ! Q E E E Q ! Q E Q ! ! ! Q E E E E Q E E ! Q E E Q Q E E E E E W ! ! ! ! ! ! ! ! ! ! Q Q Q Q Q Q ! ! ! ! ! ! / / / ! ! ! / ! / ! ! Q / / / / W W W W ! ! ! ! ! ! ! ! ! ! Q Q ! ! ! Q ! E ! ! ! ! ! ! ! Q E E E E Q ! ! ! ! ! E Q ! Q Q ! ! ! ! ! ! ! ! ! ! ! ! ! ! W ! ! ! ! ! ! ! ! ! ! ! ! ! ! ! ! ! ! / ( / ! _ _ _ _ ! / / / / / / ! ! ! ! ! ! ! / / / / / / / / / / ! ! ! ! / / / / ! / / ! ! ! ! ! ! / / / / ! / / / / / ! ! / / ( / ) / ( ( ` _ / O./ / / / ( ( / ( ( / / ! X.O./ / / / / / ( ) ( / / / / / / / ( ( ( ( / ( ) ) ( ( ( ( O.( ) ) O.( ) ( ( ( ( / / / / / ( ( / ( / / ( ( / / / / / / / / O.( / ( / ( / / ( / / ( O.O.O.O.O.O.( / ( O.( / ( ( ( ( / / X.( / / ( ( / ( ) ( / / ( ) / / / / / ! ! / / / ( / / / / / ) ` ) ) ) ` ' ' ' ' ' +.` ' ' ' ) _ / ( / ) ) ( ( ) ( ( ( ( / / ( ) ) ` ) ) ) ) _ / ( / ! ) ` ` _ / / / ! / ) / ! / / / / / ! / ) ) _ ) / ! ! / / / _ ) / / / / ! W W ! ! ! ! ! ! ! ! / / / / ! ! Q Q ! _ ' ^ ^ ^ ^ _ ! Q Q _ _ Q Q Q Q Q E E E Q Q Q Q R E ~ E E E E E E E ~ ^ ^ ^ ~ ~ ^ ^ ^ ^ ^ ^ ^ ^ ^ ^ ^ ^ ^ ",
"m n c k c v v v v v v v v v v v v b v v v v b b v v b b b v v v v v b M M M M M M E E E E M M M M M M M M M M M M M E E M M M M M M b T E E b b M M M E E E E M b T T T E E E E E E T b E E E E E E E E E E M M E E E E E E E E E E E E E E E M E E E E E E E E E E E E E E E E E E E E E E E E E E E E E E E E E E E E E E E E E E E E E E E E E E E E E E E E E E E E E E E E E E E E E E E E E E E E E E E Q E E E W W E E E E Q E E W W E Q Q E E E E E E E E Q E E E W E Q Q W W E E E E E E E E E E Q Q Q Q ! W E E E E E ! ! Q E E E E ! ! W E E ! ! ! ! Q E E W ! ! ! W ! ! Q E Q Q E E Q ! Q E W E ! Q E E E Q ! ! E E Q ! E E E E Q ! E E Q E Q ! E Q W W W Q Q ! E E E E E Q ! Q Q Q Q Q ! ! ! ! ! ! ! ! Q ! / / ! / / / ! ! ! ! ! ! ! ! ! ! ! ! ! ! ! ! ! ! ! ! ! Q Q ! ! ! ! ! W E Q ! ! Q E E E E E E W E E E ! ! ! Q E Q ! ! ! ! W W ! / ! ! Q Q ! ! W ! ! ! ! ! ! ! ! ! ! ! ! ! ! ! ! ! ! ! ! ! / / / / ! ! ! ! ! ! ! ! ! ! ! ! ! ! / ! ! / ( ( / ! ! ! ! ! ! ! ! ! ! ! ! ! ! / ) ) _ ! ! ! ! ! ! ! ! ! ! ! ! ! / / ! / ) ( / / / ! / O.O.O./ ( O./ / / ( ( ( ( ( ( O.X.O.) ( ) ( / O.( ( ( ( / / ) ) ) ) ( ( ( ( ( ( / ( ( ) ) ) ) ( ( ( ) ) ( ( / ( ( ) ( ! / / ! ( ( / ( ( / / / / ( / / / / / / / / / ( ( ( ( ( ) ( ( ( O.O.( O.( ( ( ( ( ) ( / ( ) ( ( / / / ( ( ( / ( ( / / / / / ( ( ( ( ( / / / ! / / / ( / / ! ! / / ` ` _ ' ^ ................^ ^ ' ` ) ( ( ) ( / ( ) ) ( ( / / / / ) ) ) ) / / / / ) ) ) ( ) ` ` ' / _ _ _ / ) _ ~ ~ ) / ! ! / ( ) ) / / ! ! ! / ! Q _ ) _ ! ! ! ! / _ _ ' _ / / ! ! ! ! ! ! ! ~ ~ E Q ! Q ~ ^ ^ ^ ~ ~ _ ! / / ! E E Q Q Q Q R Q Q Q Q Q Q Q Q Q E E ~ E E E ~ ^ ^ ^ ^ ^ ^ ^ ^ ^ ^ ^ ^ ^ ^ ^ ^ ^ ^ ",
"c c k c v v v v v v v v c c v v v v v v v v v v v v b b v v v v v v b M M M M M M M E E M M M M M M E E M M E E M M E E M M M M M M M E E T T b M M M b E E b b v b T T E E E T b b b b E E M E E E E E E E M M E E E E E E E E E E E E E E E E E E E E E E E E E E E E E E E E E E E E E E E E E E E E E E E E E E E E E E E E E E E E E E E E E E E E E E E E E E E E E E E E E E E E E E E E E E E E E E E E E E E E E E E E E E E E W W E E E E E E E E E E E E E E E E E E E E E E E E E E E E E E E Q E ! Q Q Q E E E E E Q ! Q E E E E Q W W W Q ! ! ! ! Q E E E E ! ! W W ! ! Q E E E E E Q Q Q W E Q Q E E E E Q Q E E ! ! Q E E E Q ! Q E E E ! ! Q E E E E Q Q ! E E E E E Q ! Q Q Q Q ! ! ! ! ! ! ! ! ! ! ! ! / ! / / / ! ! ! ! ! ! ! ! ! ! ! ! ! ! ! ! ! ! ! ! ! Q ! ! ! ! ! ! W E Q ! ! Q E E E E E E E E E E ! ! Q E E E ! ! Q Q W ! ! / ! ! Q Q ! ! ! ! ! ! ! ! ! ! ! ! ! ! ! ! ! ! ! ! ! / / ! ! ! ! / / / ! ! ! ! ! ! ! ! ! ! ! ! / / / ! / ( / ! ! ! ! ! ! ! ! ! ! ! ! ! ! / / _ / ! ! ! ! ! ! ! ! ! ! ! ! ! / ! ! / ( ( / / / / / / / / ( ( O.O.O./ / / ( ) ) ( O.O.( ) ( ) ( / ( ( / ( ( ( ( ( ) ) ) ( / / ( ( ( / / / ) ( ( ( ( / / / ( ( / / ( ) ) ( / / / / / ( / ( ( / / / / / / / / ( ( / / / / ( ) ( / ( ) ( ) ( ( ( ( ( ( ( / / ( ) ( ( ( ( ( / / / / / / / / / / / / / / / / / / / / / / / / / / / ( / ! / ) _ / ) ` ......;...............^ ^ ..' ) / ( ( ( / ( ) ( / / / / / ( ) ) ( / / / / / ) ( ( ( / _ ` ` ) / / _ _ ) _ ! ' ) / / ! / / ( ( / ! ! ! ! ! ! ! / / / _ _ ! ! / _ / _ ` _ ! ! ! ! Q Q Q Q ! Q Q ! / ! ~ ^ ^ ^ ^ ~ ! ! ! Q Q E E E E R Q Q R E E Q E E E E E E E E E E ^ ^ ~ ~ ^ ^ ^ ^ ^ ^ ^ ^ ^ ^ ^ ^ ^ ^ ^ ^ ",
"c c c k v v v v v v v v c k c v v v v v v v v v v v v v v v v v v b M M M M M M M M M M M M M M M M E E E E E E E M M M M M M M b M M b b T T E M M M b E E b v v T T b b b T E E E E E M M M M E E E E E E E M E E E E E E E E E E E E E E E E E E E E E E T E E E E E E E E E E E E E E E E E E E E E E E E E E E E E E E E E E E E E E E E E E E E E E E E E E E E E E E E E E E E E E E E E E E E E E E E E Q E E E E E E E E Q E Q Q E E E E E E E E E E E E E E E E E E E E E E E E E E E E E E E E W E E E E E E E E E E Q ! ! Q E E E E E W W ! ! ! ! ! Q E E Q W ! ! ! ! ! Q W ! ! ! ! E E E E Q Q Q Q Q Q E E E E E E E Q ! ! Q E E ! ! Q E E ! ! ! ! Q E E ! ! ! E E E Q Q E Q Q Q Q Q ! ! ! ! ! ! ! ! ! Q ! ! / / ! ! ! ! ! ! ! ! ! ! ! ! ! ! ! ! ! ! Q Q ! ! ! Q Q ! ! Q ! ! ! Q E Q ! ! ! E E E Q E E E Q Q E ! ! Q E E Q ! ! E E ! ! ! ! / / ! Q ! ! ! ! ! ! ! ! ! ! ! ! ! ! ! ! ! ! ! ! ! ! ! ! / / ! / / / / / / ! ! ! ! ! ! ! ! ! / ( / ! / / / ! ! ! ! ! ! ! ! ! ! ! ! ! / / / / ! ! ! / / ! ! ! ! ! ! ! ! ! ! ! ! ! / ( O.( / ( ( / ! / ( O./ O.O.X./ / / ( ) ) O.O.O.( O.) ( / ( ( ( ( ( ( ( ( / / / / / / ( ( / ! ( ( ) / / ( O.) ( / / / / / ) ) ) ( ( / ( ( / ( / ( ( / / / / / / / ( ( ( / / / / ( ) ) / ( ) ) ) / / ( ( / / / / / / ( ( ( ( ( / / / / / / / / / / / / / / / / / / / / / ! / / / / / / ) ) _ ) ( / ) +.................................` _ / / / / / / / / / / / / / ( / ( ) ( ( ( ( / / / ( / / ) ) ) ( / _ ` ` ' / _ / / / ! ! / / / _ _ ! ! ! ! ! ! _ / / _ ! ! ! ! ! ! ! _ _ ! ! ! Q ! Q E E ! ! ! ! ! ! / ' ^ ^ ^ ^ _ ! Q Q E R Q E E E E ! Q E E E E E E E E E E E E E ^ ^ ~ ~ ^ ^ ^ ^ ^ ^ ^ ^ ^ ^ ^ ^ ^ ^ ^ ^ ",
"v v c c v v v v v v v v c c k k c v v b b v v v v v b b b v v v v b M M M M M M M M M M M M M M M M E E E T E E E M b b M M E M b b M b b T R E T b M E E E E M b T E M M E T T E E E E M M M M E E E E E E E M E E E E E E E E E E E E E E E E E E E E E E E E E E E E E E E E E E E E E E E E E E E E E E E E E E E E E E E E E E E E E E E E E E E E E E E E E E E E E E E E E E E E E E E E E E E E E E E Q ! Q E E E E E W E Q Q Q Q E E E E E E E W ! Q E E E E E W Q Q W W W E E E E E E E W E E Q W E W W W E E E E E E E ! ! Q E E Q ! E E E E Q ! ! ! Q E Q Q Q Q Q ! ! W W W W W W ! Q E E Q ! Q E W W W E E E E E Q Q Q ! ! Q E E Q ! ! ! E Q E Q ! Q E E ! ! ! E E E ! ! Q Q Q Q Q Q ! ! ! ! ! ! ! ! ! Q ! ! / ( / ! ! ! ! ! ! ! ! ! ! ! ! / / / Q ! ! Q ! ! ! ! Q Q E Q ! ! ! ! Q Q ! ! Q Q Q Q Q E E W W Q E ! ! E E W W ! ! E E Q / ! ! / / ! ! ! ! ! ! ! ! ! ! ! ! ! Q ! ! ! ! ! / ! ! ! ! ! ! / ! ! ! / / / ( / / ! ! ! ! ! ! ! ! ! / ( / / / / ! ! ! ! ! ! ! ! ! ! ! ! ! / / ( / / ! ! / / ! ! ! ! ! ! ! ! ! ! ! ! / ! X.O.O./ ( ) / ! / ( O./ / / / / / / / ( ) O.O.O.O.O.) / ( ( ) ( ( / / ( / ( ( / / / / / / ( / / ( ) / ( ( ( ) ( / ( / / / / ) ) ( ) ( / / ( ( / / ( / ( / / ) ) ) ) ( ( ( / / ( / ( ( / ) ( ( ( / / ( ( ( ( X.( / / ) ) ( ( / ( ( ( ( / ( / / / ! ! ! / / / / / ! ! ! ! ! ! / / / ! / ` ' _ / ( ( ) ` ..;.;.............,...^ ........%.+.) / / ) _ / / / / / ( ( / / / ( ) ( ( ) ( / / / / / / ( ( ( ) ( ) _ _ ` _ ) ! ! ! ! ! ! / / _ _ ! ! ! ! ! _ ` ` / Q Q ! ! ! Q ! ! ! ! ! ! Q E ! ! W E ! ! ! ! ! ! Q E ~ ^ ^ E Q Q E Q Q R R E E E E E Q Q E E E E E E E E E E E E E E ^ ^ E ^ ^ ^ ^ ^ ^ ^ ^ ^ ^ ^ ^ ^ ^ ^ ",
"k c c k k k k k k c v c c v c c c c v b n v v v v v b b v v v v v b M M M M M M M M M M M M M M M M M b b b b M M b b M M M M M M M M M M M E E b b M T b T E E M M E b b E T T M b b b M M M M E E E T T E E E E M M M M M W M W E E E E E E E E E E E E E E E E E E E E E E E E E M M E E E E E E E E E E M M M M E E E E E E E E E E E E E E E E E E E E E E E E E E E E E E E E E E E E E E ! ! ! Q E E E Q Q Q E E W W W W W W E Q ! Q E E E E E E W Q E E E W E E Q Q Q E E W W E E E E E E E E E E Q Q E E E E E E Q E E E Q Q E E E Q ! Q E Q ! ! ! ! Q ! Q Q ! Q E E Q ! ! Q E E E W W Q Q Q Q Q E E Q Q E E Q Q E E Q ! ! ! ! Q E E E Q ! ! Q Q ! ! ! Q E E Q ! E E E E Q Q E E ! ! ! ! ! ! ! ! ! ! ! ! ! ! ! ! ! / ! ! ! ! ! ! ! ! ! ! ! ! ! Q Q ! ! ! ! ! ! ! ! ! / Q Q Q E Q Q ! ! Q Q Q Q ! ! ! ! Q E E Q Q E ! ! ! Q W ! ! W W ! Q ! ! Q ! / ! ! ! ! ! ! ! ! ! ! ! W ! ! ! ! ! / / / ! ! ! ! ! ! ! ! ! ! / / / / / / / / / / ( ( / ! / / ( / / / / / / / / / / ! ! / / ! ! ! / / / X.! W ! / / / ! ! ! ! ! ! / / / / ! / ! / / ( / / ( / X.( ( ( / ! ! ! / / / ( ( ( ( O.O.( O.O.X._ ( ) ( ) ( ( ) ( ( ( / / X.O.O.( ) ( / / / / ) ) / / / / / / / / / ( ) ) ) ) ( / ( / / / / / / ! / / ( ( ( ( ) ( ( / / / ) ( / ( ( ( / / / / ( ( O./ / / / / ( ( / / / / / ( ( ( / / / / / / / / / / ! ! ! ! / ( / / Q ( ( ( ) ) ( ! / / / ' ^ ;...........,.;.;.;.[ ......%.%.o._ / / ) ( / ( ) ) ) ) ( / / ( ( ( ( ) ( ( / / / ! ! / ) ) ) _ / / / ( / / / ! ! / / / / / / / / ! ! Q Q ! _ ' / ! ! / _ ! ! Q Q ! ! ! Q Q E E Q Q ! ! ! ! ! ! ! ! ! Q ~ ^ _ Q Q Q Q R Q Q R E R E E Q R Q E E Q Q Q Q Q Q E E E ~ Q E ~ ^ W ~ ^ ^ ^ ^ ^ ^ ^ ^ ^ ^ ^ ^ ^ ^ ",
"k c v c k k k k c c v c k c v v c v v v v v v v v v v v v v v v b b M M M M M M M M M M M M M M M M M M b M b b M b M M M M M M M M M M M M M E M b b T b T T T E E M b b M T T b b b T M M M b T E E E E E E E E M E M M M E E E E E E E E E E E E E E E E E E E M M E E E E E E E M E E E E E E E E E E E E M M E E E E E E E E E E E E E E E E M M E E E E E E E E E E E E E E E E E E E E E Q Q ! ! E E E Q E E E E W W W W W W E E Q E E E E E E E E E E E E W E E E E E E E W W Q Q ! Q E E E E E E E E E E E E E E E E E E E Q E E E Q ! Q E Q ! ! ! ! ! Q E E ! Q E E E ! ! Q E E E Q ! ! ! ! Q E E E E E E E E Q E E Q ! ! ! ! Q E E E E E Q E E ! ! ! ! ! ! ! ! Q E E E E E E E ! ! ! ! ! ! ! ! ! ! ! ! ! ! ! ! ! ! ! ! ! ! ! ! Q ! ! ! ! ! ! Q Q Q ! ! ! ! ! ! ! ! ( ( / E W E E E ! Q E E E ! ! Q ! ! E Q Q E E ! ! ! ! ! ! ! ! ! ! ! ! Q ! ! ! ! ! ! ! ! ! ! ! ! ! ! ! ! ! ! ! ! / / ! ! ! ! ! ! ! ! ! ! ! ! ! ! ! ! / / / / / ( / / / / / / / / / / / / / / / / ! ! / / / / ! ! ! ! | ! ! ! ! / / ! ! ! ! ! ! / / / / ! ! ! ! / / ! / / / ( ( / / / / / ( / / / ( ( / ( ( ( / ( O.O.( ) ) ) ( ( ) ) ) ) ( / / ! / ( ( ( ( / / / ( ( ( / / / / ! ! / ( ( ( ( ( ) ) ) ( ( ( / / / ! ! ! / / / / / / / / / ( ( / ( ( ( ( ( ( / / / ( ( / / / / / / / / / / / / / / / / / / / ( / / ! ! ! ! ! ! ! ! / / ( / / / ( ( / / / / ! ! / ( ` ' ..................[ [ ;.....%.+.` ) / / ( ( / ( ( ( ( / / Q Q / / ( / / ( / / ! ! ! ! ! / _ _ ` / ! / / / / ! ! ! / / ! Q / ( / ! ! ! ! ! ! ! ! ! ! ! ! / ! ! ! ! ! ! ! E E E E Q Q Q ! ! ! Q Q Q ! ! Q Q E E E Q R Q E E Q R R R E E Q Q Q E E Q E E E Q Q E E E E Q E ~ ^ E ~ ^ ^ ^ ^ ^ ^ ^ ^ ^ ^ ^ ^ [ ^ ",
"k k c c c c c c c v c v c v v v v v v v b v v v v v v v v v v v b M M M M M M M M M M M M M M M M b M M M M b b M M M b b b b M M M M M M M M b M b b T T T b v b T b b b b M b v b E E b b M b b T E E M E E E E E E E E E E E E E E E E E E E E E E E E E E E E M M E E E E E E E M E E E E E E E E E E E E E E E E E E E E E E E E E E E E E E E E E E E E E E E E E E E E E E E E E E E E E E E W W E E E E E E E E W W W W W E E E E E E E E E E E E E E E E E E E E E E E E W ! ! Q ! ! E E E E E E E E E E E E E E E E E E E E E E E E E E E E E E E Q Q E E E E E E E E Q ! E E E E Q Q E E E E E E Q Q E E E E E E E ! Q Q Q Q E E E E E Q Q Q E Q ! ! ! ! ! ! / ! ! ! Q E E E E ! ! ! E Q ! ! ! ! ! ! ! ! ! ! ! ! ! ! ! E Q ! ! Q ! ! ! ! Q Q ! / ! ! ! ! ! ! ! ! ! / / ! W E E E Q ! Q E E E E Q E Q Q E ! Q E E ! ! ! ! ! ! ! ! ! ! ! Q Q ! ! ! ! ! Q Q ! ! ! ! ! ! ! ! ! ! ! ! ! ! ! ! ! ! ! ! ! ! ! ! ! / / / ! ! ! / / / ! ! / ! / ( ( / ! ! / / / ! ! ! ! ! / ! ! ! / ( / / / ! ! / ! ! ! ! ! ! ! ! ! / ! ! ! / / ! ! ! ! ! / / ! / / ( ( / / ( / / ( ) / / ( / / / / ( ) / ( / ( ( ( ( ( ( ) ) ) ( ) ) ( / / ! / / / / / / ( ( / ( / / ( ( / ! / O.O.( ( / ( ( ) / ( ) ( / / ! ! ! / ( / / / / / / / ( ( / ( ( ( ( / / / / / ( ( ( ( ( / / / / / / / / ( ( / / / / / / ( ( / ! ! / ! ! / / ! / ( / / / / / / ! ! ! ! ! ! / ( ` ' ' ......;.........;.[ [ ......` ` ) / / / ( ) ( ( / / / Q Q Q Q / / / / / / / ! ! ! ! ! ! ! _ ` _ ! ! / ! ! ! ! ! Q / ! Q / / / ! ! ! Q W ! _ / ! ! ! ! ! ! ! ! ! ! ! W E E E E Q ! ! ! ! Q Q E E E Q Q Q E E E Q R E E E E E E E ~ E E E E E E E E E E E E E E E E R E E ~ E ^ ^ ^ ^ ^ ^ ^ ^ ^ ^ ^ ^ ^ ^ ^ ",
"c k c v c c c c c k k v v v v v v v v b b v v v v v v v v v v v b b M M M M M M M M M M M M M M E b M M M b b M M M b v v v b M b M M M M M M b b b b T T T v v v v v T T b M M b b b T b b E E E T E E E E E E E E E E E E E E E E E E E E E M M E E E E E E E E M E E E E E E E E E E E E E E E E E E E E E E E E E E E E E E E E E E E E E M M E E E E E E E E E E E E E E E E E E E E E E E W W W W W E E E E E E E W W W W E E E E W W W E E E E E W W E E E Q E E E E E E W W E E E Q Q E E E E E W E E E E E E E E E E E E E E Q E E E E E E E E E E E E E E E E E E E E E ! Q E E E W E E E E E E E ! Q E E E E E E E Q E E E E E E E E Q ! ! ! Q ! ! ! ! ! ! ! Q ! ! ! ! E E E Q ! ! ! Q Q ! ! ! ! ! ! ! ! ! ! ! ! Q Q ! Q E ! ! Q ! ! ! ! Q E ! / / ! Q ! ! ! ! ! Q Q Q Q ! E E E Q ! ! E E E E E E E E E Q Q E E ! ! ! ! Q E ! ! ! ! ! ! ! ! ! ! ! ! ! ! ! ! ! ! ! ! ! ! ! ! ! ! ! ! ! ! ! ! ! / ! ! ! / ! / / / ! ! ! ! / ! ! / ! ! / / / / / ! ! ! ! ! ! ! ! ! ! ! ! ! / / / / / ! ! / / / / Q Q ! ! ! ! / / ! ! ! ! ! ! ! ! ! ! ! ! / / / ( ( ( ) / ! ! / ! / ( / / / / ( ) ) +./ / ( / / ( ( ) ( ( ( ( ( ( / / / ! ! ! ! ! ! / ( / ( / ( ) ) / / ! X./ / / ( / / / / ( ( O./ ! ! ! ! ! / / ! ! / / / / ( / / / ( X.X./ / / / / ( / ( ( ( ( / ! ! / / ( / ( ( ( / / ( / / ( / ( / / / ! / _ ' / ( ) ! ! / / ! ! ! ! ! ! ! ! / / _ _ ` ' ..[ [ [ [ [ [ [ [ [ ......` ` ) ( / / / ( ) ( / / / ! ! Q ( ( / Q ! ! / ! ! ! ! ! ! ! ! _ ` _ ! ! ! ! ! ! ! ! Q / ! Q / ! ! ! ! ! W ! ! / / ! ! ! ! ! Q Q ' ! ! W W W E E E Q Q E E ~ Q Q E E E E E W ~ ~ E E E E E E E E E E ^ E E E E E E E E E E E E E E E R R E E B ^ ^ ^ ~ ^ ^ ^ ^ ^ ^ ^ ^ ^ ^ ^ ^ ",
"c c v v c c c c k k c c c c c c c v v n n b v v v v v v v v v v v b b M M M M M M M M M M M M M b b b E M b M M M b b b v v b M b M b b b b b b v v b b b b v v b b T E E M b b E E T E T T E E E E E E E E E E E E E E E E E M E E E E E E E E E E E E E E E E E E E E T E E E E E E E T T E E E E M M M M E E E E E E E E E E E E E E E E E E E E E E E E E E E E E W W E E E E E E E E E E E W W W W E E E E E E E E E E Q E E E E E E W W E E E E E E W W E Q Q E E E E E W W E E E E E E E E E E E E E E E E E E E E E E E E E E E E E E E E E E E E E E E E E E E Q Q E Q Q Q E E E Q W Q E E E E E E Q Q E Q Q Q E E E E Q E E E E E E E Q Q Q Q Q Q Q Q ! Q Q Q Q Q ! Q Q Q Q Q ! ! ! ! ! ! ! ! Q Q ! ! ! ! ! ! ! ! Q ! ! Q Q ! ! ! ! ! ! ! ! ! ! / ! E E Q Q ! ! ! Q ! Q Q ! ! Q Q Q Q Q E E W W Q E E E E Q ! Q Q Q Q Q Q E E ! Q Q Q ! ! ! Q ! ! ! ! ! ! ! ! ! ! ! ! ! ! ! ! ! ! ! ! / ! ! ! ! / ! ! / / ! ! / / ! ! ! ! ! ! / / ! ! / / / / / ! ! ! ! / ! ! ! ! ! ! ! ! ! / / / / ! ! / / / / ! ! ! ! ! ! / / / / / ! ! ! / / / / / ! / / / / / / / ! ! ! ! / ! / _ ) ( / ( ( / / ! / / ( / / ( ( / / / / ( / ( ( ( ) ( ) / / o.( / / ) ) ) ) ) X./ / X./ ( ( ( / / / / / ( O.O./ / / / / / / / / / / / / / / / / / / / / / ( ( ( ( / ( ( ( ( / / ( ( ( / / / / / ! / / / ( / / / ( ( _ _ _ ) ) / ) ) / / ( ( ( / ! ! ! ! ! ! ! ! ! ' ' +...[ [ ;.;.;.;.[ [ ......%.%.` _ / ! / / / ( ( ( / / / / Q / / / / / ! ! ! ! ! ! / / ! ! / / / ! ! ! ! / / ! ! ! ! ! ! Q Q ! ! ! ! ! ! Q Q Q ! ! ! ! Q Q ! ! Q Q Q W W W Q ~ ~ ~ ~ E ! Q Q Q Q Q R R E E E E Q R Q E E E E ~ ~ ~ W E E E E E E E E E E R R R E E Q E ~ ~ ^ ^ ^ ^ ^ ^ ^ ^ ^ B ^ ^ ^ ^ ^ ^ ",
"c v v v c c v c c k c c k k k k c c c v n b b b v c v v v v v v v v b M M b b M M M M M M M M b b v v b M M M M b v b b v v b M M M b v v v b b v v v v b b v v v M E M M M b T E M M E E T E E M M M M M M M E E T E E E E E M E E E E E E E E E E E E T E E E E E E E E E E E E E E E E E E E E E M M M M E E E E E E E E E E E E E E E E E E E E E M E E E E E E E W W E E E E E E E E E E E E W E E E E E E E E E E E E E E E E E E E W W W E E E E E W W Q E E E E E E E E E E E E E E E E E E E E E E E W E E E E E E E E E E W E E Q Q E E E E E E W W W E E E E Q ! Q Q Q E E E E Q ! ! Q E E E E E E E E E E Q Q Q E E E E E E E E E E E E E E E Q ! Q Q ! Q Q Q E ! Q E ! ! ! ! ! ! ! ! ! ! ! Q ! ! ! ! ! ! ! ! ! Q Q Q Q ! ! ! ! ! ! ! ! ! ! ! ! Q E E E Q ! ! Q E E E E ! Q E Q ! E E E E ! ! Q E E E E ! ! ! Q E E E E E E ! Q Q ! ! ! ! ! ! ! ! ! Q ! ! ! ! ! ! ! ! ! ! ! ! ! ! Q ! ! ! ! ! ! ! ! / / ! ! ! ! ! ! ! ! ! ! ! ! ! ! / / / / ! ! ! ! / / ! ! ! ! ! ! ! ! ! ! ! ! ! ! ! ! ! ! ! ! ! Q Q Q Q Q / / / / ! ! / X.! / ( ( ! ! ! ! / ! ! ! ! ! ! / / ! ! _ ) ) / / / / ! ! / ( ) / ! / / / / / / ( / / / ( ) ( ) / / O.( / / ) ) ) ) ) O.( / ( ( ( / ( ( / / / / / ( ( ( ( ( ( / / / ( ( / ! ! ! / / ( / / / / / ( ( ( ( / / / / / ( / ( ( / / ! ! ! ! ! ! ! ! / / / Q / ( ) ` ` ` ) ( ( ) _ / ! ! / ) ( / ! ! ! ! ! ! ! _ ' ' ` %.[ [ [ [ [ [ [ [ ;.......` ` / ! ! ! ! ! / / ( / Q Q / Q Q / / / / / ! ! ! ! ! ! ! ! ! ! ! ! ! / / / / / ! ! ! ! ! ! Q Q ! ! ! ! ! ! ! Q ~ ! ! Q Q ! ! Q Q ! ! Q Q E E E W ^ ^ E E Q _ _ R Q Q R R R ~ ~ ~ ~ Q Q E E E ~ ^ ^ ^ ~ E E E E E E E E E Q R R R E E E E ^ ~ ~ ~ B ^ ^ ^ ^ ^ ^ ^ ^ ^ ^ ^ ^ ^ ",
"c c v c k c c k k k c c k k k k c c c v v b M b v c v v v v v v v v b M b b M M M M M M M M M b v v b b M M M M b v v v v v v b b b v v v v b M b v v v b b v v v b M b b b b M M b v b E M E E E M M M M M M b E E E E E E E E E E E E E E E E E E E E T E E E T M E E E E E E E E M M E E E E E E M M M M E E E E E E M M M M M M M M M M E E E E E E E E E E E E E W W E E E E E E E E E E E E E E E E E E E E E E E E E E E E E E E E E E E E E E E E W E E E E E E Q E E E E E E E E E E E E E E E E W E E E E E E E E Q E E E E E E ! Q E E Q Q E E E E E E E E E E Q ! E E E E Q Q Q Q ! Q E E E E E E E E E E Q ! Q E E E Q Q Q E E E E E E E Q Q Q Q Q ! ! E E E E E E Q Q Q ! / ! ! ! ! ! ! ! ! ! ! ! ! ! ! ! ! ! ! E E ! ! ! ! ! Q ! ! ! ! ! ! ! Q E E E E Q Q E E Q Q Q ! E E Q ! E E E E ! ! Q E E E E ! ! ! Q E E Q Q Q Q E Q ! Q ! ! ! ! ! ! ! ! Q ! ! ! ! ! ! ! ! ! ! ! ! ! ! Q Q ! ! ! / ! ! ! / / ! ! ! ! ! ! ! ! ! ! ! ! / / / / ! ! ! ! ! ! / / / ! ! ! ! ! ! ! ! ! ! ! ! ! ! ! ! ! ! ! ! ! ! ! ! ! / / / ! ! ! ! / ! / / / ! ! ! ! ! ! ! ! / / / / / ! / ) ) ( / / ( / ( ) ( ) ) / ! / / / / / / / / / / / / / / / ! / ( / / ( ) ) ) ) ( ( / / / / ( / / / / / ( / ! / ( ( ( / / / / ( ) / ! ! / / ( ( / / / / ( ( ( / / / / / / / / / / / / / ! ! / / ! ! ! ! ! / Q ! ! / ) +.` ` ) ) ) ) / / / / / / / ! ! ! ! ! ! ! ! _ ` ` ` ..;.[ [ ;.;.[ [ [ ;...[ ;.' ` _ ! ! Q / / Q Q / Q / Q Q ! Q / / Q ! ! ! Q ! ! ! ! ! ! ! ! ! ! ! ! ! ! / / ! ! ! ! ! ! ! ! Q ! ! Q ! ! / ! ~ Q E E Q ! Q E Q ! / Q E ~ ^ ^ ^ ~ ^ ~ Q Q Q R Q Q Q Q Q ~ ] ^ ^ ^ ^ ~ E E E ~ ^ ^ B ~ E E E E E E E E E E E E E E ~ E E ^ E E E ] ^ ^ ^ ^ ^ ^ ^ ^ ^ ~ ^ N ^ ",
"k k v k k c v c k k c c k k k k k c v v b b M b v v v v v v v v v b b M b b M M M b b b M M M M b b b M M M M M b v v v v v v v v v v v v v b b b b b v b b v v v b M b v b b M M b b b M M E E E E E E M M M E E E E E E E E E E E E E E E E E E E E E E E E M M M M M M E E E E E M M M M M E E E M M M M E E E E E E M M M M M M M M M M E E E E E E E E E E E E E M E E E W W E E E E E E E E E E E E E E E E E E E E E E E E E E E E E W E E E E E E E E E E E E E E E E E E E E E E E E E E E E E E W W E Q Q E E E E E E E E E E Q ! ! Q Q Q E E E Q Q E E E E E E Q ! Q E E Q ! ! Q Q Q E E E E E E E E E E E W Q E E E E Q ! W E E E E E E E Q ! Q E Q W Q E Q Q E E E ! Q Q ! ! Q Q ! ! ! ! Q Q / ! ! ! ! ! ! ! ! Q Q Q Q ! ! ! ! Q ! ! ! ! ! ! ! Q E E E E E Q E E Q ! Q Q E E Q Q E ! ! ! ! ! Q E Q E E Q ! ! ! E Q ! ! ! ! Q ! Q Q Q ! ! ! ! ! ! ! ! ! ! ! Q ! ! ! ! ! Q ! ! ! ! ! ! ! ! / / / ! ! / / ! ! ! ! ! ! ! ! ! ! / / / / ! ! ! ! ! ! ! ! / / / Q ! ! / ! ! ! ! ! ! ! ! ! ! ! ! ! ! ! ! ! ! ! ! ! ! ! ! ! ! ! ! / ! ! / ( / / ! ! ! ! ! / ( / / / / ! ( ) ( / / / ( ( ) ( ( ) ) / ! ( / / ( / / / / ) ( ! ! / / ( / / / / / ( ( ( ( ( / / / ! / / / / ( ( ( ( / ! / / / / ( ( / / / / / ! ! ! / / / / / / / ( / ( ( / ( / / / / / / / / / / / ! ! / ! ! ! ! ! Q Q Q Q ! ! ! o.` ) ) ` ` / / / / / / / ! ! ! ! ! ! ! ! / / _ _ ` ^ ;.;.>.,.,.,.[ [ [ ..[ ;...' ! ! ! / / / Q Q ! ! ! ! ! ! / Q / / ! ! ! ! ! ! ! ! ! ! ! ! ! ! ! ! ! ! ! ! ! ! ! ! Q Q ! ! ! ! ! ! ! ! / _ ^ Q E Q W ! ! Q ! / _ / E ^ ^ ^ ^ E E ! Q ! Q R Q Q Q Q E E E ~ ^ ^ ^ ~ R E R ~ ^ ^ B B E E E E E E E E E E E E E E W E E W E E E ^ ^ ] ^ ^ ^ ^ ^ ^ ^ ~ ^ B ^ ",
"k k c k c v c k c c k k c c c c c c v v v v v c v v v c c v v v v b b b b b b M M b b b M M M M b b b M M M M b b v b b v v v v v v v v v v v v b b b b b b b b b v b b b b M b b M E E M b b E T T E E M M b b E E E E E E E E E E M M M E E E E E E E T b T E E M M b M E T T M M M M E E E E E M M E E E E E E E E M M E M M M E E E E E E E E E E E E E E E E E E E E E E E E E E E E E E E E E E E E E E E E E E E E E E E E E E E E E E E E E E E E E E E Q E E E E E E E E E E E E E E E E E E E E E W E Q Q E E E E E E E E E E Q Q ! Q Q E E E E Q Q E E E E E Q ! ! ! Q Q Q Q Q Q Q E E Q E E E E E E E E E E E E E E E E Q E E E W W Q E E ! Q E Q Q E Q E Q Q E E E Q Q Q Q ! Q Q ! Q Q / / / ! ! Q ! ! ! ! ! ! E ! ! Q ! ! ! ! W ! ! ! ! ! ! ! ! Q E E E E Q E E E Q Q E Q Q Q Q E Q Q Q Q Q E E Q Q E Q Q Q Q Q Q ! ! ! ! Q ! ! Q Q ! ! ! Q Q Q Q Q ! ! E Q ! ! ! ! ! ! ! / ! ! ! ! W ! / / / ! / / / / ! ! ! ! ! ! ! / / / / / / ! / / ! ! ! ! ! / / / ! ! ! ! Q Q ! ! ! ! ! ! ! ! ! / / / ! ! / / ! ! ! Q Q / / ! ! / / / / / ) ( / / / / / ! / / / / ( ( / / ( ( / / / / ( ( ( O.) ) ( / ( / / ( ( / / / ( / ! / / / / / ( ) ( / / / / / / / / / ! / ! / ( ( / / / / / / / / / ( ( / / / / / / ! ! ! / / / / ( ( ( / / / / ( / / / ( ( / / ( ( / ( / ! ! ! / / ! ! ! ! Q / / ! ! _ _ / _ _ _ ! / / / / / / ! ! / / ! ! ! ! / / / _ ` ' ^ ........,.} } [ ;.[ ..` / / / / ( ( ( / ! / / ! ! Q ! / / / / / ! ! ! ! ! ! ! ! ! ! ! ! ! ! ! ! ! / / ! / / ! / ! ! ! Q ! ! ~ ~ _ _ ' ^ Q E ! ! Q ! ! ! Q _ ~ ~ ^ ~ ~ ^ Q Q Q ~ ~ _ Q Q Q Q E Q Q E E E E E E Q E R E ~ ~ ~ E R R E E E E E E E E E E E E E E E E E ~ ] ^ ^ ^ ^ ^ ^ ^ ^ ^ ~ ~ ^ ^ ^ ",
"k k k k c c k k c c c k c v v v c c v v v v v v v v v v v v v v v b b b v b M M M M M M M M M b v b M b b b M b b v b b v v v v v v v v v v v v v b M b v v v b v v b b M M M b M M E E b b M b v b M E M M M b E E E E E E E E M M E M M E E M M E E T T T T E E M b b M T T T E M E E E E E E M M M E E E E E E E M M M E E E E E E E E E E E E E E E E E E E E E E E E E E E E E E E E E W W W W W E E E E E E E E E E E E E E E E E E E E E E E E E E E E E E E E E E E E E E E E E E E E E E E E E E E E E E E E E E E E E E E E E E Q Q E E Q Q E Q E E E Q E E E Q ! ! ! ! ! ! E E E E E E ! E E E E E E W E E E E E E E Q E E E E E Q Q Q E E Q Q E E E E E E E E E E E E E E E ! ! ! ! E Q / / ! W ! E Q ! Q Q Q Q Q Q ! Q ! ! ! ! ! ! ! ! ! ! ! ! ! ! E E E E E E Q E Q Q E E Q E ! Q E E E E E E E E E E E E E E E Q ! ! ! ! E Q ! ! ! ! ! ! Q E E E E Q Q E ! ! ! ! ! ! ! ! ! / ! ! Q W ! / / / ! / / ! / ! ! ! ! ! ! / / / ! ! ! ! ! / ! ! ! ! ! ! ! ! ! ! ! ! Q E Q ! ! ! ! ! ! ! ! ! / / / ! ! / / ! ! ! ! / / / ! ! ! / ( / ( ( / / / / ( / ! ! ! ! / ( ( ! ! / ( O.O.X.! / / ( ( ) ) ) ) / / ( ( ) ( / / / ! ! / / / / ) ) ) ) / ( ( ( / ! ! / O.! / / / ( / ! ! ! / ! / / / / ( ( / / / / / / ! ! ! / / ! ! / / ( ( ( / / / / / / / / / / / / / ( ( / Q / / / ! ! ! ! / / / ! _ ` ' ! | ! ! ! ! / ( ) _ ! ! ! / ! Q ! ! ! ! ! / ( ` ` ~ ^ ......;.[ } [ ..;.' ` ( / / / / / ( / / / Q Q Q ! ! Q Q / / / ! ! ! ! ! ! ! ! ! ! ! ! ! ! ! ! ! ! ! ! / / ! ! ! Q E E Q _ ^ ~ _ ` ' ^ ^ ~ ! ! Q Q E E Q ! ~ E ^ ~ ~ ~ E E E E ~ ^ ~ E Q Q Q ! Q E E E E E E Q E R E E W Q E R R Q E E E Q Q E E E E E E E E E Q ~ ^ ] ^ ^ ^ ^ ^ ^ ^ ^ ^ ^ ^ ^ ^ ^ ",
"l k k k c c k c c k c c c v v v c k c v v v v v c v v v v b v v b M b v v b M b b M M b b b b b v b b v v v M M b v v v v v v v v v v v v v b b v b b b v v v v v b M M M M M M M M M b b E E b T b M M M M M M E E E E E E E E E E E E E E E M M E E T T E E E E b b b b T T T E M M E E E E E M M M M E E E E E E M E E M E E E E E E E E E E E E E E E E E E E E E E E E E E E E E E E E E E E E E E E E E E E E E E E E E E E E E E E E E E E E E E E E E E E E E E E E E E E E E E E E E E E E E E E E E E E E E E E E E E E E E E E E E E E ! Q E ! Q Q ! _ ! E E E Q ! Q Q E E E E E E E E E E E E E E E W Q Q Q E E E Q ! Q E E W Q E E E E E E E E E E E E E E E E E E E E E E Q ! ! Q E Q ! ! ! ! ! Q Q Q E E E Q ! ! ! ! ! E Q ! ! ! ! ! ! ! ! ! ! ! E E E E E Q ! E E E E Q ! E _ Q E E E E E E E E E E E E E E E E Q Q Q Q E ! ! ! ! ! ! ! Q E E Q Q ! Q Q ! ! ! ! ! ! ! ! / / ! ! Q Q ! ! ! ! ! ! ! / / ! ! ! ! ! ! / / / ! ! ! ! ! / ! ! ! ! ! ! ! ! ! ! ! ! Q Q ! ! ! ! ! ! ! ! ! ! ! ! ! ! ! / / / ! ! ! ! / / ! ! ! / / / / / / / / / / / ! ! ! ! / / / ! / ! / / / X.| ! / / / ( ( ( ( ( / / ( ) ( / ! ! ! / / / / ( ) ) ) ( / ( ) ( / ! ! / / ! / / / / / / / / ! ! ! / / / ( ( / / / / / ! / / / ( / / / / / ( ( ( / / / / / / / / / / / / / / / / / / ! Q / ! ! ! / / ! ! _ ) / ! ! ! ! / _ _ ) _ _ ! Q ! / / ! ! / ! ! ! / / ` ` ^ ^ ....;.[ [ [ [ ....' _ / / ! ! ! / / Q ! ! ! ! ! ! ! ! ! ! / ! ! ! ! ! ! ! ! ! ! ! Q ! ! ! ! ! ! ! ! ! ! ! ! ! Q E E E ! ! _ ! / ' ^ ^ ^ ^ ! _ ~ E E E Q ! ~ E ~ ~ Q Q E ~ ~ E E ~ ^ E Q Q Q Q E E E E E E E Q Q R E E W E E E E E E E E Q R E E E ~ E E E E ~ ^ ^ ^ ^ ^ ^ ^ ^ ^ ^ ~ ^ ^ B ^ ^ ^ ^ ",
"z z k k c k k c c c k c c v v v c k c v c v v v v v v v v v v v v b b b b b b b b M M M b b v v v v b v v b M b b v v v v v v v v v v v v v v v v v v T b v v v b M M M M M b M M M M b b b M T T T M M E M M M M M M M M M E T T E E E E E E E M M E T T E E E T b b b v T T E E M b b b T T b M M M M M E E E E E E E M M E E E E E E E E E E E E E E E E E M W W M E E E E E E E E E E E E E E E E E E E E E E E E E E E E E E E E E E E E E E E E E E E E E E E E E E E E E E E E E E E E E E E E E E E E E E E E E E E E E E E E E E E E E Q ! Q E Q ! ! / _ ! E E E E E W W E E E E E E E E E E E E E E Q Q Q ! ! E Q ! ! Q E E E E E E E E E E E E E E E E W E E E E E E E E E E W Q E E E ! Q W ! ! ! ! ! Q E E E Q / ! / / Q Q Q ! ! ! ! ! ! ! ! ! ! ! E E Q ! Q E E E E E E E Q Q ! Q E E E E E E E E E E E E Q Q Q Q E E E E Q ! ! ! Q ! ! ! Q E Q ! Q Q Q ! ! ! ! ! ! ! ! ! / / ! ! ! ! ! / ! ! ! ! ! / / ! ! ! ! ! ! ! ! ! ! ! ! ! ! / ! / / / ! ! ! ! ! ! ! ! Q Q ! ! ! ! ! ! ! / ! ! ! ! ! ! ! Q Q / ! ! ! ! ! ! ! ! / / ! ! ! / / / ! ! / ! ! ! ! ! / / / ! ! ! ! ! ! ! / ! / / / ( / / / ( / / / / / / / ! / / / / ( / / ( ) ) ( / ( / / ! ! ! ! ! ( ( / ! ! / / / ! ! ! / / / / / / / ( / ! / / / ( ) ( ( / / ( ( / ( / / / ! ! ! ! / / / / / / / / / / / / / ! ! Q ! / / ! ! / ( / ! ! / _ ` ` ` _ ! ! ! ! / / / ! ! ! ! ! ! / / ` ` ........;.[ ;.{ ^ ..+.` / / / / / / / ! Q Q / ! ! ! ! ! ! ! ! ! ! ! ! ! ! ! ! ! ! ! ! / / ! ! ! ! ! Q ! ! ! ! ! ! E Q Q ! ! ! ! ! ^ ^ [ ..^ ^ ~ ! Q Q Q E E ! ~ ~ ~ ~ Q ! E E E E E E E E R Q Q Q R E E E E E E E R R E E W E E E E E E E E Q ~ N B ^ ^ ~ W W E ^ ^ ^ ^ ^ ^ ^ B B B ^ B B ^ B ^ B B B ",
"l l k k k k k c c c k k c c c v c k k c c v c v v c v v v v v v v b b b b v v b M M b M b b v v v v v v b b b b v b b v v v v v v b b v b v v v v v b T b b b b b b b b b M b b M M b b b v b T T T M b T b M M M M M M M M T T T E E E E E E E E M E T T E T T v b T T b T T T b T E T T T T b T M M M M M E E E E E M M M E E E E E E E E E E E E E E E E E E M M E E E E E E E E E E E E Q Q E E E E E E E E E E E E E E E Q E E E E E E E E E E E E E E E E E E E E E E E E E E E E M E E E E E E E E E E E E E E E E E Q Q E E E E E E E E Q Q Q E E Q ! / / ! Q E E E Q E E E E Q Q E E E E E E E E E E E E Q Q ! E Q Q Q E E E Q E E E E E E E E E E E Q Q E E Q Q E E E E Q Q E E Q Q Q ! / Q W Q ! ! ! ! Q E Q Q Q / / / / Q ! ! Q ! ! ! W Q ! ! ! ! ! Q E Q ! Q E E E E E E E Q ! ! Q E E Q Q E E E E E E Q Q Q Q Q Q Q Q Q Q / ! ! Q Q ! ! ! Q E W W Q Q ! ! ! ! ! ! ! / ! ! ! / ! ! ! ! / / ! ! ! ! ! ! / ! ! ! ! ! ! ! ! ! ! ! ! ! ! ! ! / / / / ! ! ! ! ! ! ! ! Q Q ! ! ! ! ! ! / ! ! ! ! ! ! ! ! / / ! ! ! ! ! ! ! ! ! / ! ! / / / / / / / ! ! ! / / / / / / / / / X.! ! ! / ( ( / / / / / / / / / / / / / / / / ( / ( ( / / ( ( / / ( ( / / / ! ! / ) ) ( / / / / / / / / / / ( / ( / / / / ! / / / / ( / / / / / / / / / / ! ! ! ! ! ! / / / / / / / ( / ! / / ! ! ! ! ! ! / ! ! / ! _ / / _ ' ' _ _ / ! ! ! ! ! ! ! ! / / ! / / _ _ ` %.....;.;.[ ..^ ' _ ) ) / / / ( / / / ! ! / / ! ! ! ! ! ! Q ! ! ! ! ! ! ! ! ! ! ! ! ! / / ! ! ! Q Q ! ! ! ! ! ! Q Q ! / / ! _ _ ~ ^ ^ [ ^ ^ ^ ~ Q Q Q Q Q E Q _ ~ ~ E Q Q Q E E W E E E E R R R R Q R R R T E E T R R R E E E E E E E E E E ~ ~ ^ ^ ] ^ ] E W ~ ^ ^ ^ ^ ^ ^ ~ ~ B B ^ B B B B B B B B ",
"c k k k k k c v c k k k c v v v c c c c v v c c v c v v v v v b b v v v b b b M M b b b v v v v v v v v v v v v v b b v v v v v v v v v b v v v v v b b v b b b v v v v v b M b b M b b b b b b M M M b b b b b M M M M M M T E E E E E E E E M M M M E T T T b b E b v b M b v T T T T T T T T T T M M M M M M E E M M M M M M E E E E E E M E E E E E E E E E M M E E E E E E E E E E E E E E E E E E E E E E E E E E W E E E E E E E E E E E E E E E E E E E E W E E E E E E E E E E W E E E E E E E E E E E E E E E E E Q Q E E E E E E E E E E E E E E Q Q ! ! ! E E E Q E E E E E E E E E E E E Q Q E E E E Q ! ! Q Q Q Q E E E E E E E E E E E E E E E ! ! ! ! ! ! E E E W ! ! E E ! ! ! ! ! Q Q E Q ! ! ! ! Q ! ! Q ! ! ! ! ! ! Q E ! ! W W E Q ! ! Q ! Q Q ! Q E E Q E E E E E E ! ! Q E E ! ! Q E E E E E ! Q E E E Q ! ! ! ! / ! Q E Q ! ! ! Q E W W E E ! ! ! ! ! ! / / ! ! ! ! ! ! ! ! ! ! ! ! ! ! ! ! ! ! ! ! ! ! ! ! ! ! ! ! ! ! ! ! ! ! ! ! ! ! ! ! ! ! ! ! / Q ! Q Q ! ! Q / ! ! ! ! ! ! ! ! ! ! ! ! ! ! ! ! ! ! ! ! ! ! / / / / / / / ! ! ! ! / / / Q / / / / / X.! ! / / / / / ! ! ! ! ! / / / / ( / ! ! ! / ( ( ( / / / ! ! ! / ) ) ( ( ! ! ! ! / ( ( ( / ! / ( ( / / / / ( ) ) _ ! ! / / ! / / / / ! ! / / / / / / / / / ! ! ! ! / ( ( / / / / / ( / ! ! ! ! ! ! ! ! ! ! ! ! ! ! ! ! ! ! _ ^ ! ! ! ! ! ! ! ! ! ! ! / / ! ! ! ! ! / ) ' ' ..' ' ) ) ) / ( / / / / Q / / Q Q Q Q / ! ! ! ! ! Q / / / ! ! ! ! ! ! ! ! ! ! ! ! ! ! ! ! Q ! ! ! ! ! ! ! E Q / ' ' ' ^ ^ ^ ~ ^ ^ ^ ^ ^ ! Q ! ! Q E E Q Q / _ Q E E Q E E E E ~ ~ Q R R R R R R R R R E R R R ] R E E E E E E E E E E E ~ ^ B B B B ] ] B ^ ^ ^ N ^ ^ ^ ~ ~ ^ B ~ ^ ~ ~ ^ ^ ^ ^ ",
"k k c k k k c v c k k k c c c c c c v v c c k c v v v v v v v b b b v v b b b M M b b b v b b v v v v v v v v v v v v v v v v v v v v v v v v v v v v v v b v v v v v v v b M b b M b b E M M M b M M b M M b b M M M M b T E E E E E M E E M M b b M E T v b M E M b b b T T b M b b T T T T T T T M M M M M M E E M M M M M M E E E E E E E E E E E E E E E M E E M E E E E E E E E E E E E E E E E E E E E E E E E E W E E E E E E E E E E E E E E E E E E E E E E E E E E E E E E E E E E E E E E E E E E E E E E E E E E E E E E E E E E E E E E E E E E E E Q ! E E E E E E Q Q E E E E E E E E Q ! E E Q E E Q ! Q Q Q Q E E E E E E E E Q Q E E E E E Q Q ! ! ! ! E E E E Q E E E ! ! ! ! ! Q Q ! ! ! ! ! ! ! ! ! ! ! ! ! ! Q Q Q E E Q ! E Q ! ! Q Q ! ! ! Q E E ! ! E E E E E E E Q Q E E Q ! Q E E E E E ! Q E E E Q ! ! ! ! ! Q E Q E E Q ! Q E W W E ! ! ! ! ! ! ! ! ! ! ! ! ! ! ! ! ! ! ! ! ! ! ! ! ! ! ! ! / / ! ! ! ! ! ! ! ! ! ! ! ! ! ! ! ! ! ! ! Q Q ! ! ! ! ! Q Q ! ! ! / ! ! ! ! ! ! ! ! ! ! ! ! ! ! ! ! ! ! ! ! ! ! / / / / / ! ! ! ! ! ! ! ! ! ! / / ! ! ! / / / / / / / / / ! ! ! ! ! / / / ( / ! ! / / / ( ( / / ! ! ! ! / / / / / ! ! ! ! / / / / / / / ( / / / / / / / / / ! ! / / ! ! ! / / ! / / / / / / / / / / / ! ! ! / ( ( / / / ! Q / ! ! ! ! Q ! ! ! / ! ! ! ! ! ! ! ! ! ! ! ! ! ! ! ! ! ! ! ! ! ! ! ! ! ! ! ! ! ! ! / _ ) ) ( / / / / ( ( / Q Q Q Q Q Q Q Q Q Q / ! ! ! ! Q Q Q / ! ! ! ! ! ! ! Q ! ! ! ! ! ! ! Q Q Q ! ! ! ! ! ! ! E E ! ' ' _ ~ ^ ! ! ! ! _ ~ Q ! ! ! ! ! E E E Q Q Q E E E E W E E E E E Q R R R Q R R R Q R R R R R R R E E E E E E E E E E E ~ ^ B B B B ^ ^ B B B B B B ^ ^ ^ ^ B B ^ ^ ^ ^ B B ^ ^ ",
"k k k k k k k c c k k k k k k k k c c k k c k c v v v v v v v v b b v v b b b M M M M b v b b v v v v v v v v v v v v v v v v v v v v v v v v v v v b b v v v v v v b v b b M M M b v b E M M b b M M b M M M M M M E E T E E E E E M M M M M E T v b M T b b T T b b M b T T b b b v b b b M M M M M M M M M M M E M M M M M M E E E E E E E E E M M E E E E E E E M E E E E E E E E E E E E E W W E E E E E E E E E E W E E E E E E E E E E E E E E E E M E E E E E E W E E E E E E E E E E E E E E E E E E E E E E E E E E E E E E E E E E E E E E E E E E E E Q ! E E E E E E E E E E E E E E E E Q ! E E E E E Q ! E E E E E E E E E E E E Q Q Q W E E E E E Q Q ! ! E E E E E E E E ! ! ! ! ! ! ! Q E E E Q ! ! ! ! ! ! Q ! ! ! ! Q E E E ! ! ! ! ! E Q ! ! ! Q E ! ! Q E E E E Q E E E Q E E E Q ! E E E E E ! Q E E E Q ! ! ! ! ! ! ! W E E E E E E W W W ! ! ! ! ! ! ! ! ! ! ! ! ! ! ! ! ! ! ! ! ! ! ! ! ! ! ! ! / / ! / / ! ! ! ! ! ! ! ! ! ! ! ! ! ! ! ! Q Q ! ! ! ! Q Q Q Q ! ! ! ! ! ! ! ! ! ! ! ! ! ! ! ! ! Q / / ! ! ! ! / / / / ! ! ! ! ! ! ! ! ! ! ! ! / / ! ! ! / / / / ! ! ! / / / ! ! ! ! Q / / ( / ! ! ! / / / / / ! ! ! ! ! / _ ! ! ! ! ! ! ! / / / / / / / / / / / / / / / / / ! / / / ! ! ! / ! / / / / / Q / / / / ( ( ! ! ! ! / / / / Q ! ! ! ! ! ! ! ! ! Q Q ! ! ! ! / / ! ! ! ! ! ! ! ! ! ! ! ! ! ! ! / / Q Q Q Q Q ! ! ! ! ! ! / / / ! ! Q / ( ( / / Q Q Q / ! ! ! ! ! ! ! ! ! ! ! ! Q Q ! ! ! ! ! ! ! ! ! ! ! ! E Q ! ! ! ! Q E Q ! ! ! ! Q E ! _ _ / ~ ~ ! ! Q Q Q Q E Q Q ! Q E E E E E E E ~ ~ E W Q ~ R E E E ! E E E Q Q E E E E E T T T R Q E E E E E E E E E E ~ R ~ ^ B ^ ^ ^ ^ ~ ^ B ^ ^ ^ ^ ^ ^ B B B ^ ^ ^ ^ ~ B ^ ^ ",
"k k k c k k k k k k k k k k k k c v c c c c c v b b v b v b b v v b b v v v b M M M M b v v b b b v v v v v v b b v v v v v b b v v b v v v v v v v b T v v b b v v T b b b M M b b b b b M M b b T b b E M M E M M E E E E E M E M M M M M M E T v b b T M M T T v b E b T T T b b v v v b M M M M M M M M M M M b M M M b M E E E E E E E E E E M M E E E E E E E E E E E E E E E E E E E E E W W E E E E E E E E E W W E E E E E E E E E E E E E E E E M E E E E E E W E E E E E E E E E E E E E E E E E E E E E E E E E E E E E E E E E E E E E E E E E E E Q ! ! Q E E Q E E E E E E E E E E E Q Q ! Q E E E E Q Q E E E E E E E E E E Q Q ! Q Q ! Q E E E Q ! ! ! Q E E E E W W E Q ! ! ! ! Q ! ! Q Q Q Q E Q ! Q ! ! ! Q ! ! W W E E E Q ! ! ! Q ! ! ! Q ! ! Q Q ! Q E E E E E R Q E E Q Q E E Q ! Q E E E E ! ! Q Q Q Q ! ! ! ! Q E Q Q Q E E E E Q Q W W ! ! ! ! Q Q Q Q / ! ! ! ! ! ! ! ! ! ! ! ! ! ! ! ! / ! ! ! ! / / / ! ! ! ! ! ! ! ! ! ! / ! ! ! / ! ! ! ! ! ! ! Q Q Q Q ! Q Q ! ! ! ! ! ! ! ! ! ! ! ! ! ! / / / ! / / / / / / / ! ! ! ! / ! / ! ! ! ! ! ! ! ! ! ! / / / / ! / / / / / ! ! ! ! Q Q / / Q ! / / / / ( ( / / / / / / / ) / / / / / ! ! / / / / / / / ! / / / / / / / / ! ! / / / / / / ! / / / / / / Q / / ! / ( ( ! ! ! ! ! ! ! ! Q ! ! ! ! ! ! ! ! Q Q Q ! ! / Q / / / / ! ! / / / ! ! ! ! ! ! ! ! / / / ! / / ! ! ! ! ! ! ! ! Q ! ! ! ! / ( ) / / ! / Q ! / ! ! ! ! ! ! Q ! ! ! ! Q Q ! ! ! ! ! ! ! ! ! ! ! Q E Q / ! ! ! Q E E Q Q Q Q Q E Q ! ! Q Q ! ! Q E E E Q ~ ~ ~ ~ R ] ~ E E E E E ~ ~ W E E Q R E E E Q ~ E E E E E E E E E E E E R E E E E E E E E E E E T ^ ~ B ] ^ ^ ^ ^ ~ ^ ^ ^ ^ ~ ~ ^ B B B B ^ ~ ^ ~ ~ ^ ^ ^ ",
"k k k k k k k k k k k k k k k k c v v v v v v v v v v b b b b v b b b v v v v b M M b b v v b M b b v v v v v c v v b v v v b b v v b v v v v v v v v v v v v v v v v v v b M b b M M M M E E E T T T T T b b E M M M M E E E M E E M M E E b b b T T T T b M M b v v v b b b T T T v v v b M b b b b E E b M M M b E E E T E E E b T E E E T T E M M M E E E E E E E M E E E E E E E E E E E E M W W M M E E E E E E M E E E E E E E E E E E E E E E E E E E E E E E E E E E E E W W E E E E E E E Q Q E Q E E E E E E E E E E E E E E E E Q E E E E E E E E E Q E Q E E E E E E E E E E E E E E Q ! Q E E E E E E E E E E E E E E E E Q ! ! ! ! ! E E E W E E E E E E E E E Q Q W E E ! ! ! ! ! ! ! ! ! ! ! ! Q Q Q E ! ! E ! ! ! Q W W E ! ! ! / ! ! ! ! ! ! ! ! Q E E E E E E E E Q ! Q E E E E E E E E E E E E Q ! ! ! ! Q E Q Q Q E E Q Q ! Q E E Q ! Q E Q ! ! ! ! ! ! ! ! / ! ! ! ! ! ! ! ! ! ! ! ! ! ! ! / / ! ! ! ! ! ! ! ! ! Q ! ! ! ! ! ! ! / ! ! / / ! ! ! ! / / ! ! Q Q ! E E Q ! ! ! ! ! ! ! ! ! ! ! ! ! ! ! ! ! ! / / / / / / / / ! ! ! / / / / / / Q ! ! ! ! ! ! ! / / / / / / ( / / ! ! ! ! Q / / ! ! ! / / / / ( ( / / / / / / ( ( / / ( ( / / ! ! ! ! ! / / ! ! ! ! / ! / / / ! | ! / / / / / / / / / / ! / ( / / ( / / / / ! ! ! ! ! ! ! ! Q Q Q Q Q / ! ! ! Q ! ! ! ! ! ! / ( / / / / / / Q ! ! Q E ! ! ! Q Q Q / / ! ! ! / / ! ! ! ! Q Q Q Q ! / / / ! ! ! ! ! ! ! Q ! ! ! ! ! Q ! ! ! ! ! ! ! ! ! ! ! ! ! ! ! Q ! ! Q ! ! / / W ! ! ! Q E E E E E E E E E Q Q Q ! ! Q E E E ^ ^ ] ^ ] ] ~ E E E E Q E E ~ E E E E R E E E E E E E E E E E T E E E E E E E E E E E E E E E E E E ~ B N W ^ ^ B ^ B ^ ^ ^ ^ ^ ^ ^ ^ ^ ^ B ^ ~ W W ~ ^ ~ ",
"k k k k k k k k k k k c c k k k c v v v v v v v v v v b M b b v b b v v v v v v b b b v v v v b v v v v v v c c v v v v v v v v v v v v v v v v v v v v v v b b v v v v v v b M M b b b M M M T T T T T b b M E M M M M E E M M E E M M M b b b E T b T T b M M b v v v b b v b T b v v b b b b b b b E E b M M M M M E E E E E E E E E E E E E E M M b T T E E E E E E E E E E E E E E E E E E E E E E E E E E E E E M E E E E E E E E E E E E E E E E E E E E E E E E E E E E E W E E E E E E E E E E E Q E E E E E E E W E E E E E E E E E E E Q Q E E E E E E E Q E E E E E E E E E E E E E E E ! Q E E E E E E E E E E E E E E E E Q Q Q Q ! ! E E E W W W E E E Q ! E E E E E E Q ! ! ! ! ! ! ! ! ! ! ! ! E Q Q E ! ! ! ! ! ! Q Q Q E E Q ! ! ! ! ! ! Q Q Q ! Q E E E E E E E E ! ! E E E E E E E E E E E E E E Q ! ! ! ! Q Q Q Q E E E ! ! Q E E ! ! E E E Q Q ! ! ! ! ! ! ! ! ! ! ! ! ! ! ! ! ! ! ! ! ! ! / / / / / ! Q ! ! ! ! ! ! / ! ! ! ! ! ! ! ! ! ! ! ! ! ! ! ! ! ! ! Q ! ! ! ! ! ! ! ! ! ! ! ! ! ! ! ! ! ! ! ! ! ! / / / / / / / / ! ! ! / Q / / / / Q ! ! ! ! ! ! ! / / / ! ! ! / ! ! / / ! ! ! / ! ! ! ! ! / / ( / / Q Q Q Q Q Q Q / Q / ( / / ! ! ! ! ! ! / ! ! ! ! ! ! ! ! ! ! ! ! ! ! / / / / / / ! ! / / / / Q Q / / / / / ! ! ! ! ! ! ! ! Q Q Q Q / / ! ! ! ! ! ! ! ! ! ! / Q Q Q Q / / / Q Q Q ! Q ! Q Q Q ! ! ! / ! ! ! / / ! ! ! ! Q Q Q ! ! ! ! / ! ! ! ! ! ! ! Q ! ! ! ! ! ! Q ! ! ! ! ! ! ! ! ! ! / ! ! Q Q ! ! ! ! ! ! ! ! ! ! ! ! E E E Q E E E E E W ~ E Q Q E ~ ~ ~ ^ ^ ~ E Q Q W ^ E E E E ~ W E E E E E Q R E E E E E E E E E E E M M M M E E E E E E E E E E E R ~ ~ M B B N B B B ^ ^ ^ B B B ^ ^ ^ ^ ^ ^ B ^ ~ W M B B B ",
"k k k k k k k k k k k k k k k k c v v v v v v v v v v b M b b v b b v v v b b b v v v v v v v v v v v v v v v v v v v v v v v v v v v v v v v v v v v v v v b b v v v v v b b b b b b b M b b b b b b b v b M M M M M M M M M M M M M M M b v b b b T T b v b b b b v v v b b v b b v v v b M M M b M E E M M M M M M M M M E E E E E E E E E E E M M b T T E E E E E E E E E E E E M E E E E E E E E E E E E E E E E M E E E E E E E M E E E E E E E E E E E E E E E E E E E E E W E E E E E E E E E E E E E E E E E E E W W E E E E E E W W Q E E E E E E Q Q E E E E E E E Q Q Q Q Q Q Q Q E E E E E E E E E E E E E E E E E E E E E E E E E Q ! E E E W W E E E Q ! W E E E E E E E Q E Q ! Q Q ! ! ! ! ! Q E Q Q E W W W ! E Q E E E Q E E Q Q ! ! ! ! Q E E E E E E Q Q E E E E ! E E E E E E E E E E E E E Q W E E E E E Q Q Q Q E E E Q ! Q E E ! Q E W W E Q ! ! ! ! ! ! ! ! ! ! ! ! ! Q ! ! ! ! ! ! ! ! / / / / / ! Q W ! ! ! / / / / ! ! ! ! ! ! ! ! ! ! ! ! ! Q Q ! ! ! ! ! ! ! Q ! ! ! ! ! ! ! ! ! ! ! ! ! ! ! ! ! ! ! ! / / / / / ! ! ! ! ! ! / / Q Q Q Q / / ! / / ! ! / / ! ! ! ! Q ! Q / / / / ! ! ! ! ! ! ! / / / ! / / / Q Q Q / ! ! ! / / ! ! ! ! ! ! ! ! ! ! ! ! ! ! ! ! ! ! ! ! ! ! ! / / / ! ! ! ! ! / / ! ! ! / / / ( / ! ! ! ! ! ! ! ! ! ! ! ! / ! ! Q ! ! ! ! ! ! ! ! ! ! Q Q ! ! ! ! ! E E Q ! ! Q E Q ! ! ! ! ! ! ! Q Q ! ! ! ! ! ! ! ! Q Q Q Q ! ! ! ! / ! Q Q ! ! ! ! ! ! Q Q ! ! ! ! ! Q Q ! ! Q Q Q Q ! ! Q Q Q ! ! ! ! ! ! ! ! E E E Q E E E E W ~ E ~ E E ~ ^ ^ ^ ^ ~ Q E E Q ~ ^ ~ E E E E E E E E E E R E E E E E E E E E E E E M M M M E E E E E E E E E E E R E W ^ B B m B B B B ^ ^ ^ B B B ^ B B B B B B W W W B B B ",
"k k k k k k k k k k k k k k k k c v v v c c v v v v v b b b b v b b v v v b M b b v v v v v v v v v v v v v v v v v c v v v v v v v v v v v v v v v v v v v v v b v c b b b b b v b b M b v v v v v v v b b b M M M M M b M M M b b M M E b v v b b b b b b b v b b v v v b M v b b b b b b b b b b E E E M M b b b M M M M M b b E E E M M M M M M E E E E E E E E E E E E M E E E M E E E E E E E E E E E E E E E W W W E E E E M M M E E E E E E E E E E E E E E E E E E E E E E E E E E E E E E E E E E E E E E E E E W W E E E E E E W W Q E E E E E E E E E E E E E E E ! ! ! ! Q Q Q Q Q E E E E E E E E E E E E E E E E E E E Q E E E E ! ! E E E W E E E E E W W ! ! ! ! Q Q E E E E Q E Q ! ! ! Q ! Q E Q Q Q W E Q Q Q ! E E E Q Q E E E Q ! ! ! Q E E E E E Q ! Q E E E E Q E E E E E E E E E E E Q Q Q W W Q Q E Q Q Q Q Q E E E E ! Q E E Q E W W W W W Q ! ! ! ! ! ! ! Q Q ! ! ! Q ! ! ! ! ! ! ! ! / / / / / ! ! ! W ! ! / / / / / ! ! ! ! ! ! ! Q ! / / ! E Q ! Q Q Q Q ! Q Q ! ! ! ! ! ! ! ! ! ! ! ! ! ! ! ! ! ! ! ! / / / / / ! ! / ! ! ! ! ! ! / Q Q / / / / / ! ! / / ! ! ! ! ! ! / / / / / ! ! ! / / / ! ! / / ! ! / / / / / / ! ! ! ! ! ! ! ! ! ! / ! ! ! ! Q Q ! ! ! ! ! ! / / ! ! ! / ! ! ! ! ! ! ! ! ! ! ! ! ! / / / / ! ! ! ! ! ! ! ! ! ! ! ! ! / / ! ! ! ! Q Q Q ! Q / ! Q ! ! ! Q E W ! E Q ! ! ! E Q E ! ! Q Q _ ! E Q ! ! ! ! ! ! ! ! Q Q Q Q ! / ! ! ! Q Q ! ! ! ! Q Q ! ! ! ! ! ! ! ! Q Q Q ! Q R Q Q ! ! Q E Q ! ! ! ! ! Q Q Q Q ! Q E E E E E W W W ~ E ~ ^ ^ ^ ^ ^ W ~ ^ ^ ^ ^ ^ ^ ~ E E E E E E E E R R ] ~ E E E E E E E E E M M M M M E E E E E E E E E E M E E E ~ ^ B m m B ~ B B ^ ^ B B B B ^ B B B B B W W ~ ^ B B ",
"k k k k k k k k k k c n m l k k k k c v v v v v v v v b v b b v b b v v v b M b v v v v v v v v k c v v v v v v v v v v v v v v v v v v v v v v v v v v v v v v b v v b b b b b v v b b b b v v b T T T M M M M M M M M M M M E E b b b E b b v b v v v b b v v v T T E b b M b b T T M M b M b v b T E M M M M b v M M M b M M M M b M M M M M M E E E E E M M W E E M M E E E E E E E M E E E E E E E E E E E E E W W M M M M M E E E E E E E E E E E E E E E E E E E E E E E E E E E E E E E E E E E E E E E E E E E E E E E Q ! Q E W E E E E E E E E E E E E E E E E E E E E E E Q Q ! ! Q E E E E E E E E E E E E E E E E E E E E W E E Q ! Q E E E E E E E W W W W E E E Q ! ! Q E Q ! ! ! Q E E E Q Q ! ! W W E E E Q ! Q E E E Q ! E E E E E E E E E E E E E E E E E E E E E E E E E E E E Q Q ! Q E Q Q E ! ! ! ! ! ! ! ! ! ! ! ! ! ! ! ! Q E Q Q E E W E E E E E E ! ! ! ! ! W Q ! ! Q ! ! ! / ! ! ! ! ! ! ! ! / ! ! ! ! ! ! ! ! ! ! ! Q ! ! ! ! ! ! ! ! / ! Q E E Q ! Q E Q ! ! ! ! ! ! ! ! ! ! ! / / ! E E Q Q E ! ! ! ! / / / / / Q / / / / / Q Q Q Q ! ! ! ! Q Q Q ! ! / / ! ! Q / Q Q / / ! ! ! ! ! ! / ( / ! ! ! ! ! ! ! / / / Q Q / / ! / ! ! ! Q ( / / ! Q ! ! ! ! ! ! ! ! ! ! ! ! ! ! ! Q ! ! ! ! / / / ! ! ! ! ! ! ! ! ! ! Q Q Q Q Q ! ! ! ! Q Q Q Q ! ! ! ! ! ! ! ! ! ! ! ! ! ! ! ! ! ! E E E E E Q ! ! ! ! Q Q Q Q Q Q Q ! Q E Q E Q ! ! ! ! ! Q E ! Q / ! ! ! ! ! ! Q E E E Q ! Q Q ! ! ! Q E Q ! ! Q Q E E Q ! Q E ! Q Q ! ! _ _ / Q E E E E E E E ^ ~ ^ ^ E E ~ ^ ~ ^ ^ ^ ^ ^ ^ ^ ^ ^ ^ ^ ^ ^ ^ R E E E E E E E E E E E ~ ~ E E E E E E E E E E E E E Q Q E Q E E T R R R E E E ^ ] N ] W ^ B B B B B B B B B ^ B B ^ ^ ~ E n m m m ",
"i k k k k k k k k k c v c k k k k c c c c v v v v c v v b N v v b b v v b b b b v v v v v v v v v v v v v v v v v v v v v v v v v v v v v v v v v v v v v v b b v v v b b v v v v v v v v v v v v T T b M M M M M M M M M M M b E b v b b b v b b v v v v v v v v T E E b b b v b b b b b M M b v v b b b b M M b b b M M M M M M b b M M M M M M E E E E E M M W E E M M M M E E E E E E E E E E E E E E E E E E E E M M M M M E E E E E E E E E E E E E E E E E E E E E E E E E E E E E E E E E E E E E E E E E E Q Q Q Q E E Q ! Q E E E E E W E E E E E E E E E E E E E E E E E E E Q Q Q Q E E E E E E E E E E E E E E E E E E E E E E E ! Q E E E E E E E E E E E Q Q Q Q Q Q Q E E Q E E E E E E E Q ! ! Q Q E E E Q Q ! Q E Q Q Q ! Q Q Q Q E E E E E E E E E E E E E E E E E E E E E E E Q ! ! ! Q E Q Q Q ! Q E E E Q Q Q Q Q Q Q Q Q ! Q E E E E E E E Q ! Q Q Q E ! ! ! ! ! ! ! ! ! / ! ! ! ! ! ! ! ! ! ! ! ! ! ! ! ! ! ! ! ! ! ! ! ! Q ! ! ! ! Q ! ! ! ! Q Q ! ! Q E E Q E Q ! ! ! ! ! ! ! ! ! ! ! ! ! Q ! ! ! ! ! ! ! ! ! ! ! ! ! Q Q / / Q Q Q ! Q Q ! ! ! ! Q Q Q Q ! ! ! ! Q Q / Q Q Q Q ! ! ! ! ! ! / ( / ! ! ! Q Q ! ! ! ! ! ! ! Q ! Q Q Q / / Q / / ! ! ! ! ! ! ! ! ! ! ! ! ! / / / ! ! ! ! ! ! ! / / ! ! ! ! ! ! ! ! ! ! ! Q Q Q Q Q Q ! ! ! ! Q Q Q ! ! Q ! ! ! ! ! ! ! ! ! ! ! ! ! ! ! E E ! ! ! ! ! ! ! ! Q Q Q ! ! ! ! ! ! ! ! ! ! ! ! ! ! ! Q Q ! ! ! ! Q ! ! ! ! Q E E E Q ! Q ! ! Q ! Q E Q Q Q Q Q E E E Q E Q ! Q E ! ! / ! ! ~ E E E E E E E ~ ^ ^ ^ ~ ~ ^ ^ ^ ^ ^ ^ ^ ^ ^ ^ ^ ^ ^ ^ ~ ^ ^ ~ E E E E E E E E E E E E E E E E E E E E E E E E E E E E E E E E T T E R E E E ~ M M E E ~ E M M M B B B ^ ^ ^ B B ^ ^ ~ E B B B B ",
"u k k k k k k k k k k k k k k k k k c v c k c v b b v v c c v v v v v v b b v v v v v v v v v v v v v v v v c v v v v v v v v v v v v v v v v v v v v v v v b v v v v v v v v v v v v v v v v b b b b M M M M M M M M M M M M b b b v b M b b v v v v v v T v v v b b b b v v v b b b b b b M b v b M M M M E E M M b b M M M M M E E M M E M M M E E E E E M M M E E M M M M E E E E E E E E E E E E E E E E E E E E E E E E E E E E E E E E E E E E E E E E E E E E E E E E E M E E E E E E E E E E E E E E E E Q Q Q Q Q E E E E E E E E E W W E E E E E E E E E E E E E E E E E E E E E E E E E E E E E E E E E E E E E E E E E E E E E Q ! Q E E W W E E E E E E E E E E E E E E E E E E E E E E E E Q ! Q Q Q Q Q ! ! ! ! Q E ! ! Q E Q Q Q Q E E E E E E E E E E E E E E E E E E E E E E E Q ! ! ! Q E E Q ! ! ! Q Q Q Q E E E E E E E E Q E E E E E E Q Q Q Q ! ! ! Q ! ! Q Q ! ! ! ! ! / ! ! ! ! ! ! ! ! ! ! ! ! ! ! ! ! ! ! ! ! ! ! ! ! Q ! ! ! ! ! ! ! ! ! Q Q Q ! ! Q Q ! Q Q ! ! ! ! ! ! ! ! ! ! Q ! ! ! ! ! ! ! ! ! ! ! ! ! ! ! ! ! ! Q / / Q Q Q Q ! ! ! ! ! / Q Q ! ! ! ! ! / / / Q Q Q ! ! ! ! ! ! ! ! / / ! ! ! Q Q ! ! ! ! Q ! ! Q Q Q Q Q Q / Q / / ! ! ! ! ! ! ! ! ! ! ! ! / / / / / ! ! ! ! ! ! ! ! ! ! ! ! ! ! ! Q ! ! ! ! ! ! ! Q Q ! ! Q Q ! ! Q ! ! E Q ! ! ! ! ! ! ! ! ! ! Q Q ! ! E Q ! ! ! ! ! ! ! ! Q Q ! ! ! ! ! Q ! ! ! ! ! ! ! ! ! ! ! ! ! Q Q Q E ! ! ! Q ! Q Q E Q Q E ! ! ! ! Q Q Q Q Q Q ! Q Q ! Q E ! Q ! ! Q E E Q ! ! Q Q E E E E E ~ ^ W ~ ^ ^ ^ ^ ^ ^ ^ ^ ^ ^ ^ ^ ^ ^ ^ ~ E ~ ^ ^ ^ E E E E E E E E E E E E E E E E E E E Q E E R E E E E E E E E E T E E E M E E E M E E E B B ^ B B B ^ ^ ^ ^ B B ^ ^ E E B B B B ",
"u i k k k k k k i k k k k k k k k k c v c k k c v c v v c v v v v v v v v c k c v v v v v v v v v v v v v v k c v v v v v v v v v v v v v v v v v v v v v v v v v v v v v v v v v v v v v v v b M M M M M M M M M M M M M M M M b b M b b b b b b v v v T T b v v T b v v b b b b b b M M M M b v b b b b M E E E T T T E M M M T E E M E E E M M E E E E E M M M M E E E M M M E E M E E E M E E E E E E E E E E E E E E E E E E E E E E E E E E E E E E E E E E E E E E E E E M E E E E E E E E E E E E E E E E E E Q Q E E E E E E E E E W W W W E E E E E E E E Q ! ! ! ! E E E E E E E E E E E E E E Q E E E E E E E E E E E E E E Q ! ! ! Q E E W W E E E E E E Q Q E E E E E E E E E E E E E E E E Q Q E Q ! ! ! Q Q ! ! Q E ! ! Q E E E E E E E E E E E E E E E E E E E E E E E E E E E E E Q ! ! Q E E E ! ! ! ! ! ! ! E E E E E E E E E E E E W E E Q ! E E Q Q Q ! ! ! W E Q ! ! ! ! ! | ! ! ! ! Q ! / ! ! ! ! ! ! ! ! ! ! ! ! ! ! ! ! Q ! ! ! ! ! Q ! ! Q Q Q ! ! ! ! ! ! ! ! ! ! ! ! ! ! ! ! ! ! Q Q ! / / ! ! ! ! ! ! / / Q / / / ! ! Q Q / Q Q ! Q ! ! ! ! ! Q Q / ! ! ! ! ! / / / ! ! ! ! ! ! ! ! ! ! ! / / ! ! ! ! ! ! ! ! ! ! ! / / / / Q Q / / / ! ! ! / / / ! ! ! ! ! ! ! ! ! / / / ! ! ! ! ! ! ! ! ! ! ! ! ! ! ! ! Q ! ! ! ! ! ! ! Q / ! ! E E Q ! Q ! ! E Q Q Q ! ! ! ! ! ! ! ! Q Q ! ! E Q Q Q Q Q ! ! ! ! Q Q Q Q Q Q Q Q Q ! ! ! ! ! ! ! ! Q ! ! Q E E E E Q ! ! Q Q Q Q ! ! Q E ! ! ! Q Q R Q Q Q Q ! Q Q ! ! ! ! E Q Q Q Q E E Q ! Q Q ! Q ~ ~ E E ~ ^ ^ ~ ~ ^ ^ ^ ^ ^ ^ ^ ^ ^ ^ ^ ^ ~ E ~ E E ^ ^ E E E E E E E E E E E E E E E E T R R R E Q R E E E M E E M M E E T E n B M E W M E E E ] ] m B B N E ^ ^ ^ B B ^ ~ E E m m m m ",
"k i i k k k k k k k k k k k k c c k v v v k k c v c v v v v v v v b b v b b c v v v c c v c c v v v v v v v v c c v c k k c v v v v v v v v b c v v v v v v c c v v v v v v b b b b b b v v b T T b M M M M M M b M b b M M M M b M b b b b b b b v v v v b v v v b v v b M b b b M b b b M M b v b b b T T T b M M M M b b E E E E E M M M M M M E E M M M M M M M M E E E E M M E E E E E E E E E E E E E E E E E E E E E E E E E E E E E E E E E E E E E E E E E E E E E E E E E E E E E E E E E E E E E E E E E E E E E E E E E E E E E E E E E Q E E E E E E Q Q Q Q Q Q E E E E E E E E E E E E ! Q E E E E E E E E E E E W E E E Q Q Q Q Q E E E E E E E Q Q E E E E E E E W E Q Q E E E Q Q E E E E E E E Q ! Q ! ! ! ! E E Q Q E E E E E E Q ! Q E E E E E E E E E E E Q Q E E E E E E Q ! Q ! ! E E E E E Q ! ! ! Q Q Q ! ! Q E E E Q Q E E E Q E E Q ! ! ! ! ! ! ! ! ! ! ! ! ! Q ! ! ! ! ! ! / / Q Q / Q Q ! ! ! ! Q ! ! ! ! ! Q Q Q Q E E Q Q Q ! ! ! Q Q Q E Q Q Q ! ! ! E Q ! ! ! ! ! ! ! ! Q Q E E Q ! / / ! Q Q ! / X./ ! Q / / ! ! ! ! ! ! ! ! ! ! ! Q ! Q Q Q / Q ! ! ! ! ! ! Q ! ! / Q Q W ! / / / / / ! ! / ! Q Q ! ! ! ! Q Q Q Q ! Q Q Q Q / Q Q / / / / / / / ! ! ! / / ! ! ! / / / ! ! ! ! ! ! / ! / / ! ! ! ! ! ! ! ! ! ! ! ! / / / / / Q E E Q ! Q ! ! Q Q ! ! ! ! ! ! Q Q ! ! ! ! Q E E Q Q Q Q Q ! ! Q Q Q Q Q Q Q / ! ! Q ! ! / / / Q Q ! ! ! ! ! ! E E Q ! ! E Q Q Q ! ! Q Q E Q Q Q ! Q E E ! ! Q Q Q Q Q Q ! ! Q Q ! ! Q E E ! ! Q Q Q ^ ^ ^ Q Q ~ ^ ~ E ~ ^ ^ ^ ^ ^ ^ ^ ^ ^ ^ ^ ^ ~ W E E ~ ^ ] ~ E E E E E E E E E E E E E R R R R E E E R E E E M E E E E R R R R T ] ^ ^ ^ B B ^ B ] m B B B B B ^ B B ^ ] ~ E ~ W E ] m n ",
"k k k k k k k k k k k k k k k c c c v v c k k c c c c c c v v v v c c v b b v v v v c c v c k v v v v v v v v v c v c k c v v v v v v v v v b c v v v v v v v v v v v v v v v b b b v b v v v b T v b M b M M M b b v b b b b M b b b v b v v v v v v v v v v b b b v v b M M v b b b v b M b b v v v b b b E b M M M M M T E E E E E M M M M M M E E M M M M M M M E E E E E E E E M E E E E E E E E E E E E E E E E E E E E E E E E E E E E E E E E E E E E E E E E E E E E E E E E E E E E E E E E E E E E E E E E E E E E E E E E E E E E E E E E E E E E E E E Q E E E E E E E E E E E E E Q E E Q Q E E Q E E E E E E E E E E E E E E E E E E E E E E E E E E E E E E E E E E E E E E E E Q Q E E E E E E E Q ! Q Q ! ! ! E E E E E E E E E E Q ! Q E E E E E E E E E E E E E E E E E E E E ! ! ! ! E E E E E E Q ! Q Q Q ! ! Q Q E E E E Q E E E E E E E Q ! ! ! ! ! ! ! ! ! ! ! ! ! ! ! ! ! ! ! ! ! ! ! ! ! ! ! ! ! ! Q ! ! ! ! ! ! E E E E Q E E E ! ! Q E E Q E E E Q ! ! ! Q Q ! ! ! ! ! ! ! ! E E E E Q ! Q Q ! ! ! ! ! _ _ ! Q ! / ! ! ! ! ! ! ! ! ! ! ! Q Q Q ! ! / Q Q ! ! ! ! ! Q / Q / ! Q ! ! / / / / / ! ! Q Q ! ! ! ! / / / Q Q Q ! Q Q / ! Q Q Q Q Q Q Q / / ! ! ! ! / / ! ! ! / / / ! ! ! ! ! ! ! ! ! ! ! ! ! ! ! ! ! ! ! ! ! ! ! / Q Q / ! Q E E ! ! ! ! E E ! ! ! ! ! ! Q Q ! ! ! ! E E Q E E E Q E Q ! / Q Q Q Q Q Q ! ! Q Q ! ! / / Q ! ! Q Q Q Q ! ! Q E Q ! Q E Q Q Q Q Q Q Q Q Q Q Q Q E Q Q ! Q E E E Q Q Q Q ! ! ! ! Q E E E ! ! E E Q _ ~ E Q E ~ ^ ~ E ~ ^ ^ ^ ~ ~ ^ B ^ ^ ^ ^ ^ ~ W W E ~ ^ ] ~ E E R R E E E E E E E E E E R E E E E E T T T b b E E E E Q Q R R R E ^ ^ ^ B B B ] ] B B B ^ B B B m m m ] E E E E E n m n ",
"u i k k k k k k k k k k k k k k k k c v v k k l l v v v v v v v v v v v v v v v v v c c v c k v v v v c c c v v v v c v v v v v v v v v v v v v v v v v v v v v v v v v v v v v b b v v v v v b T T b b v b b b b v v v v b b M b v v v v v v v v v v v v v v b T b v v v b b v b b v v b b v v b T b v v b E b b M M M E E M M M E E M M M b M M b b M M M M M M E E E E E E E E E M M M E E E E E M E E E E E E E M M E E E E E E E E E E E E E E E E E E E E E E E E E E E E E E E E E E E E E E E E E E E E E E E E E E E E E E E E E E E E E E E E E E E E E E E E E E E E E E E E E E E E Q E E E E E E E E E E E E E E E E E E E E E E E E E E E E E E E E E E E E E E E E Q E E E E E E E E E E E E E E E E E E E Q ! ! E E E E E E E E E E E E E E E E E E E E E E E E E E E E E E E E E Q ! ! ! E E E E E E E Q E E E E E E E E E E E E E E Q Q Q E E E Q E E Q ! ! ! ! ! ! ! ! ! ! ! ! ! ! ! ! ! ! ! ! ! Q Q ! ! Q ! ! ! ! ! ! ! E E E E ! ! E E Q Q Q E E Q ! E Q ! ! ! ! ! Q Q E Q Q Q Q Q Q ! ! E E ! ! Q W ! / / Q ! ! / / ! ! ! ! ! ! ! ! ! ! ! ! ! ! ! ! ! ! ! ! Q / ! ! ! ! ! / Q Q / ! ! ! Q Q / / / ! ! ! Q ! / ! ! ! / / / Q Q ! ! ! ! / / ! ! / Q Q Q ! ! ! ! ! ! ! / / ! ! ! ! / ! ! ! ! ! ! ! Q ! ! ! ! ! ! ! ! ! ! ! ! Q ! ! Q Q Q Q Q ! ! W Q Q Q ! ! E E Q ! ! ! ! ! ! ! ! ! ! Q E E Q E E Q ! ! ! ! ! ! ! ! ! ! ! ! Q Q E Q ! ! Q ! ! Q E Q Q E ! ! Q E E Q E Q ! ! ! ! Q E Q Q ! ! Q E E E E E E E E E Q Q Q Q E Q ! Q Q E E E Q Q Q Q Q ! E E E E ~ ~ ~ ~ ^ ^ ^ ^ ^ ^ ^ ^ ^ ^ ^ ^ ^ ~ ^ ^ ^ ~ ~ ~ ] R R Q E E E E E E E E E E T T T E E E E E E E E E T T E E E E E Q E E E ~ ^ M M ~ M N n m B ^ B B B B B B B E M E E E n m n ",
"i k k i k k k k k k k k k k k k k k k c b b ..B l c c c c v v v v c c v c c c v v v c c v c k v v v c c c c v v v v v v v v v v v v v v v v v v v v v v v v v b b v v v v v v v b b v v v v v b T T T T v v v v v v v v T E E E b v v v b T v v v v v v v v v v T b v v v b b v T b v v b b v b T T T v b b b v v T M M M E M M M M M M M M M M M M M M M M M M E E E E E E E M M E E M M M M M M M M E E E M M M M M M E E E E E E E E E E E E E E E E Q E E W W E M M E E E E E E E E E E E E E E E E E E E E E E E E E E E E E E E E E W E E E E E E E E R R E E E E E E E E E E E E E Q E E E E E E E E E E E E E E E E E E E E E W E E E E Q E E E E E E E Q E E E E E E E E ! ! Q Q ! Q E E E E E E E E E E E E E E W ! ! E E E E E E E E E E E E E E E E E E E E E E E E E E E E E E E E E E Q ! ! E E Q Q Q W E E E E E E E E E E E E E E E Q ! Q ! Q E E E E E ! ! ! ! ! Q ! ! Q ! ! ! ! ! ! ! ! ! ! Q Q ! ! ! ! ! ! ! ! ! ! ! ! ! ! ! ! Q Q Q Q Q E E E E E E Q E Q ! Q ! ! ! Q W W E E E E E Q ! Q Q Q ! Q / ! ! ! ! E ! / / / ! ! ! ! ! ! ! Q Q ! ! Q Q ! Q Q Q Q Q ! Q Q ! ! ! ! ! ! Q ! ! ! Q Q Q Q / Q Q / / Q ! / / / ! Q / / ! ! ! Q ! Q E ! Q Q ! ! ! ! ! ! ! ! ! ! ! ! ! ! / ! ! ! ! ! / / ! ! ! ! Q ! Q Q ! ! ! ! ! ! ! ! Q Q Q ! ! Q ! Q Q Q ! ! ! Q E ! ! Q E Q ! ! Q Q ! ! ! ! Q Q ! ! E E Q Q ! ! Q ! ! Q ! ! ! ! ! ! ! E E E Q ! ! ! ! Q E Q ! ! ! ! ! Q E E E E Q ! ! ! ! ! Q Q Q Q Q E E E E E E E E E E Q Q Q E E Q Q E Q E E E Q Q R ~ Q Q E E ~ ~ ^ ~ ~ ^ ^ ^ ^ ^ ^ ^ ^ ^ ^ ^ ^ ^ ^ B B B ] ^ ~ ~ ^ ] R E E E E M M E E E E T T T T T E M M M M E E E T T T T E E E E E E M E E M E E M M M m ] R ] ^ B B B B B M M E E M b m n ",
"i k k i k k k k k k k k k k k k k k k v b n n n c c c c c v v v v v c c c c c v c c v c c c c v c c v c c v c v v c c v v v v v v v v v v v v c v v v v v v v b b v v v v v v v b b v v v b b b b b b b b T T T v v v v T T b b b v v b T b v v v v v v b b v v b b v v v b b v b T T b b b v v b T T b b M b b v b M M E E b b b b b b b M M b b M M M E M M M E E E E E E E M M M M M M M E M M M M M E E E M M M M M E E E E E E E E E E E E E E E E E E E W W E E E E E E E E E E E E E E E E E E E E E E E E E E E E E E E E E E E E E E E E E E E E E Q R E E E E E E E E E E E W W W W E E E E E E E E Q E E E E E Q Q E Q E E W Q Q E E E E Q E E Q Q Q Q ! Q E E E E Q Q Q Q Q W Q Q E E Q E E E Q Q Q E E E E E E Q Q E E E E E E E E E E E Q E E E E E E E Q Q Q Q E E E E Q E E E E E E E Q Q E Q ! Q E W W E E E E Q E E E E E E Q Q Q ! ! ! ! Q W W Q E Q Q Q ! ! ! ! ! Q E ! ! ! ! ! ! ! ! ! ! E E ! ! ! ! ! Q Q ! / / ! Q Q Q ! ! Q Q ! ! ! ! Q Q Q Q E Q ! ! ! Q ! ! Q E E W Q E Q Q Q ! ! Q ! ! ! ! / Q ! Q ! E ! / / ! ! ! ! ! ! ! ! ! ! ! ! Q E Q Q Q E E E ! / ! ! ! ! ! ! ! ! ! ! ! Q Q Q Q / ! Q ! / / / / / / Q ! ! ! ! ! ! ! ! ! ! ! Q Q ! ! ! ! ! Q Q ! ! ! ! ! ! / / / ! ! ! ! / / ! ! ! ! ! ! ! ! ! ! ! ! ! ! ! Q Q / Q Q Q Q ! ! ! ! ! ! ! ! Q ! ! ! ! ! ! Q E E Q Q Q ! Q Q ! ! Q E Q Q Q Q Q ! ! ! ! ! ! Q Q Q Q E Q Q Q ! ! Q Q E Q ! ! ! Q Q ! Q E E Q Q Q Q Q Q Q Q Q Q Q E E E E E E E E E Q E E E Q Q E E Q ! E E E Q Q ! ! Q ! Q Q E ~ ^ ^ _ E ~ ~ ~ ^ ^ ^ ^ ^ ^ ^ ^ ^ ~ E ~ ^ ^ ~ ~ ^ W E ~ T R ~ ~ ~ E T T R R R E M T E E E E E E T M M E E R R T T R R E E E E E T T M M M M E M N T T m ^ ^ B B M M M M b n E E T T ",
"k k k k k k k k k k k k k k k k k k k c c k k k k v v v v v v v v v k c v v v v v v v c k k v c c c c k k c k c v c c v v v v v v v v v v v v v v v v v v v v v v v v v v v v v v v v v v b b b M b b v v b T T v v v v b b v v v v v b T v v v v v v v v v v v v v v b b b v v v b T v b b v v v b E M M M M b b v b b b b b v v b b v b M M M M M M M E M M M M E E E M M M M M M M M M M M M M M M M E E E M E E E E M M M M M M E E E E E E E E E E E E E E W E E E E E E E E E E E E E E E E E E E E E E E E E E E E E E E E E E E E E E E E E E E E E E E E E E E E E E E E E E W W W W E E E E E E E E E E E E E E Q Q E E E E E Q Q E E E E E E Q E E Q ! ! Q E E E E Q Q E E E E E E E E Q E E E ! Q E E E E E E E E E E E E E E E E E E E E E E E E E E E E Q Q Q Q E E E E Q E E E E E E E E E E E Q E E W E E E E E E E E E E E E E ! ! ! ! ! ! Q ! ! Q E ! Q Q ! ! ! ! ! ! Q ! ! ! ! ! ! ! ! ! ! Q E Q ! ! ! Q E Q ! / / ! Q E E ! ! Q ! ! ! ! ! ! ! ! Q E ! ! ! ! ! ! ! Q E E ! ! Q ! ! Q Q E E ! ! Q E Q ! ! Q Q Q ! ! / ! ! ! ! ! ! Q Q ! ! ! ! ! Q Q Q ! Q E E Q ! ! ! ! ! ! ! ! ! ! ! ! ! Q Q Q ! ! ! ! / ( / / / ! ! ! ! ! ! ! ! ! ! ! ! Q Q ! Q ! ! ! ! ! ! ! ! ! ! ! ! / / ! ! ! ! / ! ! ! ! ! ! ! ! ! ! Q Q ! ! Q Q Q Q ! ! Q Q Q Q Q ! Q Q ! ! Q Q ! ! ! / ! ! ! ! Q Q E Q Q ! ! ! ! ! ! E Q Q E E Q ! ! ! ! ! ! ! Q E E E Q ! ! ! ! E E E Q Q ! Q E E Q Q E Q Q Q E Q Q Q Q Q Q Q ! Q E E E E E E E E Q E E E E E E E Q Q E E Q Q Q ! Q Q Q Q Q E E E ~ R Q ~ W ~ ^ ^ ^ ^ ^ ^ ^ ^ ^ ~ E E ~ ^ E ~ ^ E E E W E R R R R E E R R Q E E E E E E E E E T M M M M R R T T T E E E M E E E E E ~ N n E M M M ] ] B B ] ] M M M M b n N E E E ",
"i k k k k k k k k k k k k k k k k k k k k k k c k c v v v v v v v c k c c c v v v v v c k k k k v v c k k c k c v v v v v v v v v v v v v v v v v v v v v v v v v v v v v v v v v v v v v v v b b b v v v v v v v v v v v b b v v v v v b v v v v v v v v v v v v v v b b b v v v v b v v v v v v b b b M M M M b v b b b b b v b b b v b M M M M M M M M M M M M M E M M E E M M M M E E M M M M M M E E E E E E E E E M M M M M E E E E E E E E E E E E E E E E E E E E E E E E E E E E E E E E E E E E E E E E E E E E E E E E E E E E E E E E E E E E E Q E E E E E E E E E E E E E W E E E E E E E E E E E E E E E E E E E E E E E E E E E E E E E E Q Q Q Q E E E E E E E E W E E E E E E E E E E E E E E Q Q E E E E E E E E E E E E E E E E E E E E E E E E E E E E E E E E E E E E E E E E E E Q ! E Q E E W E E E E E E E E E E E E E ! ! ! ! ! ! ! ! ! ! Q ! ! Q E ! ! Q ! ! ! ! ! ! ! ! ! ! ! ! ! ! Q Q ! ! Q Q Q ! ! Q Q ! Q Q Q ! ! ! ! Q ! ! ! ! ! ! Q E ! ! ! ! ! ! ! Q Q Q ! ! ! ! Q E E E E Q Q E E Q ! ! ! ! ! ! ! ! ! ! ! ! ! ! ! ! ! ! ! ! ! ! ! ! ! Q Q Q ! ! ! ! Q ! E ! ! ! ! ! ! ! ! Q Q ! ! ! ! / / / Q ! ! ! ! ! ! ! ! ! ! ! ! Q E Q ! Q ! ! ! ! ! ! ! ! / / ! ! ! ! ! ! ! ! / ! ! ! ! ! ! ! ! ! ! Q Q ! ! Q Q ! / ! ! ! Q Q Q ! Q E E E Q Q E ! ! ! ! Q Q Q Q ! Q Q ! Q ! ! Q E E E E ! Q E E ! Q Q ! ! / / ! ! Q Q Q Q ! ! ! ! Q Q Q Q Q ! Q E Q ! ! E Q ! Q E Q ! ! ! ! ! ! ! ! E E E E E E E E E E E E E E E E R Q Q E Q Q Q Q E E E E E E E E E R Q ~ ^ E E ^ ^ ^ ^ ^ ^ ~ ^ ^ ~ ~ ^ ^ E E ~ ~ E R E E R ] R R E E E T T T T T b b b M E E T E E E E R T E E E E b E E M E E E E ~ B B E M M M R T M M b M M M M E M n n E E M ",
"u k k k k k k k k k k k k k k k k k k k k k v c k v v v c c c k c k k c c k v v v c v c k k k k v v k k k k k k c v v v v v v v v v v v v v v v v v v v v v v v v v v v v v v v v v v v v b T T b v v v b v v v v v v v v b b v v v v v v v v v v v v v v v v v v v v b b b b v v v b b b b b v v v v b b b b b b b b b M M T b v v b b M M b b M M E E M M M M M M M M M E T M M M M M M M M E E E E E E E E E E E E E M M M M M E E E E E E E E E E E M M E E E E E E M E E E E E E E E E E E E E E E E E E E E E E E E E E E E E E E E E E E E W E E E E Q E E E E E E E E E E E E E E E E E E E E E E E E E E E E E E E E E E E E E E E E E E E E E Q ! ! Q E E E E E Q E E W W E E Q E E E E E E E E E E E E Q E E E E E E E E E E E E E E E E E E E E E E E E E E E E E E E E E E E E Q E E E E E E Q E Q E E W E E E E E E E E E E E E E ! ! ! ! Q ! ! ! Q ! ! ! ! E E ! ! ! ! ! ! ! ! ! ! ! ! ! ! ! ! ! ! ! ! ! Q Q E Q ! ! Q ! Q Q ! ! ! ! ! E ! ! ! ! ! ! ! Q Q Q ! ! ! ! ! ! ! ! ! ! ! ! ! Q Q E E E E E Q Q Q ! Q Q ! ! Q Q ! ! ! Q ! ! ! ! ! ! ! ! ! ! ! ! ! ! ! ! ! ! ! ! ! Q Q ! ! ! ! ! ! ! ! ! Q ! ! ! ! ! ! ! ! ! ! ! Q Q ! ! ! ! ! ! ! ! Q Q ! Q ! ! ! ! ! ! ! ! / / ! ! ! E ! ! / ! ! ! ! ! ! ! ! ! ! ! ! ! ! ! ! Q E Q ! ! E ! ! ! ! ! E Q Q Q Q ! E Q ! ! Q E E E ! Q Q Q ! E ! Q Q E E E E ! Q E E Q Q Q ! Q Q Q Q ! ! ! ! Q E ! ! ! ! ! ! Q Q ! Q E Q ! ! Q Q Q Q E Q ! ! ! ! ! Q Q Q E E E E E E E E E E E E E E E E Q Q Q Q E E E E Q E E E E E E E E R ~ ^ ^ Q ~ ^ ^ ^ ^ ^ E ~ ^ ^ ^ ^ ^ ~ ] E ] ^ ~ R Q E ] ^ R R T E T T T R R T T M M b E T T E E E E T T E E E E E b b b b E E M N B n E M M M M M M M M M M M M E M n M M M M ",
"i k k k k k k k k k k k k k k k k k k k k k c k c v c c k k k c c c c c c c c v c c c c k k k k c c k k c k c c k c c c c c c c c c c c c c v v v v v v v v v v v v v v v v v v v v v v v b T b b b v b b v v v v v v v b v v v b v v v v v v v v v v v v v v v v v v b b b b b b b b b b b b v v v v v b v v v b b b v b b b T T b b M b T T T b M M E E E E M M M M M M E T M M M M M M M E E E E E E E E E M M E E E M M M M T E E E E E E E E E E E E M E E E E E M M E E E E E E E E E E E E E E E E E E E E E E E E E E E E E Q E E E E E E E W W E E Q E E E E E E E E E E E E E E E E E E E E E W W E E E E E E E E E E E E E E E E E E E E E Q Q Q E E Q E E E Q Q W W W E E E Q Q E E E E E E E W Q Q E E E E E E Q E E E E E E E E E E E E E E E E E E E E E E E E E E E E E E E Q E E E E E E Q Q Q E Q W E E Q E E E E E E E E E E Q Q Q Q Q Q Q Q Q ! ! Q Q E Q Q Q Q ! Q ! ! ! Q Q ! ! ! Q ! ! ! ! ! ! ! Q ! Q Q Q ! ! ! Q Q ! ! ! Q ! Q Q Q ! ! ! ! ! ! ! ! ! ! ! ! ! Q ! ! ! W W Q ! ! ! ! E Q Q Q ! ! ! ! ! ! Q ! Q Q ! ! ! Q ! ! ! ! ! ! ! Q Q Q ! Q ! ! ! ! ! ! ! ! Q E Q Q ! ! ! ! ! ! ! ! ! ! ! ! ! ! ! ! ! ! ! ! Q ! ! ! ! Q ! ! / / ! ! ! ! ! ! ! ! ! Q ! ! / / ! ! ! Q ! / / ! ! ! ! Q ! ! ! ! Q Q ! ! ! Q ! ! Q E Q Q E Q ! ! Q ! Q ! ! ! ! ! Q Q ! Q Q Q Q E ! Q ! ! ! Q Q Q Q E E E E Q E E E E Q Q Q Q ! ! Q ! ! Q Q Q E Q ! ! Q ! ! Q Q Q Q E ! ! Q E Q Q E E Q Q ! ! ! Q E E E E Q E E E E E E E E E E E E E E Q Q Q E E E E E Q E E E E E E E Q ~ ~ ~ ~ ~ ^ ^ ^ ~ ~ ~ ~ ~ ^ ] ^ ^ ^ ] B T ] ~ ~ R R E E T R E T T T T T R R T T b b b E T T E T T T T T T E E M M b b b b E b b M n b E E E E E M M T b n b b M M n n n n n b ",
"i i k i k k k k k k k k k k k k k k k k k k k k c c k k c k c v v v v v v c k c k k k k k k k k k k k c c k c c k c k k k k k k k k k c k k c v v v v v v v v v v v v v v v v v v v v v v v v v v v v v v v v v v v v v T b v v b v v v v v v v v v v v v v v v v v v v v v b M M b b v b b v v v v v v v b b b v v b v v v v b E E M M b T T T b b M M E E E M M M M M M M M M M M M E E E M M M M M M M M M M E E E E E E E E b E E E E E E E E E E E E M E E E M M E E M M E E E E E E E E E E E E E E E E E E E E E E E E E E E Q E E E M E E E E W W E E E E E E E E E E E E E E W E E E E E E E E E E E E E E E E E E E E E E E E E E E E E E E E E E E E E W E E E E Q ! W E E E Q ! Q E Q Q E E E Q Q Q E E E E E E Q E E E E E E E E E E E E E E E E E E E E E E E E E E E E E E E E E W W W E E Q Q E E Q Q E E ! ! E E E E E E E E E E E E E E E E E Q ! E E E E Q E E E ! ! ! ! ! W ! Q ! ! Q ! ! ! ! ! ! ! ! ! ! Q Q ! ! ! ! ! Q ! Q E ! E E E E Q ! ! ! ! ! ! ! ! ! ! ! Q ! ! ! E E E Q ! ! ! Q ! ! ! ! ! ! ! ! ! Q Q Q ! ! ! ! ! ! ! ! ! ! ! ! ! Q ! ! E Q ! ! ! ! ! ! ! Q E E Q Q ! ! ! ! ! ! ! ! ! ! ! ! ! ! ! ! ! ! Q ! ! ! ! ! ! Q ! / / ! ! ! ! ! ! ! ! ! ! ! ! ! ! ! ! ! ! ! ! / ! ! ! ! ! ! ! Q ! E E Q ! ! ! ! _ ! E E E E E ! ! E ! ! ! ! ! ! ! Q Q Q E W ! Q E Q ! ! ! ! Q E E E E E E E E E E E E E E E E Q Q E Q ! E E E E E Q Q E Q Q E E E E E ! Q E E E E E E E E E Q Q E E E E E E E E E E E E E E E E E E W W E E E E E E E E E E E E E E E E Q E E W W ^ ^ ~ ~ W E ~ ^ ^ B B B ^ ] ] B B R R Q E R E E b E E T T T T T T T T T v v v b M M E T v b E b b M M M M b b b b b b M M b M M E E E T E E n m n b b b b m m m m m m ",
"u i k k k k k k k k k k k k k k k k k k c k k k c k k k c k k c v v v v v c k k k c k k k k k k k k k k k c v c k k k k k k k k k k c v c k k v v c c v v v v v v v v v v v v v v v v v v v v v v v v v v v v v v v v v b b v v v v v v v v v v v v v v v v v v v v v v v v b M M b b b b b v v v v v v v b M b v v b v v b b M M M b b b T T b v b M M M E E M M M M M M M M M M M M E E E M M M M E E M E E E M E E b T T T E T E E E E E E E E E E E E E E E E E E E E M M M E E E E E E E E E E E E E E E E E E E E E E E E E E E E E E E E E E E W E E E E E E E E E E E E E E E E E E E E E E E E E E E E E E E E E E E E E E E E E E E E E E E E E E E E E E E E E E Q ! W E E ! ! Q E E E Q E E E E E E E E E E E E E E E E E E E E E E E E E E E E E E E E E E E E E E E E E E E E E E E E E E E E E E E E E E E E E E E E E E E E E E E E E E E E E Q Q E E E E W Q Q Q ! ! ! ! ! ! ! ! ! ! ! Q Q Q Q Q ! ! ! E E E E ! ! ! ! ! ! Q ! Q E E E E W Q E Q ! Q E E E Q ! ! ! ! ! Q Q ! E E E E ! ! ! ! ! ! ! ! ! ! ! ! ! ! ! ! ! ! ! ! ! ! ! ! ! ! ! ! ! Q ! ! E Q Q ! Q Q Q Q Q Q E E Q ! ! ! ! ! ! ! ! ! ! ! ! ! ! ! / ! / ! Q Q Q E ! ! Q Q Q ! ! ! ! ! ! ! ! ! ! ! ! ! ! ! ! ! ! ! Q ! ! ! ! ! ! ! ! ! Q E Q Q Q ! ! ! Q ! _ _ Q E E E E Q Q Q ! ! Q ! ! ! ! Q Q Q Q ! ! Q E Q Q Q Q Q E E E E E E E E E E E E E Q Q ! Q Q Q E Q E E E Q Q E E E Q Q Q Q E E E E ! Q E E E E E E Q E E W E E E Q Q E E E E E E E E E E E E E E E E E E E E E E E E E E E E E E E E E E E W ~ ^ ^ E E E E E ^ ^ B B B ^ ] ] ^ N ] R E E R E E E E E T T T T T T T T T b b v v b E E E b b E E E M M M M b b M M M b E b b E M M E E T E M n m n M M b b n m m m m m ",
"k k k k k k k k k k k k k k k k k k c k k k k k k c k k k k k k k c v v v c k k k k k k k k k k k k k k k k k k k k k k k k k k k k k c c c c v c k k v v v v v v v v v v v v v v v v v v v v v v v v v v v v b b v v v v v v v v v v v v v v v v v v v v v v v b b v v v v v b b b b v b b v v v v v v v b b b v v v v v b b M b b v v b T T b b M M M M M E M M M M M M M M M E E M E E E M M M E E E E E E E M E b v T T T T T E E E E E E E E E E E E E E E E E E E E M M M E E E E E E E E E E E E E E E E E E E E E E E E E E E E E E E W E E E E E E E E E E E E E E E E E E E E E E E E E E E E E E E E E E E E E E E E E E E E E E E E E E E E E E E W W E E E E E Q ! W E E E Q E E E E Q Q E E E E E Q Q E E Q Q E E E E E E E E E E E E E E E E E E E E E E E E E E E E E E E E E E E Q Q E E Q Q E E E E E E E E E E E E E E E E E E E E E E E E Q Q E E E E E E Q ! ! ! ! ! ! ! ! ! ! ! ! Q E E E E Q ! E E E W E ! ! ! ! ! ! ! ! ! Q E E W W E E Q Q Q Q Q Q Q ! Q E Q Q Q ! ! E E Q ! ! Q E Q ! ! ! ! ! ! ! ! ! ! ! Q Q ! Q Q ! ! ! ! ! ! ! ! ! Q ! ! E E E E E E E E E E E Q ! ! ! ! Q E ! ! ! ! ! ! ! ! ! _ ' _ ! Q E E E E Q ! Q ! ! ! ! ! ! ! ! ! ! ! ! ! ! ! ! ! ! ! ! / / / ! ! W ! ! ! Q ! ! E Q ! ! W ! ! Q ! _ _ Q E E E E E E ! ! ! Q ! ! ! ! ! ! Q Q ! Q E E E E E E E E E E Q ! ! ! ! Q ! Q E Q ! ! ! Q Q Q E Q Q E E Q Q E E Q ! Q Q ! ! ! E E ! Q E E E E E E Q Q E E E E E R R E E E Q R R E E E E E E E E E E E E E E E E E E E E E E E E E R R E E Q E E E E E E E E E ~ B B B ^ ^ ] E E ] R E E R T E b E T T T T T T T T T T E T T E T T b E T b E b M M M b b M b b b b b E T b E M M b T T b M m m n b b b b M b n m m m ",
"k k i i k k k k k k k k k k k k k k c c k c c k k c k k k k k k k k c c c k k c k k k k k k k k k k k k c k k k k k k k k k k k k c k k k k c c k k k v v v v v v v v c c v v v v v v v v v v b v v v v v v v b b v v v v v v v v v v v v v v v v v v v v v v v b b v v v v v v b b b b b b v v v b v v v v v v v v v v b b b b b b b b b E b b b b b M M M M M M M M M M M M M E E E E E M E E E E E E E E T E M M b v v b b b b E E E E E E E E E E E E E E M M T E E E E M E E T E E E E M E E E E E E E E E E E E E E E E E E E E E E E E E E E E E E E E E E E E E E E E E E E E E E E E E E E E E E E E E E E E E E E E Q E E E E E E E E E E E E E E E E E E E Q Q E Q Q E E E Q E E E E E Q Q Q Q E E W ! Q E Q Q Q E E E E E E E E E E E E E E E E E E E E E E E E E E E E E E E E Q Q E Q W E Q ! Q Q E E E Q E E E E E E E Q E E E E E E E E Q Q Q Q Q E E E E Q E Q Q Q Q ! ! ! ! ! ! Q Q Q E E E E E Q ! Q Q W E Q ! ! Q Q Q Q ! ! ! ! Q W W W E E E Q ! ! ! ! ! ! E E E Q ! ! ! E E E ! Q E E E Q ! ! ! ! ! ! ! ! ! ! Q Q ! Q Q Q Q ! ! ! W W ! ! Q ! Q Q Q Q E E E E Q Q Q E Q ! Q Q Q Q Q Q ! ! Q W ! ! / _ ` ` _ ! Q Q Q W W ! / / ! ! ! W ! ! ! ! ! ! ! ! ! ! ! ! ! ! ! ! ! / ! ! W E ! Q Q Q ! ! Q ! ! ! W ! ! ! Q ! / ! Q Q Q Q Q Q Q Q Q Q Q ! ! Q Q Q Q E Q Q E E E E E E Q E E E Q Q Q Q ! Q ! ! E ! ! ! Q Q Q Q E Q Q Q Q E E E E Q ! Q Q Q Q Q E E Q Q Q Q E E E E Q Q Q E E E E R R E E E Q R R R E E E E E E E E E E E E E E E E E E E E E E T Q R R E E Q E E E E E E E E E ~ B N ^ B B B N ~ ^ R T E R R E b T T T T T T T T T T T T b T E T b T Q T b b b M M b b b M b b b b T R T T T E E b b b E M b n b v b M M b b n n n n ",
"i k k i k k k k k k k k k k k k k k k k c v c k k k k k k k k k k k k k k k k c k k k k k k k k k k k k k k k k k k k k k k k k c v c k k k k c c c c v v v v v v v v c c v v v v v v v v v b T v v v v v v v v v v v v v v v v v v v v v v v v v v v v v v v v v v v v v v v v b N M M b v v v v b v v v v v v v v v v T T T T b b b M M M b v v v b M M M M M M M M M M M M M E E E E E M M M E E E E T T T T M M b v b M M M M M M M E E E E M M M M E M E E M T E E E E E E E T E E E E E E E E E E E E E E E E E E E E E E E E E E E E E E E E E E E E E E E E E E E E E E E E E E E E E E E E E E E E E E E E E E W E E Q E E E E E E E E E E E E E E E E E E E E Q W W Q Q E Q Q E E E E E E E Q ! Q E E Q Q E E E E E E E E E E E E E E E E E E E E E E E E E E E E E E E E E W E E E E E E W E E E E E E E E E E E E E E E E Q E E E E E E E E ! ! Q E E E E E Q Q E E E E Q ! / ! ! ! ! Q E E E W E Q E Q ! ! ! Q E E ! ! ! ! ! ! ! ! ! ! ! ! Q E E E E Q Q Q ! ! ! Q E E Q ! Q Q Q E E ! ! ! ! ! ! ! ! ! ! ! ! ! ! ! Q ! ! ! ! ! ! Q ! ! Q E E E Q Q Q ! E E W ! Q E E E Q ! ! E E Q E E E Q ! Q ! ! Q W ! ! _ ) ` _ / ! ! ! ! ! Q ! / / Q ! ! ! Q ! ! ! ! ! ! ! ! ! Q ! ! ! ! Q Q ! ! ! ! E ! Q E ! ! ! Q ! ! ! ! ! ! Q E Q ! ! ! ! ! ! ! ! E E E Q E E Q Q Q Q Q E E E E E E E Q ! Q Q Q E E E E E E Q / ! E Q Q E E Q E Q Q E E Q Q E Q Q E Q ! ! Q E E E E E E E ! ! Q E E E E E E E E E E Q Q E E E E E E E E E E E E E E E E E E E E E E E E E E E E R T Q Q E E E E E E E E E ~ W E ^ ^ ^ B ~ M M N N n ] T T R E E E M b b E b T T T T T T T v b M M M b R R T b M M M M E E M M b b b b T R T T T T E E b M M M b T b b b b M b v b b b b ",
"i k k k i i k i k k k k k k k k k k k k c v c k k k k k c k k k k k k k k k k k k k k k k k k k k k k c c k k k k k k k k k k k k k k k k k k v v v v v v v v c v v v c v v v v v v v v v v v v v v v v v v v v v v v v v v v v v v v v v v v v v v v v v v v v v v v v v v v v b b M b b b v v v v v v v v v b b v b v v T b v b b b b b b b v b b M M M M M M M M M b M M M E E E b T E M M E E E E E T T T T M M b b M M M b b M M M E E E E M M M M M M E E E T T E E E E M M E E E M E E E E E E E E E E E E E E E E E E E E E E E E E E E E E E E E E E E E E E E E E E E E E E E E E E E E E E E E E E E E E E E E E E E E E E E E E E E E E E E E E E E E E E Q _ W W W W E E E E E E E E E E Q ! Q E E E E E E E E E E E E E E E E E E E E E E E E E E E E E E E E E E E E E W E E E E E E E W Q Q Q E E E E E E E E E E E E E E E E E E E E E ! ! E E E E E E E E W ! Q Q ! ! ! ! ! Q Q E E E E E E E E E Q Q Q Q E E Q ! ! ! ! ! ! ! Q Q Q ! Q E Q E E E E E ! ! Q E E E Q ! Q Q Q E E ! ! ! ! ! ! ! ! ! ! ! ! ! ! ! E E ! ! ! ! Q Q ! ! E E E E E Q ! ! Q E W ! Q E Q Q E E Q E E E E Q E E E ! ! W Q W ! ! ! ! ! ! ! ! ! ! ! ! Q ! ! Q ! ! Q E ! ! ! ! ! ! ! ! Q Q ! ! ! ! ! Q Q ! ! ! ! Q ! ! Q ! ! Q E ! ! ! ! ! ! E E Q ! Q E Q ! ! ! ! Q E E E E E Q ! Q Q E Q Q E E E E E Q ! Q Q Q E E E E E E Q Q Q E E E Q Q Q E Q Q E Q Q E E Q Q E Q ! Q E E Q Q Q Q Q ! Q Q E E E E E E E E E E E Q Q E E E E E E E E E E E E E E E E E E E E E E E E E E E E E E E T E E E E E E E E E E E E ~ ] ] ~ E E E M M E T R R T T T E E E E b b T T T T T T T b M M M b E E E b M M M M E M M M b T E E E T T b b b T E M b M M b v v v b b b b b v v v v v ",
"k i i u u u u k k k k k k k k k k k k k k c k k k k k c v k k k k k k k k k k k k k k k k k k k k k k c k k k k k k k k k k k k k k k k k k k v v v v v v v v c v v v v v v v v v v v v v v v v v v v v v v v v v v v v v v v v v v v v v v v v v v v v v v v v v v v v v v v v v v b M M b v v v v v v v v v b b b b b v v v b b b M b v v v v b M M M M M M M M M M M M b M E E E M E E M M E E M E E T T T T M M b b M M M b T T M M E E E E M M M M M E E E E T T E E M M M M E E M M E E E E E E E E E E E E E E E E E E E E E E E E E E E E E E E E E E E E E E E E E E E E E E E E E Q E E E E E E E E E E E E E E E E E E E E E E E E E E E E E E E E E E E E Q ! W W W W E E E E E E E E E E E Q Q E E E E E E E E E E E E E E E E E E E E E E E E E E E E E E E E E E E E E W E E E E E E E _ _ ! E E E E E E E E E E Q E E E E E E E E E E E Q E E E E E E Q W W W W W W ! ! ! ! Q Q Q E E E E Q Q E E Q E E Q W E Q Q Q ! ! ! ! E E E E Q Q Q Q E E E E E E E ! W Q E E E E Q E E E E ! ! ! ! ! ! ! ! ! ! ! ! ! ! ! Q Q ! ! Q Q E Q ! ! E E ! Q E ! ! ! ! ! ! ! Q E Q Q E E Q E E E E E E E E ! Q E Q E W ! ! Q E Q / / ! ! ! ! ! ! ! ! ! ! ! ! ! ! ! ! ! ! ! ! Q ! ! ! Q ! ! ! Q ! ! ! ! ! ! ! ! ! ! Q E ! ! ! ! Q Q E E Q ! Q E Q ! ! ! ! ! ! E E E E E Q E E E Q Q E E E E E Q ! Q Q Q E E E E E E ! Q E E E Q Q ! Q E E E Q Q E E E Q Q E Q Q E E E ! ! ! ! ! ! Q E E E E E E E E E E E E E E E E E E E E E E E E E E E E E E E E E E E E E E E E E E E E E T R E Q R E E E E E E E R R R R Q E E E E E E E R R R T T T E E b b T T T T T T b b b M E b b T T E b M n M E E M M M b T T T T E M b b b b b b b b b b b T b v b b v v v v v v v ",
"u u u i u u u k i i k k k k k k k k k k k k k k k k k c v k k k k k k k k k k k k k k k k k k k k k k k k k k k k k k k k k k k k k k k k k k c c v v v v c c v v v v v v v v v v v v v v v v v v v v v v v v v v v v v v v v v v v v v v v v v v v v v v v v v v v b b b v v v v b b b M b v b b b b b v b b v v b b v v v b b M M M b b b b b b M M M M M E E E E E E T b b T T E M E E M M E E M M T T T T b M M b T T M M b T T E M E E E E E M M M M E E E E T T E E M M M M E E M M E E E E E E E E E E E E E M E E E E E E E E E E E E E E E E E E E E E E E E E E E E E E E E E E E Q Q E E E Q Q E E W E E E E E E E E E E E E E E E E E E E E E E E E E E E E E E E W W E E E E E E E E Q E E E Q E E E E E E E E E E E E E E E E E E E E E E E E E E E E E E E E E E E E E W E E E E E E E Q Q Q E E E E E E E E E Q Q E E E E E W E E E E E E E E E E E E ! W W E E W E Q E Q Q ! ! ! Q E E E Q Q E E E E Q ! W E W Q Q ! ! ! Q E E E E E E Q ! Q E Q Q E E E Q ! ! Q Q E E E E E E E E Q Q Q Q E ! ! ! ! Q Q ! ! ! ! ! Q Q E E E E Q Q Q ! ! Q Q ! ! ! ! Q ! ! Q E Q ! Q E Q E E E E E E E E ! Q Q E E Q ! ! Q Q E Q ! ! ! ! ! ! ! ! ! Q Q Q ! ! ! ! Q ! ! ! ! ! ! ! ! ! ! ! ! ! ! ! ! ! ! ! ! ! ! ! E W W ! ! Q E E E E Q ! ! Q Q ! ! ! ! ! ! W W Q E E E W E E Q Q E E E E E E Q Q Q Q E E E E E E ! Q Q Q E E E E Q E E E Q Q E E E Q Q E Q Q E E Q ! ! ! ! Q Q Q ! Q E E E E E E E E E E Q Q Q Q E E Q E E E E E Q ~ ~ E E E E E E E E E E E E E E E E E E E R T R R R E E E E E E R R R R Q E E E E E T T E R R T T T T T b b E T T T T b v b b b b T T v b E b b n b E E M M M T b b b b b M b b b b b b b b v b M b v v b b b v v v b b b ",
"u u u u u u u i i i k k k k k k k k k k k k k k k k k k c k k k k k k k k k k k k k k k k k k k k k k k k k k k k k c c k k k k k k k k k k k k k v v v v k k v v v v v v v v v v v v v v v v v v v v v v v v v v v v v v v v v v v v c c v v v v v v v v v v v v v b M b v v v v b b v v v b b M M M b v v v v v b b b v v v b M b b M M M M M b b M M M E E M M M M M M M M b b M M M E E E E M M M b b M M M E E E T T T T T T E E M M M M M M M M M M M E M M E E E M E E E E T E E E E E E E E E E E E E E E E E E E E E E E E E E E E E E E E E E E E E M E E E E E E E E E E E E E E E E E E E E E E E M E E E E E E E E E E E E E E E E E E E E E E E W E E E E E E E E E Q E E Q E E E Q Q E E E E Q E E E W E E E E E E E E E E E E E E E E E E E E E E E E E E E Q E E E E ! E E E E W E W W Q E E E E E E E E E E E E E E E E E ! E Q E E E E E E Q Q E E E E W Q ! ! E Q Q Q Q E E E Q Q E E E E E E E E E E E E E Q ! Q ! ! Q ! Q E E E E Q E E E ! Q Q E E E E Q Q ! Q E E E E E E E Q Q ! Q E ! Q E Q ! ! ! ! ! ! E E Q Q E E E Q ! ! ! Q ! ! ! Q E E E Q Q E E E ! ! E Q Q E E E E E E E ! ! ! Q Q ! Q Q Q Q E Q Q E E E Q ! ! W ! Q Q Q Q ! Q E E ! ! ! Q ! ! ! ! ! ! ! ! ! Q ! ! ! ! Q E E Q Q E Q ! ! ! Q E E E E E E E E Q Q E E E E E E E E E ! ! E E E E E E E E E E E E E E E E E E E E E E E E Q ! E E Q Q E E E E E E E E E E E Q Q E E E E E E E R R Q Q R Q E E E E E E E E E Q R Q Q E E E E E E E E Q ^ ~ E E E E E E E E E E E E E E E E E E E E E E E E E E E E E E T E E E E E E E E E M E E E E E T T T v v b T T v b b v v b M b b b T T T T b b E E M M M M M M b T E b v v v v b M M b b b b M M b b v T b b v c c v v v ",
"u u u u u u u i k k k k k k k k k k k k k k k k k k k k k k k k k k k k k k k k k k k k k k k k k k k k k k k k k k k k k k k k k k k c v k k k k v v v c k k c v v v v v v v v v v v v v v v v v v b v v v v v v v v v v v v v v v v v v v v v v v v v v v v v v v v b v v v v v v v v v b b M M M b v v v v v v v v b b v v b M b b M M M M M M M b M M E E M M M M M M M M b b M M E E E E M M M M b b M M M E E T v b b b b T E M M M M M M M M M M M M E E E E E M M E E E E T E E E E E E E E E E E E E E E E E E E E E E E E E E E E E E E E E E E E E M E E E E E E E E E E E E E E E E E E E E E E E W E E E E E E E E E E E E E E E E E E E E E E E E E E E E E E Q Q Q E E E E E E E E E E E E E E E E E E E E E E E E E E E E E E E E E E E E T E E E E E E E E E E E E E E E E E W E E E E E E E E E E E E E E E E E E E E E E Q Q E E E E E E E E E E E E E W ! ! ! E E E Q E E E E E E E E E E E E E E E E E E E ! ! E Q Q E ! Q E E Q E E E E E Q Q Q E E E E E E E E E E E E E E E E Q ! Q E ! Q Q ! ! ! ! ! ! Q E E E E E E E ! ! Q E E Q ! ! Q E E E E E E E Q ! Q E E E E E E E E E E ! ! ! Q ! ! ! E Q ! ! ! Q E E Q Q Q ! Q Q ! ! Q Q ! Q E E ! ! ! ! ! ! ! ! ! ! ! ! ! ! ! ! ! E E E Q Q Q E Q ! Q Q ! Q E E E E E E E E E E E E E E E E E E ! ! Q E E E E E E E E E E E E E E E E E E E E E E E E ! Q E Q Q E E E Q Q E E E E E E E Q E E E E E E E Q E E E Q E E E E E E E E E E E Q Q Q E E Q E E E E E W ^ ~ E E E E E E E E E E E E E E E E E E E E E E E E E E E E T T T T T E E T T E E M M T ~ ] E E E T T v v T T T T b v v v b b b b v T T E b b M E M M M M M M b T T b b b v v b b b b b b b b M M M b v v b b n n c v v v ",
"u u u u u i k k k k k k k k k k k k k k k k k k k k k k k k k k k k k k k k k k k k k k k k k k k k k k k k k k k k k k k k k k k k k c v k k k k v v c v c k c v v v v v v v v v v v v v v v v v b b v v v v v v v v v v v v v v v v v v v v v v v v v v v v v v v v v v v v v v v v b v v b b b b v v v v v v v v v b M b v b M b b b b b b E M M b M M E E b M M M M M M M b b M M E E E E M M M M M M M M M E M b b M M M M M M M M M M E E M M M E E E E E E E E M M E T T T T E E E E E E E E E E E E E E E E E E E E E E E E E E E E E E E E E E E E E M E E E E E E E E E E E E E E E E E E E E E E E E E E E E E E E E E E E E E E E E E E E E E E E E E E E E E E E Q ! E E E E E E E E E E E E E E E E W E E E E E E E E E E E E E E E E E E E E E E E E E E E E E E E E E E E E E E E E E E E E E E E E E E E E E E E E E E Q E E ! E E E W E E E E E E E E E W ! ! ! E E Q ! E E E E E E E E E E E E E E E E E E E Q Q Q ! ! Q Q E E E E E E Q W E E Q Q Q E E E E E E E E E E E E E E E Q ! ! ! ! ! ! ! Q E Q ! ! ! Q E E E E E Q ! Q E E E E Q ! Q E E E E E E E Q ! E E E E E Q Q E E E E ! ! Q Q ! ! Q E Q ! ! ! ! Q Q Q Q W ! Q E ! ! ! Q ! Q E E Q Q ! ! ! ! ! ! ! Q Q Q Q ! ! ! Q E E E Q ! ! E Q Q Q Q ! Q E E E E E E E E E E Q E E E E E E E ! ! E E E E E E E E E E E E E E E E E E E E E E E E E Q E E ! Q E E E Q Q E E E E E E E E E E E E E E E E E E E E E E E R R E E E E E E E E E E Q Q Q E E E E E ^ ^ E E E E E E E E E E E E E E E E E E E E E E E E E E E E T T T T T E T T T E E M M T E ~ T E T b v v T T T T T T v v v v b b b b T T T b b M b M M M b E E v T b v b n n v b b v v v n n b M b b b v v b b n n b v v v ",
"u u u u i k k k k k k k k k k k k k k k k k k k k k k k k k k k k k k k k k k k k k k k k k k k k k k k k k k k c c c k k k k k k k k k c k k k k v v c v v k c v v v v c v v v v v v v v v v b b v v b v v v v v v v v v v v v v v v v v v v v v v v v v v v v v v b b v v v v b v b b b v v v v v v v v v v v v v v v b v b b M b b b b b b M E E M M M E E b M M M M M M M b b M M M E E E E M M M b E M M M M M M M M M M M M M M E E E E E E E E E E E E E E E E b M E E T T T E E E E E E E T b E E E E E E E E E E E E E E E T E E E E E E E E E E E E M E E E E E E E E E E M E E E E E M E W E E E M E E E E E E E E E E E E E Q Q E E E E E E E E E E E E E E E E E E Q W E E E E E Q E E E E E E E E E W E E E E E E E E E E E E E E E E E E E E E E E E E E E E E E E E E E E E E Q E E E E E E E E E E E E E E E E E E E E ! E E ! E E E W E E E Q Q E E E E W ! ! ! E Q ! Q E E E E E E E E E E E E E E E E E E E E E Q ! ! Q E E E Q Q Q E E W E E Q ! Q Q E E E E E E E E Q Q E E E E Q ! Q E Q ! ! ! E E E E Q ! ! ! E E E E E Q Q E E E E E Q ! Q Q Q Q E E E Q E E Q Q E E Q Q E E E E ! Q Q ! ! ! Q Q ! ! ! ! ! ! Q E Q W E E E ! / / ! ! Q E E ! Q W W ! ! ! ! ! E E E Q ! ! ! ! ! Q E E Q Q Q ! Q Q ! ! Q E E E E E E E Q ! E E E E E E E E E ! ! Q E E E Q Q E E E E E E E E E E E E E E E E E E E Q E E Q Q E E E E E E E E E E E E E Q E T E E E E E E E E E E E E R R E E E E E E E E E E Q Q Q Q E E E E E W E E E E E E E E E E E E E E E E E E E E E E Q E E E E E T T E T T T T T T E M M M T T T b b b v b T T T T T T T b b v v v b M M E b T b b M b b M M b T T b b b b n n n b M b b v T ] m n M b v v n n n v v v n n n n ",
"k u u i k i u i k k k k k k k k k k k k k k k k k k k k k k k k k k k k k k k k k k k k k k k k k k k k k k k k k k k k k k k k k k k k k k k k k k k v v c k c v v v v c c c v v v v v v v v v b v v b v c k k v v v v v v v v v v v v v v v v v v v v v v v v v v b b v v v b b b b b v v v v v v v v v v v v v v v v v v b b b b b b M M b T E b b b b b M E E E E E M M M b T M E E T T T b b b T T E E T T b b M M b b b M M M M M M M M M M M M M M M E E T T T M M M M M M b M M M M E E E E E E E E E E E E E E E E E E E E E E E E E E E E E E E E E E E T T E E E E E E E E E E E E E E E E E M E E E E E E E E E E E E E E E E E E E Q E E E E E E E E E E E E E E E E E E E E E Q Q E E E E Q Q E E E E E E E E E E E E E E E E M E E E E E E E E E E E E E E E E E E E E E E E E E E E E W E E E Q Q E E E W E E Q Q E E E Q E E E E E E Q ! ! E Q E E E E E Q Q W Q E E ! ! E E E E E E Q ! Q E E E E E E E W W E E Q E E E Q E E E Q Q E E E E W E Q Q E E Q Q E E E Q Q Q / _ E E E W E E Q ! Q E W E E E E E E Q ! Q E E E E E E E E E Q E Q Q Q Q E E E E E E Q Q E E E E E E E E Q E E Q Q Q Q Q Q ! ! ! Q Q ! Q E ! ! ! W E Q ! ! ! ! ! ! E Q ! ! ! Q W W Q E E Q ! E E E ! ! Q E Q Q ! ! E E Q ! W E E ! ! E E E E E E E E Q Q E ! R R E E E E E E E E E E E E E E E E E E E W E E E E E E R Q Q E E Q E E E Q E E E E E E E E E E E E E E E E E E E E Q E E E E E E E Q Q E E E E E E E E E E E E E E E E E E E E E E E E E E E E E E E T E E E E T E Q T E E E E E E T T T E E M M M M M b T T E E M E T T T T T b T T T T T v v M b v v v b M M b b b v b b b v b b M M b v b M M M M M M M M b v b b M M n m v v v v v v v n c v v v ",
"i u u i u u u u i i k k k k k k k k k k k k k k k k k k k k k k k k k k k k k k k k k k k k k k k k k k k k k k k k k k k k k k k k k k k k k k k k k v c k c c v v v v v v v v v v v v v v v v c v v v v v v v v v v v v v v v v v v v v v v v v v v v v v v v v v v v v v v v v v v v v v v v b b v v v v v v v v v v v b b v v v v b b b b b M M b b v b M E M M M b b b M E b E E T b b v b b b b T E T v b M b b b M M E E M M M M M b b M M M M M M M E E E T T b b b M M M M M M M E E E E E E E E E E E E E E E E E E E E E E E E E E E E E E E E E E E E E E E E E E E E E E E E E E E E E E E E E E E E E E E E E E E E E E E E E E E E E E E E E E E E E E E E E E E E W Q E E E E E E E E E E Q E E E E E E E E E E E E E E E E W E E E E E E E E E E E E E E E E E E E E E E E E E E E E E E E E E E E E E W E E E E E E W W E E E ! Q E E Q Q E E E E E Q Q E E E E E E Q ! E E E E E E Q Q E E E E E E E E W E E E E E E E E E E E E E E E E E E E Q E E E E E E E E E Q Q Q Q E E E W E E Q ! Q E E E E E E E E Q ! Q E E E E E E E E E E Q Q Q Q Q E E E E E E E E E E E E E E E E E E E Q E Q Q Q Q ! E Q Q Q ! Q E Q Q ! ! Q E Q ! ! ! ! ! ! Q Q Q Q ! W W Q E E Q Q E E E E E E E ! ! ! ! E E Q ! E E E E Q E E E Q E E E E E E E Q Q Q E E E E E E E E E E E E E E E E E E E W E E E E E Q R E Q E E E E E Q Q E E Q Q E E E E E E E E E E E E E E E E E E E E E E E E Q Q E E E E E E E E E E E E E E E E E E E E E E E E E E E E E E E E E E E E R T T T E E E E E E T T T E E M M E E b b T T T b M E T T T T T T T T T T v v v M b v v b b M M b b b b v v v v v b M M b n b b b M M M M M M b b M b b b m m n n v v v v v v b v v v ",
"u u k k u u i i i i k k k k k k k k k k k k k k k k k k k k k k k k k k k k k k k k k k k k k k k k k k k k k k k k c k k k c k k k k k k k k k k k k c c c v c v v v v v v v v v v v v v v v v v v v v v v v v v v v v v v b b v v v v v v v v v v v v v v v v v v v v v v v v v v v v v v v b M b v v v v v v v v v v v b b v b v v v v v b b b M M M M M b b M M b M M M E E b b b b M T T T T E M E E b v b M M b v b b E E M M M b b b v b M M b M M M M E E T T b v b T E E E M M E E E E E E E E E E E E E E E E E E E E E E T T T E E E E E E E E E E E E E E E E E E E E E E E E E E E E E E E E E E E E E E E E E E E E E E E E E E E E E E E E E E E E E E E E E E E Q E E E E E E E E E E E E E E E E E E E E E E E E E E E E E E E E E E E E E E E E E E E E E E E E E E E E E E E E E E E E E E E E E E E E E E E Q E E W W E E E ! Q E E E E E E Q E E Q ! E E E E E E Q ! E E E E E E E E E Q ! Q E E E E E E E E E E E E E E E E E E E E E E E E E E E E E E Q Q Q E E E E E E E E E E E E E E E E E E E E E E Q ! Q E E E E E E E E E E E E E Q Q E E E E E E E E E E E E E E E E E E E E E E Q ! ! E E E E E E E E E E Q ! ! ~ ~ ! ! ! ! ! ! ! Q Q ! ! ! Q Q Q Q Q ! E Q ! Q ! ! Q Q Q ! ! E E Q ! Q E E E E E E Q W ~ ~ Q W ~ E ~ ~ E ~ E E Q E Q ! E E E E E E E E E E E E E W E E E E E Q R E E E E E E E E E E E Q Q E E E E E E E E E E E E E E E E E E E E E E E E E E E E E E E E E E E E E E E E E R E E E E E E E E E E E E E E E E E E T T R T T T T T E E E E E T T T T T E E E E T T T b b M E T T T b T T b v v v v v v b b v b M M M M M b E T v v v b n m b b m m n b b M M b b b b n n n n v v n m n n v v v v v v n b v b ",
"i u i k u i k u i k k k k k k k k k k k k k k k k k k k k k k k k k k k k k k k k k k k k k k k k k k k k k k k k k c c k k c k k k c k k k k k k k k k c v v c v v v c c v v v v v v v v v v v v v v v v v v v v v v v v c v v c v v v c c v c c v v v v v v v v v b b v v v b b v v v v v b M M b v v v v c v v v v v v v v b M b b v v b M b b M M M M M b v b M M M M M T T E b b b b T T T T E M M E T b b M M b v v v b b M M b v b v v b E M b b M M M M M b T T T T T T E M M E E T T E M E E E E E E E E E E E E E E E E E T T T T E E E E E E E E E E E E E E E E E E E E E E E M E E E E E E E E E E E E E E E E E E E E E E W E E W E E E Q E E E E E E E E E E E E E W W E E E E E E E E E E E E E E E E E E E E E E E E E E E E E E E E E E E E E E E E E E E E E E E E E E E E E E E E E E E E E E E W E E E E Q ! E E W W E E W E E E Q E W ~ ~ _ Q E E ! ! W E E E E Q ! Q E E E E E E E Q ! Q ! Q E E E E E E E W E E E Q E E E W W ~ ~ E E E E E E W E E Q Q Q Q E E E Q Q Q E E E E E E E E E E E E E E E E Q ! Q E E E E E E E E E E E E E Q Q E E E E E E E E E Q Q E E E Q Q E E E E E E E Q Q E E E Q ! E E E E E E W ! ~ ^ ! ! ! ! Q ! ! ! ! ! Q Q Q ! ! ! ! ! Q Q ! ! ! ! Q Q Q Q Q E E Q ! ! Q E E E E Q ! _ ^ ^ ^ ~ ~ ~ ^ ~ E E E E Q E Q ! Q E E E E E E E E E E E E W E E E E E E R Q E E E ~ ~ E E E E E E E E E E E E E E E E E E E E E E E E E E E E E E E E E E E E E E E E E E E E E E E E R R E M E E E E E E E E E M E E E E E T T T T T T T T T E E E E E T T T T T T T T T T E T b M E E T T T b T b v v v v v b b b M M M M M M M b T T T b b n m m m m m m n b M M M n n n m m m m n v n m m b v v v v v v c c v v v ",
"i i u i u u u u i k k k k k k k k k k k k k k k k k k k k k k k k k k k k k i i k k k k k k k k k k k k k k k k k k k k k k k k k k k k k k k k k k k c c c k k c v v c c v v v v v v v v c c v v v v v v v v v v v v v c c v v v v c c c k v v c c v v v v v v b b b b c c v b b b v v v b b b b b v v v v v v v v v v v v v b b b b b v b b b M M M M b M M M M b b M M M M b M b v b b T T T b b b b M b b b M b v v v v b b b b b T b M b b b M M M M M M b b T T T T E E E E E E E E E E E E E E E E E E E E E E E E E E E E E E E M M M M E E E M E E E E E E E Q E E E E E E E E E E E E E E E E E E E E M M E E E E E E E E E E Q E E M E E E E E E E E E E E E E E E E E W E E E E E E E E E E E E E E E E E E T T E E E E E E E E E E E E E E E E E E E E E E E E E E E E E E E E E W W W W W E E E E E E E E E E E E E E E W E E E E E E E E E E E E ! ! ! ! ! Q Q Q Q ! ! Q Q ! Q E E E E E E Q Q Q ! Q ! Q E E E E E E E E E E W W W W E E E E E E E E E E E E E Q E E E E E E Q Q E E E Q E E E E E E E E E E E E E Q E E E E E Q E E E E Q E E E E E E E E E E E E E E E E E E E E E E E E E E E E E E E E Q ! ! Q Q Q E E E E E E Q Q Q Q ! E Q ! ! ! ! Q E Q Q Q Q Q Q E E E W ! W E Q Q Q E E E E Q Q E E E W Q E ~ ^ ^ ^ ~ ~ ~ E E ~ ~ E E E E E E E E E E E E E E E E E E E E E E E E E E E E E E E ~ ^ ~ Q E E E E E Q Q Q R E E E E Q E E E E E E E E E E E E E E E W E E E E E E E E E E E E E E E E E Q E E E E E E E E E E E E E E E E E E E E E E E T T T T T T T E E T T E b b b T T T T b b M M b T T T T v b b v v v b M b b b n n b b M M M b R T b b b b b b b n m n b M M M b m m n b v v v c b v v v v v v v v v v v c v v v ",
"u u u k i u u u i k k k k k k k k k k k k k k k k k k k k k k k k k k k k k k k k k i k k k k k k k k k k k k k k k k k k k k k k k k k k k k k k k k c c k k k c v v c k c v v v v v v v v c c c v v v c v v v v v v c k c v v v v v c k k c v v v v v v v v v v v v b v v v v v b v v v b b b b v v v v v v v v v v v v v v v v v v v b b b b M M M M M M M M M M b M M M M b b M b M M E E T b b b b M b v b M b v v v b b v T T T T T b b b M M M M E b b v b T T T T E E E E E E E E E E E E E E T T T E E E E E E E E E E E E E E M M M E E E E M E E E E E E E E E E E E E E E E E E E E E E E E E E E E M E E E E E E E E E E E E E E E E E E E E E E E E E E E E E E E E W E E E E E E E E E E E E E E E E E E E E E E E E E E E E E E E E E E E E E E E E E E E E E E E E E E E E E W W W E E E E E E E E E E E E E E E E E W E E E E E E E E E E E E Q ! ! ! Q E Q Q Q ! ! E E ! Q E E E E E E R Q Q Q Q Q E E E E E E E E E E E W E E E E E E E E E E E E E E E E E E E E E E E E E E E E E E E E E E E E E E E E E E E E Q Q E E Q E E E E E E E E E E E E E E E E E E E E E E E E E E E E E E E E E E E E E E Q E E E E Q E E E Q E E Q Q E ! Q Q ! ! Q ! ! ! ! Q Q ! Q E E E E E Q Q Q E E E E E E E E E E E E E E E ~ ^ ^ ^ W W E E E E ~ E E E E E E E E E E E E E E E E E E E E E E E E E E E E E E E ~ ~ ~ Q E E E E E E E E Q E E E E E E E E E E E E E E E E E E E E W E E E E E E E E E E E E E E E E E E E E E E E E E E E E E E E E T T E E E E E E E T T T T T T T T T T T E b v v b T T b v b b b v T T T T v v v v v v b b b v v v v n b M M b b E b v v v v v M n m m n b M M M n m m m m m v v v n v v v v v v v n n c k c v v v ",
"u u u u i i i i k k k k k k k k i k k k k k k k k k k k k k k k k k k k k k k k i i u k k k k k k k k k k k k k k k k k k k c c k k k k k k k k c c k k k k k k c v v c k c v v v v v v v b b v v v v c k v v v c c v c c c c c c v v v v c v v c c v v v v v v v v v b b v v v v v v v v v b b b b b v v v v v v v v v v v v v v v v b M M b b b b b b M M b b b b E M M M M M M b b b M M E E E M M M M b v b b v v v v b b T T T T T T b v b b b b b T b v v b E T b T E E E E E E E E E E M b b M b b b E E E E E E E E E E E E E E E M M E E E E M E E E E E E E E E E M E E E E E E E E E E E E E E E E E E E E E E E E E E E E E E E E E E E E E E E E E E E E E E E E E E E E E E E E E E E E E E E E E E E M M M M E E E E E E E E E E E E E E E E E E E M E E E E E E E E E E E E E W W E E E E E E E E E E E E E E E E E E W E E E Q Q E E E E E E E Q ! ! ! Q E Q ! ! ! ! E E W E E E E E E E R E E Q E E E E E E E E E E E E E Q E E E E E E E E E E E E E E E E E E E E E E E E E E E E E E E E E E E E E E E E E E E E Q Q E E E E E E E E E E E E E E E E E E E E E E E E E E E E E Q Q E E E E E E E E E E E E E E E Q E E E Q Q E ! ! Q Q ! ! ! ! ! ! ! ! Q Q E E E E E E E E E E Q E E E E E E E E E E E E E E E ~ ^ ^ ~ W E E E ~ ~ E E E E E E E E E E E E E E E E E E E E E E E E E E E E E E E E E E W Q E E E E E E E E E E Q Q E E E E E E E E E E E E E E E E E W E E E E E T E E E E E E E E E E E E E E E E E E E E E E E W E E E E E E E E T T T T T T T T T T T T T T T R T v v v v v v v v v v T T T T v b b v v v v v v v v v v v b E b v b b b v v b b v n m m m m b b M M b b b n n m m v v n v v n m v v m m m c k n n v b ",
"u u u u k k k k k k k k k k k k i k k k k k k k k k k k k k k k k k k k k k k k u u i k k k k k k k k k k k k k k k k k k k k k k k k k k k k c c k k k k k k k c v v c v v v c c v c c v c c v v v c c k v v v k k c v v c k k k c v v v v v v c k v v v v v v v v v b v v v v v v v v v v v v v b b v v b v v v v v v v v v v v v v b M b v v v v v v b b b b v b M M M M M M M M b M M M M E E M M M E b v v v v v T T b M E T T b b T T T b b v v b T T T v b E b v M M M E E E E E E E M M b b M M M E E E E E M M M M E E E E E E E E M M E E E M E E E E E E E E E E M E E E E E E E E E E E E E E E E E E E E E E E E E E E E E E E E E E E E E E E E E E E E E Q Q E E E E E E E E E E E E E E E E E E E E E E E E E E E E E E T T E E E E E E E E E E E M M E E E E E E E E E E E E W E E E E E E E E E E E E E E E E E E E W E E Q ! Q E E E E E E E Q ! ! ! Q Q E E Q ! Q E E W W E E E E E E E E E E E E E E E E E E E E E E E E E E E E E E E E E E E E E E E E E E E E E E E E E E E E E E E E E E E E E E E E E E E E Q Q E E E E Q Q Q E E E E E E E E E Q Q Q Q E E E E E E E E E W E E E E E E E E E E E E E W E E E E E E E E E E Q Q E ! ! ! W W ! W ! Q E Q E E E E E E E E E E E E E E E E E E E E E E E E E E ~ ~ Q E E E E ~ ~ E E E E E E E E E E E E E E E E E E E E E E E E E E E E E E E E E Q Q E M E E E E E E E E E R R Q E E E E E E E E E E E E E E E E E E E E E E Q E R R E E E E E E E E E E E E E E E E T T M M M M M T T E E E E T T T E T T T T T T T T T T T T T v v v v v v v v v v v b T T v b b v v v v v v v b v v v b T b b b v v v b b b b m m m m m n b n n M b b b b m m m n b v v v m n v n m n n c v v v v ",
"u u u u i i i k k i i k k l i k i i k k k k k k k k k k k k k k k k k k k k k k i u k k i k k k k k k k k k k k k k k k k k c c k k k k k k k k c k k k k k k c c c c v v c v c c v c c c k k c v c c c k c c c c c v c c c k k c c c c c v v v c c v v c c c v v v v c c c v v v v v v v v v v v v v b b b v v v v v v v v v v v v c b b b b b v v b b b v b b T b b b b M M b M M M M M M M b b b b b b b b b b b b b E b b b b b v v b b b v b b b b T b b b b b E b b b M M M M E T T T E M M M E E E E M E E T E M M M E E E T E E E T b E E E E M E E E M E E E E E E E E E E E E E E E E E E E M E E E E E E E E E E E E E E E E E E E E E E E E E E E E E E E E Q E E E E E E E E E E E E E E E E E E E E E E E E T E E E E E E T E Q T T T E E E E E E E E W E E E E E E E E E E E E E E E E E E E E E E E E E E E E E E E E E E E E Q Q E E Q ! Q E E Q ! ! Q Q Q E E E Q E Q W E E E E E E E Q Q E E E E E E E E E E E E E E E E E E E E E E E E E E E E E E E E E E E E E E E E E E E E E E E E E E E E E E E E E E E E Q Q R R E E Q Q Q Q E E E E E E E E E Q Q Q Q E E E E E E E E W E E E Q E E E E E E E E E E E E E E E Q E Q Q Q Q Q Q Q Q ! W W E E W ! ! ! ! ! Q E E E E E E E E Q E E E E E E E E E E E E E E E Q E E E E E E E E E E E E E E E E E E E E Q Q Q Q Q R E E E E E E E E E E E E E E E Q E E E E E E E E E E E E E E E E E E E Q E E E E E E E Q Q E E Q Q E Q E E E E E E E E E E W E M b E E E E E E E E E E T b T E T b E E b b T T b b T T T T T T T T T T b b b b v v b b v v v v v v v v b v b b b v v v v v v v b b b v v b b b b b v v v b b b n n n m m n n n M b n n n n n n m m n n n l n n v v v c v b n c c c ",
"u u u u u u u k k i k k l z u i k k k k k k k k k k k k k k k k k k k k k k k k k i k k k k k k k k k k k k k k k k k k k k k k k k k k k k k k k k k k k k k c k k c c v c v v v v v v c c c c c c v v c c c k k k c k k c k k k k c c c v v c c v v v v k k v v v v v v v v v v v v v v v v v v v v v b v v v v v v v v v v v b b v v v b b b v v b M b v v v v v b v v M M M M M b b M M M b v v v v v b b b E M b b b v b b M b v v v v v v b M M M M b b b b b E E T b b M M M M T T T E M M E E E E E M M E E E M M M E E E E E E E T T E E E E M M E E M M M M E E E E E E E E E E E E M E E M M E W E E E E E E E E E E E E E E E E E E E E E E E E E E E E E E E E E E E E E E E E E E E E E E E E E E E M E E E E E E E E E E E E E T T E E E E E E E E E E E E E E E E E E E E E E E E E E E E E E E E E E E E E E E E E E E E E E E E E Q ! W E E E Q Q E E E E E E E E Q ! ! E E E E E E E E E E E E E E E E E E E E E E E E E E E E E E E E E E E E E E E E E E E E E E E E E E E E E E E E E E E E E E E E E E E E E Q Q Q E E E Q E E E E E E E E E E E E E E E E E E E E E E E E Q E E Q Q E E E E E E E E E Q E E E Q Q E E Q Q Q Q ! ! ! E Q ! ! Q E ! ! Q Q Q Q Q E E E E E E E E E E E E E E E E E E E E E E E E E E E E E E E E E E E Q ! E E ~ ~ E E E E E E E E E E E Q Q E E E E E E E E E W ~ E E E E E E E ~ E E E E E E E E E E Q E E Q E E E E E E E E E E E R Q E E E E E E E E E E E E M M M E E E E E E E E E T T T T T E b b M b v v T M M T T T T T T T T T T T b v v v v v v b v v v b b v v v v v b M b v v v v v v v v b b b b v v v b b v v v b M b n M M m m ] n n M n m m m m m m m m m m m n v n b v v v v v v c c c ",
"u u u u u u u k k k k k k k i i k k k k k k k k k k k k k k k k k k k k k k k k k k k k k k k k k k k k k k k k k k k k k k k k k k k k k k k k k k c k k k k k k k c c c v v v v v v v v v v c c v v c v v v c k k k k k k c c c c v v c c v c c v v v v v c c v v v v v v v v v v v v v v v v v v v v v v v v v v v v v v v v b b v v b b b b v v b b b b b v v b b b v M M M M b v b M M M b b b b b v b b b b M b v v v b M M b v v v v v v b M M M M b v v b M E E E b b b M b b b T E E M M M M M M M M M M T E M M M M E E E E E E E E E E E E M E E E E E E M E E E E E E E E E E E E E M E M M W W W E E E E E E E E E E E E E M E E E E E E E E E E E E E E E E E E W W W W E E E E E E E E E E E E E E E E E E E E E E E E E E E E E E E E E E E W E E E E E E E E E E E E E E E E E E E E E E E E E E E E E E E E E E E E E E E E E E E E Q Q E E E W E E E E E E E E Q Q Q Q E E E E E E E E E E E E E E E E E E E E E E E E E E E E E E E E E E E E E E E E E E E E E E E E E E E E E E E E E E E E E E E E E E E E E E E E E E E E E E E E E E E E E E E E E E E E E E E E E E E E E E E E E E E E E E E E E E ! ! W ! ! W W ! ! Q E E E ! ! Q E Q Q Q Q ! ! Q E E E Q E E E E E E E Q Q Q E E E E E E E E E E E E E E E E E E E E E E E E E E Q E E E E E E E E E M M M M E R R R E E E E E E E E E E ~ E E E E E E E E E E E E E E E E E Q T T Q Q E E E E E E E E E E E E E E E E E W E E E E E E E M M E E E E E E E E M M T T T E E E b b M b v v T M M T T T T T T T T T T T T T b v b b v v v v v b b v v b b b b b b v v v v v v v v n n b b b v b b v v v b b M n n M n m m n n m m m m m m m m m m m m m n v v n b v c c v v c k k k ",
"u u u u u u u k i u i k k k k k k k k k k k k k k k k k k k i i k i i k k k k k k i k k k k k k k k k k k k k k k k k k k k k k k k k k k k k k k k k k k k k k k k c c c v v c k v v v v v v v v c c c c c v v c k k c c k c c c v v v c k c k k c c c c v v c v v v c c v v v v v v v v v v v v v v v v v v v v v v v v v b b b v v b b M b v v v b b b b b b b b b b v M M M b b v b b M M M M M M b v v v v b M b v v v M M b v v v v v v v b M M M b b v v b M b b b b T T T T v v b E E M M M M M M M M M M M E E M M E E E E E E E E E E E E E M E E Q Q E E M M E E E E E E E E E E E E M M M M W W W E E E E E E E E E E E E E E E E E E E E E E E E E E E E E E E W W W W W E E E E E E E E E E E E E E E E E E E E E E E E E E E E E E E E E E E E M E E E E E E E E E E E E E E E E E E E E E E E E E E E E E E E E E E E E E E E E E E E E E E E W W E E E E E E E Q ! ! E E E E E E E E E E E E E E E E E E E E E E E E E E E E E E E E E E E E E E E E E E E E E E E E E E E E E E E E E E E E E E E E E E E E E E E E E E E E E E E E E E E E E E E E E E E E E E E E E E E E E E E E E Q E E E E Q Q Q Q E E Q Q W W E W W W W ! E E E E ! ! ! Q E ! ! ! ! Q E E E Q E E E E E E E Q Q E E E E E E E E E E E E E E E E E E E E E E E E E E E E ~ E E E E E E E E E E E E R R R Q E E E E E E E E E W ~ E E ~ ~ ~ ~ ~ ~ E E E E E E E E Q Q E E E T E E E E E E E E E E E E E E E E W W E M E E E E E E E E b M E E E E E M M E E T T E E M M M b v v T M M T T v v T T T T T T T T T T b M b v v v v v b M b b b M M b v v v v v v b b v v n m v b T b b b n v v v b m m m M b m m n M n m m m m m m m m n n n v v v v v c v c c v v c c c c ",
"u u u u i u u k i u i k i i i k k i k k k k k k i k i k k k i u i i u i i k k k i i k k k k i k k k k k k k k k k k k k k k k k k k k k k k k k k k k k k k k k k k c k c c c c c c v v c c v v v c c c k k c c c c k v v c k k c c c c c c k k c k k k c c v v v v v v c v v c c c v v v v v v v v v v c b b v v v v v v v b b v v v b b b b v v v b b b b b b b b b b v b b M b v b v b b b b b b b b v b T T b b b b b v b b b b b v v v v v b b b b b v v v b b b b b T T T T T T b b b E M M M T T E E b M M M E E M b T T E E E E E E T T T T E M E E E Q E M M M E E E E E E E E E E E M M M M E M M W E E E E E E E E E E E E E E E E E E E E E E E E E E E E E E E W W W E E W E E E E E E E E E E E E E E E E E E E E E E E E E E E E T T E E E E E E E E E E E E E Q E E E E E E E E E E E E E E E E E E E E E E E E E E E E E E E E W E E E Q Q E E W W E Q Q E Q E E Q Q Q R E E E E E E E E E E E E E E E E E E E E E E E E E E E E E E E E E E E E E E E E E E E E E E E E E E E E E E E E E E E E E E E E E E E E E E E E E E E E E E E E E E E Q E E E E E E E E E E E E E E E E E E E Q E E E E Q Q E E E E E E E E E W W W E Q Q E E E Q ! ! ! Q ! ! ! Q Q Q Q E E E E E E E E E Q ~ E E E E E E E E E Q R E E E E E E E E E E Q W E E E E E E E E E E E E E E E E E E R R E E E E E E E W W E E ~ ~ ~ W ~ ~ ~ ^ ^ ^ ^ ~ E E E Q E E Q Q E E E E E E E E E E E E E E E E T E E E E E E E E E E E E E E E T M E E E E E E E T Q T T T E E E M M b T T E T T T b b T T T T T T T T T T b b b b b b b v b T b b b b n b v v b v v b T b b b n n v v b M b b b b b v v n n m M n m m n n n m m m m m n n n v v v v v c n c c c c c v v c v v v ",
"u u u k i u u i i i k k i i k k k k k k k k i i i k i k k k k i k i u u i k k k k k k k k i u k k i k k k k k k k k k k k k k k k k k k k k k k k k k k k k k k k k k k c k k c c c v v c k c c k k k k k c c k k k k k c v k k k k k k k k k k c k k c c c v v v v v v c v v c c c v v v v v v v c c v c b b v v v v v v v v v v v v v v b b v v v b b v b b v v b M b b b b M b v b b b v b b v b b b v b M E b b v b T v v v b b v v v b b b b v v v v v v b b b b b b T v v T T T E M M M M M T T T T T M M M b b b b b T T E M M M M M T T T T E E M M M E E M M M E E E E E E E M M M M M M E E E M M M E E E E M M M E E E E E E E E E E E E E E E E E E E E E E E E E W W E E E E E E E E E E E E T T E E E E E E E E E E E M M M M E E T T E E E E E E E E E E E E E E E E E E E E E E E E E E E E E E E E E E E E E E E E E E E E E E W E E E E E E Q W W W W Q E E E E E E Q R E E E E E E E E E E E E E E E E E E E E E E E E E E E E E E E E E E E E E E E E E E E E E E E E E E E E E E E E E E E E E E E E E E E E E E E E E E E Q E E E E E E E Q E E E E E E E E E E E E E E E E E E E E E E E E E E E E E E E E E E E Q ~ W E E Q E E E Q Q Q ! ! ! ! Q E E E E E E E E E E E E E Q E E E E E E E E E E E E E E E E E E E E E E E W W E E E E E E E E E E E E E E E E E E E E E E E E E M M M M E E ^ ^ W W E E ~ ^ ^ ^ ~ E E Q Q R Q R R E E E E E E E E E E E E E E E E E E E E E E E E E E E E E E E E T M E E E E E E E E E E E E M M M M M M E T T b v v b b T T T T b T T v v v v v v b T T b v v T v v v v n n v b b b b T T b b b v v v v n b v b v b b v v b m m M m m m m m m m m m m m n b b b b v v v c n c v c k c v v c c c c ",
"u u i k u u i i i k k k k k k k i u k k k k i i k k k i u i k k i i k k k k k k k k k k k k i k i u u i k k k k k k k k k k k k k k k k k k k k k k k k k k k k k k k k c c k c k c v v c k k c c c c c c k k k k k k k c c k k k k k k k k k k k k k k c v v v v v v v c v v v v v v v v v v v v c c v v v v v v v v v v v v v v v v v v b b v v v v v v v v v v b M M M M M M b b b M b b b b b M M M b b M M b v v v b v v v v v v v v v b b b v v v T b b M M M b v v v v v b T T E M T T T T T T T T T T T T v v v v v T T E M M M M M E T E E E E E E E E M M E E E M E E M E E M M M M E E E E E E E E E E E M M M M E E E E E E E E M E E E E E E E E E E E E E E E E E E E E E E E E E E E E E M b T E E E E E E E E E E E E E E E E E E E E E E E E E E E E E E E E E E E E E E E E E E E E E E E E E E E E E E E E E E E E E E E E E E E E E E Q Q E E E E W E E E E E E E E E E E E E E E E E E E E E E E E E E E E E E E E E E E E E E E E E E E E E E E E E E E E E E E E E E E E E E E E E E E E E E E E E E E E E E E E E E E Q Q Q Q E E E E E E E E E E E E E E E E E E E E E E E E E E E E E E E E E E E E E E E E E E E W Q E Q E E E E Q E Q Q ! Q E E E E E E E E E E E W W W W E E Q W E E E E E E E E E E E E E E E E E E E E W E E E E E E E E E E E E E E E E E E E E E E E E E E E E E E E W W W W W ~ ^ ^ ^ ^ ~ ~ ^ ~ Q R R ] ] E E E E E E E E E E E E E E E E E E E E E E E E E E E E E E E E E M E E E E E E E E E E E E M M b M M M b T b b v v v v b T T b b b v v v v b b v b T v v v b b b b b T T T T b b b b b v v v v v v v v v v b b b v v v v n m m n m m m m m m m m m m m m v v v v v v v v c k c c k k v v c k k k ",
"u u i k i i k k i u i k k i i k i u i k k i i k i i i u u u i k u i k k k i i i i k k k k k k k i i i i k k k k k k k k k k k k k k k k k k k k k k k k k k k k k k k k c k k k k c c c c k k k v v v v v k k k k k k k c k k k k k k k k k k k c k k c v c k k k v v v c v v v c v v v v v v v v c c v v v v v v v v v v v v v v b b b v b b v v v b b b v v v b b b b b b b b b b M M b v b b b b b b M M M b b b b v v v v b b b b b v v v v v v v v b T b b b b b v b b v v M E E M M T T T T T T T T T T T T T T T T T T T E M M M M M M E E E E E E E E M M E E E E E M E M E E M M M M E E E E E E E E E E E M M M M E E E E E E M M M M M M W W E E E E E E E E E E E E E E E E E E E E E E E E E E E E E E E E E E E E E E E E E E E E E E E E E E E E E E E E E E E E E E E E E E E E E E E E E E W E E E E E E E E E E E E E E E E E E E E E Q Q E E Q Q Q W E E E E E E E E E E E E E E E E E E E E E E E E E E E E E E E E E E E E E E E E E M E E E E E E E E E E E E E E E E E E E E E E E E E E E E E E E E E E E E E E E E E E Q Q E E E E E E E E E Q E E E E E E E E E E E E E E E E E E E E E E E E E W W W W E E E E E W ! E E E E E E E E E E Q E E W W ! Q E Q ! ! ! W W E E E E E E E E E E E E E E E E E E E E E E E E E E E E E E E E E E E E E E E E E E E E E E E E E E E E E E E E E E E E E W W W ~ ~ ^ ^ ^ W W ~ E Q R R E E E E E E E E E E E E E E E E E E E E E E E M E E E E E E E E T E E E E E E E E T E E E E E M M b b b M E b T M M b v b v v v v v b M v v v v v v v v b v v v m M M M M b b b b b b v v n b v v n n v v b b b b b v b b v v b n m n m n n ] n m m m m m m n b v v c v v v v k k k c k k k k k k k k ",
"u u u i u i k k i u i i i u i i i i i i i i k k i i u u u u u i u i i i k i u u u i k k k k i i i i i i i i i k k k k k k k k k k k k k k k k k k k k k k k k k k k k k k k k k k c k k c k k k c k k c c k k k k k k k k k k k k k k k c c k k c k k c c k k k c c c c c c v v c c v v v c c v v v v v v v v v v v v v v v v v v v b b v v v v v v b M b v v v b b v v v v b b v b b b b b v v v v v b M b b v b b b b v v v b b b b b b v v v v b b v b T b b b b b b b b b b b T T M E T T T T T b T T T T T T T T T T T T T E M M M M M M M E E E E T T T M E E E E E E M M E E E E M M M E E E E E E E E E E E E E E E E E E M E E W E E E E E W W E E E E Q E E E E E E E E R E E E E E E E E E E E E E E E E E E E E E E E E E E E E E E E E E E E E E E T T E E E E E E E E E E E E E E E E E E W E W E E E E E E E E E E E E E E E E E Q E E E E E E W W Q Q E E E E E E E E E E E E E E E E E E E E E E E E E E E E E E E E E E E E E E E E E E M E E E E E E E E Q E E E E E E E E E E E Q E E E E E E E E E E E E E E E E E E E E E E E E E E E E E E E E Q E E E E E E E Q Q E E E E E E E E E E E E E E W W W W W W E E E E E E W E E E E E E Q E E E Q Q E E Q Q E E E Q Q ! W E E E Q Q E E E E E E W E E E E E E E E E E E E E E E E E E E E E E E E T E E E E E E E E W E E E E E E E E E E E E E E E E W W E E ~ ~ ~ ~ W W E E E E E E E E E E E E E E E E E E E E M M W E E E E M E E W E E E E E E T T E E M E E E b b E E E E T T b T b b M M b b b M b v T b v b b b b T v v v v v v v v v v v v n b b b b b b b b b n v b n b v v v b b b b n n n b v b b b b v v n n n n b n m m n n n n n v v v v b v v v c c k k c k k k k k k c k ",
"i u i k u u u i k k i u u u i i u u i k k k k k i i i u u u u u u u i u u i i u u i k u i i u u u u u u u u k k k k k k k k k k k k k k k k k k k k k k k k k k k k k k k k k k c c c c c k k k k k k k k k k c c k k c c k k k k c c c k k k k k k k k k k k c c v v v v c c c v v v v v c c v v v c v v v v v v v v v v v v v v v b b v v v v v v b b b v b v v v v v v v b b v v v v v v v v v v v b b v v v v v v v v v v v v b b b v v v v b T b v v v T T T T T b b v b M M b v b E b v b v v T T T T T T T T E E E T b M M M M M M M M M M E E T b b T E E E E M E E E M E E E E E E M E E E E E E E M E E E E E E E E E M M E E E E E E E E E E E E E E Q E E E E M E E E E E E E E E E E E E E E E E E E E E E E E E E E E E E E M M E E E E E E E E E T T T E E E E E E E E E E E E E E E E E E E E E E E E E E E E E E E E E E E E E E E E E E E E W E E E E E E E E E E E E E E E E E E E E E E E E E E E E E E E E E E E E E E E E E E E E E E M M E E E E E E E E E E E E E E E E E E E E E E E E E E E E E E E E E E E E E E E E E E E E E E E E E E E E E E E E E E E Q Q E E E E E E E E E E E E E E E W W E E E E E E E E E E E E E E E E Q E E E Q ! E E E E E E E E E Q ! Q E E E Q E E E E E E W E E E E E E E E E E E E E E E E E E E E E E E T R Q E E E E E E E E E E M E E E E E E E E E E E E E E E E ] ~ E E E W E E E E E E E E E E E E E E E E E E M E M M E M E E E E M E E E E E E E M E E E E M M E E E E E M M M E T T R E E M M M M M b M M b v v v b T T T T v v v v v v v v v v v v v b v v b T b v v n m n v b v v v v v v n n m m m m b v b b v v v v n m m m m n n v v v v v v v v v b v v v k v c k c c k k k c c c c ",
"u u u i u u u u i k k k i u u i u u u i k k k k u u u u u u u u i k k k i i u u u i k u u i u u u u u u u u k k k k k k k k k k k k k k k k k k k k k k k k k k k k k k k k k k c c c c k k k k k k k k k k k c c k k k k k k k k c c c k k k k k k k k k k k k k v v v v c c c c c k c v v v v v c c v v v v v v v v v v v v v v v v v v v b v v v v v v v b v v v v v v v M b v v v v v v v v v v v b b v v v v v v b b b v v v b b v v v v v v v v v v v b T T v b b v v v b b b v b b b b M b b v T T T T T T T E E T T M M M M M M M M M E E E E T b b T b E E E E E E E M E E E E E E E E E E E E E E M E E E E E E E E E E M E E E M M M E E E E E E E E E E E E E E E E E E E E E E E E E E T E E E E E E E E E E E M E E E E E E E M E E E E E E E E E E E E E E E E E E E E E E E E E E E E E E E E E E E E E E E E E E E E E E E E E E E E E E E E E E E E E E E E E E E E E E E E E E E E E E E E E E E E E E E E E E E E E E E E E E E E E E E M M E E E E E E E E E E E E E E E E E E E E E E E E E E E E E E E E E E E E E E E E E E E E E E E E E E E E E E E E E E E E E E E E E E E E E E E E E E E E E E E E E Q Q E E E E E E E E E E E E E E E E E E E E E E E E E E E Q E E E W E E E E E E E E E E E E E E E E E E E E E E E E E M E E E E E E Q E E E E E E E E E E E E E E E E E E E E E E E E E E E E ~ ~ E E E E E E E R R E E E E E E E E E E E E E E M E E E E E E E E E E E E E E E E E E E E E E E E E E M E E M M E T T E E T M M M M b b b b b T v v b T T T T b v v v v v v v v v v v v v n v v v v v v v m m v b b v v v v v v v v n m m v v b b v v v v b b n b c c v v v v v v v v c v v v v v c c v k k c c k k k c c c ",
"u u u u u u u u i i i i i u u k i u i k k k i u u u u u u u u u i i k k k i u u u i k u u i u u u u u u u u k k k k k k k k k k k k k k k k k k k k k k k k k k k k k k k k k k k k k k k k k k k k k k k k k c k k k k k k k k k k k k k k k k k k k c c c k k k v v v v c c c c c k k c v v v v v v v v c c v v v c c v v v v v v v v v v b b v v v v v v v v v v v v v v M b v v v v v v v b v v v b b v v v v v v b b b v v b M M b b v v v b b v v b T v v b v v v T T b b b b v b M M b b b b v v T T b b b b v v b M M M M M M M M M E E E M E E b b b E E E E E E E E E T T E E E E E E E E E E E E M M E E E E E E E E E E E M M M M M W E E E E E E E E E E E E E E E E E E E M E E E M M M E E E E E E T E E E E M M M M M E E E M E E R E E E E E E E E E E E E E E E E E E E E E E E E E E E E E E E E E E E E E E E E E E E E E E E E E E E E E E E E E E E E E E E E E E E E E E E ! E E W E E E E E E E E E T T E E E E E E E E E E E E E E M E E E E E E E E E E E E E E E E E E E E E E E E E E E E E E E E E E E E E E E E E E E E E E E E E E E E R Q E E E E E E E E E E Q Q E E E E E E E E E E E E E E E E E E E E E E E E E E E E E E E E W E E E E E E E E E W E E E E E E ~ E E E E E E E W E E E E E E E E E E E E E E E E E E E E E E E E E E E E E E E E E E E E E E E E E E E E E E W E E E E E E ~ E E E E E E E R R R R E E E E E E E E E E E E E M E E T T E M E E Q E E E E E E E E R R E E E E E E E b T E E M M M M M M b b M M b b T v v T T T v v b b b b b b v v v v v n b b v v v v n b v v v v v v m m v b b b v b b b v v v v v v b v n m v v v v T T v v v c v v v v v v v c k c v v v v v c v k k k k k k k k k k ",
"u u u u u u u u u u u u u u u i i i i k k i u u u i i u u u u u u i k u u u u u u i i u u i i u u u u u u u i k k k k i k k k k k k k k k k k k k k k k k k k k k k k k k k k k k k k k k k k k k k k k k k k c k k k k k k k k k k k k c k k k k k c c c k k k k v v c c k k k k c c k k c c c v v c c c c c v v v c c v v v v v v v v v v v v v v v v b b v v v v v v v v b b v v v v v b b v v v v b M b v v v v v v v v v v b b b b v v v v b b v v b T v v b b v b T T T b v v v b M b v v b T T v v b b b v v v b b M M M M M M M M M E E E M E E b b E E E E E E E E E E b T E E E E E T E E E T E E M M E E E E E E E E E E E M M M M W W E E E E E E E E E E E E E E E E E E M M E E E M M E M M E E E E E E E E E M M M M M E E E M M E R T E E E E E E E E E E E E E E E E E E E E M E E Q Q E E E E Q E E E E E E E E E E E M E E E E E E E E E E E E E E E E E E E E E E E E E E E E Q E E W E E E E E E E E E E T E E E E E E E E E E E E E E b E E E E E E E E E E E E E E E E E E E E E E E E E E E E E E E E E E E E E E E E E E E E E E E E E E E Q Q Q E E E E E E E E E E Q Q E E E E E E E E E E E Q Q E E E E E E W E Q E E Q E E E E E E E W E E E W E E E E W W E E E E E E ~ E W E E E E E E E E E E E E E E E E E E E E E E E E E E E E E E W E E E E E E E E E E E E E E E E E E E E E W E E E E W E T E E E E E E E R R R R E E E E E E E E E E E E E M E T T T E M E Q R E E E b E E M E R T E E T E E E E b T T T E M M M M M E E M b b b E T T T T T b b b v v v b b v b b n n n n b b v b b v v v v v v v n m n v v v b b b b b v v v v v b n b v n v v v v v v v v v v v v v v v v c k k c c v v v v k c k k k k k k k k k k ",
"u u u u u u u u u u u u i u u u u u u u u u u u u u u u u u u u i i u u u u u u u u u u u u k k i u u i k i u i k k k k k k k k k k k k k k k k k k k k k k k k k k k k k k k k k k k k k k k k k k k k k k k k k k k k k k k k k k k k k k k k k k k k k k k k k c k k k k k k k k k v v c c k v v v c k c v v v v v v v v v v v v v v b b b v v v v v v v v v v v v v v v v v v v v v b b b v v v v b M b b v v v v v v v v v v v v v v v v v v v v v v v v v b b v T T v b b b v v v v v v v v T v v v b M b v v v T T T E M M M E E M E E M E E E M b v b E E E E T T T E M M M M M M E E E E E E T T E E M E E E E E E E E E E E E E E E E E E E E E E E E E E E E E E E E E M M M M E E E E E E E M M M E E E E E M b M M E E E E E E M M M M M M M E E E E E E E E E E E E E E M M E E E E E E E E E E Q Q E E E W E E E M E E E E E E E E E E E E E E E E E E E E E E E Q Q E E E E E E E E E E E E E E E E E E E Q Q E E E E E T T E E E E E E E E E E E E E E E E E E E E E E E E E E E E E E E E E E E E E E E E E E E E E E E E E E E E E E E E E E E E E E E E E E E E E E E E E E E E E E E E E E E E E E E E E E E E E E E ~ Q E Q ! E E E E E E E E E E E W W W W W E E E E E E E E ~ E E E E E W M M E E E E E E E E E E E E E E E E E W ~ E E M M M W M E E E E E E E E E E E E E E E E E E E E E E W M E E E E E E M E E E E E E E E E E E E E E E E E E E E E E T T E E E E E E E E E E E M M M M M M E E E E M W E E R R R E M N N M M M b b b M b b b b b M M M M b v v v n b v b b v v v b b b v v v v v v v v v v n m m n n m m n n n v v b n v v n m m n c v v v v c v v v c v v v v v v c k k k c k c v v c k k k k c k k k k k k k ",
"u u u u u u u u u u u u i u u u u u u u u u u u u i l i u u u u u u u u u u u u u u u u u u k k i u u i k k i i k k k k k k i k k k k k k k k k k k k k k k k k k k k k k k k k k k k k k k k k k k k k k k k k k k k k k k k k k k k k k k k k k k k k k k k k k c k k k k k k k k k c v v v v v c c c k k v v v v v v v v v v v v v v v b v v v v v v v v v v v v v v v v v v v v v b v v v v v v v b M M b b b v v v v v v v v v v v v v v v v v v v v v v v b v v v v b v v b b v v v v v v v T v v v b M b v v v T T T E M b b b b E E E M E T T M M b b E E T T T T T T M M M M M M E E E E E E E E E E E E E E E E E E E E E E E E E E E E E E E E E E E E E E E E E E E E M M M M E E E E E E M M E E E E E M M M M M M E E E E E E M M M M M M E E E E E E E E E E E E E E E M E E E E E E E E E E E E E E E E E E E E E E E E E E E E E E E E E E E E E E E E E E E E E E E E E E E E E E E E E E E E E E E E E E T T E T E E T T T T E E E E E E E E E E E E E E E E E E E E E E E E E E E E E E E E E E E E E E E E E E E E E E E E E E E E E E E E E E E E E E E E E E E E E E E E E E E E E E E E E E E E E E E E E E E E E E E E Q W E E E E E E E E E E W W W W W W E E E E E E E E ~ E E E E E E E M E E E E E E E E E E E E E E E E E W E E E W M M M E E E E E E E E E E E E E E E E E E E E E E E M M E E E E E E E E E E E E E E E E E E E E E E E E E E E E E T T E E E E E E E E E E E M E E M E E E T T E E M M E E R R ] B B N M M b b M b b v b M M b b b v b v v v v n b v v b v v v v v v v v v v v v v v v v v n m m m m m n m m n n m m n v n m n n m v v v v v v v v v v v v v v v v c c k c k k v v k k k k k k k k k k k k k ",
"u u u u u u u u u u u u u u u u u u u u u u u u u i l u u u u u u u u u u u u u u u u u u i k k i u u i k k k k k k k k k k k k k k k k k k k k k k k k k k k k k k k k k k k k k k k k k k k k k k k k k k k k k k k k k k k k k k k k k k k k k k k k k c c k k c k k k k k k k k k k c v v v v c c c k k v v v v v v v v v v v v v v v v v v v v v v v v v v v v v v v v v v v v v b v v v b v v v b b b v b b v v v v v v v v v v v v v v v b v v v v v v b b b b v v b v b M b v v v v v v v T v v v b M b v b b v T T T b v v v b E E b b b b b b E T T T T T b T T T T M M M M M M M E E E E E E E E E E E E M M M M M M E E E E M M E E E E E E E E E E E M M E E E E E E M M M M E E E T E M M M E E E E M M M M M M M E E E E E E M M M M M M E E E E E E E E E E E E E E E E E E E E E E E E E E E E E E E E E E E E E E E E E E E E E E E E E E E E E E E E E E E E E E E E E E E E E E E E E E E E E E E E E E E E E E E E T T T T T E E E E E ~ E E E E E E E E E E E E E E E E E E E E E E E E E E E E E E E E E E E E E E E E E E E E E E E E E E E E E E M E E E E E E E E E E E E E E E E E E M E E E E E W E E E E E E E E E W W E E E E E E E E E E W E W W W W E E E E E E E E ~ W E E E E E E E W E E E E E E E E E E E E E E E E M E E E M M M M E E E E E E E E E E E E E E E E E E E E E E M E E E E E E E R R Q E E E E E E E E E n M M E E E E E E E E E T T E M E E E E E E E b E E E E M E E E E T E E E M M M E ] ] ] B N M M b b M b v v b b b b b v v b v v v v b b b b b v v v v v v v v v v v v v v v v v v m m n n m m m m m m m m m n v m n n m v v v v c v v v v v v v c c c v v v c k k k c k k k k k k k k k k k k k k ",
"u u u u u u u u i u u u u u u u u u u u i u u u u u u u u u u u i i u u u u u u u u u u i k k k i u i k k k k k k i i k k k k k k k k k k k k k k k k k k k k k k k k k k k k k k k k k k k k k k k k k k k k k k k k k k k k k k k k k k k k k k k k k c k k k k c c k k k k k k k k k k c v v v v v c k c v v v v v v v v v v v v v v v v v v v v v v v b v v v v v v v v v v b b v v v v b b v v v b b b v b b v v v v v v v v v v b b v v v b T v v b v v b b b b b b b b b M b v v v v v v v T v v v b b b b T b v T T T b v b b b E b b v v b b b E T T T T v b M b v b b b b b b b b b E E E E E M E E E E M M M M M M M E E M E M M M M E E E E E E E E M M M E E E E E E M M M M E E M M M M b T T T E M M M M M M M M E E b E E E M M M M M M E E E M E E E E E E E E E E E E E E E E E E E E E E E E W E E E E E E E E E E Q E E E E E E E E E E E E E E E E E E E E E E E E E E E E E E E E E E E E E E E E E E T E E E E E T T T T T T M E E E ~ E E E E E E E E E E E E E E E E E E E E E E E E E E E E E E E E E E E E E E E E E E E E E E E E E E E E E E M M E E E E E E E E E E E E E E E E M M E E E E E W E E E E E E W W W W W W E E E E E E E E E E E W W W W E E E E E E E E ~ W W W E E E E E E M E E E E E E E E E E E E E E E M E E E M M M M E E E E E E E E E E E E E E E E E E E E E M M E E E E E E Q R Q R E E E E E E E M M B ^ W M E E E E E E E E E E E M M E E E E E E b T E E T E E E E E E E E E N N N M ] ] ] m n M M M b b b b b b b b M b T T T b v v v b b b n m v v v n b b v v v v v v v v v v v b m m n v b n m m m m m n n b b b m n v v v v v v v v v c k c v c l k c c c c k k k k k k k k k k k k k k k k k k ",
"u u u u u u u u u u u u u u u u u u u u u i i u u u u u u u u u i i u u u u u i i u i k k k i k i i i k k k i k k k k k k k k k k k k k k k k k k k k k k k k k k k k k k k k k k k k k k k k k k k k k k k k k k k k k k k k k k k k k k k k k k k k k k c k k k k k k c k k k k k k k c c k c c c v v c k v v v v v v v v v v v v v v v v v v v v v v b b v v v v v v v v v v b M b v v v b b v v v v b b v b b v v v v v v v v v v b b v v b b v v v v v v b T b b b b b v b b b v v b v v b v v v v v b b b M M T T T T T T T T b b b b M b v b M M M b b T v v b E b v b M b b b b E E E T T b b b E E E E T E E E E E M M E E E E M M M M M E E E E E E E E E E E E E E E E E M M E M M M E E M M b b b E E E M M M M M M M M M M M M E E E M M M M E E W W W W E E E E E E E E E E M M E E E E E E E E W W E E E W E E E E E E E E E E E E E E E E E E E E E E E E E E E E E E E E E E E M E E E E E E E E E E E E T T E M M M E E E E E E M E E E E E E E E E E E E E E E E E E E Q R E E E E E E E E E E E E E E E E E E E E E E E E E E E E E E E E E E E E E E E E E E E E E E E E E Q E E E W E E E E E E E E E E E E E E E E E W W E E E E E E W W W W E E E E E W W W E E E E E E E E E W ~ E W E E E E E E E E E E E E E E E E E E E E M M E E E M M E M E E E E R R E E E E E E E E E E E E E E E E E E M T T E E E E E E E M M M E E E E E E ^ ~ E E E E T E E T T T E M M M M M M E Q R R T b M E T R E E M M M M b n b B ^ B B M b M N M E E T b b b b M M b T b v b b v v v v v v b n v v n n b v v v v v v v v v c n m m m m n m m m m m m m m m m m m m m m n n c v v v v v v v v c m m l k c c k k k k k k k c k k k k k k k k k k k k ",
"u u u u u u u u u u u u u u u u u u u u u i u u u u u u u u u u u u u u u u u i i i u i i i k i i k i k k i u i k k k k k k k k k k i i k k k k k k k k k k k k k k k k k k k k k k k k k k k k k k k k k k k k k k k k k k k k k k k k k k k k k k k k k k k k k k k k k k k k k c c k k k k k k c v v v c v v v v c v v v v v v v v v v v v v v v v v v v v v v v v v v v v v v b b b v b M b v v v b b b v b b v v v v v v v v v v v v v v v v v v b b v v v T v v v b b v v b b v b T b b M b v v v v b b v b b v b T T v v v b b v v b b v v b b M b b T v v v T M v v b b b b v b E E E T T b M M E E E E E E M M M M M M E E E M E E M M M E E E M E E E E E E E E E E E E E b b M M M M E E M M M M E M M M M M M M M M M M M M M M E E E E M M M M W W W M E E E E E E E E E E E E E M E E E E E E E E E E E E E E E E E E E W E E E E E E E E E E E E E E E E E E E E E E E E E E E E E E E E E T T E E E E E E E E E E E M E E E E E E E E E E E E E E E E E E E E E E E E E E R R E E E E E E E E E E E E E E E E E E E E E E E E E E E E E E E E E E E E E E E E E W E E E E E E E E E ~ W W E E E E E E E E E E E E E W W E E W E E E E E E E W W W W E E E E W W W W E E E E E W E E E E ~ W W E E E E E E E E E E E E E E E E E E E E W E E E E E E M M E E E E R R E E E E E E E E E E M T E E E E E E E R R E E E E E E E M M M E E E E E E E E E E E E E E E E M E b M M M M M M M T T b b M M M b T E E E M M M M N N B B m m n n n m ] n b T b b b M b b b b v v v v v v v b b v v b b v n n v v v v v v v v v v c c n m m m m m m m m m m m m m m m m m m m m m b v v v v v c v c c c n c c c v v c k k k k k c k k k k k k k k k k k k ",
"u u u u u u u u u u u u u u u u u u u u u u u u u u u u u u u u u u u u i i u u u u u u u u i i i k i k k u u i k k k k k k k k k k i i k k k k k k k k k k k k k k k k k k k k k k k k k k k k k k k k k k k k k k k k k k k k k k k k k k k k k k k k k k k k k k k k k k k k k k k k k k k k k c v v v v v c c v k c v v v v v v v v v v v v v v v v v v v v v v v v v v v v v v v b v v b b v v v b b v b b v v v v v v v v v v v b v v v v v v v b b v v v b b b v v v b b b b v b T T M M b v v v v b b v v b v b b v v v b b b v v b b v v v b T b T T v v v b b v v b b E E E b b E M b M M M M M M E E E E E M M M M M W M M M E E E E M E E E M M E E E M M M M E E E E M b b M M M M E M M M M M E M M M M M M M M M M M M M M E M M E E E M M M W W W M E E E E E E E E E E E E E M E E E E E E E E E E E E E E E E E E E W E E E E E E E E E E E E E E E E E E E E E E E E E E E E E E E E E T T E E E E E E T T T T T b E E E E E E E E E E E E E E E E E E E E E E E E E E E E E E E E E E E E E E E E E E E E E E E E E E E E E E E E E E E E E E E E E E E E E E E E E E E E E E E E M M E E E E E E E E E E E E E W E E E E E E E E E E E W W W W Q E E E Q E E M E E E E E E E E E E E E W E E E E E E E E E E E E E E E E E E E M M E E E M E E E E E E E E E E E E E E E T T E E E T E E E E E E E E R R E E M E E E E M M M E E E M M M M E E E E M M E E M M E T E E b M M M b v b E E M b b b T E E E M M M M M M M M N B B ^ B m m m n b b v b M b v v v v v v v v v v b b v n n b n n v b v v v v v v v v v v v b n n m m m m m m m m m m m m m m m m m m b v v v v v c k c c c c c c c c c c k k k k k k k k k k k k k k k k k k k ",
"u u u u u u u u u u u u u u u u u u u u u u u u u u u u u u u u u u u u u u u u u u u u u u u k k u u i i u u i k k k k k k i u i k k k k k k k k k k k k k k k k k k k k k k k k k k k k k k k k k i k k k k k k k k k k k k k k k k k k k k k k k k k k k k k k c k k k k k k k k k k k k k k c v c v v v v c k c k c v v v v v v v v v v v v v v c c v v b b v v v v v v v v v v v v v v v v v v v b b b M b v v v v v v v v v v b T b b b v v v b M M b v b b b b v v b M M b v v v T T M b v v v v v b b v v b b v v b b b b b b v v v b b M b v b T T T v v v v v b v v b b T T b b E b v b M E M M M E E E E E E E M M M W W M M E E E E E E E E M M M E E M M M M M M M M E M M E M M M M M M M M b b E E E M M M M M M M M M M E E M M E E E M M M M M M W W E E E E E E E E E E E E E E E E E E E E E E E E E E E E E E E E E E E E E E E E E E E E E E M E E E E E E E E E E E E E E E E E E E T T T E E M E E T T T T T T T T T E E E E M M M M E E E E E E E E E E E E E E E E E E E E E E E E E E E E E E E E E E E E E E E E E E E E E E E E E E E E E E E E E M E E E E E E E E E E E W W E E E E E E E E E E E E E W E E E E E E E E E E E W W W W E E E E E E E W E E E E E E E E E E E E M W E E E E E E E E E E E E E E E E E E M M E E M M E E E E E E E E E E E R R E E T T E E E E E E E E M E E E R R E b b E E E E M M M E T E M M M M E E M W W M E E T T T E E E E M M M M M b M E M b b E E E E M b M M M M M M M N B B ] ] m m n n n n v n b b b v v v v v v v v v b v n m n b n b R b v v v v v v v v v v v b b v n m m m m m m m m m m m m m m m b v b b v v v v k k c v k k k k k v c k k k k k k k k k k k k k k k k k k k k ",
"u u u u u u u u u u u u u u u u u u u u u u u u u u u u u u u u u u u u u u i i u i u u u i u u u u i i u u u i i i i k i k k i k k k k k k k k k k k k k k k k k k k k k k k k k k k k i k k k k k k k k k k k k k k k k k k k k k k k k k k k k k k k k k k k k k k k k c c k k k k k k k k c c k k v v v v v c c c v v c v v v v v v v c c v v v c k k c b V v v v v v v c c v c c c v v v b b b v v b M M b b v v v v v v v v v v b v v b v v v b b v b b b b v v v v b M b v T T b v v b v v v v v v v v v v b b v v b b b b b v v v b b b b T v v b b b T T T T b T b b v v b b b E b b T E M b b b T E E E M W W M M M M M M M M M M M M E E E M M M M M E M M M M M M T T E E E E M M M M M M E E T T E E E E M E E M M M M M W E M W E E E E W M M M E E E E M M E E M M M E E M E E E E E M E E E E E E E E E E E E E E E E E E E E E E E E E E E E E E E E E E E E E E E E E E E E E T E b b E T b T E E E E T T M T T T T T T E E E E E E E E E M E E E E E E E W E E E E E E E E E E E E E E E E E E E E E E E E E E E E E E E M E E E E E E E E E E E E E E E E E E E E E R E E E E E E E W ~ E E E E E E Q Q E E E E E E E E W E E E W W W E E E E E E E E E E E E E E E E E E E E E E E E M M E M M M E E E M E E E E E E E E E M M b b M M M M M M M M E E E E E E E E T E E T T T T E E M E E E E E Q R R R E b b M E E E E E E E T E E E M M M E M M M M T T T T T T T T T T T E E M b b b b M M M b b b n m m n M M M M ] ] ] ] m ] ] R ] n m m b b m m n v T b v v v v v v v v v b n b v v n n m m n v v v v v v v v b b v m n m m m m m m m n b m m m m m n v T v v v v v c c c c k k k k k k k k k k k k k k k k k k k k k k k k k k k ",
"u u u u u u u u u u u u u u u u u u u u u u u u u u u u u u u u u u u u u u i i u i u u u i u u i i u u i i i k i u i i k k k k k k k k k k k k k k k k k k k k k k k k k k k k k k k i i k k k i i k k k k k k k k k k k k k k i k k k k k k k k k k k k k k k k k k k k k k k k c c c v c k v c k k c c c v v v v c v v c c v v v v v v c c v v v v c c c b v v v v v v v c c v v v v v v v v v v v v b b b v v v v v v v v v v v v v v v v v v v v v v v v v v b b v v b M b v b T b b b v v v v v v v v v v v b v v v v v v v v b v v b b v b T T v v v b T T T T T T b M v v b M b M b v T b M M b b M M E E M M M M M M M E E E E M M M M E E E E M M M M E M M M M M M E T E E T T M M M M M E E E T T E M M M M M E M M M M M W M M E E E E E W M M E E E E E E E E E M M M E E E E E M E E E E E E E E E E E E E E E E E E E E E E E E E E E E E E E E E E E E E E E E E E E E E E E E E E E T E T T T T E E E T T M T T T T T E E E E E E E E E E E E E E E E E E E E E E E E E E E E E E E E E E E E E E E E E E E E E E E E E E M M E E E E E E E E E E E E E E E E E E E E E E E E E E E W W E E E E E E E E E E E E E E E E E W E E E W W W E E E E E E E E E E W W W E E E E E E E E E ~ W E E E M M M E E E E E E E E E E E E E M M b b E E E M M M M M E E E E E E E E E E E E T T E E T M E E E E E E R R R E M M M E E E T T E E E E E E M M M E b M M M T T T T b M E E E T T E E M b v b b M M b M M b n m m M M M M n ] ] ] m m m ] b ] ] m n b b m m n v b v v v v v v v v v b b v v v v m m m m c v v v v v v v v v v v m m m m m m m m m n b m m m m m n v b v v v v v v c c k k k k k k k k c k k k k k k k k k k l k k k k l k k k ",
"u u u u u u u u u u u u u u u u u u u u u u u u u u u u u u u u u u u u u u u u u u u u u u u u i i u u k k k k k i i u i k i k k k k k k k k k k k k k k k k k k k k k k k k k k k k k k k k k u u k k i k k k k k k k k k k k k k k k k k k k k k k k k k k k k k k k k k k k k k k k c k k c c k k k k k v v v v c v v c c c c v v v v c c v v v v v v v v v v v v v v v v v v v v v v v v v v v v v v v v v v v v v v v v v v v v v v v v v v v v v b b b b b b b b b b M b v v v v b b v v v v v v v v v v v v v v v v v v v v b b b M b v T T T v v v v v v v b T b b b v v v b M b b b b b M M b M M M E E M b b M M M M E E E E M M M M M E E E E M M M E M M M M M M E E T b v v b b b b T E E E T b b M M M M M M M M M M M M M M E E E E E M M M E E E E E E E E E M M E E E E E E M E E E M M E E E E E E E E E E E E E E E E E E E E E E E E E E E E E E E E E E E E E E E M M E E E E E E E T T T T E E E E E E T T T v T E E T E E E E E E E E E E E E E E E E E E E E E E E E E E E M E E E E E E E E E E E E E E E E E E E E M E E E E E E E E E E E E E E E E E E E E E E E E E E E E E E E E E E E E W E E E E E E E E E E E E E W W E E E E E E E E E E E M M M E E E E E E E E E E E E E M M M M E E E E E E M E E E E E E M M M M E E E E E M M M E E E M E E E E E E E E E T E E T T E E E M M E E E E E E E E E E b b T E E E E E E M M M E T T E E E T b b b M M E E M M M M M M b v b b M b b M M E M M M M m m m ] ] m m m m m n n m n v b b n n v v v v v v v v v v v v v b b v v v b m m n c v v v v c v v v v v n m m m m m m m m m m m m m m m m n v v v v v v v v c k k k k k k k c c k k k k k k k k k k k k k k k k k k k k ",
"u u u u u u u u u u u u u u u u u u u u u u u u u u u u u u u u u u u u u u u u u u u u u u u u u u u u k k i k k k i i i i k k k k i k k k k k k k k k k k k k i i k k k k k k k k k k k k k k k i k k u i k k k i i k k k k k k k k k k k k k k k k k k k k k k k k k k k k k k k k k k c c c k k k k k k v v v v c v v c c k k c k c v c c v v v v v v v v v v v v c c v v v v v v v v v v v v v v v v v v v v v v v v v v v v v v v v v v v v v v v b b b b b M M M M b M b v b b v v v v T v v v v v b b v v v v v v v b b b b b M M M M b T T T v v v v v v v v T T b b v v v b M b b T b b M b b M M M T b b b M M M M M E E E E W M M M M M E E E M M M E M M M M E E M M T T T T v v v v T E E M E T b M E M M M E M M M M M M M E b M E E M M M M E E E M M E E E E E E E E T E E E E E E E M M M E E E E E E E E E E E E E E E E E E E E E E E E E E E M E E E E E M M E E E M M M M T E E E E T T T T T T E E E E T T T b E E E T T E E E E E E E E T E E E E E E E E E E E E E E E E M M M E E E E E E E E E E E E E E E E E E E E E E E E E E E E E E E M M E E E E E E E E E E M M E E E E E E E E E E W W E E E E E E E E E E E E E E E E E E E E E E E E E E E E E E E E E E E E E E E E E E M M M M M E E E E M M E E E E E E M M M E E E E E E E M M b b E E E E E E E E E E E E T E E T E M M M M E E E T T E E T T R T E E E T T E E E M M M E T T T T T T M b b M b b M M M b b M M b v b T T b v b M M M M M M m m ] ~ n m m n n m m m n b b b b b b b v v v v v v v v v v v v b v v v v v v m n v v v v v k c v v v v b n m m m m m m m m m m m m m m n n b v v v v v v c k k k k k c c k k k k k k k k k k k k k k k l k k k l k k k ",
"u u u u u u u u u u u u u u u u u u u u u u u u u u u u u u u u u u u u u u u u u u u u u u u u u u u u i i u i k i u i u i k k k k i i k k k k k k k k k k k i i i k k k k k i i k k i k k k k k k k k i i k i i u i k k k k k k k k i i k k k k k i k k k k k k k k k k k k c k k c c k k c k k k k k k k v v v v c c c k c c c c c c v v c v v v v v v v v v v v c c c v v c v v v v v v v v v v v v v v v c v v v v v v v v v v v v v v v v v v v v v v b b b b b b b b M M b b v v b v v b v v v v v b b v b b b v b b b b T T b E E b b T T T b v v b b v b v v v b T T T T v b b b b b b b b b b M M M M b b b M M E E E M M M M M M M M M M M M E M M M M M M M M E M M M b b b T v v v v b E M b b b b M M M M M E E M M M M M M E b E E E E E E E E E E E E E E M E E E E M M M M E E E E E E E E E E E E E E E E E E E E E E E E E E E E E E E E E E E E E E E E E M M T E E E M M M b E E T T T T T T T T E T T T T T T T E T T T T T E E E E E E E T E E E E E E E E E E E E E E T E M M M E E T E E E E E M M E E E E E E E E M M E E E E E E E E E E E E M M M M M E E E E E E E E E E E E E E E E E E W W W E Q E E E E E E E E E E E E E E E E E E E E E E E E E E E E E E E E E E E E E E E M M M M E E E E E E E M E E E M M M M E T E E E E E M M E T T E E E E E E E E E T T T T b b b b b E M M M E E T T T T T T T E E b b b b E E T M M n n T T T T T E M b M M b b b M M M b b b b b b E E T b T T b n n n n m m n E b b n B n n n n n b n n n n b b v v v v v v v v v v c c v c v v v v v v b v v v v v c c v c c n n n n b n m n m m m m m m m m m n v b b v c c c v c k k k k k k c k k k k k k l k k k k k k k l l k k k k k k k ",
"u u u u u u u u u u u u u u u u u u u u u u u u u u u u u u u u u u u u u u u u u u u u u u u u u u u u u u u i k k i u u i k k k k k i k k k k k k k k k k k k k k k k k k k i k k i i i i k k k k k k k k k u u u i k k k k k k k k k k k k k k k k k k k k k k k k k k k k k k c k k k k k k k k c c c c v v v v c k k k c v v v c c v v v v v v v v v v v v v v v c v v v v v v v v v v v v v v v v v v v v v v v v v v v v v v v v v v v v v v v v v v b b v v v v b M M M b v v v v v v v v v v v v v v v v b v v v b b M M b b b b v b b v T T b v v b v v v v v v T T T T v v v b v v v b b M T b M M M M M M b M M E E M M M M M M M M M M M M E E M M M M M M M M M M M v v v v v v v v v b M b v v b M M M M M M b M M M M M M M M E E E E E E E E E E E E E E M M M M M M M M M M M M E E E E E E E E E E E E E E E E E E E E E E E E E E E E E E E E E E E E M M M E E E E E E M M b T T T v T T T T T M E E T T T T T T T E T T R T E E E E E E E E E E E E E E E E E E E E E E R E E E E E E T E E E E E M M E E E E E E E E E M E E E E E E M M E E E E M M M M M M E E E E E E E E E E E E E E E E E E E E E E E E E W W E E E E E E E E E W W E E E E E E E E E E E E E E E E E E E E E E M M M M M M M E E E E b M M E E M M M M E E E E E E M M M E E E E E E M M E M E E T T T T b b b v T E E E E E M E T T b M b b E M b b b M M E E M M b b v T T T M M M M M M M b M M M M b v b M M M b b T b E E b b b b b m m M M T b b n n M M b b b m m m m v v v v v v v v n m m c k c v n b v v v v v v v v v v v v v v v v v n m n n m m m m m m m m m m m m n v v v v c k c v c k k k k k k k k k k k k k k k k k k k k k k k k k k k k k k ",
"u u u u u u u u u u u u u u u u u u u u u u u u u u u u u u u u u u u u u u u u u u u u u u u u u u u u u u i u u k k k i i i k k k k k k k k k k k k k k k k k k k k k k k k k k k u i i u k i i k k k i k k u u u i k k k k k k k k k k k k k k k k k k k k k k k k k k k k k k v c k k c c k k k c c c c v v v v v v v v v v v v c k c v v v v v v v v v v v v v v v v v v c v v v v v v v v v v v v v v v v v v v v v v v v v v v v v v v v v v v v b b v v v v v b b M M M b v v v v v v v v v v v v v v v v v b b v v b b M M b b b b b b b b T b b v b b v v v v v v b b v v v b v v b b b b b T b b b b M M M b M M M M M M M M M M M M M M M M E E M M M M M M M M M M M b v b b b v v v b b b b b v b M M M M M b v b M M M M M M M M E E M M M M M E E M M M M M b M M M E M M M M E E E E E E E E M M E E E E E E E E E E E E E E E E E E E E E E M E E E E E M M M E E E E E E E T T T v v v v v v v b E E E T T T T T v T T E T E T E E E E M M M E E E E E E E E E E E E E E E R E E E E E E T E E E E E M M E E E E E E E E E M M M E E E E M M E E E E E M M M M M E E E E E E E E E E E E E E E E E E E E E E E E E E E E E E E E E E E E E E E E E E E E E E E E E E E E E E E E E E E E M M M M M M M E E E E T E M M M M E M M E ] E E E E M E E M E E E E E M M M M M E T T T T E T T T E E E E E E M M E E b b b b E M T E T b M E E M M M M b T T T b M M M b M M M M M b b v b b M b b b v b M M M M M M M M n m b M n m m m n M M M M m m m n b b v v v v v v v v n n c c v v n n v v v v v v v v v v v v v v v v v v n m m m m m m m m m m n m m v c v v v c k c v v c k k k k k k k k k k k k k k k k k k k k k i k k k k k k k k ",
"u u u u u u u u u u u u u u u u u u u u u u u u u u u u u u u u u u u u u u u u u u u u u u i i i i u u u u i u i k i k k k i k k i i i k k k k k k k k k k k k k k k k k k k i i k i i k k i i u i i i u i k u u u i k k k k k k k k k k k k k k k k k k k k k k k k k k k k k k k k k k k c k k k k k k k v v v v v v v v v v v v c c c v v v v v v v v v v v v v v v v c c k v v v v v v v v v v v v v c v v v v v v v v v v v v v v v v v v v v v v b b v b v v v v b b M M M b v v v v v v v v v v v b b v v b b M b v b b b b M M M M b b b v v b v b b v v v v v v v v v v v v b v v b b M b v b b v v b M M b b M M M M M M M M M M M M M M M M E E E M M M M E E M M M M b v b M b v v v b b v b b v b M M M M M b b M M M E M M M M M M M M M M M M M M M M M E E b M M M M b M M M E E E E E E E E M M E Q Q E E E E E E E E E E E E E E E E E E E M E E T E E M M M M E E E E T T T T b b T T v v b b T E E M M T T T T b b b T E E E M M M M M M M M E E E E E E E E E E E E E E E E E E R E E M b E E E E M E E E E E E E E E M M M M M M E E M M E E E E E E E E E E M E E E E E M E E E E E E E M E E E E E E E W M E E Q Q E E E E E E E E E E E E E E E E E E E E E E E E E E E E E E E E M M E E M M M E E E E E E M M M E E M M M ] E E E T M E E M E E E E E M E E M M M M b v b T T T E M M M M M M M M M E b M b v T E E T T T M M M M M M M b T T T b M M M b M M b b b v v v b M b v v v v b M b b M b M M M M M m m m m m m m n m m n m m n b M b v v v v v v v v v v v v c v n n v v v v v v v v v v v v v v v c c v v m m m m m m n m m m n m m v v c k c c k c v v c k k k k k k k k k k k k k k k k k k k k l l k k k k l k k k ",
"u u u u u u u u u u u u u u u u u u u u u u u u u u u u u u u u u u u u u u u u u u u u u u u u u u u u u u u i i i u i i i i k k i i i k k i k k k k k k k k k k k k k k k i u u i i u i i i i u u u u u u k i u u k i k k k k k k k k k k k k k k k k k k k k k k k k k k k k k k c c k k k c k k k k k k v v v v v v v c c v v c c c v c v c c c c c c c v c c c c v v c c c v v v v v v v v v v v b c v v v v v v v v v v v v v v v v c c v v v v v v v v b v v v v b b b b b T v v v b b v v v v v v b b b v b M b b b b b b v b b b b b b v v b b v b b b v b b b b b b b v v v b b b b b b v v b b b b b b M M b M M M E M M M M M M M M M M M E E E E M M M E E E b b M b b b M M b b v T T b v b b v b E M b M b b E M M M M M M M M M M E E M M M M M M M M E E E T M M M M T b b b E E E E E E E E M E E Q E E E E E E E E E E E E E E E E E E E E E E E T E E E E E T E E E E T T T T T T T T T T T b M E M M M M b b b b b b b T T T T M M b E M M E E E E E M E T T E E E E E E E E E E R E E E T E E E E T E E E E E E E E E E E E E E E E E M M E E E E E E E E E M M M M E E E E E E E W E E M M E E E E E E E W E E E Q Q E E E E Q E E E E E E E E E E E E E M M M E E E E T T E E E E E E M M E E E E E E T T E E M M W E E M M M M M E T T M T b M E T b E E M E M M M b b T b v T T T T T T b b b b b E E T b M b b T T T T T T E M M M M M M b b T T b b b b b b b b b T b b b b b b b b v b b b v v b b b M M n n m m n n m m m m n n m n n v b b v v v v v v v v b n v v v c v v b v v v v v v v n v v v v c c v c k c c n m m m m n n n n m n n n n v c c c c k k c c k k k k k k k k k k k k k k k k k k k k k k l l k k k k k k k ",
"u u u u u u u u u u u u u u u u u u u u u u u u u u u u u u u u u u u u u u u u u u u u u u u u u u u u u u i k i u u i i u u i i i k k k k i k k k k k k k k k k k k k k k i u u u u i u u i k u i i u u u i k u i k u i k k k k k k k k k k k k k k k k k k k k k k k k k k k k k k k k k k k k k k k k k v v v v v v v k c v v c c k c c c k k k k k k k v c c k k c v v v v v v v v v v v v v v v b b v v v v v v v v v v v v v v v v c v v v v v v v v v v v v v v b b v v v b v v v b b v v v v v v v v v v T b v v v v v v v v v b b b v v v b b b v v b v b b M b b M b v v v M M b M b b v v b M M M b b M M b M M M E M M M M M M M W W M M E E M M M M M M M M b b M b v b M M M b v T b v v v v v v b b b M b M M M M M M M M M M M M E E E M M M M M M E E M E M M M M E T T v b M M M M E E E M E E E E E M M M E E E E E E E E E E E E E E E E E E E E E E E E E T M M E E T T T T T T T T T T T v b M M M M b v v v v T T b b b M M M b b E M E E Q E E E E E T T E E E E E E E E E E E E E E E E E E Q E E M E E E E E E E E E E E E E M M M M E E E E E M M M M M M M E E E E E W W M M M M M M E E E E E E E E W M E E E E E E E Q E E E E E E E E E E M M M M M T T b M E T E E E E E E E M M E E E E E M E E E E M M W M M M M M M M M M M M b b E E T b M M M M E T b b T T b v b T T T T T b b T E T T T b M b v b b b M M b T E M M M M b M b M b b b v v v T v v b b T b b v v v v b b v T T v v v b b b b M n m m m n n m m m m n n n b b v v v v v v c v v v b n n n v n v v v v v v v v v v v c v v v v c k v v v v c c n m m m n b n b m m n c v v v v k k k k l k k k k k k k k k k k k k k k k k k k k k k k l z l k k k k i k ",
"u u u u u u u u u u u u u u u u u u u u u u u u u u u u u u u u u u u u u u u u u u u u u u u u u u u u u u i k k k i u u i i i i k k k k k k k k k k k k k k k k k k i k k i u u i i k k i i i i k k i u u u i u i k i i k k k k k k k k k k k k k k k k k k k k k k k k k k k k k k k k k k k k k k k k k v v v v v c c k c v k c c k c k c c k k k k k c v v v v c k k k k c v v v v v v v v v v v b v v v v v v v v v v v v v v v v v v v v v v v v v v v v v v v v v v v v v v v v v v v v v v v v v v v v v b b v b b b v v v v v v v b b v v v b v v b T T T T M b v b v v v v b M M M M b b v b M M M M b M M M M M M E E M M M M M M W M M M E E M M M M M M M b b b M b b v b b b v b T b v v v v v v v v b b b M M M M M M M M M M M E E E E M M M b b T E M M M M M E E E T b b M M M E E E E E M M M E E T E E E E E E E E E E E E E E E E E E E E E E E E E E E E E M E E T T T T T v v v v b T b v b M b b b b v v v v T T b b M M M M M E E b T E E T E E E E E E M M E E E E E E E E b b M E E E E E E E E M E E E E E M M M M M M E E E E M M E E E E E M M M M M M M M E E E M W W M M M M M M E E E E E E E W W M E E E E E E E E E E E M E E E E E E E E E E E T T T M E E E E E E E E E M M M E E E E M M M M M M M M M M M M M M M M M M M M M T E E M M E E M E T b b T T v b M b T T T b b T T T T v v b b b b b v b E E b b M M M M M b M b M b b b v v v T v v b b b b b v v v v v v v b T v v v v v v v b n m m m m m m m B n n n n v v v v v v v c k v v v b m m m n b v v v v v v v v v v v c v v v v v v v c c c c c n m z m b n n v b b n c v v v c k k k k k k k k k k k k k k k k k k k k k k k k k k k k k k k k k k k k k ",
"u u u u u u u u u u u u u u u u u u u u u u u u u u u u u u u u u u u u u u u u u u u u u u u u u u u u u u u i k k k u u i i k k k k k k k k k k i i k k k k k k k k i i k u u i k k k i k i u u i i u u u u u u i k i i k k k k k k k k k k k k k k k k k k k k k k k k k k k k k k k k k k k k k k k k k v v v v c k k k c v v v c k c k v v c k k c v v v c c v v v v c v v v v v v v v v v v v v v v v v v v v v v v v v v v v v v v v v v v v v v v v v v v v v v b v v v v v c v v v v v v v v v v v v v v v v b M M M b v v b b b b b b v v v v v v v b b b b b v v v T v v v v b M M b b b b b M M M M M M M M M M M M E M M M M M M W W M M E E M M M M M b b b b b M b b b v v v b b b b v v v v v v v v b b v b M M M M M M M M M M E E E M M M M b v T E b b M M M E E E T T M b M E E E E E E M M M E E E E E E E E E E E E E E E E E E E E E E E E E E E E E E E E T T T T T T T T v v v v v v v b b b b T T v T T v v T T v b b M M M E E E T T M M T T T E E E E M M E E T T T T E E b M E E E E E E E E E E E E E E E M M M M M M M M E E E E M M E E E E M M M M M M M M M M M M E M E M M M M E E E E E E E M M M E E E E E E E E E E E E E E E E E E E E E E E E E E M E E E E E E E E b M M M E E E E M M M M M M M b M M M M M M M M M M M M M b T M M M E E M M E T b T T b M M b v b v b T T T T b v v v b M E b v b b b b b M M M M M b M b M b b b b v v T v v b b v b b b v v v b b v v v v v v b n v v b n n m m m m n b M b v b b v v v v v v v c c v v v c v v v b v v v v v v v v v v v v v v c k c c v c c c k k n m z z l m n v v v v n c v v c k k k k k k k k k k k k k k k k k k k k k k k k k k l k k k k k k k i i k i ",
"u u u u u u u u u u u u u u u u u u u u u u u u u u u u u u u u u u u u u u u u u u u u u u u u u u u u i i i i k k k i u i i u u i i i k i k k i u u k k k i k k i i u i i u i k k k i i i k u u u u u u u u u u i k k k k k k k k k u i k i i k k k k k k k k k k k k k k k k k k k k k k k k k k k k k k v c k c c c k k c c c c k k k k c v c c k k v c c c c v v c c v v v v v c v v v v c v v v v v v v c b v v v v v v c v v v v v c v v v v v v b b v v v v v v v v v v v v c v v v v v v v v v v b v v v v v b M M M b v v b b b M b v v b b v v v v v v v b b v v b T b b b b b M M b b M M M M M M M M M M M M M E M E M M M M M M W W M M E M M M M M M b b b b b b b b b v b b b b v v v v v v v v v b b b b b b b M M M M M M E M E E E E T T b b T T T b b M M M E E E E E b b M E E E E E E E M M M T T E E E E E E E E E E E E E E E E E E E E E E E E T T E E E T T b T b b b T v v v v v v v b b b b T T b T T b v b T b b T T T b T T T E b M M E T T E E M E E M E T T T T T T T T E E E E E M E E E T T E E M M M M M b M M M M E E E W W M M M E E E E E E M M M M W E E W M M E W M M M M E E E E E E E M W M E E E E E E E E E E E E E E E T T E E E E E E E b T T E E E T T E E E M M E E E E E E E E E E E M b b b M M M M M M M M M M M M b b M M M M b b M T T T T T b b b v v b b b T T T T b b v v v b b b b b b b b b b b b b b M M b M b b b b v b T b b b b v b b b v v v b b v b v v v v b b v v v b n n n m n b b b b v v b v v v v v v v c m n c b c v v v n b v c v b b v v c v v v c c c c c c c k c v c c n m z l l m n v b b v c i c v c c k k c l k k k k k k k k k k k k k k k k k l k k k l l k k k k i i l k i i ",
"u u u u u u u u u u u u u u u u u u u u u u u u u u u u u u u u u u u u u u u u u u u u u u u u u u u u i k k k k k i u u i i i i k i i k k k k u u i k k k k k k k i u u u i k k k k k i i k u i k k i u u u u u u i k k k k k k k k k i i u i k k k k k k k k k k k k k k k k k k k k k k k k k k k k k k c k k k c v c k k k k k k k k k c v v v c k c c k v v v v k c v c c v v c c v v v v v v v v v v c k b v v v v v c v v v v v v v v v v v v v v v v v v v v v v v v v v v v v v v v v v v v v v v v v v v v b M M M M b v v v b b b v v v v v v v v v v v b b v v T b v b b M M M M b b M M b b M M M M M M M M M E E M M M M M M M M M M M M M M E T T M M M M M b b b b v v b b v v v v v v v v v v v b b v b v v b M M M M M M E M E E E E T T T T E M M b v b M M M E E E E E M E E E E E E E E E M M E E M M E E E E E E E E E E E E E E E E E E E E E M b b b b T T T T T T T T T v v T T b v v v b b v b T v v b b v v T T v b E E b v v v b M M M E E E E E b T T b T T b b E E E E T E E M E E E M M E E E E E M M M M b b E E E E E E E M n M M M M E E E E E M M M M E E M E E M E E M M M M M W W W M M E E E E M M E E E E M M E E E E E E E T T E E E E M M M M b b T E M M b E E E E M E E E M M E E E E E T M M b v b E M M M M M M M b M M b M M M M M b b M T T v v b T b v v v v T T T T T T b b b v v v v b b b b T T T b b b b b M M M b v v v v b T T E b v v v v v v v v v b b v v v v v v v v v v v v v v v n b b v v v v v v v v v v v v v c n m m m b v v v b v v v v b b v v c v v c c v v v v v c k c c v v v n c k z n v v v v v c k k c v c c k k k k k k k k k k k k k k k k k k k k k k k l k k k l i k l i i k z i ",
"u u u u u u u u u u u u u u u u u u u u u u u u u u u u u u u u u u u u u u u u u u u u u u u u u u u u u u u i k k i u u u i k k k k k k k k k k i k i k i i u i k k i u u u i i i i i i k k i k i i i k i u u u i k k k i i i i k k k i u i k k k k i i k k k k k k k k k k k k k k k k k k k k k k k k k c k k c k c k k k k k k k k k k c v v v c k k k k v v v v k c v c c k c k k c v v v v v v v v v v c v v v c v v v v v v v v v v v v v v v v v v v v v v v v b T b v v v v v v v v v v v v v v v v v v v v v b M M M b v v v v v b v v v v v v v v v v v v v v v b b v v v M M M b M M M b v v b b b M M M M M M M E M M M M M M M M M M M M M M M E E M M b b b b v v b v v b b v v v v v v v v v v v b M b v v b b M M M M M M M M M M E E E M T T E E T b b M M M M E E E E E M M E E E E M E E E M E E E M M E E E E E E E E E E E E E E E E E E E E E E E E b v b T T T E T T T T v v v b v v v v b v v T T T T v b v v v v v b M E b v b T E E E E E E E E E E T T T T T b b T E E T E E E E E E E E M M E E E E M M M M b b E E E E E E M M M M M M M E E E E E M M M M M M M M E M E E E E M M M M W W W E E E E W M M E E E E M M M M E E E E E T E E M E E M M M E b v b M M b b b E E E M b M E b b M M b b b v b M M M T E E b b M M M M b M M b M M M M E E b b b b v v b T b v v v v T T b b b b v v v v v v b b b b T T T v b E E E M M M b b v b b v b T b b v v v v v v v v v v v v v v v v v v v v v v v v b b v b v v v v v v v v v v v c c v v v c n n v v b v v n m n n n v v n c n n v c c c c c c c k k k k c v v v c c n c v v v c c k k k k k k k k k k k k k k k k k k k k k k k k k k k k k k k k k k k k k k l i i l k ",
"u u u u u u u u u u u u u u u u u u u u u u u u u u u u u u u u u u u u u u u u u u u u u u u u u u u u u u u u u k i u u i k k i i i i k k k k k k i u u u u u u u i u u u u i i i i i i u i k u u u u k k i u k k k k u i i u i k k k k k k i i k k k i k k k k k k k k k k k k k k k k k k k k k k k k k c k k c k k k k k k k k k k k k v v v v v k k k c v v v v c k k c k k k k k k c v v v c v v v v v v c v v c v v v v v v v v v v v v v v v v v v v v v v v v b b v v v v v v v v v v v v v v v v v v v v v v v b M M b v v v v v b b v v v v v b b v v v v v v v b b v v v b b b v b M M b b v v b b M M M M M M M M T E M M M M M M M M M M M M M M b b b v v v v v v v b b v v v v v v v v v v v v v b M b v v v v b M M M M M M M M M M M M M b b T T T v M M b M M M E E E E E M M M M M M M E M M E E E E M M M E E E E E E E E E E E E E E E E E E E T T b b b b T T T T T T T T v v v v T T T T b v v T T T T T b T T v v v v b b T T E E E E E E T T T E E E T T T T T b b T E T T E T T T E T E E E M M E E E M M M b b T E E E E E E M M M M M M M M E E E E M M M M M M M M E M E E M M M E M M M W E E E M M M M b E E E E M M M E E E E E E E E M M E E M M T T M b b b b v b M b b b b v b b b v b b b v v b b M M M T T T b v b b M M b M M b M M M M E E E T v T T v b T T v v v v T T v v v v v v v v v v b b b v v T T T b b M T b b b b b v b v v v T b v b b v v v v v v v v b b v v v v v v v v v v v v n n n v v v v v v v v v v v c k v v v v c v v v n m m v n m m m n c c l k c v v c c c k k k k k c c k c v c k c v v v v v c k k k k c k k k k k k k k k k k k k k k k k k k k k k k k k k k k k k k k k k k k k i k k ",
"u u u u u u u u u u u u u u u u u u u u u u u u u u u u u u u u u u u u u u u u u u u u u u u u u u u u u u u u u i i u u u i i u u u u k k k k k i u u u u u u u u u u u u u i k k k i i i i i u i i i i k i u i k i i i i k u i k k k i k i k k k k k k k k k k k k k k k k k k k k k k k k k k k k k k k k k k c k k k k k k k k k k k k c c c v v c k k c c c c c v c k k c c k k k k k c v v c v v v v v v v v v c v v v v v v c v v v v v v v v v v v v v v v v b b b b v v v v v v v v v v v v v v v b b v b b v v b b b b b b b b b b v v b b v v b b v v b b v v v v v b b v v b b v b M M b b b b b M T T E E M M M b T b b M M M M M M M M M M M M b b v v v v v v b b b b b v b v b b v v v b b v v v b M b b b v b b b M M b b M M M M M M M M b b v T b v b b b b M M E T b M E W M M M M M M M M M E E E E M M b E E E T E E E E E E E E E E E E E E E T T b b E T T T T T T T T T v v v b T T T T T b b T T T T T b T T b b v v b b T E T T E E E T b b T T T T T T T T T b b T T T T T T T T T T T E T b b T T M M M b b b T E E E E E E M M M M M M M M M b b M M M M M M M M E E M W E M M E E W M M M E E E M M M M b E E E M M M M M W M E W M E M M M M M M M T T E M b b v v b E b v v b v v b b v b b b b b b M b b v b T T T b b b M b b M M b M M M M T T E T T T T v b T T b v v v T T v v v v v v b b b v v b b b v b T T v v v b v v b M M b v v v v b T v b b b b b b b v v v b b v v v v v v v v v b v c c v v v c v v v v v v v v v v c v v v c v c v b n m n v n m n b c v c k l c c c k c v c k k k k c c c c c c k n c c v c c c k k k k c k k k k k k k k k k k k k k k k k k k k k k k k k k k k k k l k k k k k l k k i ",
"u u u u u u u u u u u u u u u u u u u u u u u u u u u u u u u u u u u u u u u u u u u u u u u u u i u u u u u u u u i k k u u u u u u i k k k k k k i u u u u u u u u u u u u u u u u u u u u u u u u u u u u u u u u u u u i k k k k i k k k k k i k k k k k k k k k k k k k k k k k k k k k k k k k k k k k k k k k c k k k k k k c c k c c k k c c c v c k k k k k v v k k c v v v c k k k c v v v v v v v v v v v c v v v v v v v v v v v v v v v v v v v v v v v v b b b v v v v v v v v v v v v v v v b b v b b v v v b v v b b b M b b b b b b b v v v v b M b v v v v b M b b v b b v v v v v b M M M b v b M M M M M M T b M M W M M b v v b M M M M M b v v v v v v v v v b b v T v b b v v v v v v v v v b b M b b M b v v T T T E ~ M b T v b b v v v v v v b b b v b M E M M M M W W M M W W W E E E E E E M M M M M M E E E E E E E E E E E E E b b E E E E M E E T v b b b b b b v T b v b b v v v b v v v v v v v b T T T T b v b M T T T T b T T T T M M T T T T T T T T b T T T T v v v b M b b T T T T T v b M E b b E E M M E M M M E E T b b M M M M M M M b b b M E E E E E E M M M E E E W W M M M E E E E M M M E E E E M M M M M M M E E E M M M M M M M M M M M M b v b b v v v v b b b b b T T M M M M M b v v v v b M M b b b b T T M E E E M M M M b v v v b b b v b b b b v v v v v v v v v v v b M b v v v v v v b b v v v v b b v b M M M b v v v v v v v v b M b b b v v v v v v v v v v v v v v b v v v c v n v v v m m b v v v v v v v v v c v v v v v v v m z l v v v v v v c v c c v v v v v k k k k k k k k k c v c c v v v c k k k k k k k k k k k k k k k k k k k k k k k k k k k k k k k k k k l k k k k k k l z z z ",
"u u u u u u u u u u u u u u u u u u u u u u u u u u u u u u u u u u u u u u u u u u u u u u u u u u u u u u u u u u u i k i i i k k k k k k k k k k i u u u u u u u u u u u u u u u u u u u u u u u u u u u u u u u u u i i i k k k u u i k k k k k i i k k k k k k k k k k k k k k k k k k k k k k k k k k k k k k k k k k k k k k k c v v c k c k c v c k k k k k k v v k k c c c c c k k k c c v v c c v c k v v v v v v v v v v v v v v v v v v v v v v v v v v v v v v v v v v v v v v v v v v v v v v b b v b b v v v b v v b b b M M M M b v v v v v v v v b b v v v b b b v b b M M b b v v v b M M M b v b M M b b M M b b M M M M M b b b b b b M M M b v v b b v v v v v v v v b v b b v v v v v v v v v v v b v b M M b b T T T b E b b b v b b v v b b b b b E T v b E E b E E M M M M M M M E E E E E E M M M M M M M E E E E E E M M M M E E E b b M M E E M E E T v b b E b v v v v v v v v v v v T v v v v v v v v b T T T b v b M M T T T T T T T b b M T b T T T b T T v b T T T b b b v b b b T T T T T v v b M M E E E E M M M M M E E b v M M M M b b M M M b M M E E E E E M M M M E E W ~ W E M M E E E E M M M E E E E M M E E E E E E E E M M M M M M E T T M M M b b b M b v v v v b b b v b E M M M M b v v v v v b b M b v v b E E M b b E M M M M b v v v v v v v v v v b b v v v v v v v v v v v b b v v v v v v b b b b v v v v b b b b M b v v v b b v v b b v v v v v v v v v v v v v v v v v v v v v v b c c v c v c c v c c v v v v v v v v v v v v n n v b n c v v v v v v v v n v v v v v v c c k k k k k k k k c v c c c v c k k k k k k k k k k k k k k k k k k k k k k k k k k k k k k k k k l u i k k l l l l z z z ",
"u u u u u u u u u u u u u u u u u u u u u u u u u u u u u u u u u u u u u u u u u u u u u u u u u u u u u u u u u u u u i k k k k k k k k k k k i k k u u u u u u u u u i i u u u u i i u u u u u u u u u u u u u u u u i i i k k i u u i k k k k i u i k k k k k k k k k k k k k k k k k k k k c k k k k k k k k k k k k k k k k k k c v v c c c c c c k k k k k k k c c c c k k k k c v v v c k c v c c v c k k c v v v v v v c c v v v v v v v v v v b b v v v v v v v v v v v v v v v v v v v v v v v v b b v v v v v v v v v v b b M M M b b v v v v v v v v v v v v v b b v v b M M M M b v v v b M M b v v b M M v b b b b M M M M M M M M M b v b M M M b v v v b v v v v v v v v v v v v v v v v v v v v v v v v v b M M M M b T T b M M M M b M M b b M M E E E E b b M E E M E E M E E E E E M E E E E E M M M M M M M M E E E E E E M M M M E E E b b M M M M M M E T v v b T b v v b T T v b b b v T T v v v v v v v v v b b T b v b b M M T T T T b v v b T T v b T b b T T v b T T T b b b v v b b v v T T T v b b b b E E E M M M M M M M M b T M M M M b b M M M M M M E E E E E M M M M W W ~ ~ E E E E E E E W M M W E E E E E E E E E E E T T E M M M M M E T T T M M M b b M M b v v v v b b b v M M M M b b b b b v v v v b b b v v b T E T b v b T T T T b v v v v v v v b b b b b v v v v v v v v b v v v v v v v v v v v b M M b v v v v b v b b b b v v b b v v b b v v v v v v v v v v v v v v v v v v v v v v v v v v v v v v v v c c c c v v v v c v v v v n n n v v v v c n v v v v v n v v v v v c k c k k k k k k k k k c c k k k c k k k k k k k k k k k k k k k k k k k k k k k k k k k k k k k k k l l k k u u u u i z z z ",
"u u u u u u u u u u u u u u u u u u u u u u u u u u u u u u u u u u u u u u u u u u u u u u u u u u u u u u u u u u u u u i k k i u u i k k k i u i k u u u u u u u u u i i u u u u k i u i u u u i u u u u u u u u u u u i k i u u u i k k k k i u k k i k k k k i k k k k k k k k k k k k k c c k k k k k k k k k k k k k k k k k k k k k k k c v c k k k k k k k k k k c v k k k k c v v v c k c c v v v v c k c v v c k c v k k v v v v v v v v v v v v v v v v v v v v v v v v v v v v v v v v b b v b v v v v v b b v v v v b b M M M b b v b v b b b v v v v v v v v v v v v b M M M M b b b v b M M b b b b M M b b b b b M M M b b M M M M b b b b b M b v v v v v v v v b b b v v v v v v v v v v v v v v v v v v b M M M b v b T b b M M M b M M M M M M M E b b b M E E E M M M M M E E E E W M b b M M M M M M M M M M E E E E E E M M M M E E E b b M M M M M M E T v v v b b v v T b v v v b b b T T v v v b v v v v v v v v T b b b M M M T T T b v T T T T b b b b b T T b b T T b v b v v v v v v v T T T v b b b b b T b b b M M M M M b T T M M M M M M M M b b M M M E E E E M M M W M M ~ ~ E E E E E E M M M M E E E M E E E E E E E T T T T M M M M M T T T T M M M M M M M b v v v b E T b T M M M M b v b M b v v b b b b b b b b T T T T b v T T T T b v v v v v v v b b v b b v v v v v v v b b b v v v v v v b v v v v b M b v v b b v v b T v T b v v T T v b b b v v v v v v v v v v v v v v v v c v v v v v v v v v v v v v b v k k c v c c v v v v v v c c m v v v v z n b v v v v v v v v v v k c c k k k k k k k k k k c k k k k k k k k k k k k k k k k k k k k k k k k i i k k k k k k k k k k k i k k i i i i i l z i u ",
"u u u u u u u u u u u u u u u u u u u u u u u u u u u u u u u u u u u u u u u u u u u u u u u u u u u u u u u i u u u u u u i u u u u u u i k i i k k u u u u u u u u u u u u u k k k i k i u u u u u u u i i u u u u u u i i u i u i u k i u i i u u u k k k k k k k k i i k k k k k k k k k k k k k k k k k k k k k k c c k k k k k k k k k k k c c k k k k k k k k k k k k k k c c c v c k c v c k k k c v v v v v v v v v v k c v b b v v v v v v v v v v v v v v v v v v v v c v v v v v v v v b b b b v v v v v b b v v v v b b M M M M b v v v b M b v v v v v v v v v v v v b M M M M M M M b b M M M b b b b b M M M M M M M M b v b b b b b M b b b b b v v v v v v v v v b b v v v v v v v v v v v v b v v v v v b b T T T T v b T T b b T T b b b b b b b b v b E M b b b T E E E E E E M M W W M M M M E E E E E E M E E T b E E E M b b M E E M M b b b E b b b T T v v v b b v v b v v v v b b b T T v v v b v v b v v v v v v b M M M M M M M M T T v b b b b T E T T T T T T b b v v v v v v T b v b b v v v b b v v b v b b b M M M M b T E E b M M M b b b b b T M M M E E E M E E E E E E E E M M M M E E E E E N ~ E M M E E E M b b E E E E b b b b b b b v b b b b T T T T T T T b v b M b v T M M M M b v v b M b v b T R T M M M M b v v b b b b v v b b v v v v v v v v v v v b v v v v v v v b b b v v v v v b b v v v v v b b v v b b b T T b v v v v v v v b b b b v v v v v v v v v v c v v v v v v v v v v v v v v v v c c c c v c c v v v c c v v v v v v v v v n m m m n b v v v v v v v n n c c c c k k k k k c c k k k c k k k k k k k k k k k k k k k k k k k k k k k k k k k k k k k k k k i u i i i l u u u l l k i u i ",
"u u u u u u u u u u u u u u u u u u u u u u u u u u u u u u u u u u u u u u u u u u u u u u u u u u u u u u u i u u u u u u i u u u u u u i k k i i k u u u u u u u u u u u u u i k k i u u u u u u u i u u u u u u u i u i i u u u i i i u u u u u u i k k k k k k i i k k k k k k k k k k k k k k k k k k k k k k k k k k k k k k k k k k k k k k k k k k k k k c c k k k k c v v v v v c k c v c k k k c v c c v v v v v v v c c v v v v v v v v v v v v v v v v v v v v v v v v v v v v v v v v v v v v v v v v v v v v v v v v b b b b b b v v v b b b v v v v v v v v v v v b M b M M M M M M M M M M M b M b b b M M b b M M M M b v v v v v b M M M M M b v v v v v v v v v v v v v v v v v v v v v v v v v v v v v v b b T T T v b T T T v b b v v b b b b b b v v b b v v b E M M M E E E M M M M M M M M E E E E E M M E E T T E E E b M E M E E M M b b E E E b v T b v v v v v v v v v v v v v v v v T v v v v v v v v v v b b v b M M E M E M M M T T b b M b v T E T T T T T T b v v v v v v v b v v b v v v v v v v v v v v v b M M M M b v b b b b M M b v b v T E M M E E E M M M E E E E E E E M M M M E E M E ~ ~ E E E M M E E M M M b T E E T b v v v v v v v v b T T T v T T T T v v b b v v T b b M M b v v b b b b b b T T b b b b b v b T E b b v v v v v v v v v v v v v v v v v v v b b v v v v v v v v v v v v v v v v b b v v v v b E T T b v v v v v v v v b b v v v v v v v v v c c v v v v v v v v v v v v v v v v v c c c c c k k k k c v v c v v v v v v v v n m m m n v v v b m v v v c v c c k k k k k k k k k k k k k k k k k k k k k k k k k k k k k k k k k k k k k k k k k k k k k k k i i i u i u u u i l i u u u u ",
"u u u u u u u u u u u u u u u u u u u u u u u u u u u u u u u u u u u u u u u u u u u u u u u u u u u u u u u i u u u u u u u u u u u u u u i k u u u u u u u u u u u u u u u u u i i u u u u u u u u u u u u u u u k k i i u u u i i i u u u u u u i k k k k k k k i i k k k k k k k k k k k k k k k k k k k k k k k k k k k k k k k k k k k k k k k c c c k k c v v v v v v c k k c c k k k c v c k c v v c k k v v v v v v c c v v v v v v v v v v v v v v v v v v v v v v v v v v v v v v v v v v v v v v v v v v v v v v v v v v v v v v v v v v v v v v v v v v v v v v v v b b b b b M M M M M M M M M b b b v b b b M M b b b b b v v v v v b b M M M b v v v v v v v v v v v v v v v v v v v v v v v v v v v v v b b v b b b b v T b b T T b v v b T T T b b b v v b T T v b M M M M E E M M M M M M M M M E E M M M M M E E T T E E E T T E T T T T M E E E E T v v v v v v v v v v v b v v v v b v v v v v v v v b b v v v v T T v b M M M E E T M M b T b b M b b v b b b T T T T v v v v b v b b v v T T v v v v b b b v v v v v b M M M M b b b v b b b M M M M M E E M M M E M M M M M W M E E E E E E E E E M M M E E M E E M M M E M E M b T E T T v v T T b v v v b T T T v b b M M b v v v b b v b v v b b b v v v v b M b b b v v v v v v v b E E b v v v b b v v v v b b b v v v v v v v v b b v v v v v v v v v v v v v v v v v v v n n v v b b v v v b b b v n b v v v v v v v v v v v v c c v v v v v v v v v v v v v v v v v c c v c c k k k k k c c b b v v v v v v v n n l z n v v v b m z c c k c k c k k k k k k k k k c c k k k k i k k k k k k k k k k k k k k k k k k k k k k k k k k k k k k k u k i i k u u u u i u u u u u ",
"u u u u u u u u u u u u u u u u u u u u u u u u u u u u u u u u u u u u u u u u u u u u u u u u u u u u u u u u u u u i u u u u u u u u u u u u u u u u u u u u u u u u u u u u u u u u u u u u u u u u u u u u u i k k i u u u i k u i u i k i u u k k k k k i i i i k k k k k k k k k k k k k k k k k k k k k k k k k k k k k k k k k k k k k k k k k k k k k v v c v v v v v c c c c k k k c v c k c v c k k c v v v v v c k c v c k c v v v c c v v v v v v v v v v v v v v v v v v c c v v v v v v v v v v v v v v v v v v v v v v v v v v v v b b v v v v v v b b v v v v v b v v v b M M M b b b M M M b b b v b b v b b b b b v v v v v b b v b E b b b v v v v v v v v v v v v v v v v b b v v T b v v v v v v v b T v b M b b v T b v T T b v b T T T b b b v v v v T T b b M M M M E E M M M M M M M M M E E M M M M M M E b E E E T T T T E T T b b T E E E T v v v v b b b v b b T T v v v v T T v v v b v v v b b v b b b T T v b M M M M T T T b b v b M M M E T T T T T T T T b b v v T T T T b v T T v v v v b M b v v v v v b M M M M E E T b M M b b M M M M E T M M M M M M M M M M M M M M M E E E E M W E E E E E E E M M M E M M M M T E T T b b T T T b b v T T T v v b M M M b b v T T T v v v v v v v v v v v v b v b M b b T b v v b b b M M b v v b b v v v b b b v v v v v v v v v v v v v v v v v v v v v v b b b v b b v v n m n v v v v v b M b v v n n v v v v v v v v v v v v v c c v v v v v v v v v v v c c v v v v k c c c v c c c v c k c n v v v v v v v c c c l l l c v c z z z c c c k c k k k k k k k k k k k k k k k k k k k k k k k k k k k i i k k k k k k k k k k k k k k k k k i u l i k k i u i u u u i u u i ",
"u u u u u u u u u u u u u u u u u u u u u u u u u u u u u u u u u u u u u u u u u u u u u u u u u u u u u u u u u u u u u u u u u u u u u u u u u u u u u u u u u u u u u u u u u u u i u u u u u u u u u u u u u u u i k i u i k i u u u u i k i u i k k i k u i u i k k k k k k k k k k k k k k k k k k k k k k k k k k k k k k k k c k k k k k k k c c k k k k k k v v v v v v v v v c c c c k c c v v v c v v v v v v v v c v v v k c v v v c c v v v v v v v v v v v v v v v v v v v v v v v c c v v v v v v b v v v v v v v v v v v v v v v v b v v b b v v v b b v v v v v v v v b b b M M M b M M M M b b b v b b b b v b b b b T b v v b b v v b v v v v v v v v v v v v v v v v v v v b b b v v v v v v v v v v v b v b b v b T T T T v b b v v v b M M M b v b b b T T T T M M M M M E E E E E E M M E E E E M M M M E E E E E E E M M E E E T T b T T b b b b v v v b b b b b b b T T v v v v T b v v b b b v v b v v b b v v T T T T T T T b b b b M b T E M M M E E E T b E E b M E T T T T b T v v v v v v v v b b v b b v b M M M b b b T b b b M M b b b M M M M M M M M M M M M W W E M M M M M W W E E M M M N N M M M M E E E E E E E E T b T b v b b b b b b v v b v v v b b b b b b v b T T T T T T T v v v v v v v v v b b b b b b b b b b v b M b v v v v v v v b b b v v v v v v v v v v v v v v v v v v v v v v b b b v b M b v v v v v v v v v v b b v v n b v v v v v v v v v v v v v v c c v v v v v v v v v v v v v c k k k k c v v v c k c v c k z l c k c v v v v v n m n k k c m z c c v v v c c k k k k k c c k k k k k k k k k k k k k k k k k k k k k k k k k k k k k i i i i k k k k k k k k k i i k i l i u u i k i u i ",
"u u u u u u u u u u u u u u u u u u u u u u u u u u u u u u u u u u u u u u u u u u u u u u u u u u u u u u u u u u u u u u u u u u u u u u u u u u u u u u u u i u u u u u u u u u u u u u u u u u u u u u u u u u u u k k u i i u u u u u u k i u i k k k i u u i k k k i i k i i k k k k k k k k k k k k k k k k c k k k k k k k k k k k k k k k c v c k k k k k k v v v v v v v c v v v v c k c v v v v v v v v v v v v v v v v v c c v v v v v v v v v c v v v v v v v v v v v v v v v v v v v v v v v v v v v v v v v v v v v v v v v v v v v v v v b b v v v b v v v v v v v b v b v v b M M M M M M M M b b v v b b b v v v v v b v v b M b v v v v v v v v v v v v v v v v v v v b v v v v v v v v v v v v v v v v v v v v v v v b T T v b b v v v b b b b b v b M b T T T T M M M M M M M b b b E E M M M M M M M M E E E E E E E M M M M M E T T b T b v v v v v v v T b v v v v v v v v v v v b v v v v v v v v v v v v v v T T T T T T T b v v b E E b T E M M M M E E T b M M M M b T T v v v v v v b v v v v v b v v v b b b b b b v v v v v b M M M M E b b b M M M M M M M M M M M M E M M M M M M M M M M M M n N M M M M E E E E E E T b b v b b v b b v v v v v v v v v v v v v v v v v v T T v v T T b v v v v v v v v v b b b b b v v b b v v b M b v v v v v v v v v v v v v v v v v v v v v v v v v v v b b v v v b b v v b b b v v v v v v v v v v v v v v v v v v v v v v v v v v v v v v v v v v v v v v v c c v v v v v k k k k c v v v v c c v v c c c c k c v v v v b m m z l k c m c v v v v v v v k k k k k c c k k c c k k k k k k k k k k k k k k k k k k k k k k k k k k k k k k k k k k k k k k k k k u i u u u i l i u u ",
"u u u u u u u u u u u u u u u u u u u u u u u u u u u u u u u u u u u u u u u u u u u u u u u u u u u u u u u u u u u u u u u u u u u u u u u u u u u u u u u u u u u u u u u u u u u u u u u u u u u u u u u u u u u u i k i u u u u u u u i i i i i u i k k i i k k k k k k k k k k k k k k k k k k k k k k k k k k k k k k k k k k k k k k k k c v v c k k k k k k c v v v v c c k c v v v c k c v v v v v v v v v v v v v v v v v v c c v v v v v v v v c c v v v v v v v v v v v v v v v v v v c c v v v v v v v v v v v v v v v v v v v v v v v v v v v v v v v v v v v v v v b b v b b b M M M M M M M M b b v v b M b b v v v v v v v b b b v v v v v v v v v v v v v v v v v v v v v v v v v v b b v v v v v v v v v v v v v v v v b v b M b v v v v v v v v v b b b v b T T M M M M M M b v T M M M M M M M M M M M M E M b b E E b b b b b M b v v T b v v v v v v v T b v v v v v v v v v v v v v v v v v v v v v v v v v v T T T v v T v v v v T T T T v b M M M M M b b T T b M M b T T v v v v v T T T v v v v b v v v b b b v b b v v v v v b M b M M E b v v b E E M M M M M M M M E E E W M E E M M M M M M M E E E M M E E E E E E E b b b v v v b b v v v v v v v v v v b v v v v v v v v v v v v b b v v v v v v v v v v b b v b b b b b b b b M M b v v v v v v v v v v v v v v v v v v v v v v v v v v v b b v b b b b v v v v v v v v v v v v v v v v v v v v v v v v v v v v v v v v v v v v v v v v v v v c k k c v v c v k c c c k k c v v v c v c v v c c k l k c n n n m n z n c v v v v c c c c c c k k k k k k k k k k k k k k k k k k k k k k k k k k k k k k k k k k k k k k k l i u u k k k i u i i i i u u u i u u i u u u ",
"u u u u u u u u u u u u u u u u u u u u u u u u u u u u u u u u u u u u u u u u u u u u u u u u u u u u u u u u u u u u u u u u u u u u u u u u u u u u u u u u u u u u u u u u u u u u u u u u u u u u u u u u u u u u u i u u u u u u i u u u u i u u i k k k k i k k k k k i k k k k k k k k k k k k k k k k k k k k k k k k k k k k k k k c k k c v c k k k k k k k c v v c k k k c c c c v v c c c v v v v v c c c v v v v v v v v c k v v v v v v v v v v v v v v v c v v c c c c c c c v c c c c c v v v v v v v v v v v v v v v v v v v v v v v v v v v v v v v v v v v v v b b v b b b M M M M M M M b b v v v v b b v v v v v v v v v v v v v v v v v v v v v v v v v v v v v v v v b b v v v v v v v v v v v v v v v v v v v v v v v b M b v v v v v b b b T v b b v v T T M M M M M M b b E M M M M M M M M M M M M b b v b M M b T b v b b M b b b b v v v v v v v T v v v v T v v v v v v v T v v v v v v v v v v v b v v T T v b b v v v b T T T T T b b M M M M b b b T T b b M T T T v v v v T T T T b v v v v v v v v v v T T T b v v v v b M T M M M b b b b T T M M M M M M M E E E E M E E R T M E M E M M M E E E E E E M E E M M E T b v T T E b v v v v v v v v v b b v v v v v v v v b v v v v v v T b v v v v v b b b b b b b M M M M b M M M b v v v v v v v v v v v v v v v v v v v v v v v v b b v v v v b M b b b v v v v v v v v v v v v v v v v v v v v v v v v v v v v v v c c v v v v v v v v v v v c k k c v v c k c v v k k c v v v k k k c k k c l z m m m m m v v n n v c c v v c k k k k k c c k k k k k k k k k c c k k k k k k k k k k k k k k k k k k k k k k k k i i l k i u i i k k i u u u u u u u i u u u u u u ",
"u u u u u u u u u u u u u u u u u u u u u u u u u u u u u u u u u u u u u u u u u u u u u u u u u u u u u u u u u u u u u u u u u u u u u u u u u u u u u u u u u u u u u u u u u u u u u u u u i i u u u u u u u u u u u u u u u u u i i i i i i u u i k k k i i i k k k i i i i k k k k k k k k k k k k k k k k k k k k k k k k k k k k k k k k k k c c k k k k k k k k v v c c c c c k c c v v c k k c c c c c k k c v c c v c c c v c c v v v v v v v v v v b b v v v c v v c c c c c c v v c c v v v v v v v v v v v c v v v v v v v v v v v v v v v v v v v v v v v v v v v v v b b b b b M M M b b b b M b v v v v v v v v v v v b b v v v v v v v v v v v v v v v v v v v v v v v v v b b v v v b b v v v v v v v b v v v v v v v b b v b b b b T v b T T T T T T b T T T T T T T M M M M M E M M M M M M M E E M M M E T T T T b E b T b b b b M b b T T T T T b v v v v v v v v T T v v v v v v v b T v v v v v v b T b b T T T T v b b v v b T b b T T T T b b b b b M b b T b b M T b b b v v v v b b T T T T v v v v v v v v v b b b v v v v v v b T T b b b b M M b T M M M b M E E E E E E E E E E E b M E E b b M M M E E Q E E M M b M E E T b b b T T v v v v v v v v v v b v v v v v T b v b v v v v v v b v b b b b v b b b E E M b b b b T b E b b b b b v v v v v v v v v v v v v v v v v v v v v b M b b v b v b b b b b b b b b b v v v v v v v v v v b b v v v v v v v v v v v v v b v c v v v v v v v v v v v v c v c c k c c c c c k c v v v c c c c k c n n m n m z m m n n m c c c k c v c k k k k k c c k k k k k k k k k k k k k k k k k k k k k k k k k k k i k k i i k k k k k i i k i i i i i k i i u i i i i i u u i u u u ",
"u u u u u u u u u u u u u u u u u u u u u u u u u u u u u u u u u u u u u u u u u u u u u u u u u u u u u u u u u u u u u u u u u u u u u u u u u u u u u u u u u u u u u u u u u u u u u u u u k i u u u u u u u u u u u u u u u u u k i u u u u u u u i k i u u k k k k k k k u i k k k k k k k k k k k k k k k k k k k k k k k k k k k k k k k k k k k k k k k k k k k c v v v v v c k c c c v c k k k k k k k c c c v v c v k k c v v v v v v v v v v v v v v v v v v v v v v v v v v v v v v v v v v v v v v v v v v v v v v v v v v v v v v v v v v v v v v v v v v v v v v v v v b b v b M M M b v v v b b v v v v v v v v v v v M b v v v v v v v v v v v v v v v v v v v v v v v v v v v v b b b b v v v v v v v T v v v v v v v b v v v b b b b v v v b T T v v v b T T T T T T M M M M M E b M M M M M M E E M M M E T E T T T T v b T b v v b b v v T T b b v v v v v v v v v v v v v v v v v v b T v v v v v v b T v v T T T T b v v v v v v v b b T T T v v b b b M b v b b b b v v v v v v v v v v v b b b b b v v v v v v v v v v v v v v v v v b v v b b b M M M M M M M b M E E E E E M E E E E E b b E E M M M b M M E E E E b M E E E E T v v v b v v v b b v v v v v v v v v v v v b b v v v v v v v v v v v b M b b v v b b b b b b v v T b b v v v v v v v v v v v v v v v v v v v v v v v v v v b M M b v b b b b b v b b b b b v v b v v v v v v v b b v v v v v v v v v v v v v v v v c c v v v v v v v v v v v v v c k k k k c k k k k c v v c c v v c v v b n n m m n n m m m k l k k k c v k k k k k k k k k k k k k k k k k k k k k k k k k k k k k k k k k k k k k k i i k k k k u i k k i k i i k k i i i u u i i u u u u u u ",
"u u u u u u u u u u u u u u u u u u u u u u u u u u u u u u u u u u u u u u u u u u u u u u u u u u u u u u u u u u u u u u u u u u u u u u u u u u u u u u u u u u u u u u u u u u u u u u u u i u u u u u u u u u u u u u u u u u u k i u u u u i i u u u u k k k k k k k k k i i k k k k k k k k k k k k k k k k k k k k k k k k k k k k k k k k k k k k k k k k k k k k k c v v v c k k k k c c c c k k k k c v v k v v v v k k c v v v v v v v c k k c v v c v v v v v v v v v v v v v v v v v v v v v v v v v v v v v v v v v v v v v v v v v v v v v v v v v v v v v v v v v v v v v v v b b b b v v v v v v v b v v v v v v v v b b v v v v v v v v v v v v v v v v v v v v v v v v v v v v b M v v v v v v v v v T v v v v v v v v v v b M b v v v v v v v v v v v v v v v T b b b b M M M E E E E M M M M M b M M M E T T T T T T T b b v v v v b b v v v v v v v v v b T v v v v v v v v v v v v v b v v v v v v v v v v v b b b b v v v v v v v b b v b T v v v b T b v v v v T T v v v v v v v v v v v v v v v v v v v v v v v v v T v v v b v v b v v b M b v b M M M M M M M M E E E E E E M M M M b b M E E b b M M M E E E E b b E b b b T b v v v v v b b b v v v v v v v v v v v b T v v b v v v v v v v v v v v b b b v v v v b b v v v v v v v v b b v v v v v v v v v v v v v v v v v v v v v v v v b b v v v b b b b v b b b v v b b b v v v v v v v b b v c v v v v v v v v v v v c v v c c v v v v v v v v v c v v v c c c c k k k c c k c v v v v c c v c c v v l z m c c c n n k c c c k c c c k k k k k k k k k k k k k k k k k k k k k k k k k k k k k k k k k i i i i u u k k k k u i k k k k k u u u u l l u u u u u u u u u u ",
"u u u u u u u u u u u u u u u u u u u u u u u u u u u u u u u u u u u u u u u u u u u u u u u u u u u u u u u u u u u u u u u u u u u u u u u u u u u u u u u u u u u u u u u u u u u u u u u u u u u u u u u u u u u u u u u u u u u k k i i i i k k u u u u i k k k i u i i k k k k k k k k k k k k k k k k k k k k k k k k k k k k k k k k k k k k k k k k k k k k k k k k c v v v c c c k k k c c c k k k k v c k k c v v v k k c v v v v c c v v c c v v v v v v v v k c v v v v v v v v v v v v v v v v v v v v v v v b v v v v v v v v v v v v v v v v v v v v v v v v v v v v v v v v v v v b b v v b v v v v v v v v b b b b v b b b v v v v v v v v v v v v v v c c b v v v v v v v v v v b b v v v v v v v v v T v v v v v v v v v v v b T v v v v v v v v v v v v v v v v b v v T M M E E E E E M M M b M M M M E E T T T T T v T b T T T T T b v b b v v v v v v v b T v v T v v v v v v v v v v v v v v v v v v v v v b b b b b v v v v v v b M b v v T v v v T T T T b v T T T v v v v v v v T b v v v v v v v b v v v v v v v b T T v b b v v b b b b b b v v b b M M M M M M E E E E E E M M M M b b M E M b b M M M E E M M M b T T T T T T v v v v v b b b v v v v v v v v v v v v b v v v T v v v v v v v T v v v v b b T T b M b v b v v v v v v b b b v b b b v v v v v v v v v v v v v v v v v v v v v v v v v v b b v v v v b b M b b v v v v v v v v v v c v v v v v v v v v v v c b b c k v v v c k v v v v c k v v c v v c k k k c c k c v v c c m l c k k c c l c c c v v c c k c c n v c k k k k k k k k k k k k k k k k k k k k k k k k k k k k k k k i i k k k i i i i i k k k k u i k k k k k u i i u u u u u u u u u u u u u ",
"u u u u u u u u u u u u u u u u u u u u u u u u u u u u u u u u u u u u u u u u u u u u u u u u u u u u u u u u u u u u u u u u u u u u u u u u u u u u u u u u u u u u u u u u u u u u u u u u u u u u u u u u u u u u u u u i u u u k k i k i i i k i i k k i i k k i u i i k k k k k k k k k k k k k k k k k k k k k k k k k k k k k k k k k k k k c c k k k k k k k k k k c c c v c c v c c k k k k k c c k v c k k k c c c c c v v c c c k k c c v v c v v c v v v v k c v v v v v v v v v v c c v v v v v c c v v v b b v v v v v v v c v v v v v v v v v v v v v v v v v v v v v v v v v v v v v v v b b v v v b b v v b b b b v v b b v v v v v v v v v v v v v v v v b v n v b b b v v c v v v v v v v v b b v v b v v v v v v v v v v v b T b v v v v v v b v v v v v v v v T b b T T T T T T E E E E E T T E T T b T T T T T T v v T T T T T T b b T b v v v b v v v v v v v b v v v v v v b T v v v v v v v v b b v v b b b b b b b b v b T T T b v v b v v v v b T T T T b T T b v v v T T b v T v v v v v v v b T T b v v v T T T T T v b b v v v v b b v b b v v b M M M M b b E E M M E E M M M M b b W W M M b b b b M E E b b b T T T T T T T v v v v v v v v v v v v v v v v v v b v v v b T b v v v v v T b v v v v v T T T b b b b b b b b v v v b b b b b b b v v v v v v v v v v v v v v v v v v v v b b b v v b b b v v b b b b b b v v v b b v v v n v c v c c c v v v v v v v v v b c c c v c v c c c c v v c c c c c c c c k k k k k c k c c k k m l k k k k l c k c v v c k k c c c c c c c k k k k k k k k k k k k c c k k k k k k k k k k k k k k k k k i k k k k k k k i i k i i u u i k k k i l l k i i u u i u u u u u u u u ",
"u u u u u u u u u u u u u u u u u u u u u u u u u u u u u u u u u u u u u u u u u u u u u u u u u u u u u u u u u u u u u u i u u u u u u u u u u u u u u u u u u u u u u u u u u u u u u u u u u u u u u u u u u u u u i i i i i u u i i u i u u u k k k k k k k u u u i k k k k k k k k k k k k k k k k k k k k k k k k k k k k k k k k k k k k k c v c k k k k k k c k k k k k k k k k c v c k k k k k v c k c c k k c v k c v v v v c k k k k k c v v c c v c v v v v k k v v v v v v v v v v v v v v v v v v c v v v v v v v v v v v v v v v v v v v v v v v v v v v v v v v v v v v v v v b b v v v v v b v v v b b v v v v v v v v v v v v v v v v v v v v v v v v v v v v n n b M b v v c v v v v v v v v b b v v v v v v v v v v v v v v v b b v v v v v v b v v v v v v v b v v v b T T T T E E E E E T E E T T T b b T v T T T v v v b T T v v v T T v v v v T v v v v v v v b v v v v v v T T b v v v v v v v b b v v v v v v b b E b v T T T T v v v v v v v v v v v v v v v v v v v b b T T v v v v v v v v v b T T b v v v v b T T b v v T v b b v v v v b M b b b M M M M b b M M M M M M M M M M M M W W M M M b M M M b b v v b b b b b b T b v v v v v v v v v v v v v v v v v b b v v v v b v v b b v v T b v v v v v b b b b b b b M M M b v v v v v b v b b v v v v v v v v v v v v v v v v v v v v v b b b v v b v v v b b b v v v v v v v b b v v v v v v v c c v v v v v v v v v v c c v v v c v c c k k c v v k k k k k k k k k k c c c k k k k k c n k k k k c c k k c v v c k k c k k k k c k k k k k k k k k k k k k k k k k k k k k k k k i i k k k k k k k k k k k k k i u i i u u u i k k k k z l i i u u u u u u u u u u u u ",
"u u u u u u u u u u u u u u u u u u u u u u u u u u u u u u u u u u u u u u u u u u u u u u u u u u u u u u u u u u u u u u u u u u u u u u u u u u u u u u u u u u u u u u u u u u u u u u u u u u u u u u u u u u u u u u u u u u u u u u u u u i k k k k i i i u u u k k k i k k k k k k k k k k k c k k k k k k k k k k k k k k k k k k k k k k k c k k k k k k k c k k k k c c k k k k c c k k k k k k k k c c k c v c c c v v v v c c k c k k k v v c c v c v v v v c c c c v v v v v v v v c c c v v v v v v v v v v v v v v v v v v v v v v v v v v v v v v v v v v v v v v v T b v v b b M b v v v v b v v v v v v v v v v v v v v v v v v v v v v v v v v v v v v b b b m n M b b v v v v v v v v v v v v v v v v v v v v v v v v v v v v v v v v v v v v v v v v v b v b T v v b T T T T T T T T T T b T E T T T T T v T T T v v v v b T T T v v T T T v v v b T v v v v v b T v v v v v v v v v v v v v v v v v v v v b b v v b b E E b T T T T T v v v v v v v v v v v v v v v v v v v v v v v v v v v b b v v v T T v v v v v v b v v v v b M M M b v v v b b b b b M M M M M M M M E E E E M M M M M M E M M M M M E E b v v v v v b M M M M b v v v v v v v v v v v v v v v v v v b v v v v v v v v b b v v b b v v v v v v v b v v b b M b b v v v v v v v v v v v v v v v v v v v v v v v v v v v v v v v v v v v v v v b v v b b v v v v v v v v v v v v v v v v v v v v v v v v v v v v c c v v v v v v v c c c c k k k k k k k k k k k c k k k c k k k k l c c k k c c k k c c c k k k k k c k k c k k k k k k k k k k k k k k k k k k k k k k k k k k k k k k k k k k k k k i k i u u i k u u i k i i k i i u u u u u u u u u u u u u u ",
"u u u u u u u u u u u u u u u u u u u u u u u u u u u u u u u u u u u u u u u u u u u u u u u u u u u u u u u u u u u u i l i u u u u u u u u u u u u u u u u u u u u u u u u u u u u u u u u u u u u u u u u u u u u i u u u u u u u i u i k i u u k k k k u u u i i k k k k u k k k k k k k k k k k k k k k k k k k k k k k k k k k k k k k k k k k k k k k k k k c c k k k c c c c c k k k k k k k k k k k k k k k c c k v c c c c c c c c c c c c v v c c v c v v v v v v k k c v v v v v v v v c c v v v c c v v v v v v v v v v v v v v v v v v v v v v v v v v v v v v v v v v T T T b b b M b v b b b b v v v v v v v v b v v v v v v v v v v v v v v v v v v v b b M M N m B N M M b b v v v v v v v v v v v v v v v v v v v v v b v v v v v v v v v v v v v v v v b T T T T v v v b T T T T T T T T T v T T b b T T T v T T T v v T v v T T v v v T T T T T v b T v v v v v T T v v v v b v v b b v v v v v v v v v v v b b v v v b b b v T T T T T T T T b v v v v v v v v b b b b b b v v v v v T b v b v v v v v T T b v b v v v v T v v v M M M M M b b v v b M M M M b M M M M M M E E E T M M M M b E E M M M M M b b b v v b T T T b b b b b v b T v v v v v v v v v v v v v v v v v v v v v v v v v v v v v v b b v b b v b b v v v v b v v v v v v v v v v v v v v b b v v v v v v v v v v v v v v v v v v v v v v v v b v b M M b v v v v v v v v v v v v v v v v v v v v v v v v v v v c v v v v c c v v v c k k k k k k k k k k k k k k k k k c k k k k c v c k k c v k k k k k k k k k k c k k k k k k k k k k k k k k k k k k k k k k k k k k k k k k i k k i i i k k k u u i i k u u u u u u i u u u u i i u u u u u u u u u u u u u ",
"u u u u u u u u u u u u u u u u u u u u u u u u u u u u u u u u u u u u u u u u u u u u u u u u u u u u u u u u u u u u i i u u u u u u u u u u u u u u u u u u u u u u u u u u u u u u u u u u u i u u u u u u u u u i u u u u u u u i i i i i i u i k k k u u i i i k k k k i k k k k k k k k k k k k k k k k k k k k k k k k k k k k k k k k k k k k k k k k k k c v c k k k k c k k k k k k k c k k k k k k k k k c c k c k k k k c c c c c v v v c c c c c c v v v v c v c c v v c c c c v v v v v v v v v v v v v v c v v v v v v v v v v v v v v v v v v v v v v v v v v v v v T T T T b b b b b b b b b b b b b b v v b T v v v v v v v v v v v v v v b b v v b b b N N N B B B ^ B b b b v v v v v v v v v v v v v v v v v v v v b b v v b b v v v b b v v b b v b b T T T T T T b v T T T T T T T T T v b T v v b T T b T T b b T T v b v v v v v T T T T T b T T v v v v v T T v v v b b b b b b v v b v v v b b v v b b b v v b b b v v T T T T T T T T b v v v v v v v b T T T T T T b b v v T T b b b b v b b v v T b v b v v v v T b v v M M b b b M b b b b b M M M b b b b E E E E E E T b b M M T E T T E M E E T b b b b T T T T b b b b v v b T T b v v b v v v b v v v v v v v v v v v v v v v v v v v v b b b b b b b M b b b b b b b v v v v v v v v v b b b v T b v v v v v v v v v v v b b b v v v v v v v v v v b b b b b M b v v v v v v v v v v c v v v v v v c c c v v v v v v v v c c v c c v c c c c k k k k k k k k k k k k k k c c k c k k k k c k k k c c k c k k k k k k k c k k k c c k k k k k k k k c k k k k k k k k k k k k k k k k k i i k u u u i i i i u u i i i u u u u u u i u u u u u u u u u u u u u u u u u u ",
"u u u u u u u u u u u u u u u u u u u u u u u u u u u u u u u u u u u u u u u u u u u u u u u u u u u u u u u u u u u u u u u u u u u u u u u u u u u u u u u u u u u u u u u u u u u i u u u u u u u u u u u u u u u u u u u u u u u u u u u u u u u k k i i i k k k k i k k k k k k k k k k k k k k k k k k k k k k k k k k k k k k k k k k k k k k k k k k c k k c v c k k k k v c k k k k k c v c k k k k k k k k c c k c c k k c v c k c v v v v c k k k k k v v v v c v v v v c c c k c v v v v v v v v v v v v v v c v v v v v v v c v v v v v v v v v v v v v v v v v v v v v v v v v b b b v v v b b b b b b v b v v b b v v v v v v v v v v v v v v b v v v b M m B B B B B B B m m M M b v v v v v v v v v v v v v v v v v v v v v v v v v v v v T T b b M b b v b T T T T T T T b E E E E E E E E T b E b b b v b b b b v b T T T v b v v v v v b T b v v T b v v v v v v v v v v v T b v v v v v v T b v v b v v v b b v v v T T T v v v b M b v v v v v v v v v v v v v v v v v v v v v v v T T b v v v v v b v b v v v v v v v v v v v v b b b b b b b b b b b M M M M b T b E E E M M M M b b M M b b b E M E E R Q T T b b v v v v v v b b v v v v b v v v T b v v v v v v v v v v v v v v v v v v v v v v v b v b M b M M M M M M b b M b v v v v v v v v v b b b v v v v v v v v v v v v v v b b b v v v v v v v v v v v v v v b M b v v v v v v v v v c c v c v v v v c c c v v v v v v v v k k c v v c c k k k c k k k k k k k k k k k k k c c k k k k k k k k k k k k c k k k k l k k c c c k k c c k k k k k k k k k k k k k k k k k k k k k k k k l k k i i u k i u u k k i u u i u u u u u u u u u u u u u u u u u u u u u u u u u u ",
"u u u u u u u u u u u u u u u u u u u u u u u u u u u u u u u u u u u u u u u u u u u u u u u u u u u u u u u u u u u u u u u u u u u u u u u u u u u u u u u u u u u u u u u u u u u u u u u u u u u u u u u u u u u u u u u u u u u u u u u u u u u u u u k k i k k i u i k k k k k k k k k k k k k k k k k k k k k k k k k k k k k k k k k k k k k k k k k k k k c c k k k k k c k k k k k k k k k k k k k k k k k c k c v c k k v v c k c v v v v c k k c k k k k c v v v v v v v c k c c v v v v v v v v v v v v v v v v v v v v v c k c v v v c v v v c v v v v v v v v v v v v v v v v b b v v v v v v v v v v v v v v v v v v v v v v v v v v v v v v v v v b M M B B B B B B B B B B N M b v v v v v v v v v v v v v v v v v v v v v v v v v v v v T b b M M M b v v b M b b T b v b T E E T T E E E T T E T b b v v v v v b v T b v v v v v v v v v v v v v v v v v v v v v v v v v v b v v v v v v v v v v v v v v v b b v v v b T v v v v v b v v v v v v v v v v v v v v v v v v v v v v v v v b T v v v v v v v b v v v v v v v v v v v v v v b M M b v b b v b M M M M M T b M M M M M M b v b M M M M M M M b E E E M b v v v v v v v v v v v v v v v v v v b v v v v v v v v v v v b v v v v v v v v v v v v v v b M b M M M M M M b b b b v v v v v v v v v v v v v v v v v v v v v v v v v v v v v v v v v v v v v v v v v v v b b v v v v v v v c v v v v v v c c c v c c v v v v v v c c v c k k v v c c c k k k k k k k k k k k k k k k k k k k k c k k k k k k k c c c c k k k l k k k k k k k k k k l l k k k k k k k k i k k k k k k k k k k k k k k i k i i i u i k k k k i u i u u u u u u u u u u u u u u u u u u u u u u u u u u ",
"u u u u u u u u u u u u u u u u u u u u u u u u u u u u u u u u u u u u u u u u u u u u u u u u u u u u u u u u u u u u u u u u u u u u u u u u u u u u u u u u u u u u u u u u u u u u u u u u u u u u u u u u u u u u u u u u u u u u u u u u u u u u u i k k k k k k i k k k u i k k k k k k k k k k k k k k k k k k k k k k k k k k k k k k k k k k k k k k c c c c k k c c k k k k k k k k k k k k k k k k c k k v c c k k k c v v c k c v v v v c k k k k k k k c c c v v v v v v c c v v v v c k c c v v v v v v v v v v v v v v v c v v v v v v v v v v v v c v v v v v v v v b b b b b v v v b v v v v v v v v v v v v v v v v v v v c v v v v v v v v v v b M M B B B B B B B B B B B N M b v v v v v v v v v v v v v v v v v v v v v v v v v v T b v v b b b v v v b b b v v v v b T b b T T b b b b b b b v b b v v v b b v v v v v v v v v v v v v v v v v v v v v v v v v v c v v v v v v v b v v v v v v v v v v v b T b b v v v v v b b v v v v v v v v v T b v v v v v v v v v v v v v v v v T T v v v v v v T v v v v v v v v v v v v b b b M M b b b b v b b b M M E E M b b M M b b v v b M M M b b b T T T E E M b v b T T T T v v v v v v v v v v v v v v v v v v v v v v v v v v v v v v v v v v v b b b v b b b M M M M M M b v v v v v b v v b b v v v v v v v v v v v v v v v v v v v v v v v b b v v v v v v v b v v v v v v v v v v v v v v v v v v v v c c v v v v v v v c v k k c c c k c k c k c c k k k k k k k k k k k k k c c k k k k c c k k k k k k c c k c c k k z k k k k k k k k k k k k k k k z k k k k i k k k k k k k k k k k k k k i k k i i u i k i i k i u u i u u u u u u u u u u u u u u u u u u u u u u u u u ",
"p u u u u u u u u u u u u u u u u u u u u u u u u u u u u u u u u u u u u u u u u u u u u u u u u u u u u u u u u u u u u u u u u u u u u u u u u u u u u u u u u u u u u u u u u u u u u u u u u u u u u u u u u u u u u u u u u u u u u i u u u u u u i k i i k k k k k k k i u u i k k k k k k i i k k k k k k k k k k i k k k k k k k k k k k k k c k k k k k k k c k k c k k k k k k k k k k k k k k k k c c k k c c k k k k c c v c k c v v v v c k k k k k k k k k c c v v v v v c c v v v c c k k c v v v v v v c c v v v v v v v v v v v v v c c v v v v c c v v v v v v v v b b b M b v v b b v v v v v v v v v v v v v v v v v v c k c v v v v v v v v v b M n B B B B B B B B B B B B M b v v v v v v v v v v v v v v v v v v v b b b b b v v T b v v v v v v v b b T T b v b b v T b b T E M M M M E E T b v v b b v v v b v v v v v v v v b v v v c v v v v v v v v v v v v v v v v v v v v T b v v v v v v b b v v b T T b b v v b b b b b b v v v v v v v T b v v v v v v v v v b v v v v b b T T v v b T b T T v v v b b v v v v v v b b M b b b b M b b b b b b b M E E M b b M M b v v v b M M b b b b T T E E E b b v b T T T T T b T b v v v v b b v v v v v v b v v b b v v v v b b b b b v v v b v b b n b n n b M M M M M M b b v v v b b b v b b b b v v v v v v v v v v v v v v v v v v v v b b b v v v b b v v b b v v v v v v v v v c c v c v v v v v v c c c v c c v v c k c k k k k k k c k c k c c c k k k k k k k k k k k k c c k k k c k c c k k k k k k k k k k k k k k k k k k l k k k l k k k k k k k k k k k k k k i i i i i i i k k i k i i i u k i u i u u i u u u u u u u u u u u u u u u u u i u u u u u u u u u u u ",
"+ u u u u u u u u u u u u u u u u u u u u u u u u u u u u u u u u u u u u u u u u u u u u u u u u u u u u u u u u u u u u u u u u u u u u u u u u u u u u u u u u u u u u u u u u u u u u u u u u u u u u u u u u u u u u u u u u u u u u u u u u i k k k i u u i k k k k k i u i i u i k k k k k k k k k k k k k k k k k k k k k k k k k k k k k k k k k k k k k k k k k k k k k k k k k k k k k k k k k k k c k k k k k k k k k k k c c c v v v c v v c c k k k c k k k c c c v c c v v c k v k c v v v c c v c k v v v v v v v v v v v v v v v v v k k c v v v v c v v v v v v v v v b M b v v v b b v v v v v v v v v v v v v v v v v v v v v v v v v v v v v v b n n n B B B C B B B B B B N M b v v v v v v v v v v v v v v v v v v v v b b b v v v v v v v v v v v v v v v v v v v v v v b T T E M M M M M T T T v v b b v v T T v v v v v v v v b v v v v v v v v v v v v v v v b b v v v v v v v v v v v v v v v v v v v b T T v v v v b M b b b b v v v v v v v v v v v v v v v v v v b v v v v b b v v v v b b v v v v v v b b v v v v v v v v v b b b b M b T T b b T T M M M M M M M M b b v v b M b b v b M b v v b b v v v b T T b b v v v v v v v v v v v v v v v v b b b M b v v v v b b b b v v v v T v v v v b b b b b M M M M M b b v b b b b v v b b b v v v v v v v v v v v v v v v v v v v v v v b b v v v b b v v v v v v v v v v v v v v c c k c v v v v v c k c v c c v v v k k k k k k k k c c k k k k k k k k k k k k k k k k k k k k k k k k k k k k k k k k k k k k k k k k k k k l l k l i k k k l k k k k k k k k k k k k k i u i i i k i u k u u u u i i u i i i u u u u u u u u u u u u u u u u u u u u u u u u u u u u u u ",
"+ u u u u u u u u u u u u u u u u u u u u u u u u u u p u u u u u u u u u u u u u u u u u u u u u u u u u u u u u u u u u u u u u u u u u u u u u u u u u u u u u u u u u u u u u u u u u u u u u u u u u u u u u u u u u u u u u u u u u u u u i u u i i u k k u k k k k k k u u u i k k k k k k k k k k k k k k k k k k k k k k k k k k k k k k k k k k k k k k k k k k k k k k k k k k k k k k k k k k k k k k k k k k c c k k c k k c c v v v v c k k k k k k c k k k k k c v k k c c c k c k c v v v c c v c c c v v v v v v v v v v v v v v v v c k v v v v v v v v v v v v v v v b b v v v v v b b v v v v v v v v v v v v v v v v v v v v v v v v v v v c v b M M M B B B C B B B B N M M b b b v v v v v v v v v v v v v v v b v v v v v v v v v v v v v v v v v v b b b v v b v v v v v T T T E b b b M b v b v v b b v v b T v v v v v v v v v v v v v v v v v v v v v v v v v v v v v v v v v v v v v v v v v v v v v b T v v v v v b b b v v v v v v v v v v v v v v v v v v v v v v v v v v v v v v v v b b v v v v v v v v v v v v v v v v v b b b M M b T T b v b M M M b b b M M M M M b b M b v v v b M b v v v v v v v v b v v v v v v v v v v v v v v v v v v v v v b b b v v v v b b v v v v v b v v v v v b b b M b b M b b b b b v b M b v v v v v v v v v v v v v v v v v c c v v v v v v v v v v v v v v v v v v v v v v v v v v v v v v v c c v c v v v v c c v v v v v v v v c k k k k k k c c c k k k k k k k k k k k k k c c c k k k c v c k k k k c k k k k k k k k k k k k k k k k k k l k k k k k k k k k k k k k k k k k u u k k i i k k u k k i u u u u i u u u u u u u u u u u u u u u u u u u u u u u u u u u u u u u u u ",
"+ p u u u u u u u u u u u u u u u u u u u u u u u u u u u u u u u u u u u u u u u u u u u u u u u u u u u u u u u u u u u u u u u u u u u u u u u u u u u u u u u u u u u u u u u u u u u u u u u u u u u u u u u u u u u u u u u u u u u u u u i u u u u i k i u i i k k i k k u i k k k k k k k k k k k k k k k k k k k k k k k k k k k k k k k k k k k k k k k k k k k k k k k k k k k k k k k k k k c k k k k k k k k k k k k k k k k c c v v c k k k k k k k k k c k c c v v k k k c c c c k c v v v v c k c c k c v v v v v v v v v v c c v v v v v v v v v v v v v v v v v v v v b b v v v v v b b v b b v v v v v v v v v v v v v v v v v v v v v v v v c v b M M M M B B B B B B B B M M b b b v v v v v v v v v v v v v v b b b v v v v v v v v v v v v v v v v b b M b b b b b v v v v v T T b v v b M b v v v v b b v v v v v v v v v v v v v v v v v v v v v v v v v v v v v v v v v v v v v v v v v v v v v v v v v v v v v v b v v v v v v v v v v v v v v v v v v v v v v v v v v v v v v v v v v v v v v v v v v v v v v v v v v v v v v b b v b M M b b M b b M b b b b b b b M b M M M M b b v v b M b b v v v v v v v v v v v v v v v v v b b v v v v v v v v v v v v v v b v v b b v v b v v v v v v v v v b b b b b v b b T b M b b M b v v v v v v v v v v v v v v v v v v c c v v v v v v v v v v v v v v v v v v v v v v v v v v v c v c c v v v k c v v v k c v v v v v k c v v c k k k k k k c c k k k k k k k k k k k k k k c c k k k k c k k k k k k k k k k k k k k k k k k k k k k k k k k k k k k k k k k k k k k k k i u u i k k i u i i i k k k u i u u u u u u u u u u u u u u u u u u u u u u u u u u u u u u u u u u u u ",
"+ + u u u u u u u u u u u u u u u u u u u u u u u u u u u u u u u u u u u u u u u u u u u u u u u u u u u u u u u u u u u u u u u u u u u u u u u u u u u u u u u u u u u u u u u u u u u u u u u u u u u u u u u u u u u u u u u u u u u u u u u u u u u k i u u u u i k u i k i i k k k k k k k k k k k k k k k k k k k k k k k k k k k k k k k k k k k k k k k k k k k k k k k k c c k k k k k k k k k k k k k k k k k k k k k k k c c k k k k k k k k k k k c k k c k c c k k k k c v c k k k c v v v v c k k c k c v c v v v v c v v v v c k k c v v v v v v v v v v v v v v v v b v v v b v v v b b v b b v v v v v v v v v v v v c v v v v v v v v v v v v v b M M M M N B B B B B B B B M b b v v v v v v v v v v v v v v v b M b v v v v v v v v v v v v v v v v b M M M M M b v v b b v v v v v v v b M b v v v v v b v v v v v v v v v v v v v v v v v v v v v v v v v v v v v v v v v v v v v v v v v v v v v v v v v v v v v b b b v v v v v v v v v v v v v v v v v v v v v b b v v v v v v v v v v v v b v b b v v v v v v v b b v v v v v b M b b b M M b b M M M b v b E E b b b v b b b E b v b b M b v T b v v v v v v v v v v v v v v v v b M b v v v v v v v v v v v v v v v b M b v v b b b c c v v v v v b b b b b v b T T b b b M M b v v v v v v v v v v v v v v v v v v v c c v c v v v v v v v v v v v v v v v v v v v v v v v c k c c c v v v c c v v v c v v v v v c k c v v v k k k k k k k k c k k k k c k k k k k k k k k k k k k k k k k k k k k k k c k k k k k k k k k k k k k k k k k k k k k k k k k k k l k k k k i i k i k k u u u k k k k i u u u u u u u u u u u u u u u u u u u u u u u u u u u u u u u u u u u u u "
};
