/* XPM */
static char *_water_xpm[] = {
/* columns rows colors chars-per-pixel */
"64 64 4 1",
"  c None",
".  c #004488",
"o  c #0088CC",
"+  c #00AADD",
/* pixels */
"................................................................",
"................................................................",
".....oo.....oo.....oo.....oo.....oo.....oo.....oo.....oo........",
"...o++oo...o++oo...o++oo...o++oo...o++oo...o++oo...o++oo........",
"...o++++o..o++++o..o++++o..o++++o..o++++o..o++++o..o++++........",
".....oo.....oo.....oo.....oo.....oo.....oo.....oo.....oo........",
"................................................................",
"................................................................",
".....oo.....oo.....oo.....oo.....oo.....oo.....oo.....oo........",
"...o++oo...o++oo...o++oo...o++oo...o++oo...o++oo...o++oo........",
"...o++++o..o++++o..o++++o..o++++o..o++++o..o++++o..o++++........",
".....oo.....oo.....oo.....oo.....oo.....oo.....oo.....oo........",
"................................................................",
"................................................................",
".....oo.....oo.....oo.....oo.....oo.....oo.....oo.....oo........",
"...o++oo...o++oo...o++oo...o++oo...o++oo...o++oo...o++oo........",
"...o++++o..o++++o..o++++o..o++++o..o++++o..o++++o..o++++........",
".....oo.....oo.....oo.....oo.....oo.....oo.....oo.....oo........",
"................................................................",
"................................................................",
".....oo.....oo.....oo.....oo.....oo.....oo.....oo.....oo........",
"...o++oo...o++oo...o++oo...o++oo...o++oo...o++oo...o++oo........",
"...o++++o..o++++o..o++++o..o++++o..o++++o..o++++o..o++++........",
".....oo.....oo.....oo.....oo.....oo.....oo.....oo.....oo........",
"................................................................"
};
