/* XPM */
static char *_740326671046[] = {
/* columns rows colors chars-per-pixel */
"626 627 250 2 ",
"   c #4A72A9",
".  c #4B7AAD",
"X  c #4E7DB4",
"o  c #4E7CB9",
"O  c #537DB5",
"+  c #527EBB",
"@  c #587BBA",
"#  c #4D7CC1",
"$  c #567EC1",
"%  c #5282AF",
"&  c #4F81B6",
"*  c #5382B5",
"=  c #5A87B6",
"-  c #5583BD",
";  c #5985BE",
":  c #5688BD",
">  c #5B8BBE",
",  c #5E91BD",
"<  c #6788BA",
"1  c #628DBC",
"2  c #6292BE",
"3  c #6C94BD",
"4  c #7295BE",
"5  c #5685C3",
"6  c #5B86C6",
"7  c #5688C3",
"8  c #5B89C6",
"9  c #5786C9",
"0  c #5C87C9",
"q  c #5788C9",
"w  c #558DCB",
"e  c #5C89C9",
"r  c #5E91C5",
"t  c #5E91CA",
"y  c #5D8AD1",
"u  c #6386C7",
"i  c #618EC4",
"p  c #6A8FC5",
"a  c #618DCB",
"s  c #728EC2",
"d  c #6393C4",
"f  c #6995C5",
"g  c #6799C5",
"h  c #6A9BC6",
"j  c #6393CC",
"k  c #6996CC",
"l  c #6699CD",
"z  c #6B9BCC",
"x  c #7393C4",
"c  c #799AC7",
"v  c #729DCB",
"b  c #648FD0",
"n  c #6594D1",
"m  c #6A97D4",
"M  c #6699D2",
"N  c #6B9CD4",
"B  c #6C98D8",
"V  c #6E9ED9",
"C  c #719ED5",
"Z  c #7A9DD6",
"A  c #719FD9",
"S  c #6EA1C6",
"D  c #6EA1CC",
"F  c #72A3CD",
"G  c #77A7CC",
"H  c #6EA1D6",
"J  c #6EA1D9",
"K  c #73A3D4",
"L  c #79A5D5",
"P  c #76A9D3",
"I  c #7AABD5",
"U  c #73A4DC",
"Y  c #7AA5DA",
"T  c #75A9DD",
"R  c #7BACDC",
"E  c #7EB1D5",
"W  c #7EB3DD",
"Q  c #7DB9DE",
"!  c #6CA3E0",
"~  c #75A6E1",
"^  c #78A7E1",
"/  c #76AAE1",
"(  c #7BADE3",
")  c #7DAEE8",
"_  c #77B3E4",
"`  c #7EB4E5",
"'  c #7EB8E5",
"]  c #7FB5E8",
"[  c #7FB9E9",
"{  c #7EC0EC",
"}  c #819DCE",
"|  c #829DD9",
" . c #87A8D1",
".. c #86AAD8",
"X. c #83ACDC",
"o. c #82B2D6",
"O. c #8AB4D6",
"+. c #82B4DD",
"@. c #8CB5DD",
"#. c #84B9DE",
"$. c #8ABBDD",
"%. c #92B5DD",
"&. c #93BADE",
"*. c #9AB8DB",
"=. c #A5BADB",
"-. c #80AFE5",
";. c #80AFE9",
":. c #82B6E5",
">. c #8AB6E2",
",. c #82B9E5",
"<. c #8ABCE4",
"1. c #82B6E9",
"2. c #89B7EA",
"3. c #82B8EA",
"4. c #8BBDEA",
"5. c #93B3E1",
"6. c #93BBE2",
"7. c #9BBCE3",
"8. c #91BEEA",
"9. c #9ABDE9",
"0. c #85B5F1",
"q. c #85B9F0",
"w. c #8ABCF1",
"e. c #90BEF1",
"r. c #A7BEE6",
"t. c #86C0DF",
"y. c #8BC1DE",
"u. c #94C1DD",
"i. c #A4C3DE",
"p. c #86C1E4",
"a. c #8CC2E5",
"s. c #8AC6E7",
"d. c #8DC3EA",
"f. c #8EC9EB",
"g. c #92C4E5",
"h. c #9BC4E4",
"j. c #94C9E6",
"k. c #9BCBE6",
"l. c #92C4EB",
"z. c #9BC5EA",
"x. c #95CAEC",
"c. c #9ACDED",
"v. c #96D1ED",
"b. c #9ED6EB",
"n. c #9CD2ED",
"m. c #8EC3F1",
"M. c #8EC9F0",
"N. c #93C5F1",
"B. c #97C7F5",
"V. c #95CBF2",
"C. c #9BCDF3",
"Z. c #9CCDF9",
"A. c #96D1F1",
"S. c #9DD3F3",
"D. c #9ED8F4",
"F. c #9ED3F9",
"G. c #9FD9FB",
"H. c #A4C3E4",
"J. c #AAC4E5",
"K. c #A8C8E7",
"L. c #A3C4EB",
"P. c #A3CCEC",
"I. c #ACCCEB",
"U. c #B5C8EB",
"Y. c #B4CDEB",
"T. c #A4D3E6",
"R. c #A2D3ED",
"E. c #ABD3ED",
"W. c #A5DCEE",
"Q. c #ADDDEE",
"!. c #B8D4E7",
"~. c #B3D2ED",
"^. c #BBD3EE",
"/. c #B3DDEE",
"(. c #BADDEE",
"). c #A3CDF1",
"_. c #A5CDF6",
"`. c #B7CFF2",
"'. c #B9CEF2",
"]. c #A2D5F4",
"[. c #ABD4F3",
"{. c #A5DBF4",
"}. c #ABDEF4",
"|. c #A3D5FA",
" X c #AAD6FB",
".X c #A5DBFA",
"XX c #AADDFB",
"oX c #B3D3F2",
"OX c #BCD4F3",
"+X c #B3DEF2",
"@X c #BBDEF2",
"#X c #B7D4F9",
"$X c #B3DDFA",
"%X c #BCDDFA",
"&X c #9FE3F2",
"*X c #A6E0EE",
"=X c #ACE1EE",
"-X c #B4E1EE",
";X c #BBE1EE",
":X c #A6E1F4",
">X c #ACE1F5",
",X c #A7E1F9",
"<X c #ACE2FA",
"1X c #AEE8F9",
"2X c #B3E2F4",
"3X c #BCE2F4",
"4X c #B1E3FB",
"5X c #BCE3FA",
"6X c #B8E9FA",
"7X c #C3DCEE",
"8X c #C8D8EB",
"9X c #D3DAEE",
"0X c #C2D3F4",
"qX c #C3DDF2",
"wX c #CBDDF3",
"eX c #C4DBFA",
"rX c #D3DEF2",
"tX c #D7DFF9",
"yX c #C4E1EF",
"uX c #CAE2EF",
"iX c #C3E3F4",
"pX c #CBE5F4",
"aX c #C5E8F6",
"sX c #CCE9F6",
"dX c #C4E5FA",
"fX c #CBE5FA",
"gX c #C5EAFA",
"hX c #CCEAFB",
"jX c #D3E5F5",
"kX c #DAE5F4",
"lX c #D4E9F6",
"zX c #DCEAF6",
"xX c #D3E6FB",
"cX c #DAE6FA",
"vX c #D4EBFB",
"bX c #D2ECF9",
"nX c #DCECFC",
"mX c #D5F1FE",
"MX c #DCF1FE",
"NX c #E4E7F5",
"BX c #EAE7F5",
"VX c #E5EBF6",
"CX c #E9EBF6",
"ZX c #E6E6F9",
"AX c #E4ECFB",
"SX c #EAECFA",
"DX c #F0EBF9",
"FX c #EBF0F6",
"GX c #E3F1FD",
"HX c #EAF1FD",
/* pixels */
">X>X>X>X>X,X<X>X>X>X,X>X>X>X>X=X>X=X:X:X>X=X>X>X>X,X|.,., : 8 8 8 8 q 5 j K ` >.3.3.2.3.3.2.,.>.3.3.,.3.>.3.,.,.,.1.1.,.1.,.>.3.1.1.:.>.,.:.:.,.1.1.1.,.1.:.:.>.1.1.,.>.3.1.:.>.3.:.1.>.1.,.:.3.3.1.3.1.:.,.1.1.:.2.3.>.3.3.,.1.1.:.:.d.S.|.,X>X,X>X:X+X/.iXlXnXAXZXAXAXNXVXAXVXVXVXVXNXBXSXSXSXnXhX3X}.[.<X}.<X4X<X.X@.i e 7 0 0 0 9 0 8 9 q e 6 8 e 7 6 7 6 e 6 8 q e 8 7 8 8 0 8 7 0 0 e 7 8 7 0 0 0 0 0 0 0 0 0 0 a 0 0 0 0 0 0 0 0 0 0 0 0 0 0 u 0 0 0 0 e 0 0 0 0 e 0 0 0 0 0 0 0 0 0 e 0 0 0 0 e 0 0 0 0 0 0 0 0 0 e 0 0 0 e 0 0 0 0 0 0 0 0 0 e 0 0 0 0 0 0 e 0 0 0 0 0 0 0 0 e 0 6 9 0 u 0 5 ; v >.XX>X:X:X:X>X>X/.wXcXDXSXZXSXAXVXBXAXlX@X>X>X>X>X=X>X>X2X>X}.>X>X>X>X}.>X>X<X<X>X>X}.>X<X<X}.XX|.1.8 ; 8 0 0 e 6 @ j Y _ 1.1.1.1.:.:.:.1.1.1.1.1.1.1.1.1.1.[ 1.3.3.1.0.1.1.q.0.3.3.q.[ 1.3.1.0.1.1.q.1.0.[ 0.[ 3.[ 1.1.3.1.0.1.1.0.1.1.q.q.[ 1.0.3.1.1.,.1.1.3.,.3.,.1.' 1.:.` ` N.F.<X1X1X=X>X=X/.(.iXnXnXAXSXSXAXNXNXVXCXCXFXBXFXDXFXDXFXMXaX4X=X:X>X>X>X<X,X].I > 8 7 0 7 $ 9 6 0 9 0 0 0 0 q e e e 0 q q e q e 0 q q e 0 0 0 0 q 0 0 0 u e 0 0 e 0 0 0 0 0 0 0 0 e 0 0 0 e 0 0 e 0 0 0 0 0 0 e u 0 0 0 0 0 6 0 0 0 0 0 0 0 0 e 0 0 0 0 0 0 0 0 e 0 0 0 u e 0 e 0 0 0 0 e 0 0 0 0 0 0 e 0 0 0 0 e 0 0 0 e 0 0 0 0 0 0 0 u 0 0 0 0 a 0 9 0 0 $ u K 4.<X$X$X<X<X>X:X/.iXlXVXGXVXVXSXVXSX",
">X>XXX>X>X>X>X>X>X>X>X>X:X:X1X:X>X>X=X1X>X>X>X=X>X>X].<.> : 8 t 8 q q 5 j H +.,.>.3.3.,.3.>.3.3.,.2.2.3.3.3.>.3.1.,.1.>.1.1.2.:.,.1.,.3.1.1.>.3.>.:.1.1.,.:.>.3.,.3.1.:.1.,.:.,.,.1.3.3.1.3.:.>.>.:.3.>.>.3.:.,.:.,.1.1.1.1.1.3.1.W ` d.A..X>X,X1X:X1X>X3XiXvXnXAXSXZXAXSXAXVXVXFXVXNXCXZXBXZXSXcXdX3X+X}.$X$X}.4X<X.X,.j e 0 0 9 7 0 9 9 0 8 q 7 8 0 7 e e e 6 e 6 e 6 8 0 6 e 8 0 8 q 7 8 0 e e 0 7 0 0 0 0 0 e 0 0 6 0 0 0 u e 0 0 0 0 0 e 0 a 6 0 6 0 0 0 0 0 e 0 0 0 0 e u 0 e 0 0 0 0 0 0 0 0 u 0 0 0 0 e e 0 0 0 0 0 0 e 0 0 0 0 0 0 e 0 0 0 0 0 0 0 e 0 0 0 0 0 0 0 e 0 0 0 0 0 0 6 0 0 0 0 5 5 z >.XXXX{.*X:X>XQ.(.iXkXAXSXZXSXBXVXVXAXnX3X/.>X=X>X>X>X>X>X>X>X>X>X>X>X<X>X>X}.>X}.2X<X>X>X<X}. X|.>.> ; 8 0 0 u 6 - k Y _ :.1.` 1.1.' ' 1.1.1.1.,.1.3.1.q.3.0.0.1.[ 0.3.3.1.[ 1.3.1.1.0.1.3.0.[ 3.1.[ 1.1.3.1.1.1.q.1.0.1.3.[ [ q.[ 1.1.1.1.1.1.1.3.1.1.1.1.3.3.1.,.1.,.1.,.:.` ` m.G.,X<X:X=X-X>X+X(.eXvXAXAXSXSXNXVXNXNXFXCXFXBXCXCXFXBXVXMXgX6X}.:X1X<X>X<X,X].W > 8 8 0 9 9 6 9 6 0 9 0 9 0 0 e e e e e 0 e 0 q 0 e 0 e q e 0 0 0 6 0 0 0 0 0 0 0 0 0 e 0 0 0 0 e 0 0 0 0 0 0 0 u 0 0 e 0 0 0 0 0 0 a 0 0 0 u 0 0 e 0 0 0 0 0 0 0 0 0 e 0 0 0 0 0 0 0 e 6 0 0 0 0 0 0 0 u 0 0 e 0 0 0 0 0 0 0 0 0 0 e 0 0 0 0 0 0 0 0 0 0 0 0 0 0 a 0 0 0 y $ i K l.$X<XXX}.<X:X,X/.iXlXzXFXVXSXVXSXVX",
">X>X>X>X>X>X>X>X>X1X>X>X1X>X>X=X1X=X>X=X>X=X>X>X>X,X|.,., : 8 8 q q 9 5 g P W 3.>.,.>.3.3.3.3.,.3.3.3.,.,.3.3.3.1.>.3.>.1.,.,.:.3.>.1.1.3.3.3.3.3.1.>.,.>.1.3.1.2.>.:.,.1.1.1.1.,.1.1.1.>.3.,.1.3.1.,.:.,.>.:.2.1.1.1.1.3.2.,.>.:.` +.d.S..X>X,X:X,X>X-X@XaXvXnXAXSXSXSXSXCXSXGXVXVXCXBXSXDXZXAXnXhX$X}.$X<X<X<X<X<X.X,.i q 0 7 0 7 7 0 0 0 q 0 0 0 e e e 6 8 7 e 7 e e 7 7 0 0 7 e 0 8 6 e e 0 8 e 0 0 0 e e 0 0 0 0 e 0 0 6 0 0 0 e 0 0 0 0 0 0 0 0 0 0 0 0 0 0 0 0 0 0 0 e 0 6 0 0 0 u e 0 e e 0 0 e e 0 0 0 0 0 0 e u 0 0 0 0 0 0 0 0 0 0 0 0 0 e 0 e u 0 0 0 0 u e e e 0 0 0 u 0 0 0 9 0 0 0 0 $ ; z <.XX,X:X:X:X=X:X/.iXnXSXSXSXAXNXAXNXAXkX3X}.>X>X>X>X}.>X>X>X>X>X>X2X<X>X<X>X4X>X<X>X>X>X>X<X<X X].:.; ; e 0 0 e 6 - a Y ( :.:.1.1.1.1.1.1.] 1.1.3.1.,.1.1.3.[ 3.0.[ 1.[ 0.1.0.0.[ [ 0.[ 0.[ 1.q.1.1.0.1.q.0.1.q.1.0.1.0.1.1.1.1.1.1.3.1.3.1.3.3.1.1.1.1.3.1.1.3.3.,.3.' ,.` ,.] ` m.G.,X1X:X1X}.}./.^.qXnXnXAXSXSXAXVXVXVXCXCXCXCXCXFXFXFXVXzXgX6X:X>X<X<X<X<X>X].W 7 e q q 0 0 7 0 q 0 7 0 7 9 q e e e 0 q 0 q q e e e q e 0 e 0 q 0 e 0 0 0 0 e 0 0 e 0 0 0 0 0 0 u 0 0 e 0 0 0 0 0 0 0 0 0 0 0 e 0 0 6 0 e 0 0 0 0 0 0 e 0 0 0 0 0 e u e 0 0 0 0 0 0 0 0 0 0 0 0 0 0 0 0 e 0 0 e 0 e 0 u 0 0 e 0 0 0 0 0 0 0 a 6 0 0 0 0 e 0 0 0 a 0 a 0 0 0 6 6 K 8.XXXX$X}.<X<X>X=XiXlXVXSXVXSXVXNXVX",
">X>X>X,X>X>XXX>X>X:X>X>X>X>X>X>X>X:X>X>X>X:X=X>X>X,X|.,.: : r 8 q 9 5 5 j H W 2.3.2.3.3.,.2.,.2.3.>.2.3.3.>.1.1.1.1.,.:.,.1.:.:.3.:.:.,.>.:.1.>.3.1.,.1.,.1.1.,.:.:.:.,.>.,.,.1.1.1.,.>.:.1.1.3.,.1.1.:.1.1.1.,.3.3.>.,.1.:.1.1.:.:.' d.A.,X,X>X,X>X>X>X2XaXmXnXSXDXSXSXSXCXAXVXVXAXCXCXBXZXDXAXnXfX@X[.}.$XXX}.4X$X.X>.j 8 7 0 0 0 q 9 0 7 6 0 e 7 7 0 8 e q 0 e 6 7 6 0 e e 7 0 q 0 7 e 6 7 7 7 0 0 0 0 u 0 0 0 0 0 0 0 0 0 0 0 0 0 0 e 0 0 0 0 0 0 0 0 e 0 0 0 u 0 0 0 0 0 0 0 0 0 e 0 0 0 0 0 0 0 0 0 0 0 0 0 0 0 0 e 0 0 0 0 6 a 0 e 0 0 e e u 0 0 0 0 0 0 e 0 0 0 6 u 0 0 0 e 0 0 0 6 0 0 0 0 5 ; F 2.XX,X,X*X}.>X=X/.iXxXAXSXSXAXVXAXVXAXlX3X>X=X=X:X-X>X}.>X>X>X>X>X}.<X>X}.>X}.>X>X<X<X<X}.>X}.XXZ.2.> ; e 0 e e 6 - k U ( :.1.' 1.:.1.:.1.1.1.1.1.1.1.3.1.1.0.3.1.1.3.3.1.1.[ 1.3.1.3.1.1.1.3.[ 1.3.1.1.3.[ 3.1.1.[ 3.[ 1.[ q.3.3.0.[ 0.[ 0.[ 1.1.1.3.1.1.,.3.1.,.1.,.,.,.` 1.] _ M.G.,X,X:X:XQ.+X/./.iXvXAXAXSXAXAXVXVXFXCXCXCXCXCXVXBXCXVXlXgX4X}.}.<X,X<X<X,X|.W : 8 e e q e q q e q 0 7 9 e e e e q 0 e e 0 e 0 q 0 0 e q q 0 0 0 0 0 0 e 0 0 0 0 0 u e 0 e 0 0 0 e 0 0 0 0 0 e 0 e 0 0 0 e 0 0 0 0 0 0 0 0 0 e 0 0 e 0 u 0 e 0 u 0 6 0 0 0 a 0 0 e 0 0 0 0 e 0 0 0 0 0 0 e u 0 0 6 0 e 0 u 0 0 0 0 0 0 e 0 0 0 0 0 0 0 0 0 6 0 0 0 0 0 0 0 5 ; L d.$X4XXX4X}.<X>XQ.iXlXVXGXVXVXSXSXVX",
"}.<X>X>X>X>X>X,X>X:X1X>X<X>X>X>X=X>X>X1X:X1X1X>X<X,X|.>.: : 7 q 0 7 9 5 j K ` 2.3.3.:.2.2.3.2.3.3.,.3.3.2.3.1.1.:.>.3.1.:.1.>.:.1.1.1.,.1.:.:.:.,.1.,.1.1.1.1.,.3.1.,.1.1.1.,.>.1.,.1.1.>.,.:.>.>.:.3.>.,.1.,.1.1.1.,.2.1.1.,.3.:.1.` d.S..X<X,X,X<X>X2X+XdXvXMXAXSXSXSXFXSXGXVXGXVXSXSXSXSXSXSXnXfX3X}.}.$X<X<X4X<XXX:.i e 6 7 7 0 7 0 7 6 0 7 8 8 e 6 7 8 0 8 0 e 7 7 7 e 7 8 e 7 0 e 6 8 0 e 8 e 0 0 0 e 0 0 e 0 0 0 0 0 0 0 e 0 0 0 0 0 0 0 0 0 e 0 0 0 e u 0 0 0 0 0 0 0 0 a 0 u 0 0 0 0 0 e u e 0 0 u e 0 0 0 u 0 0 e 0 0 0 0 0 0 0 0 6 u 0 0 0 e 0 0 0 0 e 0 0 0 u 0 0 0 e 0 0 e 0 6 0 0 0 0 5 ; z <.XX<X>X:XW.:X:X=X3XbXnXGXAXVXAXVXVXAXxX3X+X>X>X2X>X>X>X}.>X2X}.>X>X<X<X}.XX<X<X>X<X<X<X<X}.4XXXF.1.6 ; 6 0 u 6 6 @ j T ` 1.1.1.1.1.1.1.1.1.1.3.3.1.1.3.1.0.1.3.3.1.3.1.1.[ 1.3.0.3.1.1.1.1.1.1.[ 1.1.3.1.3.[ 1.3.1.1.1.1.0.3.3.1.1.0.1.1.1.1.1.1.1.3.1.1.1.1.,.1.,.1.1.1.,.3.' ` B.G..X>X>X:X}.}./.~.qXvXnXAXAXVXVXVXVXFXFXVXCXVXVXFXCXCXVXvXgX4X,X<X<X,X<X<X}.|.W 7 q q 9 q q e e y 7 9 9 9 e q e e q e e q 0 e e e q e 0 q e 6 0 0 0 0 0 0 0 0 e 0 0 e 0 0 e 0 0 0 0 0 0 0 0 0 0 0 0 e 0 0 0 0 0 0 0 0 0 0 0 0 0 0 0 0 0 0 0 0 0 0 0 0 e 0 6 0 0 0 u 0 0 0 0 0 0 0 e 0 e 0 0 0 0 0 0 0 0 0 e 0 0 0 0 0 0 u 0 e 0 0 e 0 0 0 0 e 0 0 0 0 0 y 0 9 u K l.XX$X}.}.1X>X>X>XiXlXAXGXVXVXAXAXVX",
">X<X,X>X,X>X>X<X>X,X>X>X>X>X>X>X>X1X4X1X<X4X1X1X1X<XXX4., : 7 7 7 5 5 5 j K :.2.3.4.1.:.2.2.2.:.2.2.3.>.,.,.1.,.:.,.,.1.>.3.3.:.>.:.1.1.>.:.,.1.:.1.1.,.,.1.:.:.>.1.1.1.:.,.1.:.:.:.1.,.,.1.1.,.3.1.3.:.1.1.:.:.1.,.:.:.1.1.1.,.:.:.:.m.F.,X<X<X1X<X<X2X+XiXmXMXAXAXAXSXSXAXVXFXGXFXFXDXCXDXZXSXnXfX5X$X$X4X4X4X4X4X<X:.i 6 7 7 5 9 5 5 5 6 7 0 0 0 8 0 6 e 0 7 7 e 0 e 6 e 6 8 e 6 7 q e q 7 e 7 e 6 0 0 0 0 0 u 0 0 0 0 0 e 0 0 0 0 0 e 0 e 0 0 0 0 0 0 0 e 0 0 0 0 0 0 0 e 0 0 0 0 0 0 e 0 0 0 0 0 0 0 6 e 0 6 0 0 0 0 0 0 0 0 0 e 0 0 0 0 e 0 0 0 u 0 e 0 0 0 0 0 0 e 0 e 0 0 0 0 0 0 6 0 0 0 6 5 > F <.XX<X:X{.:X:X>X=X3XbXnXMXMXAXAXAXAXAXnX;X>X=X>X=X>X}.>X>X>X>X>X>X>X<X<X}.>X<X<X4X<X<X4X4X4X4XXX|.>.8 6 6 0 6 6 5 - k T :.1.1.2.2.3.3.1.1.1.1.1.1.1.3.1.1.[ 3.1.0.1.1.1.q.0.1.1.3.0.3.1.3.0.[ 1.0.3.0.0.3.1.0.1.3.0.1.3.0.1.3.3.0.3.3.1.1.q.3.q.1.1.1.,.1.3.1.1.1.1.3.:.1.3.,.` ` m.F.,X>X>X}.}.+X+X(.dXvXnXMXGXGXzXVXGXFXFXCXCXCXCXCXVXVXVXvXdX<X<X,X,X,X<X4X<X|.:.8 7 5 5 9 7 0 q e 7 9 $ 9 9 y b e e 0 e 0 q q 0 q q 0 e q q 0 q 0 6 0 e 0 0 0 0 u 0 0 0 0 0 0 0 0 e u 0 0 0 e 0 0 0 0 0 0 0 0 e 0 e 0 0 0 0 0 e 0 e 0 0 0 6 a 0 0 0 0 0 0 0 0 0 0 0 0 0 e a 0 0 e 0 0 u 0 e 0 0 0 0 6 a 0 0 0 0 0 0 0 e 0 0 u 0 0 0 0 0 e 0 0 0 0 a 0 0 0 0 $ 6 K 8.XX4XXX}.:X,X:X/.iXvXAXGXGXVXGXFXFX",
">X>X>X,X>X>X>X>X>X>X>X>X>X1X1X>X:X:XW.:X{.W.:X{.XX.X].,.> 5 7 9 9 5 7 7 j H R :.1.` ` ` ` ` :.1.,.3.,.3.1.,.:.>.1.1.,.>.3.,.1.,.3.1.>.,.3.:.>.1.:.>.1.>.>.:.>.3.3.3.1.,.>.3.,.1.>.1.1.3.1.,.:.3.,.1.,.:.3.>.>.3.3.1.,.3.:.,.1.>.2.1.` d.S.|.,X,X,X,X{.}.E.5XhXmXnXAXAXAXAXAXVXVXFXFXSXCXCXSXSXSXnXhX+X[.{.$XXX$X}.}..X,.j a d e e a a a e 7 0 7 8 7 8 7 e 0 q 6 7 0 8 8 e 7 e e 6 7 0 8 6 7 0 0 0 e e 6 0 0 0 0 e 0 0 0 0 0 u e u 0 0 e 0 0 0 u 0 u 0 0 0 0 0 0 a 6 0 0 0 0 0 0 0 0 6 0 0 0 0 0 0 0 0 0 0 0 0 0 0 0 0 0 0 0 e 0 0 0 0 0 e 0 0 0 e 0 0 0 0 0 0 0 0 0 e 0 0 0 0 0 0 e 0 0 0 0 0 0 0 6 - 5 F <.XX<X}.:X*X:X=X=X3XaXhXvXnXAXVXVXnXAXlX3X>X>X>X=X=X>X>X>X2X>X>X>X<X>X}.}.<X<X}.{.{.[..X{.{.{.|.V.R 8 6 6 6 6 6 6 - j U ( 2.:.' ) ` ( ( ` 1.1.1.3.1.1.1.1.1.1.1.q.3.1.1.q.[ 1.3.0.[ 1.q.[ 1.q.[ 0.3.1.1.1.0.1.q.1.2.1.3.1.q.1.1.1.2.0.q.1.0.3.1.3.1.3.3.1.2.:.1.1.>.3.,.,.,.2.1.` d.V.|.{.{.{.{.E.E.~.@XhXmXMXMXzXzXzXVXVXVXVXCXVXVXCXCXVXVXxXdXXX.X|.|..XXXXXXX|.:.j e q e q e t b w 0 6 5 9 8 b q e e e q e e 0 e 0 e q e 0 e 0 0 0 u e 0 0 0 0 e 0 0 0 0 0 0 6 e 0 0 0 0 0 0 u e e 0 0 e 0 e u 0 0 0 0 e 0 0 0 0 0 0 0 0 e 0 0 0 0 0 e 0 0 e 0 0 0 0 0 0 0 6 0 0 0 0 0 e 0 0 0 0 0 0 0 0 0 0 0 e 0 0 0 0 0 0 0 0 e 0 0 e u 0 0 0 0 0 0 0 0 0 $ 1 K l.XX<X$X<X}.>X>X>XiXpXzXGXAXVXAXVXnX",
">X>X>X>X>X>XXX>X>X>X>X,X>X>X1X>X:Xk.g.y.g.j.j.c.c.x.d.R 8 7 7 7 9 9 7 5 a M K Y Y U U Y U T Y ` 1.,.3.>.:.1.1.1.1.,.1.1.1.1.1.3.,.1.,.1.,.1.3.3.,.3.1.3.3.1.1.,.>.:.:.1.1.,.:.:.3.,.:.>.1.1.:.>.1.1.1.1.3.:.1.,.>.1.1.>.:.:.1.1.>.,.W d.V.S.D.D.D.D.D.R.R.[.gXhXvXlXkXlXlXlXkXkXVXGXCXCXCXSXSXSXvXeXoXP.].].|.|.].R.].>.z N m M M M m V k a e 6 q 0 e 0 7 7 8 e e 0 7 6 e 0 5 e e 8 8 0 8 8 e 7 7 e 0 0 0 0 0 e 0 0 0 0 e 0 0 0 e 0 0 0 0 0 0 e 0 e 0 0 e 0 0 0 0 0 0 0 e 0 0 e 0 0 0 0 0 0 0 e 0 0 0 0 e 0 0 0 0 0 0 a 6 0 0 0 0 0 0 u 0 0 0 0 0 0 e 0 0 0 0 e 0 0 0 0 0 0 0 0 0 0 0 0 0 7 0 0 0 0 5 7 v 4.XX<X}.:X:X>X:XQ.-X3XgXsXsXlXjXxXlXlXsX-XQ.2X>X>X>X>X>X>X>X>X>X}.>X}.}.}.4X4XR.j.x.c.c.c.c.V.l.4.L 8 ; 6 5 5 u 6 6 a M U Y T T T K U U T 1.3.1.1.1.3.q.1.1.1.1.[ 1.1.1.1.1.1.1.1.3.1.1.1.1.1.3.1.3.1.1.3.3.3.1.1.1.1.1.1.1.1.3.1.3.1.1.1.1.3.1.2.1.1.2.1.3.1.1.,.2.:.1.1.:.2.:.:.d.V.S.v.k.n.n.n.T.R./.gXgXhXvXlXsXlXlXkXzXVXVXFXVXVXVXCXAXvX5X XS.S.Z.S.F.F.F.Z.1.U V V N N m m N n e 6 7 7 q e q 8 q e 0 0 e q q e 0 e 0 e 0 0 0 0 0 0 0 0 e 0 0 0 0 0 e 0 e u 0 0 0 0 0 e 0 6 0 0 0 0 0 0 0 0 0 0 0 0 0 u 0 e 0 0 0 0 0 0 0 0 0 0 0 0 0 0 0 0 u 0 0 0 0 0 0 0 0 0 0 0 0 0 0 0 0 e 0 0 0 0 e 0 0 0 e 0 0 0 0 e 0 0 0 0 0 6 0 0 e 0 b 0 0 0 0 $ 1 K 8.<X$X}.}.<X>X=X=X3XaXlXlXlXlXlXlXlX",
">X>X>X,X>X>X>X>X>X>X,X>X>X>X1X<X:Xy.E S D D F G K K K l 8 7 7 q 8 q 7 7 e a j k j k k k k k m ( ` 1.:.1.1.1.1.:.:.2.>.3.,.1.1.3.:.1.3.>.1.,.,.2.1.1.:.:.:.>.3.,.' 1.1.1.:.,.1.1.,.1.1.1.1.1.:.1.,.1.1.,.1.1.,.:.,.1.,.1.1.1.:.,.,.,.,.,.d.d.d.a.s.s.a.a.g.c.4X5XaXiXiXiXiX7XwXjXkXAXCXBXSXSXZXAXcX@X).6.g.l.l.l.l.a.l.,.T Y R T T Y R R A M e 0 7 0 e 6 e e e 8 e e e 6 8 e 6 e e 0 0 7 e 6 8 6 0 e 6 0 0 0 u 0 e 0 0 0 0 0 e 0 0 0 0 0 0 e e 0 0 e 0 0 e 0 u e u e 0 e 0 0 u 0 0 0 0 e 0 0 0 0 0 0 0 0 0 e 0 0 0 e 0 0 e 0 0 0 0 0 0 0 e 0 0 0 0 0 0 0 0 0 0 e 0 0 0 0 0 0 0 0 0 0 0 0 0 0 0 e 0 0 5 ; D <.<X<XXX{.:X>X>X*X1X6X3X3X3XyXyXiX3XiX3X2X>X=X>X>X>X}.>X>X>X>X>X$X>X>X<X<X4XXXa.I F K K F K K K C n 6 7 6 6 6 u 6 6 u a k M j k j j j l V ` 1.1.1.1.1.3.1.1.1.1.3.1.3.1.3.3.1.1.1.1.1.1.1.3.1.3.1.1.1.3.3.1.1.1.1.1.1.2.1.1.3.1.1.1.1.2.3.3.1.1.1.2.3.:.1.1.3.1.1.:.:.3.>.:.:.:.1.2.4.d.a.a.a.a.a.g.u.T.>X3X3XiX3XyXyXyXuXjXzXVXVXVXCXFXVXSXcXoXC.l.4.8.d.N.N.l.4.3.] ) / / ( / / / V n 8 9 9 0 e q 0 0 0 0 0 0 q 0 0 0 0 0 0 0 0 9 e e 0 0 e 0 e 0 0 0 0 0 0 e 0 0 0 0 0 0 0 0 0 0 0 6 0 0 0 0 e 0 e 0 0 0 0 e 0 0 e 0 0 0 0 0 0 0 e 0 0 0 0 e 0 0 0 e 0 0 0 0 e 0 0 0 0 0 e 0 u 0 0 0 0 0 u 0 0 0 0 u e 0 0 0 e 0 0 0 e 0 0 u e 0 0 0 0 6 0 0 $ 8 K <.$X<XXX$X<X1X>X>X2X3X3XiXiXyXiXiXiX",
">X>X>X>X>X>X>X>X>X>X>X:X>X>X1X<X:X#.S % . & & - & * 7 7 8 8 8 8 e q e e 5 6 5 ; 5 6 7 > e 5 i U ( 1.1.,.:.:.:.:.:.:.1.3.3.>.:.>.>.,.1.1.:.1.1.:.>.:.,.,.:.2.1.3.,.,.:.,.1.,.,.,.,.:.,.,.,.,.,.,.,.1.1.,.1.,.,.1.,.1.1.,.,.,.,.,.,.:.:.1.,.` ` ` ` W ` W W d..X4X3X2X$X2X+X/.(.7XrXZXNXBXBXBXZXAXxX#Xh.X.X.-.:.:.+.+.,.@.+.,.>.1.2.:.:.:.-.K j 7 e e e q 6 6 6 6 0 6 6 e e 5 7 e e 7 q 8 6 7 8 e e 6 0 0 0 0 e 0 0 0 0 0 0 0 0 0 0 e 0 0 0 0 u 0 0 0 0 0 0 0 0 0 0 0 0 0 0 0 0 e 0 e 0 u 0 0 e 0 e 0 0 0 0 e 0 0 0 0 0 0 u 0 0 0 e 0 0 e 0 0 0 0 0 0 e 0 0 0 0 0 0 0 0 0 0 0 0 0 0 0 0 0 0 7 0 0 e 6 5 7 N <.XX<X>X}.=X>X>X*X=X1X1X2X=XQ.Q.Q./.=XQ.:X}.>X>X>X>X2X>X>X>X>X>X>X2X>X4X<XXX.Xo.2 = O + o O o + $ 7 0 6 6 6 6 6 6 $ 6 5 5 ; ; 5 ; 7 ; : j ( 3.1.1.1.1.1.1.3.1.1.1.1.1.1.1.1.1.3.3.1.,.1.1.3.1.1.1.3.1.1.1.3.2.1.1.1.1.3.1.3.2.1.2.1.1.1.1.2.2.3.1.1.1.1.:.>.2.3.>.:.:.,.>.:.,.,.,.>.:.:.+.+.+.#.#.#.t.j.b.Q.:X=X=X=X=X-XyXuXzXzXVXVXNXNXCXSXlX[.l.>.,.:.:.1.:.2.2.2.3.[ q.q.q.q.0.] ^ B b 8 9 0 q 0 7 7 0 0 0 0 0 0 0 0 0 e 0 0 e 0 0 0 0 0 0 u 0 0 0 0 e 0 0 0 0 0 0 e 0 0 0 0 e 0 0 a 0 0 0 0 0 0 u 0 0 0 e u 0 0 0 u 0 0 0 0 0 0 0 u 0 0 0 0 0 0 0 0 0 0 0 u 0 0 e 0 0 0 0 0 0 0 0 0 0 0 0 0 0 0 0 0 0 0 0 0 e 0 0 u 6 0 0 0 0 0 6 y 0 0 0 0 6 i F l.$X4XXX<X>X>X>X=X>X=X=XQ.=X=X=X/.Q.",
">X>X>X>X>X>X>X>X>X>X>X>X>X>X<X<X,X#.h : 5 7 q q 7 8 8 8 8 8 8 8 e 8 e 0 e 6 6 6 6 u e e u e k U R :.:.:.:.1.1.1.1.1.1.>.:.:.1.,.3.1.,.:.>.3.,.3.3.1.,.1.,.:.1.,.,.1.1.:.,.,.,.1.1.,.1.,.,.1.1.1.,.,.,.,.,.,.1.1.1.,.,.' 1.:.1.1.1.' 1.1.1.` ` ] :.` ] ` _ s.G.XX4X>X2X>X>XQ.@XwXcXZXBXBXBXBXAXZXxXoXl.X.:.1.3.3.,.,.:.+.@.` :.+.W X.@.:.X.K d 7 6 7 6 u 6 e 6 6 e 6 6 e e 6 e e 7 6 8 0 8 8 6 8 8 e 0 q 0 0 0 0 0 0 e 0 0 0 0 0 0 0 0 0 0 0 0 0 0 0 0 0 0 0 0 0 0 0 0 0 0 0 0 6 0 0 0 0 0 0 0 0 0 0 0 e 6 u e 0 e 0 0 0 0 e 0 0 0 0 0 0 6 u 0 e e 0 u 0 0 0 0 0 0 0 0 9 0 0 0 0 0 0 0 0 0 6 6 e 0 6 - ; z a.XX<X:X:X>X>X:X*X>X>X=X>X=X:X*X:X*X:X>X:X>X>X>X>X>X>X}.>X>X>X>X>X>X4X}.<X<XXX#.h 7 7 9 9 9 9 9 6 7 0 0 6 6 6 6 6 5 6 5 5 6 ; 8 5 6 ; 7 j R 2.,.1.,.3.3.3.3.3.3.[ 3.3.3.3.1.3.3.3.1.1.1.3.1.1.,.1.,.1.1.3.1.1.1.1.1.1.1.1.1.:.2.2.:.1.3.1.1.1.:.3.>.3.1.:.:.2.1.1.:.,.1.1.,.:.:.:.>.:.+.:.:.` ' ' Q ,.f.D.:X,X>X>X:XW.T.;XuXlXVXVXVXNXBXCXFXlX`.l.:.:.2.:.1.:.3.3.2.3.[ q.q.[ [ q.[ / V a 0 7 0 u 0 0 9 7 0 0 0 0 0 0 0 0 0 0 0 0 u 0 0 0 e 0 0 0 0 0 0 0 e u 0 0 e e 0 0 0 e 0 0 0 0 0 0 0 6 0 0 0 0 0 e 0 0 0 0 0 0 0 0 0 0 0 a 0 0 e 0 e 0 0 0 e 0 0 0 e 0 0 0 0 0 e 0 0 0 0 e 0 0 0 0 0 e 0 0 0 a 0 0 0 0 6 u 0 0 e 0 e 0 e 0 6 e 0 0 0 0 6 5 ; L a.XX4X}.<X<X>X>X>X>X=X:X:X:X:X:X:X:X",
">X<X>X>X1X:X:X>X>X,X>X1X1X>X<X<X>X$.S 8 7 8 e j e e 8 q e q q q e e e 7 e 6 6 6 6 e u a 8 u b U ( :.1.1.:.:.:.1.1.,.1.[ ,.1.1.1.1.3.1.3.,.3.3.,.,.1.1.1.1.1.1.' ,.1.:.1.1.1.' 1.` 1.1.' ,.:.' 1.' :.1.1.:.1.:.1.' ,.:.1.1.' 1.1.1.' 1.` ' ` ` :.` :.` ` ' m.|.,X<X4X>X>X,XQ.+XwXcXAXAXCXBXSXZXAXcX#Xl.X.:.1.3.2.3.>.,.,.:.:.+.` :.` :.,.Y V a 8 e e 6 6 6 u 6 e 6 6 6 0 8 8 7 6 6 e 8 0 8 0 e 8 e 0 6 0 e 0 0 0 0 0 0 0 e 0 0 0 e u 0 e 0 0 0 0 0 0 e 0 0 0 e 0 0 e 0 0 0 e 0 0 0 0 6 0 e 0 e u 0 0 0 0 0 0 0 0 0 0 u e 0 0 0 0 0 0 0 0 0 e 0 0 0 6 e 0 6 e e u u 0 6 6 7 0 0 6 0 0 0 0 0 6 6 e e 6 5 7 z 4.<XXX}.=X>X>X>X*X>X>X>X:X>X:X:X:X>X>X:X>X>X>X}.>X>X>X>X2X>X>X>X>X>X>X>X}.XXXX$.z d q 0 0 9 6 0 0 0 0 $ 6 0 6 6 6 6 6 6 6 8 5 u e 8 7 8 j ( 1.1.1.1.1.3.] ,.' ,.3.1.,.,.3.,.,.1.3.1.,.1.1.1.3.1.1.1.1.1.1.1.' :.:.2.1.1.1.3.1.1.3.1.1.1.1.1.1.1.1.1.3.1.1.:.1.,.1.,.,.,.:.:.:.:.,.:.:.:.:.+.:.#.,.,.#.s.{.,X>X>X>X{.W.T.-XuXlXMXGXCXVXBXCXFXlXoXl.R :.2.:.:.,.1.>.3.3.3.q.0.[ [ [ 3.( V e 6 6 0 a e 6 0 0 0 0 0 0 e u e 0 0 e 0 0 e 0 0 0 0 0 0 0 0 e 0 0 0 0 0 0 u 0 0 0 0 e u 0 e 0 u 0 0 0 0 0 e 0 0 0 0 0 0 e 0 0 e 0 0 0 0 6 0 0 0 0 0 0 0 0 e u 0 0 0 0 e 0 0 0 0 0 0 0 0 0 0 0 0 0 0 0 0 0 6 0 0 0 0 e 0 0 0 e 0 0 0 0 6 0 e e e 0 7 0 6 5 > F l.$XXX<X>X2X>X>X>X=X:X:X:X:X>X:X>X:X",
">X>X>X>X:X1X>X>X>X>X>X:X1X>X>X,X,X<.h 8 7 e e e e e q 0 e q q q e e 6 0 0 0 6 6 6 e u a u 0 k U ` :.1.1.] 1.1.:.1.,.1.1.1.:.,.1.1.1.1.,.>.3.3.,.1.1.,.,.1.` ` :.` ` :.:.1.] ] :.,.' :.] ` 1.1.1.' 1.1.` 1.' :.` ' 1.1.:.` :.:.` ' 1.` 1.` :.` 1.,.` ` ' 3.M.G.,X4X>X>X<X>X}.@XiXvXnXAXSXSXAXSXAXxXoXg.X.:.:.3.3.2.,.,.:.,.:.:.+.W :.:.-.R V a e 8 e 6 8 e 6 u e 6 6 6 6 e e 8 8 e e e 6 8 8 6 6 6 6 7 0 0 0 e 0 e 0 0 0 0 0 0 0 0 e 0 0 0 0 0 0 0 0 0 0 0 e 0 0 0 0 e 0 e 0 0 0 e 0 0 0 0 0 e 0 a 6 0 u 0 0 0 0 0 0 0 0 0 0 0 e 0 e u 0 0 e 0 0 e 0 0 8 0 u e e 0 0 6 $ 6 0 8 u 0 6 0 0 6 e u e e 0 5 > z <.XX,X}.:X:X>X:X:X:X:X:X>X:X>X:X>X>X1X>X>X>X>X>X>X>X:X>X<X>X<X<X}.<X}.}.}. X.X+.z 8 8 9 0 q 0 0 0 0 6 0 0 6 6 0 6 6 0 6 6 e 6 6 6 e 8 6 j ^ 1.:.1.1.:.1.' 1.1.3.[ [ ,.1.3.1.,.,.,.1.1.3.1.1.,.1.1.1.1.1.' :.] :.` :.1.1.:.1.:.1.1.2.1.1.1.1.1.1.1.:.1.:.1.1.1.:.:.:.:.:.:.:.:.:.:.:.:.:.+.>.:.:.:.,.$.j..XXX,X<X<X,X,X-X;XaXlXnXAXSXBXBXSXSXcXoXl.( :.,.,.1.:.,.3.3.4.3.3.,.[ ] 1.3./ m q 7 6 0 u 6 6 0 0 6 u e 0 6 0 0 0 0 0 0 0 0 0 0 0 0 e 0 0 0 0 0 0 0 0 u 0 0 0 0 0 6 u 0 0 0 0 0 e 0 0 0 e 0 0 0 0 0 0 0 u 0 0 0 0 0 0 0 0 0 0 0 0 0 0 0 0 0 0 6 0 u 0 e 0 e 0 0 0 0 0 0 a 0 0 0 e 0 0 0 e 0 0 0 0 0 0 0 0 6 6 0 6 6 0 8 6 e e e 6 8 6 6 5 > F <.XX4X}.>X>X>X>X*X>X:X:X:X>X>X>X>X>X",
">X,X>X>X>X=X>X>X>X>X,X>X>X>XXX<X<X<.S : 5 0 e a e e e e e e q e q 0 0 0 0 e 0 e u e u e a e a T ) 1.1.1.] ` ` ] ` 1.1.1.1.,.1.1.,.1.3.3.3.3.3.3.,.,.3.3.,.:.:.` ` ` ` ` ` :.` ` ' ` :.` ] 1.` ` ` ` ` :.:.` :.` ` ` ` ` ` ` ` :.` :.1.` ` :.` ` ` :.` :.,.M.|.XX<X<X<X>X>XQ.+XiXvXMXAXSXSXAXAXAXfX#Xh.W -.1.3.2.3.3.:.1.,.:.:.:.:.` :.2.( C i 8 6 6 6 6 6 6 6 e 6 6 a 6 e e q e e 6 e e e e e e e 0 e 0 0 0 0 0 u 0 0 0 0 e e 0 0 0 0 0 0 0 0 e e 0 0 e 0 0 0 6 0 0 0 0 0 0 0 0 0 0 e 0 0 0 0 0 0 0 0 0 e 0 0 0 0 0 e 0 e u 0 0 0 0 0 e u e 0 0 6 0 6 u 6 e 0 0 u 6 6 6 7 7 6 6 6 a e 6 8 e e e 6 e ; 8 z ,.XXXX}.>X1X<X>X:X:X:X>X:X:X>X>X>X:X:X>X>X>X>X>X>X>X>X>X<X>X}.<X<X}.}.XXXX,X X@.h 8 8 q 9 0 e 0 0 0 0 0 0 0 6 0 6 6 0 u 6 e u u 6 u e 6 a ( 1.1.1.:.:.1.' ' ,.' ,.3.3.,.[ 1.,.1.,.1.1.1.1.1.3.2.1.1.1.:.1.` 2.1.:.-.1.1.1.1.1.1.1.) :.;.1.1.1.1.1.1.:.1.:.:.:.:.:.:.:.:.:.:.+.+.:.>.-.-.>.+.:.+.>.:.$.j.|.XX<XXX<X>X,X-X3XsXlXnXAXSXCXSXDXSXnXoXl.W +.,.>.,.:.,.,.>.p.3.,.3.' ` ] 1./ V 8 @ 6 0 e e 8 6 6 e e 0 e 0 0 e 0 a e 0 0 0 0 0 0 0 0 0 e 0 0 0 0 e 0 e 0 0 0 0 e 0 e e 0 0 0 0 0 0 0 0 0 0 0 6 0 6 0 0 0 e 0 0 0 0 e 0 0 e 0 e 0 0 0 0 e 0 0 e 0 e 0 0 u 0 0 u e e 0 0 0 0 6 0 0 0 0 0 0 0 0 0 e 0 0 u 6 u e e e e e e e u e e 8 e 6 6 - > F g.<X4XXX>X>X>X>X>X>X>X>X:X>X*X>X>X>X",
">X:X:X>X>X>X:X>X:X1X>X<X>X>X,X<XXX$.h 7 5 0 e e e e 0 q e q e e 0 0 0 u 0 0 0 0 e u e 6 0 u a ^ :.1.0.3.] ] ) ` 1.' 1.1.1.1.1.1.1.3.,.3.3.3.3.,.,.,.3.3.3.1.,.' :.` ` ) ` ] ) ] ] ) ] ` ] ) ) ] ` ] ` ) ` ) ` ` ` ` :.) ` ` ` ` ` ) ` ` ` ` ` ` ` ` ` ` ' m.|.,X}.<X>X>X,XQ.2X3XmXGXAXAXAXGXGXGXvX[.l.X.+.:.1.2.3.1.1.:.>.1.1.:.:.:.:.1.( C i 8 8 6 8 6 6 e e 8 6 i e 8 e 8 8 e u e u e e e e 8 e e 0 u u 0 0 0 e 0 0 0 0 0 0 u 0 0 0 0 e 0 0 e 0 0 0 0 0 0 u e 0 0 u e 0 0 e 0 0 0 0 0 0 0 0 0 0 0 0 0 0 0 0 0 0 0 0 0 0 0 e 0 e 0 0 0 0 0 0 e 0 u e 6 6 u u e u 5 6 5 6 6 8 6 6 e e 6 e 6 e e e e ; 7 D ,.XXXX}.>X>X<X>X>X>X,X}.:X*X:X=X>X,X>X>X>X>X>X1X>X>X>X<X}.XX<X}.XXXX<XXXXX<XXX,.k 8 e q 0 q q q 0 0 6 0 0 6 6 6 6 6 u 6 6 6 6 i 6 u 6 8 j ^ :.:.) ` 1.' 1.,.' 3.3.[ 3.1.3.,.,.1.,.1.,.2.1.2.1.3.,.2.1.:.:.1.:.1.1.1.1.3.2.:.:.1.1.1.;.] 1.1.;.1.;.:.1.1.) 1.1.] -.:.:.1.+.` :.` :.:.:.:.-.+.2.>.>.:.+.d..X XXX}.}.}.>X2X5XpXvXnXGXGXSXSXDXHXvXoXl.W :.3.,.,.>.,.,.,.,.,.,.,.[ ' 1.] T M 8 ; 6 0 e e 6 6 6 0 e e e e a 0 a 0 a a 0 e e e 0 0 0 0 e 0 u e 0 0 0 0 0 0 e 0 0 0 0 e u 0 0 0 0 0 0 0 u e e a 0 0 0 0 0 0 0 e 0 0 0 e 0 0 0 0 0 0 e u 0 0 0 0 0 0 e 0 0 0 0 0 0 0 0 0 0 0 0 0 0 e e 0 0 0 0 0 0 u e e e 6 e e u u e u e e e 8 8 8 8 7 - > F 8.}.<X>X2X>X>X1X1X1X>X:X>X>X>X>X>X>X",
">X>X1X>X>X>X1X>X>X>X<X<X1X>XXX,XXX,.h 7 5 q e e e e e q 0 0 e q 0 0 q e 0 0 0 e e e e u u 0 b ^ ;.1.q.2.1.1.] ] ' 1.:.` ' 1.' 1.1.3.3.3.3.,.2.1.' 1.,.3.2.:.` :.) :.1.1.1.1.1.1.1.1.1.1.1.1.1.] 1.1.1.1.1.:.:.1.:.:.:.1.1.1.:.:.:.:.1.1.:.1.:.1.:.1.1.1.,.m.|.,X>X<X>X>X>X}.>X3XmXMXMXGXAXGXGXGXvX#X9.-.-.:.1.:.3.' ` 1.3.,.' 1.1.:.1.1.( K j ; 8 8 6 8 6 8 5 6 8 6 8 e 8 7 8 8 8 8 e e e u 6 e 6 e 0 0 0 e 0 0 0 0 0 e 0 0 0 e 0 0 e 0 0 0 0 u 0 0 0 0 0 e 0 0 e 0 0 0 0 0 0 0 0 e u 0 e 0 0 0 0 0 0 0 0 0 0 e e 0 0 0 0 0 0 0 0 0 0 0 0 0 0 6 6 e 0 u 6 6 6 5 6 6 6 6 6 5 5 6 5 8 6 6 6 6 5 6 5 5 - > D <.,X<XXX>X,X<X<X<X<X>X>X:X>X:X1X:X>X>X>X>X>X>X:X>X>X>X<X}.4X<XXX<XXX<X<XXX$XXX:.z i q e e e 0 0 0 0 q 0 0 0 9 6 0 0 6 6 e e u 6 6 8 6 6 j ^ ;.:.:.:.:.1.3.[ 3.[ ,.,.' ,.' ,.1.,.,.1.1.3.1.,.1.1.1.3.1.( 1.1.1.1.1.1.1.2.2.1.1.1.1.1.1.1.1.1.0.1.1.1.1.0.1.1.1.1.1.1.1.1.1.1.1.2.:.2.2.>.:.:.>.2.1.,.@.l.XX,XXX>XXX>X>X2X5XgXsXvXMXAXAXAXGXAXvX[.d.R :.2.1.' :.:.1.,.3.,.,.,.3.' ' 1.T H 7 - 5 6 e 5 6 6 6 e 6 e e e e e e e 0 e e e u 0 0 0 0 0 0 0 e 0 0 0 0 0 e 0 0 0 e 0 0 0 0 0 0 0 0 e 0 0 0 0 0 0 0 0 0 e 0 0 0 6 0 0 0 u 0 e 0 0 0 0 0 e 0 6 e 0 0 0 0 0 0 0 0 e 0 0 0 0 0 e 0 0 0 6 u 0 0 e 0 0 0 e 6 0 e e 7 7 8 8 7 8 e > 6 8 > 6 5 5 - = K l.XX<X<X>X>X<X>X>X1X:X>X:X>X>X>X>X>X",
"=X:X=X>X>X:X>X>X,X}..X,XXX|..XXX|.#.h 7 9 0 0 e e 9 e e 9 e 9 e 0 0 0 0 0 0 0 0 u u e e e e j Y ) 1.3.q.q.3.] [ ' ] ] ' 1.1.1.1.3.2.3.3.3.3.,.,.` :.,.>.[ _ ` ( ` -.:.] 1.1.1.;.0.;.0.0.0.;.0.0.1.1.1.1.1.1.1.1.1.1.1.:.1.1.1.:.1.:.1.1.1.1.1.:.1.:.1.:.:.d.|.XX<X>X>X>X>X}.2X2XhXmXMXMXGXMXMXMXhX`.8.X.X.:.` ` ) ` ( ' ,.:.` 1.:.1.1.1.( U i e 0 e e 8 8 8 0 e e e 7 6 e e 8 e e e e e 8 u u e u e 0 0 0 0 e 0 e 0 0 0 0 0 0 0 6 0 e 0 0 6 0 0 0 0 0 0 0 0 0 0 0 0 e 0 0 0 0 e 0 0 0 0 e 0 0 0 0 u 0 0 0 0 0 e 0 0 u e 0 0 e 0 0 0 0 0 e 0 0 0 0 6 e e 6 6 $ 6 $ u 6 a u 8 7 7 7 7 0 7 6 5 7 6 e 7 - > D a.<XXXXX<X,X>X<X<X<X1X>X>X>X>X:X1X=X>X>X>X>X>X>X>X>X>X<X}.XX XXXXXXXXXXXXXXX|.:.k i 0 0 q 0 e 0 0 0 0 e 0 0 0 e 6 e 6 e u 6 6 u 6 8 6 7 j Y ;.1.) ` ] ` ] ' ' [ ' ' ,.1.,.,.,.,.1.,.1.1.,.2.>.:.1.,.1.` ` ,.3.3.3.3.3.3.1.1.1.3.3.1.0.1.q.q.q.3.q.0.q.q.3.q.0.3.0.3.3.3.1.1.1.1.1.1.1.1.2.2.1.>.1.,.@.N..X<X4X4X<X<X<X2X5XaXhXvXvXnXnXnXnXnXdX_.4.R _ ' ` _ ` ( ` 1.>.,.,.,.3.1.' ' R N 8 - 5 7 8 8 7 6 7 0 7 e e e y a 0 e a e e 0 0 0 e 0 0 e 0 0 0 0 0 0 0 0 e 0 0 e u e 0 0 0 0 0 0 0 0 0 0 e e 0 a 0 0 0 0 0 u 6 u e 0 e 0 0 0 0 0 0 0 0 0 0 0 0 e 0 0 a 6 0 0 0 0 e 0 0 0 0 0 0 0 0 0 0 0 e 0 0 0 6 0 6 e q 8 8 8 7 8 8 5 8 8 7 8 ; - ; - - > F a.XXXX.X}.XX}.XX>X>X<X1X>X>X>X>X>X>X",
":X>X>X>X>X1X{.W.g.#.#.#.#.$.+.,.,.P z 7 $ 0 y y e 0 9 e e e e e 0 0 q 0 e 0 0 0 e e e u u e i N V J T J U U J J J ( 1.3.1.3.3.3.3.3.q.3.3.3.,.,.:.:.1.1.( Y K N V K K C V A V A ~ ^ B B ~ B A A V A V A V C V V V C V C C C C K C V C N C C C V V V V K H ,.F.XX<X>X2X<X>X}.2X3XaXgXsXlXjXpXxXfX%Xz.@.v C U U U H H U T 1.` ` :.1.1.1.:.) R K V V V V V C C V V V V V V N A U U N a e e e e e e e 0 e 0 0 0 0 6 u 0 0 0 e 0 0 e e u 0 0 0 a 0 0 0 0 0 0 e 0 0 0 0 0 0 0 0 0 0 0 0 0 0 e u 0 e 0 0 6 0 0 0 0 0 0 0 e 0 0 0 0 0 0 0 0 e u 0 0 e 6 e u u 6 u 6 6 5 u a B U U V V C V V A A N C V A V V m C Y 2.|.S.C.c.v.c.n.v.b.{.>X1X>X=X>X>X>X>X:X>X>X1X>X>X>X>X<X{.S.g.,.<.a.>.2.>.:.:.K j e 8 e e q q 0 0 0 e 0 u e 6 u 6 6 e 6 e 6 8 e 8 i 8 e i V U V U U U H V U R ` ` ` ' ` 1.:.' ,.,.,.1.:.1.3.1.1.1.1.( H J J J T J J H J H H J J J U U U J J J U J ! J ! ! J U T J U J T J U U K U U K U K C K U K K K >. XXX<X<X<X<X>X2X2X3X3XdXaXdXdXpXpXaX%Xz.( D H K H H J K U ( ,.:.,.,.' ` 1.1.( Y C B A A A V V C V N V V V J B V A V B a e e u 0 0 0 0 0 0 e u 0 0 6 u 0 0 0 0 0 0 0 0 0 0 0 e 0 e 0 0 0 0 u 0 0 0 0 0 e 0 e 0 0 0 0 0 0 0 u e 0 0 0 e 0 0 0 0 0 0 0 0 0 0 0 0 0 0 0 0 0 e 0 e 0 0 0 e 0 0 0 0 0 0 6 a k m U V K U C C C C C C K C C C V N K R 2.c.c.x.c.c.c.c.v.R.}.:X1X>X>X>X>X>X",
"1X=X=X>X>X1X{.v.E 3 g g h h h h z h j 7 9 0 y 0 y 9 e 0 e e 9 e e 0 0 0 0 0 0 e e e e u u e u j n j j n j t j l M / 2.3.1.3.3.3.3.2.3.3.1.1.' ' 1.:.1.( T l j j j j i j k a a k B B B ^ b b b b b a k a a a a k a j d j a j i a j d j a a d j i d j d d g R F.XXXX<X<X>X>X}.2X-X;XiXiXiXqXqXqXiXoX6.L i i k n z j M M U ` R ` :.:.:.` ) ` ( ( ) ^ ( ( ( ) ( ( ^ ( ^ ) ( ^ ( ) ) ^ n 8 e e e e e e e 0 0 0 0 0 0 0 e e 0 0 0 6 u 0 0 0 0 0 0 0 0 0 0 0 0 u 0 0 e 0 0 0 0 e e 0 0 0 e 0 0 0 0 e 0 0 e 0 0 a 6 0 0 0 0 0 0 0 e 0 0 0 0 0 0 0 u 0 0 0 6 u 6 6 e 6 6 a B U ;.) ( ^ ) ( ( ( ` ^ ;.) ^ ( ( ( ( ` >.l.8.d.a.a.a.a.$.j.R.}.1X1X:X>X>X:X:X:X>X>X:X>X>X>X>X<X{.g.I f K K F z z z M d 8 e e q 0 e 0 q 0 0 0 0 0 0 0 e 6 6 u 6 6 6 6 6 6 6 6 e e k n k n j j j t l J T ` Q ` ' ' ' 3.1.3.1.1.>.3.1.:.,.:.` U g j r l j j g r r r 8 t t t j k n j n n n n n n M b n n b n t n j j j j j j j k j j g j j j g z W |. X,XXX>X>X>X>X+X+X3X@X3XOX3X(.(.+X[.@.K t r j j t j l M T ` :.:.` ` ` ` 1.` ( ( ^ ) ) -.) ( ( ^ ( ( ) ) ) ~ ( ) ^ ~ n e e 0 0 0 e 0 0 0 0 0 0 0 0 6 0 0 e 0 0 0 0 0 0 e 0 0 0 0 0 0 0 0 0 6 0 0 e 0 0 0 0 0 0 e 0 0 0 0 0 0 e 0 e u 0 0 u 0 0 0 e 0 u 0 0 0 0 0 0 0 6 0 0 0 e 0 u 0 0 0 e 0 0 6 5 a V ~ ] ` ` ) ) R ( ( ( ( ) ( ( ( ( ( X.:.,.a.>.$.<.a.a.a.g.j.W.:X1X:X,X>X>X>X",
">X>X>X>X>X4X:Xj.F % - : : 7 7 7 8 8 8 7 9 9 9 y 9 0 y 9 e 9 q e 0 0 0 q 0 0 0 0 e u e e e e e e e q 8 8 t 8 8 8 j T 1.1.' 1.3.1.3.3.3.3.1.1.:.1.:.1.:.` K j 8 > 6 i u e 6 6 0 0 $ $ $ $ $ b y $ 0 0 e e u e 0 u u 6 8 u 6 6 6 u 6 8 u e i 6 6 u 6 6 7 8 8 T F..X<X2X>X>X<X>X>X2X-X-X-X(.(.@X@X@X[.6.v - > a d i 8 a j K ( ` ( ` :.` ` :.1.1.1.1.1.1.1.[ 1.1.1.1.:.1.1.1.) 1.1.1.) j ; 8 8 6 u 6 6 6 0 0 6 a 0 e 0 0 0 0 0 0 e 0 0 0 e 0 0 0 0 e 0 u 0 e e 0 0 0 0 e 0 0 u 0 0 0 0 u 0 0 0 0 0 0 0 0 0 0 0 0 0 0 0 0 0 0 0 0 0 e e 0 0 0 0 e 0 6 0 6 6 6 6 u 6 5 a V ^ 0.1.1.] 1.1.] [ [ 1.1.1.1.1.1.' 1.,.,.,.,.,.,.:.$.,.$.g.n.}.1X>X>X>X=X1X>X1X>X>X>X>X,X>X1X4X].a.z . 7 8 8 5 - ; 6 e e 6 q q e e q 0 0 0 0 0 0 e 0 0 6 6 e 6 e u e 6 u 6 6 0 0 q e q e e a 8 8 e N T ,.' ` ,.' 1.,.' ,.,.1.1.3.:.:.:.:.( K r 8 7 7 > 8 w 8 7 7 7 7 8 q 7 q q q q 8 q q e q q q q e q 8 8 q 8 q 8 8 q 8 8 e 8 6 8 8 e 8 8 d R |..XXX>X>X}.>X}.}.}.2X2X+X+X/.}./.+X].+.M 7 8 q 8 7 7 8 j K :.:.:.,.1.` 1.,.` _ ` 1.1.1.1.q.3.1.] ) _ ) ] ] ] 1.;.) ~ n u 6 0 0 0 0 0 0 0 e 0 0 0 0 a 0 0 0 0 0 0 e 0 0 0 0 0 e u e 0 0 0 0 e 6 0 0 0 0 0 e 0 0 0 0 0 0 0 0 e 0 0 0 6 e 0 e 0 0 0 0 0 0 0 0 0 0 0 e e u e 0 0 0 0 e 0 0 0 0 0 0 0 5 a U ) 2.,.:.:.:.( W -.:.:.:.:.2.-.2.:.>.:.>.>.>.,.>.<.>.,.#.j.n.}.1X>X>X>X>X>X",
"=X=X>X>X1X<X{.j.S & & 7 7 7 7 9 7 7 9 9 9 9 9 9 9 y 9 y 9 9 e e 0 0 0 0 0 e 0 0 e u e u e e u e 6 e e e e 7 5 8 j T 1.] :.1.1.1.[ q.2.1.1.1.1.1.1.:.1.-.U i 6 ; 5 6 $ 6 6 6 $ u $ $ $ $ y $ $ $ 0 0 $ u $ u 0 u 6 6 6 u 6 ; u 6 6 6 6 6 $ u 6 6 6 5 6 ; > K |..X<X4X}.4X1X2X>X-X=X=X/.2X/.+X+X+X_.>.v - > e e e 7 8 i C ` ( :.:.1.:.:.` 1.1.,.3.3.1.3.2.2.3.3.3.q.[ 1.1.[ ] 0.0.) l 7 6 0 0 7 7 0 6 6 e 0 0 0 0 0 0 0 e 0 0 0 0 0 0 0 0 0 0 0 0 0 0 u 0 0 0 e 0 e 0 0 0 0 0 6 0 0 e 0 0 0 0 0 0 0 0 e 0 0 0 0 0 e 0 0 0 0 e 0 u e 0 0 u e 0 0 0 6 6 u a 6 u 6 6 a A ) q.1.] 3.[ 3.[ 3.3.3.3.3.3.1.3.3.1.1.:.:.:.,.:.+.:.:.X.d.S.{.<X>X1X:X>X>X>X>X>X>X1X>X>X>X1X<X].<.h . 9 q 9 5 5 7 6 0 0 e 0 e e 0 q 0 0 0 0 0 0 0 0 e u 6 6 6 6 6 0 u 0 0 u u 0 0 0 0 6 e 6 0 7 e m T ,.,.' ,.[ 3.' 1.,.,.1.1.,.1.,.1.1.( H 7 7 - 7 7 7 7 8 7 7 7 5 7 7 8 7 q q 9 q q e q 9 9 q 9 9 0 q q q q 7 q 8 8 q q 7 6 7 6 0 0 7 e d R |..X,X<X<X>XXX>X}.>X>X>X>X>X}.>X}..XS.W M 5 9 0 9 9 7 8 n J ' +.,.,.1.' 1.1.` ` ` 1.1.q.3.q.[ 1.] ] ] [ ] ] [ ] 0.) ~ n q e 0 0 0 0 0 0 e 0 0 0 0 0 0 0 0 u e 0 0 0 0 0 0 0 u 0 e 0 0 0 0 0 0 0 0 0 0 e 0 0 0 0 e 0 e 0 0 0 0 0 0 0 0 0 6 0 0 0 0 0 e 0 0 0 0 0 0 0 u 0 0 0 0 0 e 0 0 u 0 0 0 0 6 5 a U ` 2.' :.` W ` :.W :.:.2.:.>.:.:.,.>.2.2.>.:.>.:.2.-.2.#.l.n.:X1X>X>X>X>X>X",
":X1X>X=X>X>XW.j.F & 7 q e q 9 9 e 9 9 9 9 9 y 9 0 9 0 9 e e 9 e 0 e 0 0 0 0 0 0 e e e u u e e 6 0 6 e 6 0 7 5 e n T 1.:.) :.` 1.1.3.1.1.1.1.:.1.1.1.2.-.Y i 6 ; 6 u u 0 6 0 0 u B $ B $ $ $ b b 0 0 y u 0 0 0 $ 6 6 6 6 6 u 6 6 6 u 6 u u 6 u $ 6 u 6 6 > K |..X}.<X<X<X>X>X>X=X-X=X-X/.2X}.2X$X X>.m * - u e e 6 6 e V ( ` :.:.1.:.` ` 1.1.3.3.3.3.3.3.3.1.1.1.[ 0.[ 1.1.1.1.[ ) M 7 e 6 7 0 8 6 e 0 0 0 0 0 0 0 0 0 0 0 0 0 0 e 0 0 0 0 e 0 0 0 0 0 0 0 0 0 0 0 0 u e 0 0 e 6 0 0 0 0 6 0 0 e 0 0 0 0 0 0 e 0 0 0 0 0 0 0 0 0 0 0 0 0 0 0 e 0 e 6 e 6 6 6 6 5 a V ( q.1.1.3.[ 3.3.3.3.3.3.3.3.1.2.3.1.:.:.:.` :.:.:.:.:.+.g.S.{.>X<X>X>X>X>X>X>X>X>X:X>X>X,X>X4X{.8.N o 0 y e e a y e q 9 q q 0 q 0 e 0 q 0 q e 0 e 6 0 6 e 6 0 0 u 0 0 0 0 0 0 0 0 e 0 0 0 0 0 q y M T 2.,.,.3.] 3.1.3.,.1.3.1.>.1.1.1.:.( H r : 7 7 t 8 8 8 8 8 7 7 7 0 q 0 e e e e q e e y e y y e q e e q e e e q e q e q e e 0 e 9 0 e d Y |.XX<X<X<X>X>X>X>X2X>X>X<X<X>X>X>X>XG.` n 5 7 q q 9 0 q n U 3.,.:.1.3.1.1.1.' :.:.1.1.3.3.3.d.1.] ] ] [ [ ] 0.[ ] ) / n 8 e 6 0 0 0 e 0 0 0 0 e 0 0 0 0 e 0 0 0 e 0 0 0 e 0 0 0 0 0 0 0 e 0 0 0 0 0 0 0 0 0 0 0 u 0 0 e 0 0 0 0 0 e 0 0 a 0 6 0 0 0 0 e 0 0 0 0 e 0 0 0 0 0 a 0 0 0 0 0 0 0 0 0 7 6 a U ( ,.' :.W :.W :.:.:.:.:.:.1.:.:.,.:.:.:.:.2.:.2.:.>.:.@.s.R.:X<X>X>X>X>X>X",
">X=X>X=X>X1X{.j.F - 7 q t q t e e e q 9 9 y 9 y y 0 e e e e e e 0 0 0 e 0 0 0 0 e e e 6 e 8 u e 6 6 e 6 e q 7 e n ~ q.1.:.] ` 1.[ 1.1.1.1.:.:.1.:.:.:.) U a > 6 6 $ u 0 u 0 0 0 $ $ B $ y $ b $ y u $ u u 0 6 6 u $ u 6 6 6 u ; 6 < $ 6 6 6 6 6 u 5 6 ; 8 K Z..X<X>X>X4X>X>X2X>X=X=X>X>X>X>X$X>X].2.C - ; e e e 5 6 8 K 1.1.2.2.1.:.1.' 1.3.3.3.1.3.3.1.3.3.1.3.1.[ [ [ [ 1.1.1.` n 8 e 6 e 8 8 7 0 8 0 0 e q 0 6 0 0 7 0 0 u 6 0 e 0 e 6 u e 6 0 0 6 0 6 0 6 0 0 6 6 0 0 e u e 0 e 6 a 0 0 0 6 e 0 0 0 u e 6 0 0 0 e 6 6 0 e u 0 0 6 0 6 a 0 6 6 0 0 6 6 u 6 6 b V ) 3.3.3.' ] [ [ 3.[ 3.3.,.1.1.1.3.1.:.:.:.:.:.:.:.:.:.+.l.n.XX<X<X>X>X>X:X>X:X1X>X:X>X>X>X<X<X|.l.z o 9 y y y y e a e 0 q q e 6 q e 0 0 0 e 0 0 0 0 0 6 0 u 6 6 0 0 0 0 0 0 0 0 0 e e 0 0 0 0 7 e V T 3.,.' ,.[ ,.1.' 3.1.1.3.1.1.>.1.1.` J r 7 7 8 8 8 8 8 8 7 7 7 9 7 7 9 q q e q 9 q q y 9 e e q e q q q q q q q q 0 q q 9 0 0 0 0 7 8 d R |.XX4X<X<X<X>X>X>X>X4X4X>X<X>X<X>XXXS.R M 5 7 q q e q q j U 1.:.:.1.1.1.1.1.1.1.' 1.1.3.3.3.3.1.3.] [ ] q.1.[ ] ] ) ~ k 7 8 q q e 6 6 6 0 6 e 0 0 0 0 0 6 0 0 0 u e e 6 6 a 0 0 0 0 6 0 0 0 6 6 0 0 u e 6 6 e 0 0 0 6 0 6 0 e e 0 0 u 0 6 6 e 0 e 0 6 6 e 6 e 0 0 0 0 6 0 6 6 6 0 6 a 6 0 6 0 e 6 5 j U R ,.' :.:.` ` :.:.,.:.1.:.1.:.:.>.2.:.2.>.2.2.:.2.2.:.` g.n.{.1X>X>X>X1X>X",
">X1X:X:X>X>XD.j.P : 7 t e t y e q y e 9 $ 9 9 0 9 9 9 e 9 e 9 e 0 0 0 0 0 0 e 0 u e e i e e e 6 e 6 e e q q 8 e m ( 2.1.:.) 1.] [ 1.1.1.1.1.:.:.:.:.` ` Y a 8 6 u u 0 $ 0 0 u $ B $ $ $ $ B u $ $ 0 $ y u $ 6 u 6 6 6 6 6 6 6 6 6 6 6 6 6 6 6 u 6 6 6 > > K _. X<X<X>X>X>X4X>X:X=X:X:X>X:X>X>X<X].2.N * 5 e a u 6 e e K 1.3.3.3.1.:.1.3.1.1.3.3.3.3.3.3.3.3.3.1.3.3.1.1.] ] 1.] ( z > 7 e 7 8 7 7 7 8 8 7 e e 6 e e e 0 7 e e e 6 u 0 6 0 0 6 e e 6 0 6 a 0 6 e e 6 0 e u 6 e e 6 0 0 6 6 u 0 0 6 u e 6 6 e 0 6 e 6 e u e 6 6 6 0 6 0 6 0 6 0 0 e u 6 6 6 6 6 ; a A ) 2.3.[ 3._ ' ] ' [ ] ,.1.` :.1.1.1.:.-.:.:.:.-.:.:.1.:.a.S.{.<X>X>X,X>X1X>X>X>X>X>X,X>X>X<X4X].l.N + 9 e e e e e e 0 0 0 0 q e q 0 0 0 0 0 0 e u 6 e 6 6 6 u 0 0 0 0 0 u 0 0 0 0 u 0 0 0 e 0 6 e m R 3.,.3.1.[ [ 3.3.1.1.1.1.1.3.3.1.] ` J t 8 7 8 8 7 8 8 8 8 8 7 7 9 6 9 9 9 9 9 9 9 9 9 9 9 9 9 9 0 9 9 q q q 9 0 7 9 9 7 0 9 7 0 7 8 8 Y |.XX<X<X<X<X<X}.<X>X4X>X>X4X<X>X<X<X|.W n 9 7 e e q 0 q e J ' :.:.1.' ' 1.1.1.1.1.1.' 3.[ 3.1.[ [ [ ] ] ] ] [ ] ] ) ~ e 5 7 q 8 e e e e 6 e q 6 e 6 6 0 e 6 0 6 0 0 6 0 0 6 6 u 6 0 e e u 6 e 0 e 6 0 u 6 e e 6 0 e 6 0 e u 6 6 0 0 6 0 0 6 e u 6 0 e u 0 6 0 6 e 6 0 u 6 e 6 u 0 6 6 0 6 a 6 6 6 5 a U _ ,.' +.' ,.:.:.,.,.:.:.:.1.1.:.:.:.2.2.1.-.:.2.:.:.2.+.s.].}.1X>X>X>X:X>X",
"=X>X>X>X>X>X{.j.F : 7 t t e t e e y y $ 9 9 0 9 0 0 0 0 q q q e 0 0 0 e 0 0 0 0 0 0 0 e e 0 e u 6 6 0 e q 0 7 e M ~ [ 1.] ] 1.] ] 1.1.0.0.3.3.3.3.1.1.1.~ k e e 6 6 6 6 6 0 0 0 0 0 0 $ 0 0 0 0 u y 0 6 6 6 6 u u 6 6 6 6 u 6 6 6 1 6 6 6 6 6 6 6 6 6 ; > K _..X<X<X<X4X<X<X>X>X=X>X,X,X,X>X<X,X|.2.N 5 5 e e e 8 a i K ' 1.2.3.1.1.1.1.1.` 1.1.' 1.' 1.1.' 1.1.3.3.] [ 1.:.] ` ( j 8 8 7 7 8 7 7 0 7 7 q 8 q q e e 8 q e e e e e 8 5 e 6 6 7 8 6 6 e e e 8 8 7 e e 6 6 6 e e e 6 6 6 7 6 8 6 e 6 0 e e e 6 e 6 e 8 6 6 6 e 8 8 e 6 6 e e 6 6 8 6 e 6 6 e 6 7 6 a A ) 0.3.] ] ] ' [ [ ] ,.' 1.1.1.:.' :.:.:.1.-.:.:.:.1.-.:.l.S.:X<X>X>X>X>X>X,X>X>X>X:X1X>X,X>X<X.Xl.C O 9 e 0 0 q q q 0 0 0 q e 0 e q 0 0 0 0 0 0 0 0 6 e 6 6 6 6 0 e 0 0 u 0 0 0 0 0 e 0 0 0 0 9 e m / 1.:.,.3.3.3.[ 1.1.1.1.:.2.1.1.1.1.) A 8 8 7 7 7 5 5 5 7 7 7 8 7 8 q q e 9 9 9 y 9 q 9 9 q 9 9 9 q 0 q 0 q 0 8 q q 8 0 0 9 0 7 0 7 e i Y |.XX4X4X<X<X<X<X<X4X<X<X<X<X>X>X>X<X|.X.n 5 7 e y 8 q e j U 1.1.1.:.1.] 1.1.1.' 1.3.3.[ 1.] 3.] [ ] [ ] 3.3.[ 1.1.] ~ j : 7 7 8 7 8 8 q 8 8 8 e e 6 8 6 8 7 0 6 e 7 8 e e 0 e 8 7 6 0 e e 6 6 e e e e e 5 e e e e 6 e q e e e 6 8 8 6 0 6 0 e 8 e 6 6 e e e e 8 8 6 6 e 6 0 e 0 7 e e e 8 8 6 8 8 5 a U R 3.,.,.' ' ,.,.' ,.,.:.1.1.,.:.,.1.1.2.2.1.1.2.1.1.2.:.g.n.{.<X<X>X>X>X>X",
"1X:X=X1X>X>X{.j.F : 8 8 t 8 e e e 0 9 9 9 y 0 y 9 e 0 0 0 0 0 0 e 9 0 0 0 0 e u 0 0 a e u e e e e 6 6 e e 7 7 e M ~ ] 1.1.) ` ] 1.1.1.] 1.1.0.2.0.1.1.1./ n e 5 6 6 6 6 u 6 6 0 0 0 0 u 0 0 0 0 0 9 0 u 0 6 0 6 6 6 6 6 6 6 6 u 6 6 6 6 ; u 6 6 6 6 6 > ; L Z. XXXXXXXXXXXXX>XXX,X,X>X>X<X<X,X<X|.4.V o 5 0 e 0 e e e U 1.1.1.1.1.-.] :.:.1.:.1.1.:.1.1.1.1.1.' ] [ ] ] ' ` 1.) T l 8 r 8 8 7 8 7 8 8 7 8 8 8 8 8 8 8 8 8 e 8 8 8 e e e a e e e e e 8 8 8 u e e e e e 8 u 8 8 8 e e e 8 e e e e e e 8 8 e 8 e u e e e 8 i e e e e e e 8 e e e e e 8 e u e e 8 5 a V ( 2.1.' ' ' ' ] ' ,.` 1.1.1.' :.:.:.:.` ` ` :.] ) 1.1.R <.S..X<X<X>X>X>X>X>X>X>X>X>X>X>X>X<X4X|.l.z O 9 9 0 0 0 0 0 0 7 0 0 0 0 0 q 0 0 0 0 0 0 u 0 6 0 0 6 e 0 6 0 0 0 0 0 0 0 0 0 0 6 6 0 7 6 e m / q.2.[ [ 3.3.3.1.1.1.1.1.1.1.1.1.1.) A e 7 5 5 5 5 5 - 7 7 8 8 0 q 0 0 q e q q 9 e q y 9 y e e q y e q q q q q q q 0 q q 0 0 q e 0 8 8 R Z..XXXXXXXXXXX.X}.}.4X4X4X4X1X2X<X}.].-.M 7 7 e e e q q e U 1.:.1.1.:.1.' :.] 1.1.3.3.3.3.' ] 3.] 3.] 1.[ [ 3.1.1.] ( j 8 8 8 q e 8 e e e 8 e e q e e e e e 8 e e e 8 e e e e e e q 8 e e e e e e e e 8 e 8 e e e 8 e e e e e e e e e e q e e e e e e e e e e e e e e e q e e e e 8 e e e e e e 8 7 j U _ ,.,.,.,.,.1.,.,.` 1.3.>.1.1.1.>.1.1.1.1.;.2.;.0.1.:.+.a.n.}.<X>X>X>X>X>X",
"=X>X>X:X>X>Xb.j.G - 8 e 8 e q e e e 0 9 9 0 0 0 0 0 y 0 0 0 0 0 0 0 0 0 0 0 0 0 e u u e e e e 0 e 0 q q 0 0 9 e n ~ 1.] ` 1.` 1.1.1.1.) ] ) ) ] ;.) ) ;.~ j e 8 6 6 6 u 6 e 0 e 0 0 0 0 0 0 0 0 0 0 0 0 0 u 6 6 6 e 6 e 6 u 8 6 6 u u 6 u 8 u 8 u ; u ; 6 C B.|. X.X X|.|.|.|..X:X,X<X>X>X>X<XXX|.>.V - 9 b e e e e 8 H ( ( ` ` ( ` ( ( ` 1.1.1.` 1.:.' :.' 1.' ' 1.1.' ` 1.:.` T D t l j r d 8 8 r 8 r 8 r j 8 i 8 e e d e t 8 i a e a e i e a i 8 e 8 a e i a a e e e 8 8 a 8 i a 8 j i a e e 8 i e e t e 8 d a 8 e e e i e 8 j 8 i a 8 r e e t e 8 d 8 t e 7 j V ( q.1.1.] ' ' ' ] ' ,.1.1.1.1.1.:.1.1.` ( ( ] ) ] ] ^ T 2.S.{.<X<X>X<X,X>X>X>X>X>X>X>X>X>X<X4X].l.D - 9 0 9 0 0 0 0 0 0 0 q 0 0 0 0 e 0 e 0 0 0 0 0 0 0 6 a e 0 0 0 e 0 0 0 0 e 0 0 e 6 6 6 0 9 a m / 1.1.[ 3.[ 3.3.1.[ ] ( ( ) ) ) ) ) ) V e 7 9 7 7 5 5 9 7 0 e e q q q e e e y e y 9 e e e e e q e e e e q e e 0 0 e e 0 q 6 e 0 8 8 8 i K B.F.|. X.X|.|.|.|..X4X4X4X4X<X<X>XXX|.X.M ; 6 e e 8 q 0 e V ^ ) :.) ( ( R ( ( ` 1.1.3.3.3.1.[ ] 3.,.1.1.3.3.3.3.q.] / H t t t j r e r t r t a a j a y d a a j j a a a j 8 e a j a a j e j d a j e a e j a j e j a j i a a j e j a d a a j j e e j j a j e j e a j d a a j j e a j e e j a d a j e e n K R ' ' ' ,.' 1.' 1.1.1.3.,.1.3.:.1.1.1.] ^ -.1.;.;.2.:.R <.n.}.4X1X>X>X>X>X",
">X>X>X>X>XXX{.j.K = 8 e q e e q e e 0 9 0 0 0 y 0 e 0 0 q 0 0 0 0 e 0 e 0 e 0 0 e e e e 0 e 0 e e e e 0 q 0 9 e M ~ 1.] 1.1.1.) 1.1.) ~ J J J J ! ~ ! ! m j e 8 5 7 6 6 0 6 0 0 0 0 0 0 0 0 0 0 0 0 0 0 0 6 6 0 6 e u 6 6 6 6 6 6 6 6 i 6 6 6 6 6 6 8 6 6 b ;.1.2.2.>.:.1.>.<.j.].>X,X<X<X,X<X<X|.2.N 5 $ e a e e e e M V U V K H H N H T R :.:.:.:.:.1.1.1.1.1.1.] ' 1.' 1.` ` _ T J H H H M M H M H M H H M H N V V V V m V N N N V N N V m V V V V V V N V N N N V V H V V N m V V N m V V N V N H V V N V N N V V V N V V V V N V m V V V m V N V N V m V m V / ] 3.1.1.` ' ' ' 1.1.:.:.:.:.:.:.1.:.:.R H V J J U J A z W j.{.<X>X,X>X>X>X>X>X>X,X>X,X<X1X<X4X].d.C o 9 9 0 7 9 7 q 9 0 0 0 0 q 0 0 0 6 0 0 0 0 0 6 e 0 0 0 0 u e 0 0 0 0 0 0 6 e u e u 6 e 6 7 a m / 0.3.3.[ 1.[ ] ] ( T U V J U J U U U m 7 6 5 7 8 5 5 7 0 0 q e 0 e q 0 e 9 9 e 9 9 y 9 0 e 9 0 9 e 9 q q 0 q 0 e q q e q e 8 7 7 8 e > k ( 1.>.2.<.2.1.X.<.c..X4X4X4X<X2X<XXX].+.k 5 5 e e q 0 7 6 n C C C U K U C N T ( 1.3.3.3.3.' 1.1.3.] 3.[ 3.3.1.1.3._ ` T J V V V H H V V V V V V J V V V V V V V V V V V U V V V A V V J V V V A V V V C V V V V V V V V V V V V V V A V V V V H V V V V V V V V V V V V V V V A V U V V A V V V V J V T ( [ ,.,.' ' ' ,.' 1.' ' 3.' 3.2.1.1.-.Y V A K Z U C C z +.n.}.>X>X>X>X>X>X",
">X>X>X>X>X<X].l.F ; 8 e e e q q e e 9 e 0 0 0 0 0 e 0 0 0 0 0 e 0 0 0 u e 0 e 0 0 0 y e y e e e e q e e q 0 7 e M ~ [ 1.1.1.1.1.1.1.T l r 7 r r y e n b t q e q 6 6 7 0 0 0 0 0 u 0 0 0 0 0 0 0 0 0 0 0 6 6 0 0 0 0 e 0 6 e 6 e u 6 u 6 u 6 6 e 6 6 6 6 6 6 6 1 u > 1 i 8 = h o.S.<X<XXX<X}.<XXX|.2.V $ 5 a 0 0 q e e e 8 t 8 r 8 8 7 7 t H R 1.1.:.1.:.1.:.:.' 1.1.1.1.1.' 1.:.' ] ` ` ` ( ` ` ` ) ` ` ] 1.:.) :.1.) 1.1.;.] 1.1.1.;.;.] ] ;.1.1.;.1.1.:.1.) 1.] 1.) 1.1.;.1.1.1.1.1.) ] ] ;.1.1.;.1.1.:.1.) 1.] ] ) 1.1.;.] 1.` :.] 1.) 1.] 1.:.] ] 1.) 1.] 1.1.1.3.d.3.[ ' ' 1.1.' 1.' 1.1.:.:.1.1.:.( H r 8 t 8 t 7 7 - D g.D.,X>X>X.X>X>X}.>X>X}.>X>X>X>X<X<X|.l.v o 9 0 9 0 9 0 9 0 0 0 0 0 0 0 0 0 0 0 e 0 0 0 a 0 0 0 0 0 0 e 0 0 0 0 u 0 0 6 u e 6 e u 6 6 a m ~ 1.3.1.1.' ] _ ] U M t e e e a e a a e e 8 7 7 q 8 8 8 6 e e e e e 9 e e 0 e 9 9 9 e 0 0 q e e e e e q e e 0 q e q 0 6 e 7 5 e 0 8 8 e 8 > > = = > 8 5 ; h o.n.XX<X<X<X<X<X4X X` k 5 6 e e e 8 7 9 7 a e 8 i i j 8 8 z T ] 3.3.3.3.[ [ ' 1.1.1.1.1.3.3.3.3.1.1.1.1.1.] 1.1.1.1.:.1.;.1.1.1.1.;.] 0.] 1.1.1.;.0.1.1.] ] ;.1.1.0.1.1.0.;.1.;.0.] 0.1.1.1.1.1.0.] ;.0.0.] 1.] 0.1.;.0.0.] 1.1.0.1.1.0.0.) 1.1.0.1.] 0.0.) 0.1.1.0.] 1.0.) 1.] ;.] ` 1.1.' ' ' ' ] ' ' ' ' [ ,.[ ,.3.1.' / N 8 8 8 8 > 8 > * P n.Q.<X>X>X>X>X>X",
">X>X>X>X>X,X{.l.F - 8 e e q 0 e 9 e 0 9 0 0 0 e 0 u 0 e 0 0 0 0 e 0 0 0 0 0 u 0 0 0 0 0 e e e e e e y q q q 5 e M ! [ 1.1.1.1.` 1.1.J j 7 : w q e 9 e y j e e e 7 0 0 0 0 0 e u 0 0 0 0 0 0 0 e 0 e 0 0 0 0 0 6 0 u 6 6 6 6 6 u 6 6 u 6 6 0 6 u u u 6 9 ; 6 5 ; 5 ; ; 8 8 * f I C.<X4X<X}.<XXX4X|.2.N + 5 e e e t e e t 7 r 7 8 7 : : : t H _ 1.1.:.' ,.1.' 1.1.' 1.' ,.1.1.` 1.] 1.1.1.1.1.1.3.1.:.1.1.1.1.1.1.3.1.1.1.1.1.1.1.1.1.1.1.2.1.1.1.1.1.1.1.1.1.1.1.3.1.1.1.1.1.1.1.1.1.1.1.2.1.1.1.1.1.1.1.1.1.1.1.2.1.1.1.1.1.1.1.1.1.3.1.1.1.3.1.1.1.3.3.1.1.1.3.1.1.3.3.3.3.[ ,.` 1.,.,.1.1.:.1.:.1.1.` ( N 8 r t q 7 q 5 * H a.D.>X,X>X>X>X>X,X>X{.>X,X>X,X<X<X4X{.l.N O 9 0 0 7 0 0 7 0 0 q 0 0 e 0 0 0 0 0 0 0 0 0 0 0 e u e 0 0 0 0 6 0 6 0 e 6 0 e u 6 6 e 6 6 a m ( 0.q.1.] ] ] ] ] J n q 7 e e e q q e e e 6 7 0 q 8 e e e e e e e e e e q q e e e e y e e q 0 q 0 q 0 0 0 q e e q 0 e q e e e e 8 0 e 7 8 ; ; - 5 ; > 5 * h o.C.<XXX<X<X<X4X4X|.X.M 6 5 t e e e 6 5 6 6 8 8 8 8 i 7 5 n U [ 3.[ [ 3.3.3.3.3.1.1.,.3.1.1.1.1.3.1.1.3.0.1.1.1.1.0.1.1.1.1.0.1.0.1.0.1.0.0.1.1.1.1.0.1.0.0.0.0.1.1.1.1.0.1.0.1.1.0.1.0.1.1.1.1.1.0.1.1.1.0.1.1.1.0.1.1.1.0.1.1.1.0.1.1.1.0.1.1.1.0.1.1.1.0.1.0.1.1.1.1.1.0.1.1.1.[ ' ` ' ' ' ' ' ' 1.` ' 1.,.] ' 1.[ 3.1.T m 7 > 8 6 7 8 > = P v.[.4X>X>X>X>X>X",
",X:X>X,X}.<XR.l.K - e e e 0 9 e 9 e e 0 e 0 0 0 0 0 0 0 0 0 0 0 0 0 0 e 0 0 0 0 0 0 0 e e e e e e e e e q q 9 q n ~ 1.1.1.1.1.1.1.1.U j 7 7 7 8 e q q q e e e e 0 0 e 0 0 0 0 0 0 0 0 0 0 0 e 0 0 0 0 0 0 0 0 0 0 6 0 0 a 6 6 e 6 6 6 6 0 6 0 0 0 6 0 0 6 6 6 6 6 5 7 e 8 - d R C.4XXX<X<X}.,X<X|.2.N - 7 a a e e y q t t q e 8 7 7 7 - g H ` 1.:.:.,.,.,.,.' ' 1.:.' :.:.1.,.1.1.` 1.1.1.1.,.,.1.1.3.3.1.3.1.2.3.3.2.1.1.1.,.3.3.3.2.3.,.1.1.1.1.1.3.3.3.2.1.1.3.2.1.1.1.1.1.3.1.3.1.1.3.1.3.1.1.1.3.3.2.1.1.1.3.1.2.1.1.1.3.3.1.1.1.2.1.1.1.2.1.1.1.2.1.1.1.>.1.1.2.3.3.3.3.3.,.,.,.3.1.>.3.3.1.2.2.' T H w 8 q q 9 9 7 - K d..X<X<X,X>X,X>X,X,X}.XX>X>X,X,X>X<X|.g.K o 9 0 9 0 9 0 9 0 0 0 0 0 0 0 0 0 0 0 u 0 e 0 0 0 0 0 0 0 0 0 0 a 0 0 0 0 0 6 6 e u e u 6 u a m ~ 1.1.3.] ] ] 1.1.! n 0 5 6 0 0 0 7 5 6 6 q e q e e e 8 e e 8 e e e e q 0 e q e 0 e 0 q e 0 q 0 q e q e q 0 0 q q e 0 e 6 8 7 6 7 e e 8 6 8 e 7 e 7 7 6 o z @.S.<X<X<X4X<X4X<X|.-.M 6 6 e e e q 0 7 0 7 6 e 6 5 6 5 5 k U ] 3.] [ [ 3.3.3.3.3.1.1.1.3.1.1.1.1.0.0.3.1.1.1.1.1.1.1.1.1.1.1.1.1.1.[ 1.1.2.1.1.1.1.1.1.3.1.1.1.3.1.1.1.1.1.1.1.1.1.1.1.1.3.1.1.1.1.1.1.1.1.1.1.1.1.1.1.1.1.1.1.1.1.1.1.1.1.1.1.1.1.1.1.1.1.1.1.1.1.1.1.1.1.1.3.1.] ] ' ' ' ' 1.1.' ' ' ' ' [ ' [ 3.[ 1.] ~ N 5 8 e u 8 8 7 = L n.}.4X>X>X>X>X>X",
">X>X>XXX>X<X].j.K - 0 e e q e e e e 0 0 0 0 0 0 e 0 0 0 0 e 0 0 0 0 0 0 0 0 0 0 0 y 9 0 e e q y e e q q e q 5 t n ~ 1.1.] 1.1.;.1.1.T n 7 : 7 7 q e y t y e e e 0 e 0 0 0 e 0 0 0 0 0 0 0 0 u 0 e 0 0 0 0 u 0 0 0 0 0 0 0 0 6 e u 8 u e u 0 0 u 0 0 u $ 0 0 $ 6 0 6 9 e 0 - k R C.4X<X}.XX<X<X>X|.>.V + 5 e e e e e e q q 8 q 8 q 7 7 7 t T ` ' 1.:.1.` ` :.' 1.:.1.1.:.` ,.' 1.:.1.1.1.:.:.1.:.:.1.1.,.1.' 1.,.1.] ,.1.1.1.1.1.1.,.1.1.,.1.1.1.1.1.1.' 1.1.1.1.,.1.1.1.1.1.' ,.1.,.2.1.,.1.1.1.1.1.1.] ,.1.1.1.1.' ,.1.1.1.1.,.1.1.1.,.1.1.1.1.1.1.1.1.1.1.1.1.1.1.,.3.3.' ' ,.,.1.' 1.:.:.,.,.>.1.1.1.T H w 8 q q 9 9 9 5 U l.{.<X<X<X>X>X>X>X>X>X>X,X>X>X>X>X4X].d.N + 9 9 0 7 0 7 0 e 0 6 0 e 0 0 e 0 0 0 e 0 0 0 0 e 0 0 0 0 e 0 0 0 0 0 0 0 0 e u e 6 6 6 6 $ u M ( 1.1.1.1.[ ] 3.0.~ n e 6 0 0 a 0 0 6 0 q 8 8 8 e e e 8 e e e q e e 0 0 e q 0 e q q q 0 q 0 e e q 0 0 e q 8 0 e 0 e q 0 7 8 e e 6 6 e 7 7 e 6 8 e e 9 9 o j W S.4XXXXX4X4X<X<X|.R k ; 5 e e a e 0 0 0 9 6 6 6 u u 5 5 k U ) ] ` ' ' ] 3.3.3.3.] ,.1.1.1.3.1.3.3.1.1.1.1.1.1.1.1.1.1.1.1.1.1.1.1.1.1.1.1.1.1.1.1.3.1.1.1.1.1.1.1.3.1.1.1.1.1.1.1.1.1.1.3.1.1.1.1.1.1.1.1.1.1.1.1.1.1.1.1.1.1.1.1.1.1.1.1.1.1.1.1.1.1.1.1.1.1.3.1.1.1.1.1.1.1.] ] ` 1.1.] ' ` ' ' ' 1.' [ ' 1.[ ,.] 1.1.^ M ; 8 a i 8 e 7 : L c.{.<X>X>X>X>X>X",
">X>X>X,XXX,X].l.K ; 0 e e e e 9 e 0 0 0 0 0 e 0 0 0 0 e 0 0 0 0 0 0 e 0 e 0 0 0 0 0 9 0 0 e y 0 0 0 0 e e e 5 q M ! q.[ ] 1.1.] 1.3.T M 7 7 t e q q e y e e e 9 0 0 e 0 0 0 0 0 0 0 e 0 0 0 0 0 0 0 0 0 e 0 0 0 0 0 0 0 0 0 e 6 u 6 u e 0 6 u 0 u 0 0 0 $ 0 9 0 $ 0 0 0 9 $ k I c.$XXXXX<X}.<XXX X2.V O 7 e e e 0 q e q e 8 q q q 7 7 : j K ) 1.1.,.1.,.` :.1.` ,.,.3.,.' ,.' ,.1.' ' ,.1.' ,.,.,.,.` ,.1.:.:.1.,.:.,.1.` ` ,.1.:.` ,.,.1.,.,.` ,.` ,.1.,.' 1.,.' ` ,.1.1.:.' :.' 1.:.:.' ,.` ,.,.1.,.:.' 1.:.:.' ` ,.:.,.1.` ` ` ,.1.:.,.` 1.1.:.1.:.:.:.1.' ,.,.3.3.3.` ` 1.` ` :.` 1.:.:.:.:.' 1.1.) ( M 7 8 q q e q q 7 K V.|.<X<X>X>X<X1X>X,X:X>X>X>X,X>X>X<X|.l.K O 9 0 9 7 0 0 7 9 q 0 7 0 0 e 0 0 0 0 0 e 0 0 0 u e 0 0 0 0 0 e e 0 0 0 0 0 0 0 6 0 u 6 6 5 e m / q.0.[ [ ] ] 1.0.~ V e 0 0 b y 0 0 0 0 0 0 7 e e e e e e e e e e 6 e 0 e e q 0 q e 6 e 0 0 q e e 0 q q e 0 0 q e e 0 q 8 0 8 7 q 0 8 7 0 8 q e 0 q 0 9 O j +.C.4XXX}.4X<X<X,X_.X.k $ 6 e e u 0 e e e 0 q u 0 e u 5 6 n U ) ] ` ` ] ] [ 3.3.3.1.1.' 1.1.1.1.1.1.1.1.3.3.1.1.1.1.3.1.2.,.2.3.1.1.3.1.3.1.1.1.,.1.1.1.3.3.1.1.3.1.1.1.1.3.1.,.1.3.1.1.1.1.1.,.3.1.1.1.1.3.1.1.1.3.1.1.1.1.1.3.3.1.1.3.3.1.,.1.1.3.3.1.1.1.1.1.1.1.1.1.3.3.1.1.' ] ' ' ] 3.' ] [ ' ] ' [ ,.] ' 3.[ 1.3.] / B 5 5 e 8 a e 8 ; P c.}.>X1X>X>X>X>X",
">X>X:X>X>X,X].l.K - 9 e e 0 e e q 0 0 7 0 0 0 0 0 0 0 0 0 e e 0 0 0 0 0 u 0 0 0 0 y y 0 0 0 0 0 0 0 y 9 q q q y M ~ 3.1.1.1.1.1.1.3.J l 7 7 8 q q q q e e e 9 e 7 0 0 6 u 0 0 0 0 0 0 0 e 0 0 0 u 6 0 0 0 0 0 0 0 0 e 0 e 6 q u e 6 6 e 0 0 0 0 0 0 0 0 0 0 0 $ 6 6 0 0 0 $ d I C.$X<X<X<X<X}.<X|.2.V + 5 0 e e 9 9 9 q e q q 8 q q 7 5 j U ` 1.1.1.1.,.,.1.` ' 3.3.3.,.3.3.3.3.1.1.3.3.1.,.3.,.1.:.,.:.' 1.:.' ,.` ` ,.,.,.` ,.1.1.,.` ,.` ,.` 1.,.,.` ,.` :.:.1.:.` ,.:.1.:.,.,.:.:.1.1.:.,.1.` ,.` ,.,.:.:.1.1.,.' ,.` ,.,.,.,.,.` 1.1.,.:.' ,.' :.1.,.,.` ` ,.3.,.3.' ` ` ` ` ` ` W ` :.( :.` ` :.` ( M 7 7 q q y y q 5 K V..X<X,X>X>X<X>X,X:X:X>X:X>X}.XX,X4X|.l.z O 9 9 0 9 0 9 0 0 0 e 0 0 0 0 0 0 0 0 e 0 0 0 0 0 0 e 0 0 0 0 0 0 0 0 0 0 0 0 u u 0 0 0 6 6 a m ^ 0.3.1.[ ] ] 0.q.^ n e 0 u 0 0 0 9 6 9 0 6 0 e e e e e e e e 8 7 0 e q 0 q q e 0 e e q q e q 0 q 0 e 0 e q 8 e 0 q 0 e 0 8 8 0 8 8 0 8 q 6 e 6 8 e e 0 O k +.].<X<XXXXX}.XXXXS.( n - 6 a e y 0 b a e q e 6 e e e u 6 n U ] ] ] ` _ [ 3.3.3.3.1.' 1.' 1.1.1.,.1.3.1.1.1.1.3.,.1.1.1.1.1.:.1.3.1.,.1.1.1.3.1.1.1.1.,.1.1.3.>.1.1.,.1.1.1.1.3.1.1.1.,.1.,.1.1.1.1.1.,.1.1.1.,.1.1.3.3.1.,.1.1.1.3.1.1.1.1.1.1.3.2.1.1.3.3.1.1.1.1.1.,.1.1.' ,.3.] ] ] ' [ [ 3.3.,.3.[ [ 3.[ 3.' 1.[ [ ] ^ m 5 5 e e u e 8 = P c.}.<X>X>X}.>X>X",
">X:X>X>X>XXX].l.F - 9 e e 9 e 9 e e 0 0 0 0 0 0 0 0 u e 0 u e 0 e 0 6 0 0 e 0 0 0 0 y 0 0 0 0 0 9 9 9 w 9 9 9 w M ~ 1.[ 1.1.1.1.1.1.T j 8 7 q q q q 9 e 9 0 e 9 0 0 q 0 e 0 0 0 0 0 e 0 0 0 0 e e 0 e 0 0 0 e u 0 0 e 0 0 0 u 6 6 e u e u 0 0 0 0 0 0 y 0 0 0 0 6 9 9 0 9 @ j I Z.$X<XXX<X<X<X<X|.4.V - 5 9 9 9 5 9 9 7 q e e 8 q e 7 7 j J ` 1.,.1.3.3.,.1.' ' ,.3.4.3.3.3.3.,.,.,.[ 3.,.' ,.,.1.' ' 1.' 1.' 1.,.1.,.1.1.' ,.1.1.' 1.1.1.1.1.1.1.' ,.1.1.1.1.] 1.' ,.1.1.' 1.] ' ' 1.' 1.] ` ,.1.1.' 1.' ' 1.' 1.1.1.:.1.:.:.:.1.,.1.' ` ,.,.1.' 1.1.' ' 1.,.` ,.3.3.3.,.` ' ' :.` :.` ` :.1.:.:.:.1.) ` N 7 5 q y q b q 5 H x.XX4X<X<X<X<X<X>X>X>X>X{.,X>X>X>X<X{.l.z o 9 0 9 7 9 0 9 q 0 0 0 0 e 0 0 a 0 0 0 0 0 0 0 0 0 0 0 e 0 0 0 0 u u 0 u 0 0 0 0 $ 6 9 0 $ a V / 0.[ 1.1.] ] 1.q.~ n e 0 y y 0 0 7 0 0 0 0 0 e e e e t e e 0 0 0 0 0 0 e q 0 e 0 q e q q 0 e e e e q 0 0 q 0 0 0 q q e 6 e 7 q 0 7 q e e 0 8 7 e e e 0 5 j +.C.4XXXXX<XXX}.XX|.X.n # 7 0 0 9 9 9 9 0 0 0 0 e i a e 6 b A ] ] ] ] 1.3.3.3.3.3.3.` ' 1.1.1.1.1.1.1.1.3.1.1.1.1.1.1.1.3.1.3.1.,.1.1.3.1.1.1.1.3.1.1.1.1.,.1.1.3.3.1.1.3.1.1.1.1.,.1.1.1.1.1.3.1.3.3.1.1.1.3.1.3.1.1.1.1.1.3.1.1.>.,.1.,.1.1.1.1.:.1.1.1.1.1.3.1.1.1.1.1.1.1.3.3.[ [ ] 1.[ [ [ [ [ [ [ [ [ [ [ 3.[ 1.3.] ^ m ; 6 6 e 6 8 5 ; L n.}.4X>X2X>X<X>X",
":X,X>X}.>XXX{.l.K - 9 0 e e e e q q 0 0 0 e 0 0 0 0 0 0 0 0 0 0 0 0 u e 0 0 0 0 0 0 0 0 0 y 0 9 9 9 9 9 9 9 5 q n ~ 1.1.1.1.1.] 1.0.J l 8 7 t q e q e e e e e e e 0 0 0 0 0 0 0 0 e u 0 0 0 0 0 0 0 0 0 0 0 e 0 e u 0 0 0 0 e 6 e u 6 6 0 0 0 u 0 u $ u 0 0 $ 0 0 6 0 9 6 $ j R Z.<X4X4X<X<X4X<X.X2.z * o - o o o - - - 5 q e 8 e e 7 7 n J 1.2.3.2.3.3.2.,.2.1.,.3.3.3.3.3.,.3.3.3.>.3.3.3.3.3.,.,.,.1.,.1.,.1.' 1.' 1.1.,.,.' ,.' ,.' ' ,.' ,.1.,.,.' 3.' ,.,.1.,.,.' 3.' ,.,.1.,.1.,.,.,.' ,.' 1.,.1.1.,.1.,.' 1.' ,.' ,.` 1.,.' 3.,.' ,.] ,.' ,.,.' ,.1.,.` ,.3.3.[ ,.,.[ ,.:.1.1.1.1.1.1.:.1.1.1.;.) J 7 7 q w q y e - H m.XX1X<X,X<X<X<X<X4X>X>X,X}.>X{.XX4X].l.H - 9 9 0 0 0 0 7 0 0 0 q 0 u 0 0 0 0 0 0 0 0 e 0 e 0 0 0 0 0 0 0 0 0 0 0 0 9 $ 6 6 0 6 6 6 6 e m / 0.0.1.1.] ] 1.q.! n q 0 u 0 0 0 9 0 0 6 7 7 0 e e 8 e e 0 7 7 7 0 q q 0 0 e q e q 0 e e e q 0 q 0 e e q e e q e q 0 8 q e 0 7 8 0 7 0 7 7 8 0 q q y e 5 g -.F.4X4X<XXXXXXXXX|.X.j * * - - @ o o + @ 5 7 6 a 8 u 6 6 n A ) [ 1.3.3.3.3.1.3.3.3.1.1.1.1.,.1.,.1.,.1.1.1.,.1.3.1.,.1.3.1.1.1.1.1.1.1.1.,.,.3.1.1.3.1.1.1.3.1.1.1.3.,.1.1.1.3.1.1.1.3.3.1.1.1.1.1.,.1.3.1.1.1.1.1.1.,.3.1.3.1.1.3.1.1.1.1.1.3.3.1.1.3.3.1.1.1.1.1.3.1.1.3.1.3.3.3.3.[ 1.1.1.1.1.1.1.1.1.1.1.1.1.1.1.1.;.^ m 5 ; 6 6 6 i 6 - I ].XX4X4X<X4X<X<X",
">X}.>X,X>XXX].l.K - 9 e e e e 9 e 0 0 q 0 0 0 e e 0 0 e u 0 0 0 0 0 0 0 0 0 0 e 0 y 0 0 y 0 y b B y n n n M y B V ! [ [ 1.1.1.[ 1.3.T n 7 7 8 t q q e e e e e e e e e e 0 6 0 0 0 0 0 e u 0 e 0 0 0 0 e 0 e 0 0 e 0 0 0 0 e 0 e u e e 6 6 u 0 0 0 0 0 0 0 0 0 6 0 0 0 0 9 5 j Y l..X.X.X.X.X.X.X|.g.W z z z z z z z H j 7 0 0 0 8 e 8 7 j V T ( ( ( ( ( ( ( ` 1.] 1.1.,.3.3.,.3.2.3.p.3.3.3.3.,.3.,.,.1.,.3.,.' ,.1.1.3.,.,.1.,.,.,.1.1.,.,.1.,.,.1.1.,.,.1.1.,.,.' 3.1.,.' 1.,.1.,.' 3.' ' 1.,.3.' ,.[ 1.' ' 3.,.,.,.,.' ] ' 1.1.1.' ,.,.1.,.1.1.,.,.1.,.1.1.` ' ' ` T _ T R _ R R ( ( R ( ( ( ( ( ( ^ U n 7 9 q 9 q e 9 5 M 2.B.F.F.S.V.C.S.S.]..X>X>X,X}.}.>X<X|.l.v + 9 0 9 9 0 9 0 0 0 0 0 0 0 0 0 0 0 0 0 6 u e 0 e 0 e u u 0 0 0 u e 0 6 0 e a n b n k n a k n A ( 1.1.[ 1.] ] 1.0.~ M 0 9 0 0 e 0 e e e 0 0 7 e e e 8 e 0 e 7 0 8 0 q e q e e 0 q e q 0 0 q e q e 0 0 q q 0 e 6 q q e 6 0 8 8 0 6 7 7 e 0 e 8 7 6 e q 0 5 j I V..X.X|.].].]..XS.>.L h h z z z z z k i 5 0 0 e a 0 6 6 a m / ( ( ( ` ( / T ( 3.1.1.1.3.3.1.1.1.1.,.1.3.1.3.1.3.1.1.1.1.1.1.1.3.3.1.3.3.1.1.1.1.1.1.3.1.1.1.1.1.1.1.,.1.1.3.1.1.1.1.1.1.1.2.1.1.3.3.1.1.1.,.3.1.1.,.1.1.1.1.1.1.1.1.3.1.3.1.1.1.,.3.1.1.1.3.1.1.1.3.1.3.,.3.3.3.1.` ( / ( ( ( T ( ( ( ( ( ( ( ( ( ( ( ^ ~ n 6 6 6 e a e 8 6 K l.c.S.S.C.].S.S.",
">X>XXX>X>X,X|.l.C 5 9 y 9 e e e q 0 0 0 0 0 0 0 0 0 0 0 e 0 0 0 0 0 e 0 e u 0 0 0 0 0 y 0 0 y V ! ! ! ! ! ! ! ! J _ q.[ 1.3.1.[ 1.0.U M 7 7 8 8 e 8 e e e q b e e y e e a e 0 0 0 0 0 0 e 0 0 0 0 0 0 0 0 0 0 0 0 0 0 0 0 0 6 6 6 6 u 6 0 0 0 0 0 0 u 0 9 6 0 0 0 0 0 0 6 - j K 4.Z.V.S.S.C.C.S.V.l.g.>.,.>.<.<.4.<.2.K a 0 9 9 8 q 7 5 e n V C U C K C U K Y ` 1.' 1.1.1.,.3.2.3.3.3.3.3.3.3.3.3.3.,.1.,.1.,.1.,.,.,.,.,.1.1.,.1.,.,.3.1.1.,.,.,.,.,.,.,.,.,.' ,.1.,.' 1.' ' 3.' ' 1.,.3.,.,.] ,.] 1.,.,.3.,.,.1.' 3.] ' 1.1.' ' ,.1.3.,.' ,.' ,.1.,.' ,.' ` ` _ R T H H H H H H H H V V A V H V V A V n n 7 7 9 9 q q e 7 M ( 1.w.2.2.:.:.,.>.j.].}.,X:X}.,X>X4X].l.N O 9 0 0 9 7 0 7 0 9 0 0 0 0 e 0 0 0 0 0 e 0 0 0 0 0 0 0 e 0 e 0 0 6 7 e 6 a A Y U U A U U U A T ) q.3.q.0.] ] 0.1.~ n 9 0 0 0 0 e e j e 6 7 6 e e e e 8 0 0 0 7 7 6 0 0 q 0 q 0 q 0 e 0 0 e 0 q e q e q e e q e 0 e q e 8 e 0 8 e e 0 0 0 7 e 6 8 0 0 0 5 j K 4.Z.C.V.V.V.C.C.C.l.<.<.2.2.<.<.<.>.2.C u u 0 0 6 0 6 6 a n m J J J J J J M U ` 1.1.3.3.3.3.1.1.1.1.1.1.1.1.1.1.1.1.3.1.3.3.1.1.1.1.1.1.1.3.1.,.1.1.1.3.1.1.,.1.1.1.1.3.1.1.1.3.1.,.3.1.1.,.1.1.1.1.1.1.,.1.1.3.1.1.1.3.1.1.,.1.3.1.1.1.1.3.1.1.1.1.1.1.3.,.1.3.1.1.1.1.1.1.3.3.` / U H H A H J C V H V V V V V A V V V C n 6 6 0 0 a j 8 ; z -.,.2.,.,.>.>.>.",
">X,X}.,XXXXX|.l.K - 9 e e 9 e 9 q e 0 0 0 e 0 0 0 0 e 0 0 0 0 0 0 0 0 0 0 0 e 0 0 0 0 0 0 e n ~ ) ) ) ) _ _ ) ) _ ] [ [ q.3.3.3.q.q.! M 7 7 8 q 7 7 e e q 0 e 0 e e e y 0 0 0 0 0 0 u e 0 0 0 e 0 e 0 0 0 0 0 0 0 0 0 0 0 6 e u u e 6 e 6 0 0 u u y 0 0 6 0 9 0 0 0 0 0 $ $ d z ` 4.<.<.,.a.<.<.g.j.C.].|.|.].]..X].S.X.8 e 9 0 e q 7 7 0 e i a 8 u a 8 a 8 k ( ` [ :.,.1.1.1.1.,.3.3.,.3.,.>.3.,.,.1.,.,.3.,.,.' 1.,.1.,.3.,.,.1.,.1.[ ,.,.,.1.1.1.,.1.] ' 1.1.' ' 1.1.' 3.' ' [ ,.3.' ,.' [ ' ' ,.' [ ' ] ,.] ' ' 1.' ' ' ' 1.' 1.1.' 1.1.1.1.` 1.1.' 1.1.1.' _ P l r r t r r 8 t 8 d d a a a a a a e 0 7 9 5 q 0 e q e e e j n l l j r r d z T n.>X>X}.,X}.>X<X.Xg.C o 9 9 0 6 7 0 0 0 0 0 0 0 0 0 0 u 6 0 0 0 0 e 0 0 0 0 0 0 e 0 6 0 6 q 8 0 a ~ ) ) ) ( ) ) ] ] 1.1.1.3.1.1.] ] 1.0.J n 6 6 9 0 0 y a e e e 7 7 q e e 8 e 6 7 7 9 0 0 e q e e 0 e e e 0 q q q e e 6 e 0 0 0 q 0 q e q 0 e e 6 q 8 e 7 e 7 e e e e q 8 0 0 5 j H :.4.>.,.:.,.$.<.a.x.S.].].S.].].[.|.C.R 8 e e 6 u 6 6 6 0 e n t t t j j t r M ( ] 3.,.3.1.1.1.[ [ 3.3.1.,.1.>.1.3.1.3.1.,.3.1.3.1.3.1.1.3.1.3.1.1.3.3.1.1.3.1.3.3.3.[ 3.3.3.,.3.[ 3.] 3.3.1.[ 3.' 1.3.[ ,.3.3.,.3.1.3.1.3.3.3.3.3.3.' 3.3.3.3.3.3.1.3.3.1.1.3.1.1.2.1.3.3.3.1.3.` H M e j a a j a 8 j a a e a a a y a a e u 6 7 6 6 e e u 8 i j j j j d d j d ",
">X}.>X}.<X<X].l.K - 9 y e e e e 0 e e 0 0 6 0 0 0 0 0 0 0 0 0 e e 0 0 0 0 0 0 0 0 0 y 0 0 9 n ( [ [ [ [ [ [ [ [ [ q.] q.q.q.q.3.[ [ U M 7 7 7 0 7 8 8 q 0 0 0 0 e 0 e e 0 0 0 e 0 0 0 0 0 0 0 0 0 0 e u 0 0 0 e 0 0 e 0 e u 6 0 e 6 u 6 u 0 0 0 u $ u $ 0 0 6 0 0 0 0 9 9 5 8 j T ,.:.+.+.+.W #.,.c.|.<X$X4X4X4X4X4X X:.a 0 $ 0 0 9 0 9 7 7 5 5 > ; 5 ; - * a T ` 2.1.' ' ' ,.' 1.' ,.3.3.3.[ 3.1.3.,.3.1.,.1.3.,.3.,.3.1.,.3.] ,.3.,.,.3.1.3.,.,.' 3.[ 3.,.' 1.1.' ' ] ' [ ' 1.' ] ] ' [ 1.[ 3.3.[ 1.,.[ 3.[ 1.,.[ [ ,.1.' ' ] ' ' ' 1.' ,.` ' ,.1.' 1.1.' 1.1._ J t & - : 5 > 7 ; 5 5 5 5 5 5 5 5 5 9 6 5 5 9 9 q e e e y 0 5 5 - - & & X & : S c.{.}.:X>X.XXX<X].l.N + 9 9 7 9 0 0 9 9 0 0 q e 0 0 e 0 0 0 0 0 0 0 0 0 0 0 0 0 0 0 0 0 0 7 0 8 n ^ 1.1.1.1.1.1.2.0.1.q.3.3.0.1.] ] 0.[ T e 7 $ 9 0 0 e e e e 0 6 8 e 8 q 8 8 0 6 9 7 7 0 q 0 0 q q e 0 q q e e 0 q 0 e q q e 0 e e q 0 0 e q q 6 e 6 e 0 0 7 6 q 7 0 0 0 0 7 5 d M Y ,.R W W W W R $.C.XX4X<XXX<X4X4X4X X+.i 6 6 6 0 6 6 6 0 q 8 8 5 - - 7 7 - j ( ] 3.1.3.] ' 1.3.3.1.3.1.1.3.3.1.3.1.1.1.1.1.1.1.1.3.1.1.1.1.2.1.3.1.1.1.3.1.3.3.[ 1.,.1.3.3.] 3.3.3.3.[ ,.3.3.3.3.[ 3.3.3.] 3.3.1.3.[ 3.[ [ 1.' 3.3.1.[ 3.[ ] ,.3.3.1.1.1.1.1.1.3.3.' 3.1.3.3.1._ N r 5 - 5 - ; 5 5 - ; ; 8 7 7 7 7 6 9 5 5 6 6 6 e u e e e 5 - * * O * O O O ",
">X,X>X>XXXXX|.l.C - 0 y 0 e 9 e e 0 0 0 0 0 e 0 0 0 0 0 0 0 0 0 0 0 0 0 0 e e u y 0 0 0 0 0 n ^ ] ] [ [ q.[ [ 0.q.[ [ q.q.q.0.[ q.q./ M 7 7 7 7 5 7 7 6 0 6 7 0 0 0 0 0 0 0 0 0 0 0 0 0 6 u 0 0 0 0 e 0 e 0 0 0 0 0 0 0 0 0 0 0 0 0 $ 0 0 0 u $ y 0 0 0 $ 0 0 0 0 0 0 0 9 6 e z R :.:.:.,.W ,.+.$.j.].4X4X}.$X4X4X<X X>.a y $ y 0 e 0 e e e e e e 8 6 > 5 ; a ( 1.1.3.1.1.1.1.' ] ` 1.:.1.1.,.3.3.3.,.3.,.3.1.,.1.3.1.3.,.3.,.3.,.3.3.,.3.1.3.1.,.1.,.1.] 3.3.[ ' 3.[ ] [ 3.3.[ [ 3.' 1.[ 1.' [ [ 3.[ 1.[ [ [ ' ,.[ ] ,.] ,.] ' 1.' ` ] ' ' ] ` ' ' ] ] ' 1.1.3._ K l : 7 7 7 7 e 7 8 5 8 6 7 6 7 6 0 7 0 7 0 7 0 0 q q e e 0 7 8 5 5 5 : - - 8 H c.}.}.<X}.>XXX<X|.l.C O 9 9 0 7 q 7 0 e 9 e 0 0 0 u e 0 0 0 0 0 0 e 0 0 0 0 e 0 0 0 0 e 6 e 8 0 j ( 1.1.1.:.1.1.1.3.3.,.3.3.3.1.1.[ 3.0.J t 7 6 6 q e e e e t 8 7 7 0 q e e 7 0 7 6 6 9 9 q e 0 e e q q 0 0 e e q q 0 e q q 0 q e e 0 q 0 e q q e 6 e 7 0 q e 0 q 0 7 6 0 0 9 5 j N ( >.1.' :.:.:.( <.c.{.<X<X{.<X<X4X<X.X+.u 6 5 6 u 0 7 0 0 e 8 7 7 5 5 5 7 7 j ( 1.3.1.3.3.] 1.1.[ [ 1.[ 3.1.1.3.3.1.1.1.3.[ 1.1.3.1.1.3.3.1.3.3.3.1.3.1.[ 3.3.[ 1.3.3.1.3.3.3.3.[ 3.[ 3.3.3.[ 1.3.3.1.3.3.3.3.3.3.3.3.3.3.3.1.3.[ 3.3.3.[ 3.[ 3.3.3.1.1.1.1.3.3.3.0.1.1.3.3.3.1.( J e - 7 ; 8 6 6 > 6 6 8 5 e 6 8 e 5 e 5 7 e 6 6 7 6 6 e 8 6 6 ; ; 5 5 5 5 ; ",
">X>XXXXX<X4X{.l.K - 9 e 0 e q q e q 0 0 0 q 0 0 e 0 0 e 0 e u 0 0 e 0 0 0 0 0 0 0 0 0 0 0 0 b ~ ] [ q.[ q.[ 0.[ ] [ [ q.[ q.0.[ [ [ ! M q 7 7 7 9 7 7 9 7 6 0 7 0 0 0 0 q 0 e 0 0 0 0 0 0 0 0 0 0 0 u 0 0 0 0 0 0 e 0 0 0 0 0 u 0 y u y u 0 y y 0 0 0 0 y 0 0 0 0 0 0 y 9 $ a M ( 1.1.` :.,.1.+.$.l.].>X>X}.>X>X2X>X|.:.a y y $ 0 y 0 0 e e e e e u 6 u 6 8 k ( 1.2.1.1.' ` ` :.:.1.:.] ' 1.1.1.3.1.3.,.1.3.3.3.3.3.,.3.3.1.3.1.3.3.1.3.3.,.3.,.3.3.[ 3.[ 3.[ 3.3.[ 3.3.3.[ [ 3.3.[ 3.[ 3.[ [ 3.[ [ 3.[ [ 1.3.[ ] 3.[ [ [ [ [ ] ' ` ] ' ] ] ' ] ' 1.' 1.' ] 1.3.` U t 5 7 7 8 7 q e e 6 e e 0 0 0 e q 0 0 7 0 9 0 q 0 e q 0 q e e e e e 8 5 > a K v.}.<X>X}.XX>X4X.Xl.z + 7 0 0 0 9 0 0 0 0 0 0 0 0 0 0 0 0 0 0 6 u 0 0 0 e 0 0 0 0 0 0 0 0 q 0 q j / ] :.) ` :.] ' 1.1.3.1.1.,.1.[ 0.0.q.J n 7 9 7 e e t e q q 8 0 7 8 q e e 6 0 7 6 6 0 7 0 q q q 0 e e e q q q 0 e e e 0 e e 0 e q 0 e q e 0 0 e q e 0 e 0 e q 0 0 0 0 0 0 0 7 a m ) 2.3.1.1.-.] :.>.v.{.4X>X}.:X>X>X}.].X.> 6 6 6 6 6 0 $ 6 e 6 0 0 6 6 7 5 8 k ( 1.3.[ [ ] ] ' [ ] [ [ 1.1.1.3.0.1.1.3.[ 0.q.1.1.0.1.3.0.1.1.1.1.0.0.1.1.0.1.3.3.[ [ 1.[ [ ] 3.3.[ 3.[ ] 3.1.[ [ 3.[ [ [ ' [ 1.] [ [ [ 1.[ [ [ 1.[ ] 3.3.[ 1.[ [ 1.3.1.1.1.0.1.1.0.3.[ 3.[ [ 1.[ ( J t - 5 8 6 8 6 8 6 6 e e 6 6 6 6 6 e e 0 6 6 7 0 8 e 0 8 8 7 6 8 8 8 8 9 6 ",
",X}.>X>X<X<X].l.C - 9 e e q e 0 e 0 0 0 0 0 e 0 0 0 0 0 e 0 0 0 u e 0 0 0 0 0 0 0 y 0 0 e q b ! ] [ [ q.[ [ q.[ [ [ 0.[ [ q.[ ) [ ) ! M 7 7 7 7 6 9 7 7 6 7 9 6 7 7 0 0 0 e 0 0 6 a 0 e 0 0 0 0 0 0 e 0 0 0 0 0 0 e 0 e 0 0 0 0 u 0 0 u 0 0 0 u 0 b $ 0 0 0 0 0 0 0 0 0 0 $ a M ( 2.1.' ' :.,.` >.j.R.2X2X}.2X}.}.}..X>.0 y y $ y 0 0 y 0 6 e e 6 6 6 6 ; 8 k ^ ] 1.1.1.` ` :.] ] ` ] :.1.1.1.1.,.1.1.1.1.1.,.1.1.,.1.3.3.1.1.1.1.1.3.1.1.3.1.1.1.[ 3.[ 3.[ 3.] ] [ 3.[ [ 3.3.[ [ [ 3.[ ' 3.1.[ q.[ [ [ 3.[ [ 3.[ 3.3.[ 3.[ ' ] ] ' ] ] ] ' ] ] [ [ [ ] ] 1.1.3.( U j 7 7 0 9 q q q e e 7 0 0 0 0 q 0 q e 0 q 0 q 0 q e q e e 0 8 8 0 q 8 5 7 d L c.<X>X>X<XXX>X<X|.l.N + 9 0 9 0 0 9 q 9 e e 0 0 0 0 0 0 0 0 0 0 0 0 0 0 0 0 0 u 0 e 0 0 0 e 0 q j ~ :.` :.` ` 1.` ,.' ,.3.3.3.3.3.2.q.q.T n 8 5 6 q e e e e 8 q q 7 9 e q e e 7 6 6 9 9 0 0 q e 0 q 0 0 q e 0 0 e 0 q 0 q 0 q q q e e e 6 q e 0 q e q q 0 q q e 0 0 0 0 0 6 $ 6 a N ) 0.;.1.1.1.1.' a.v.{.1X>XW.:X2X2X>X[.E > 6 6 6 u 0 0 6 0 0 0 0 7 7 0 6 7 5 M ) 1.3.3.] ] ' ] ] 3.] 1.3.1.0.3.1.3.1.3.1.3.3.1.3.1.1.1.1.1.q.[ 3.1.3.3.1.1.1.[ 3.[ [ [ [ 3.1.[ ] 3.] 3.3.[ [ 3.] [ [ ] 1.[ [ [ [ 1.1.[ 1.[ 3.[ 3.3.3.[ ] 3.[ 3.3.[ [ 3.1.[ [ 1.3.1.1.[ 3.3.[ [ q.` H a - 7 e 8 6 8 8 8 6 7 6 6 6 6 6 e 6 e 6 e q e e 7 8 7 6 e 7 6 7 0 8 8 0 7 ",
":X:XXX<XXX<X|.l.K - 0 9 0 0 e q q q 0 0 0 0 6 0 e u 0 0 0 0 e 0 0 0 e 0 0 0 0 0 0 0 0 0 e 8 t / [ [ [ 3.[ q.[ [ [ q.[ [ [ [ ] ) ] ] ~ N 7 7 7 7 7 7 0 0 6 0 7 9 0 0 0 0 0 0 6 0 0 0 0 0 0 0 e 0 e 0 0 0 0 e u 0 0 0 0 u 0 0 0 0 0 0 y u $ 0 0 y $ u u y 0 0 0 0 e 0 0 0 9 5 e M ` 3.1.' ' ,.,.+.#.c.R.>X>X>XQ.>XQ.}.|.>.b b y y 0 y 0 9 0 6 7 6 u 6 $ 6 6 6 k ( ;.q.1.1.1.1.' 1.:.1.` ] ` 1.1.' 1.1.3.1.1.3.1.1.1.1.1.1.1.1.1.,.3.1.1.3.1.1.1.3.1.3.1.3.[ 3.[ 3.[ 3.[ 3.[ [ [ 3.[ 3.[ 3.3.[ [ 3.[ [ [ [ [ 3.3.[ 3.[ [ 3.[ [ [ [ ] ] ] ' ' ] ' ] ] ] ' ] ] ] 1.3.` U t 7 7 7 8 8 e e 8 q e 6 e 0 e 0 e e q 0 e e e e q 0 e 0 q q 0 7 7 8 e 7 - a P S.}.<X}.>X>XXX4X].g.v + 9 0 9 9 7 0 0 0 0 9 0 0 0 0 e 0 6 a 0 0 0 e 0 0 0 0 e e 0 0 0 0 0 e q q a ( ` :.` :.:.` 1.,.,.1.,.1.,.3.3.3.3.3.! n 7 5 9 8 q e e e 8 8 7 7 0 e e 8 8 5 9 6 9 6 0 0 0 e q e 0 q e q 0 0 8 e q 0 e e q e 0 0 q q e q 0 e q 0 0 e e e 0 q e 0 0 0 0 0 0 9 a N ) 0.1.1.] 1.' 1.,.v.}.>X:X{.:X>X1X>X].R > 6 6 6 6 7 0 6 9 7 0 9 9 6 7 6 6 7 j ( 1.3.[ ] ' ' [ ] ] ] [ [ 0.[ 1.0.[ 0.1.3.0.[ 0.1.0.q.[ 0.[ 1.1.[ 0.1.1.[ q.1.3.3.1.3.[ 1.[ [ [ 3.[ [ 3.[ ] 3.' [ 3.3.3.[ 3.1.[ 3.[ [ 3.[ 3.] 3.' [ ] ' 3.[ 1.[ [ 3.3.0.1.q.1.3.1.[ 0.1.1.[ 3.3.3.` H a - 6 6 8 8 6 6 8 8 u e e e 8 6 e e 8 7 8 8 6 e 6 0 7 8 6 e 6 0 8 0 8 7 0 ",
">X>X}.>XXX<X|.l.C 5 9 e e e 9 e q 0 0 e 0 0 0 0 0 0 0 0 0 0 0 0 0 e 0 0 0 0 0 0 0 0 0 0 e e k ~ [ 3.q.3.[ q.q.[ [ [ [ q.[ [ ] ) ] [ ! M r 7 : 7 7 7 8 7 7 e 0 7 6 e 0 e 0 0 0 e e 0 0 0 0 0 0 0 0 0 0 0 e 0 0 e 0 0 0 0 0 0 0 0 $ $ u y 0 u 0 u 0 0 u $ 0 0 0 0 0 0 0 e 7 9 e M ( 3.[ ] ' ,.1.` #.j.{.>X>X}.Q.>XE.{.|.>.e y y y 0 0 0 0 0 7 0 0 0 6 6 6 6 6 m ) 0.w.q.1.1.1.1.` :.:.] :.' 1.1.1.1.1.' 1.1.3.1.3.3.1.,.1.1.1.,.1.1.1.3.>.1.1.1.1.1.3.[ 3.1.[ 3.[ 3.[ [ [ [ [ [ [ [ [ [ [ [ [ [ [ [ [ [ [ [ [ [ [ [ [ [ [ [ [ [ ] [ ] [ ] ] ] [ ] ] [ ] 1.' ] 1.1._ T t 7 5 q q q q q q e e e e q 0 q 0 q e 0 0 q e 0 q e q 0 q e e e 0 8 8 ; ; d K ].<X>X<X>X}.}.<X|.l.F + 9 0 9 0 0 0 9 9 e 0 0 0 e 0 0 0 0 0 0 0 0 e 0 0 0 u 0 0 0 6 e 0 q e 0 8 j / :.` :.` :.1.' 1.1.,.,.1.3.,.3.3.1.1.U j 8 5 7 9 5 7 0 q e 7 0 7 7 8 e e e 0 7 6 6 7 0 q e 0 0 q e q e q 8 q q e 0 q 0 e 0 0 e e q e e 0 q e q 0 e e 0 q 0 e 0 0 0 0 7 0 6 9 t V ( 2.1.[ 1.] 1.' ,.v.{.1X>X{.:X>X2X}.{.I > u 6 6 6 $ 6 0 7 0 6 9 9 5 5 6 7 8 M ) 1.1.1.] ] ] [ ' ] ] [ 1.1.3.0.[ 0.[ 0.[ 1.1.1.q.1.0.1.3.0.0.1.0.3.1.0.3.1.1.3.3.[ [ 1.1.[ 3.[ [ 1.[ 3.[ 3.3.] [ [ [ [ 1.[ 1.3.[ [ [ [ [ [ [ [ [ 3.3.3.[ [ [ 3.[ 3.3.1.1.1.0.1.0.3.1.1.[ 3.[ 3.3.` H e - 5 6 8 8 8 8 8 8 8 8 8 6 e e e 7 6 0 6 e 8 7 6 e 8 0 7 0 7 7 8 0 8 7 7 ",
">X}.>XXX<X<X.Xl.K 5 0 e e 0 e e e 0 0 0 0 0 e e 0 0 0 e e 0 0 0 0 0 0 0 0 0 0 e 0 0 0 0 e e j T _ 3.[ [ 3.[ [ [ 0.[ [ [ 0.[ ] ) ] [ / H w 7 7 7 7 7 7 7 0 6 0 6 q 0 7 0 0 0 0 0 0 0 0 0 e 0 0 0 0 0 e u 0 0 0 0 0 0 0 e e u 0 u u b 0 0 0 0 0 $ 0 0 u 0 6 0 0 0 a 0 u y 9 7 t M ( [ ] [ ` ,.,.W #.c.R.>X2X}.>X>X>X}.[.>.a a u u a 6 0 a 7 6 0 0 b e 0 6 u 0 b ^ ;.1.1.' 1.] :.` ` ` ` 1.:.1.` 1.1.1.1.1.1.1.1.1.1.1.1.1.3.1.1.1.1.,.1.1.3.1.3.,.1.,.3.1.[ [ 3.[ [ 1.3.[ [ [ [ [ [ [ [ [ [ [ 3.[ ] [ [ [ [ [ [ [ [ [ [ [ [ ] [ [ [ [ 3.[ 1.] [ 3.] ] [ ' ] ] ] 1._ U t : q 7 q q q q 8 e e q e q 0 e e e e q e q e q 0 e e e 0 e 0 q 0 7 e 5 5 d K C.}.>X<X>X}.XX4X{.l.m O 9 0 9 9 7 0 7 0 0 0 0 0 0 0 e 0 0 0 0 e 0 0 0 0 0 e 0 e 0 0 0 0 0 e q q j / :.:.` ,.` ` ' 1.' 1.,.,.3.1.,.1.1.` J l e 7 8 0 7 q q e e q 7 9 0 8 q e 8 0 7 6 6 0 0 0 q q e 0 e 0 e 0 e e 0 e q e 0 q e q q 0 0 0 q 0 e 0 q e q q q e q 0 e 0 0 0 0 6 6 7 t N ) q.[ ] 1.1.] ` >.v.:X>X,X*X>X>X>X}.[.o.> < @ 6 ; 6 6 6 5 6 6 0 9 6 7 7 6 5 M ) 1.3.1.' ] 1.] 3.1.3.1.1.3.3.1.3.1.1.3.1.3.3.[ [ 1.[ 1.3.1.[ 1.1.3.3.[ 3.1.1.3.1.[ 3.[ [ 3.] 3.[ ] 3.3.3.3.3.3.3.3.3.3.3.3.3.1.3.3.3.3.3.3.1.3.1.[ 3.[ 3.1.[ 1.1.1.1.1.1.1.[ 3.1.3.3.1.3.3.[ [ 3./ H j - 7 e 5 6 8 6 6 8 e 6 e e 7 6 7 6 e q e 6 7 e e 6 e q 8 0 0 9 0 0 7 0 7 ",
">X}.,X>X<X<X].l.K - 9 y e e 9 e e q 0 0 0 0 6 u e 0 0 0 0 0 e 0 0 0 0 0 e 0 0 0 e u 0 0 0 0 j ~ _ 3.[ 3.[ q.[ q.q.q.q.[ 0.[ ] ] ] ] _ J t w r t t t t t e e 0 7 6 e 0 6 0 0 0 0 0 0 e 0 0 0 0 e 0 e 0 6 0 0 e 0 e 0 0 0 0 e 0 0 $ b 0 0 0 0 u $ 0 u 0 0 6 0 0 0 e e 0 0 0 $ t M ( 3.[ ' ' 1.,.` <.j.{.2X>X}.+X+X>X}.}.6. .} c } } c c } c x u q a e 0 u 0 e b A ^ ^ ( ( R ( ~ ( ( ` 1.] ` 1.1.' 3.] ,.1.1.,.1.1.1.3.1.3.1.1.3.1.1.1.3.1.1.1.1.1.1.3.[ 3.3.3.[ ] _ _ / ` _ ( _ ( _ ) _ ) / ) ` ( ) _ / ) ) ) _ ) _ ) ` ( ( ` / ` ( ` ( ( ( _ ( _ ] 1.[ ] 3.] :.] ` U H w t t j j t t n t e e q 0 0 9 q q 0 0 q 0 0 0 q q 0 0 q q q 0 q e 8 5 5 d L n.<X<X<X<X<XXX<X|.g.N + 9 0 0 7 9 0 9 0 e 0 9 0 0 0 u e 0 0 e 0 e 0 0 0 0 0 0 0 0 0 0 0 0 e 0 q j Y ` W :.` ,.:.:.1.,.,.,.1.,.1.:.1.1.] T M n j k j n n n n a q 8 7 0 8 e 8 8 9 6 9 7 7 0 e 0 q 0 q e 0 q e q q e 0 q e q e 0 e q q e q 0 q e q e 0 e 0 e 0 8 e e q 0 0 0 6 6 9 e N ( 0.1.] 0.1.] ' ,.v.{.>X>X:X:X>X>X}.[.%.c s c c c c x c x p 6 $ 0 9 0 7 7 e k ^ ^ ) ( ( ( ( T ( _ _ 1.1.1.1.1.[ 1.[ q.0.3.1.0.1.1.3.1.[ 3.[ 0.1.q.1.0.1.1.0.3.[ 3.[ 3.[ [ 3.3.] ` ( ( ` ( ( ) ( ) ( ( ( ( ( _ ( ` ) ( ( ( ) ( ) ( ( ` ( ( ` ( ( ` ) ( ) ) ) ) ] [ 0.3.3.1.1.] ] ` U l 8 j j j j a j j a 8 6 8 6 e 0 e 7 e 0 7 e e 7 6 e q 8 0 7 0 7 0 q 8 7 0 ",
">X,X>XXXXX4X|.l.K + 9 e e 9 e e e q 0 0 q 0 0 0 0 0 0 0 0 0 0 0 0 0 e 0 0 0 0 0 e 0 0 7 0 0 t T [ q.3.3.[ 3.q.[ q.[ q.q.[ [ [ ) ] ] _ T _ T J U ! J T / J 8 7 7 6 e e q 0 e 0 0 0 0 0 0 0 0 0 0 0 0 0 0 0 0 0 0 0 0 0 0 0 0 0 0 u u $ 0 u 0 y 0 0 y 0 0 0 6 0 0 e u e 0 0 5 e M ( 3.1.' ' ' ,.Q #.j.R.>X2X}.>X>X2X2X5X%X'.'.'.0X0X'.'.OXL.%.p 5 0 0 0 6 6 5 a n B V m M n M j M V ( 1.1.:.1.1.1.1.,.1.1.1.3.1.,.1.1.1.3.1.,.2.1.3.1.1.1.1.,.1.3.1.' 1.3.[ 3.3.` T H t n M M n M M M M M M M M M M M M M M M M M n M M M M M M l M n z M l M z V ` 1.1.3.] 1.1.:.` _ / T T T T T / / / M 8 8 0 8 0 0 q 6 q e e e q e e 0 q e e 0 e e 0 7 e 5 5 d K C.}.<X>X<X}.}.4X].l.N O 9 0 9 9 0 7 0 9 e 0 e 0 0 e 0 0 0 0 0 0 u 0 0 e 0 0 0 0 0 0 0 0 0 e q q j / :.` :.:.` ,.` ' ,.1.1.3.3.1.1.1.1.1.) ( ^ / ~ ( ~ ( / ~ V q 8 7 8 q e e 7 0 7 6 7 0 0 q 0 e e 0 7 e q 0 0 0 q 0 e 6 e q q e 0 0 e e e q 0 0 e q 0 e q e q 0 q 0 0 0 0 6 6 5 j V ) 0.1.] ] ] 1.' <.v.W.1X:X*X{.:X>X}.+XoXOX0XU.0XU.U.'.'.=...< # 0 0 e a 0 e a M M M n M n j j j V ( [ 0.1.[ q.0.1.1.1.1.3.1.1.q.3.[ 0.0.1.1.1.1.[ 1.[ 0.[ [ 3.3.[ 1.[ [ 1.3.] ` J M M n M M M M m m m M m m m n m n m m m M m M m n m m m m n m m m m m B m V U ) 1.1.[ 3.] 3.] ` W T T T / ~ R T ( Y k e 7 e 6 7 7 e 0 0 e e 6 7 e 0 7 0 7 8 8 0 9 8 8 0 8 8 ",
",X:X>X>XXX<X|.l.K + 9 y 0 q e 0 q e 0 0 q 0 0 0 0 0 0 e 0 0 e u 0 0 0 0 0 0 0 e 0 0 u 0 0 e j T ` ] 3.3.3.[ 3.q.q.q.[ [ q.[ 0.] ] q._ _ _ _ ] ] _ _ ] ) ! t 7 7 q e e e q e e q 0 0 0 e 0 e 0 0 0 0 0 0 0 0 q 0 e 0 0 u 0 0 0 0 y u y 0 y 0 $ 0 0 0 0 0 0 0 0 0 a 0 0 0 9 9 8 M ( 3.1.' ' 1.:.` $.j.].}.>X+X>X+X}.>X3XfXcXcXZXZXNXkXkXzX8Xi.3 @ 0 0 0 0 6 6 0 a n n e t i e i j j / 3.1.:.] 1.1.' 1.1.1.1.1.1.1.3.1.1.1.1.3.1.3.1.1.3.3.1.1.3.1.1.3.[ 1.3.3.2.` H j e 8 a j e a i e a 8 j e a e a e e a e e a e e i e 8 d e e j e r e d r r r l ` 1.q.[ 1.[ [ 1.] ` ` ` ` ` ` ` ` ' ` M 8 q q q 0 0 0 7 0 q q e q 0 0 q q 0 0 e 0 6 q e 8 7 5 j K C.XX>X>X>X}.}.4X|.l.N * 9 9 0 7 0 9 7 e 0 0 0 0 0 0 0 0 0 0 0 0 0 0 0 0 e 0 0 u 0 0 0 0 0 e 0 8 j / :.:.` :.` ` ,.,.,.1.,.1.3.1.1.1.:.2.1.:.:.1.1.1.1.1.0.^ A t q 7 q q e e 8 8 7 5 7 7 0 0 0 e q 0 e 0 q q e e q e 0 q q e e q e 0 0 q e q e 0 q q e 0 0 q e 9 e 0 9 0 e 0 6 5 a N ( q.[ ] [ ] 1.' ,.v.:X<X>X:X:X:X>X2X+XfXcXtXtXZXtXkXkXkX!.*.p $ 0 e e e e e u a a j u a e 6 6 i M / 1.0.1.1.0.0.3.3.q.[ 1.1.q.[ 1.1.0.1.0.[ 1.q.[ 0.3.3.q.3.[ 3.1.[ 3.[ [ 3.3.` N j 7 e u e u e a u a 0 u e e u a u 0 0 a u e a a u e u a u 0 0 a a a a a a k C ) 1.1.1.1.1.] ] ' ` ` ` ` ` ] ` :.] ) M 8 8 6 7 e 5 e 8 7 6 8 0 q e 8 7 0 6 e 8 6 7 0 7 6 6 7 ",
">X:XXX>X,X<X.Xl.K - 9 e 0 e e q q 0 0 0 0 0 0 e u 6 0 0 0 0 0 0 u e e 0 0 0 0 0 0 0 0 0 6 e t T ` [ [ 3.[ q.[ q.3.q.p.[ q.[ [ ] 0.[ [ ] [ [ [ [ ] ] ] ] ! w 7 7 q e e e q 0 q 0 0 0 0 0 0 0 0 0 e 0 0 0 e 0 0 0 0 0 0 0 0 0 0 0 y $ 0 0 u 0 u y 0 u 0 0 $ y 0 0 0 0 0 b 0 $ a M _ 2.[ ] ' ,.,.W $.c.R.2X>X}.>XQ.Q.Q.+XfXGXSXSXSXNXVXHXSX8X=.< + 0 0 0 0 0 $ 6 a e t 8 8 8 8 7 i j Y 1.' ] :.` 1.1.1.] 1.' 1.1.1.1.1.,.1.1.1.1.1.1.3.>.1.1.3.3.[ 3.3.3.' 3.[ 1.` H j 7 e 8 8 e 7 8 8 7 e 8 e q 8 e q 0 7 e e 8 e e 8 e e 8 8 8 8 8 8 8 8 8 8 7 j ( 1.1.3.1.1.[ 1.1.` ` ' ` ' ` ` Q ` ` M r 8 8 q 7 q 9 9 e e 0 0 e e e e e e q q q e 7 e 8 5 ; i K n.<X2X<X>X}.<X4X].d.v O 9 0 9 9 0 0 0 9 0 0 0 0 0 0 0 0 e 0 0 0 e 0 0 0 u 0 0 e 0 0 e 0 0 e q 9 j ^ :.` :.` :.:.` ' 1.1.,.,.3.1.1.:.1.1.:.:.1.1.2.0.1.1.0.) A 8 q 7 q 8 e e e 0 7 9 9 0 0 9 0 0 q e q 0 e 0 e e 0 q 0 e 0 q 0 0 e q e q 0 0 e 0 e 0 e q e q 0 e 0 0 e 0 0 6 6 5 j V _ 0.1.1.1.1.] [ ,.v.{.1X>X*X:X>X>X4X@XfXAXDXZXSXCXVXGXGX8X*.< 5 9 e e 8 6 e 6 6 6 e e e u 6 5 a M / 1.1.3.3.3.1.3.1.1.1.1.1.1.1.1.1.3.3.1.3.1.1.1.1.1.1.1.1.0.[ [ 1.[ 1.3.3.3.( M e - ; 5 7 6 6 6 6 $ 6 6 6 6 6 $ 6 6 $ 6 6 $ 6 $ 6 0 6 $ 6 6 $ 6 $ u u 6 7 e m ) 1.1.2.1.[ 1.3.[ ] ] ] ] ] ' ` ) 1.) M 8 > 8 6 e e e e 6 e q 7 8 6 e 7 e e 6 7 0 7 e e e 7 0 ",
">X>X}.>XXX<X].l.K + 9 e e e e e e e 0 0 e 0 0 0 0 0 0 0 0 e 0 0 0 0 0 0 0 0 0 0 0 0 0 0 6 e j T ` 3.3.3.[ 3.3.3.q.3.q.1.[ [ [ ] ] [ [ ] [ [ [ 3.[ [ ] ) U 8 7 7 q 8 e q e q e e q 0 0 0 e 0 e e 0 0 7 0 0 0 0 0 0 0 0 0 0 0 0 u u $ u 0 0 0 0 0 0 $ u 0 0 0 0 0 0 0 e 0 9 5 a M ( 3.1.' ,.' ,.' ,.j.W.>X2X}.2X}.Q.}.@XsXGXSXSXSXSXVXGXGX8X=.< + 0 0 e 0 6 6 6 0 t 8 8 8 7 7 ; 8 a U ) ` ` ` :.' ' 1.' :.1.1.,.3.1.3.1.1.,.1.3.1.1.1.1.1.1.3.3.,.1.' 3.[ [ 3.3._ H t 7 7 6 8 8 8 5 8 7 e 8 0 7 0 e 7 6 0 0 7 q e 5 e 7 e 8 8 8 e 8 8 8 8 8 8 8 j ( 0.1.0.[ 1.1.1.1.' 1.' ' 1.' ` ' ] ` M r 8 7 0 0 9 0 0 0 q e q 0 q q 0 0 q e 0 0 e 0 e 8 7 5 d L S.}.<X<X<X}.XX4X|.l.N + 9 9 0 0 7 9 9 e 0 e 0 0 0 0 0 0 0 0 0 0 0 0 0 0 0 0 0 0 0 0 0 0 0 0 e q j / ` ` :.:.:.` :.' ,.,.,.3.3.1.:.:.1.1.1.:.1.2.2.q.1.1.0.) J 8 7 7 q 8 e 8 q 7 0 7 0 0 0 q q q e 6 e q q e e q q e e e q e 7 0 q 0 q e e q q q q e e q 0 e 0 0 e 0 0 0 0 0 0 7 j V ( 0.[ ] ] ] ] ] >.v.W.>X,X=X{.>X>X2X5XvXAXDXZXBXCXNXVXkX8X=.< $ 0 e a e 6 8 8 6 i e 6 6 6 e 5 j z / 1.1.1.1.1.1.1.1.1.3.1.3.1.3.2.3.q.[ 0.1.1.0.[ 0.[ q.1.1.3.3.[ [ 3.1.[ q.q.( M 8 - ; 5 6 6 6 $ 6 6 6 6 6 6 6 6 6 6 6 6 6 6 6 6 6 6 6 6 6 6 6 6 6 6 6 6 6 a m -.1.1.3.1.3.1.1.' ] [ ] ' ] ' ] 1.] :.N 8 8 6 6 8 e e e e 6 7 0 e 7 e 0 e e 7 0 7 0 0 7 6 0 0 ",
":X}.>XXX<X4X Xl.K 5 9 e e 9 e 9 0 q 0 0 0 0 0 0 0 0 0 0 0 0 0 0 0 e 0 0 0 e u 0 0 0 6 6 6 u d T ` [ [ 3.q.3.[ 3.[ 3.[ [ [ [ [ [ [ q.[ ] [ [ [ [ [ q.] ] U t 7 7 q t e q 0 q 0 q e e q q 0 e q q e q 0 0 q 0 0 0 0 0 0 0 0 0 0 0 u 0 0 0 0 0 u 0 0 0 u y 0 0 0 0 0 0 b e 0 5 e M ( 3.1.1.` 1.,.W $.j.R.>X+X}.}.2X2X2X5XvXSXSXSXVXVXSXAXAX8X=.< @ 9 0 e 0 $ 6 7 0 8 8 8 8 7 8 7 8 j U ) 1.` ` ` 1.1.1.1.:.' 1.3.3.3.3.' 1.1.1.3.,.,.3.3.3.1.3.3.] 3.[ ,.] ] 3.3._ N t 5 7 6 e 7 8 e e 6 6 8 7 0 6 e 8 6 8 8 8 8 e e e 6 6 8 8 8 8 8 8 8 8 7 , 8 l ( 1.1.3.1.1.1.] 1.1.' ] ' ` ' ` ` _ ` H e q 0 q q 9 0 7 0 e q 0 q e e q 0 e e q q q 8 6 8 5 - a K n.<X>X}.<X}.<X4X].l.D - 9 9 9 7 0 9 0 9 0 0 0 0 u 0 6 a 0 e 6 a 6 0 e 0 0 0 0 0 u 0 0 0 0 6 0 8 j ( ` :.` 1.` 1.' 1.' ,.1.,.1.1.:.:.1.1.:.:.1.2.q.3.] 1.1.) V q 7 7 7 q q q 8 0 7 0 7 7 7 e q 0 e q q e 0 0 q e 0 0 q 0 0 e 0 e e q q q 0 0 e e 0 0 q e e e q 9 0 0 0 0 0 6 7 7 e V ( q.1.1.1.1.] ] >.v.:X1X:X:X:X>X>X4X5XvXAXDXSXCXNXNXVXVX8X=.< 5 0 0 a e e 8 8 8 6 8 e 0 6 6 5 e M ( 1.1.1.1.3.3.1.3.1.3.3.3.3.1.1.1.1.1.1.3.q.3.1.1.1.[ 1.0.3.3.1.[ [ [ [ [ q.` m d 5 8 e 6 0 0 u u 6 6 0 6 u 6 6 6 6 0 u u 6 0 0 6 6 u 6 6 u 0 6 6 6 i 6 6 a C ^ 1.1.3.1.1.3.] ] [ ] [ ' ` ] ` ] 1.' V e 8 8 8 e 6 6 7 6 8 8 0 e 0 e 6 7 e q 6 0 0 7 0 q 7 6 ",
">X.XXX>XXX<X|.l.K - 0 0 e e q q 0 q 0 0 0 0 0 e 0 0 0 0 0 0 0 0 0 0 0 9 0 0 0 0 0 0 0 6 6 e j T ' 3.3.[ [ [ [ [ 1.3.3.1.[ [ ] [ ] [ [ [ [ [ [ [ [ [ [ _ J t w 7 7 q q q q q q q q 0 q e q e q 9 0 e q 0 q e 0 0 0 e 0 0 0 0 0 0 y y 0 u 0 0 u 0 0 0 0 0 0 0 0 0 a 0 0 e 0 7 t M ( 3.1.:.:.:.,.` ,.j.].2X2X}.>X=XQ.>X(.lXGXSXSXBXNXVXAXGX8X=.< ; 0 e 0 0 6 5 7 0 e t e 8 e 8 8 8 a ~ 1.] ] 1.' 1.1.' 3.] 1.] 3.3.1.3.] ' 3.3.3.3.3.3.3.3.,.3.,.] [ 3.' ,.[ 3.3./ N r 5 6 6 8 8 7 6 6 7 6 7 6 0 7 0 7 7 0 7 0 7 9 6 8 5 7 8 8 8 6 8 8 6 8 8 8 8 j ( 1.0.1.3.[ 1.] 1.' 1.' ' ' ] ' ` ] _ J t 7 q q 7 0 7 0 0 0 0 q 0 0 e q q e 0 0 e 6 q e 7 7 5 d K S.>X<X<X>X}.}.<X|.d.C o 9 9 9 9 0 0 0 9 q e 0 0 0 0 0 e 0 0 0 0 0 0 0 0 0 0 0 0 0 u 0 0 0 0 6 7 j ^ ` :.:.` :.' 1.,.,.1.,.,.1.1.1.3.1.1.1.1.:.1.1.1.] 1.1.) V 7 7 q q 8 q q q 9 7 7 7 0 0 9 q 0 q q 0 e q e e e 0 q 0 q q e q e e 9 0 e e 0 e q e 0 0 0 q q e 0 0 9 0 0 9 6 6 6 a N ` 0.] ] 1.] ' ' <.v.{.1X:X{.:X>X>X4X3XfXAXZXZXVXBXNXNXzX8X*.< @ u e b e e e i 6 6 0 6 0 0 6 5 i M ( 1.1.1.1.1.3.3.3.3.3.3.3.3.3.1.1.1.0.1.1.q.3.3.3.3.1.3.[ [ 3.[ [ 1.[ [ [ q.( N e 5 e e u 0 a 0 u 0 0 a e 0 a 0 u 0 e a 0 0 u a a e 0 0 u 0 0 0 u 6 e 6 6 a m ) 1.2.3.1.1.1.1.] ' ' ] ] ` ` ` ) ) ) m 8 e 8 8 6 0 0 0 0 e e e e e e 8 7 7 0 8 0 7 e 7 e 0 7 ",
">X>X>X>X<X<X.Xl.H O 9 0 0 q 6 0 e 8 0 e 0 0 0 6 0 0 0 0 0 0 0 0 0 u 0 0 6 6 6 0 6 0 6 6 6 5 i T _ [ 3.3.[ p.[ 3.[ 3.[ [ [ ] [ ] ] [ 3.[ ] [ [ _ [ [ [ _ J w 7 7 q q q 8 e q q q 8 q e q q q q e e q 0 0 q 9 0 0 0 e 0 0 0 0 0 0 0 0 0 0 0 0 0 0 0 0 0 0 0 0 0 0 e 0 u y 0 7 e z ( 2.:.:.` ,.,.` #.j.R.2X+X}./.}.Q.Q./.pXGXSXSXAXVXNXVXGX8X=.< - e e 0 7 9 5 7 6 e q 8 t r 8 8 q e T ) 1.] :.:.1.1.1.1.,.1.,.3.3.,.,.3.1.1.,.3.3.3.3.,.1.3.3.[ 3.1.] 1.[ 3.[ 3.( M e $ 6 6 6 6 7 7 6 6 7 6 6 6 6 6 0 7 7 0 7 6 6 5 6 6 8 6 8 5 8 e 8 7 > 8 8 > j ( 0.1.1.3.[ [ 1.1.] ` ' ] ] ' ] ] ] ] N t q 7 q 0 9 7 9 6 7 0 q e q 0 e 0 e q e e q 0 7 6 6 ; i L Z.}.<X>X<XXXXX<X].d.N - 9 9 9 9 9 0 0 9 e e e q 0 e 0 0 0 0 0 0 0 0 6 6 0 6 0 6 0 6 6 6 6 6 7 5 a ( :.:.` 1.1.1.1.,.1.,.,.1.1.2.1.2.3.,.1.1.1.1.1.1.-.] ) ) U r q 7 7 8 8 e 7 0 0 7 7 7 9 9 8 q q q e 0 0 e e e q q 0 e 0 e 0 0 e e y e 9 e 0 0 0 9 y 0 0 0 0 0 0 0 0 0 0 6 6 7 e m ` q.1.1.] 1.' ` ,.v.{.>X>X*XE.=X+X+X%XxXAXZXZXBXBXNXVXZX8X*.< @ 6 0 0 e 0 6 6 6 6 0 7 0 6 6 5 a M ~ 1.;.] q.1.3.3.q.1.2.1.3.3.3.3.3.3.3.3.1.[ q.3.3.q.q.1.3.3.1.3.[ 1.[ 1.[ 3./ M a 7 u e a e e 0 a 0 0 u 0 u 0 0 0 u u 0 y u e e 0 0 u u 0 0 0 0 0 0 u 6 ; a C -.2.1.2.1.1.1.1.1.] 1.] ] ` ` ` ` 1.) N 8 7 8 6 6 7 0 7 0 6 5 e e 6 6 0 0 e e 0 7 0 0 0 e 0 7 ",
">X,X>XXXXX4X.Xz.v X $ 7 7 7 8 8 8 7 6 6 e u 0 u 0 0 0 0 0 u 0 0 0 0 0 0 6 6 5 $ 5 $ $ - ; - 8 T ` 3.[ ,.[ 3.3.[ 1.[ [ 1.1.[ ] [ [ [ [ [ [ [ [ [ [ [ [ [ T w 7 7 7 7 7 q 8 7 q 7 7 q 7 q 7 q 7 e e y 7 0 0 0 0 7 0 0 0 0 0 0 0 0 0 0 0 0 0 u 0 0 0 0 0 e u 0 0 0 0 0 0 a 0 5 e M ( 3.1.:.:.:.:.W $.j.R.$X}.Q.}.Q.E.Q.(.pXAXSXSXAXVXSXAXAX8X=.= . 7 6 5 * + - 5 6 7 7 8 q 7 8 7 8 8 T ] ] ` ] 1.1.,.' 3.,.,.3.2.3.,.1.,.:.1.,.3.3.3.3.3.3.1.1.1.1.1.1.] ] ] ] 1./ H t 7 0 6 e e 6 6 0 9 6 6 6 0 6 0 6 0 6 6 6 6 0 6 e 6 6 6 6 6 e 8 8 7 8 > 8 8 j ) 1.0.1.1.1.1.1.1.] ' ` 1.' [ 1.] 1.] N 8 7 7 q 7 9 7 7 5 9 q 0 0 e q e 0 q e q e 0 q 8 6 5 7 j F S.<X<X>X>X>XXX<X|.,.H o 9 9 9 9 9 9 q e e y e 0 0 0 0 0 0 0 0 6 e 6 0 6 0 0 8 6 7 6 5 7 6 5 ; 5 j / 1.:.' :.1.,.3.1.,.' 1.1.1.,.3.1.3.3.1.1.1.2.:.;.1.1.1.] U t 7 - 7 7 7 8 7 7 q 8 5 7 7 7 7 7 8 q 0 0 7 0 q e 9 e y e e e 0 0 e 0 y e 0 0 y 0 0 0 0 e 0 0 0 9 0 0 0 0 0 0 6 7 a V ( 3.1.] 3.] ` ' <.v.Q.2X:XQ.W.E./.+XOXxXZXZXZXZXBXVXAXAX0X*.< o 7 7 6 9 5 $ 9 5 5 9 9 9 5 6 5 a M T ) :.1.1.1.2.3.3.2.3.3.3.3.3.3.1.1.3.3.3.3.q.3.q.q.[ q.1.1.0.[ [ [ [ 1.q.q._ M j 7 e u 0 0 0 u 0 0 u 0 u e 0 u u 0 0 0 0 0 0 0 0 0 0 0 u 0 0 u 0 u e e 6 a B ;.q.1.q.1.1.1.1.1.1.1.3.' ` ` ` 1.1.) M 8 5 ; 5 5 6 6 7 6 5 6 6 e 0 6 7 0 0 0 7 0 0 6 0 0 6 6 ",
">X:X}.<X,X<X.Xx.K O 7 e a a e a a a e e 6 e 0 6 0 u $ 0 0 0 0 0 0 0 0 $ 6 0 e u e u e e u 6 e T ` ] 3.[ 3.3.[ 3.[ [ 3.[ 1.] ,.[ q.[ [ 1.0.[ [ ] [ [ ' { J t w 7 q q 8 e q q 8 q e q q e e e q t n e 7 9 0 0 9 9 0 0 0 0 9 6 0 0 0 9 0 0 0 $ 0 9 6 0 0 0 0 0 0 0 0 0 0 0 0 7 a M ( 3.1.:.:.,.,.:.$.c.E.2X2X>X2X2X/.+X3XsXnXSXSXSXSXSXSXVX8Xi.4 = e a j 8 8 i a i 8 8 8 e e q q 8 t T ] ] :.:.` 1.1.' ,.,.3.3.3.3.1.1.' 1.1.' 1.3.3.3.1.' 1.1.:.' ] ' ] ` ` ` ` ~ m j 7 0 e 6 8 6 7 0 7 6 6 9 6 6 0 6 6 6 0 0 6 6 6 6 8 e 6 6 6 e 8 8 e 8 7 7 7 j / ] ] ] ] ] ] _ ` ] ] 1.] ' [ 1.1.1.] J t t q 8 q e e 9 q q e q q q q 0 e q 0 e 0 8 8 0 6 5 ; d L c.}.<X,X>X>X>X<X].a.N 5 9 e 9 0 q q e e e e q q e q q 0 0 e 0 0 0 u 6 6 6 6 8 6 u e e a 6 i 8 8 j ^ :.:.1.,.:.1.,.,.,.1.` ' 1.1.1.1.3.1.3.1.,.1.1.1.1.1.1.] ~ t t 7 8 e q q q e a e q e e q q e a a q 0 9 0 e e e e e e e 9 y 0 y 0 e 0 y 0 y y 0 0 9 y 0 0 0 0 y 0 0 u 0 6 6 7 a V ( q.[ ] ] ] ] ` <.n.=X1X2X}.+X}./.+X@XfXZXZXDXBXBXVXAXAX0X*.p 7 a a a a a a a a u e 9 9 e 0 q j N R 1.:.1.1.1.3.3.3.3.3.2.3.q.2.2.3.2.2.2.q.2.2.3.1.2.3.1.] ] _ ] ] ] ] ] _ [ / M a 0 e a u 0 0 0 0 0 0 0 0 0 0 0 0 0 0 0 0 u 0 0 0 u 0 y 0 0 0 0 6 e e e 7 u m ;.1.;.1.] 1.1.1.] 1.1.2.1.` ] ) ] 1.` V d i 8 e e 0 7 e e 6 5 6 0 6 6 0 0 0 0 0 0 0 0 0 0 0 0 ",
">X>X}.>X<X4X.XV.L > j k n n m m m k e e u e 6 6 0 0 0 0 y 0 0 0 0 0 0 $ 9 b n B B B m m m M N T _ ' ] 1.' 3.' [ 3.[ 3.[ 3.[ 3.] 3.[ [ 3.1.[ [ 3.[ [ ] _ / M t w b t n n n l M n n n M n n M n n b q 5 5 9 7 0 9 0 9 9 6 9 6 7 0 6 6 6 0 6 6 6 0 6 0 0 0 0 e 0 0 0 e a e 0 7 d M / 3.:.:.:.:.:.` ,.P.+XdX5X5X5X5X3X5XpXvXAXSXSXZXSXSXSXAX9XU. .v K Y U K K K C M g j n M n n e j M T :.` ` :.` 1.` 1.:.,.3.3.3.4.,.3.,.,.` 1.,.,.,.3.' 1.1.` ` R ( ) ( T ( ^ ( U N j 0 0 $ b $ y y 0 0 9 6 6 0 0 6 6 6 u e 6 6 6 e e 6 6 6 6 6 6 6 8 8 8 8 8 7 j ~ ( ( ( R ( ( T ( ' 1.q.] ' 3.1.] 1.[ J M n n n n j y t M b q q q q q q e 0 q 0 0 7 e q e 5 - a P C.<X2X<X>X>XXX<X.Xd.K 8 j b n y n n n j e e e e 0 0 8 0 0 0 0 0 0 6 6 u 7 6 u a j j M n j j j g M ( ` 1.:.,.' ' ,.3.' ,.' ' ' ` 1.1.1.1.1.1.1.1.1.1.2.1.1.1.T M j t M m n n n M M n n b n n n n m M y e 0 9 q e e e e e e y y 9 0 y 0 0 0 y e 0 y 0 0 0 y 0 y 0 y $ u 0 0 0 6 7 t N ( 2.] ' ] 1.' :.<.R.2XgX6X3X@X@X@XqXwXcXAXCXSXFXCXAXAXAXwXr.} C Y Y T U A U A B m n n n n n n M U ( 1.:.:.` :.` :.1.:.1.1.1.2.2.2.q.3.2.1.2.q.q.3.3.2.0.1.) ( _ ( ( ( _ / ( ( J n e e a 0 0 0 y y 0 0 $ 0 0 0 $ u b y 0 0 y y $ 0 0 0 $ u u 0 0 0 0 y $ b 6 e j Y ( ^ ^ ^ ( Y Y ( 1.1.1.1.] ` ] 1.] ) U M n j j n n t n e u 7 6 0 0 0 0 0 0 0 0 0 0 0 0 0 6 6 ",
":X>X>XXX,X<XXXS.,.N U U ~ ~ ~ ^ ~ V n a 0 0 u e a u 0 u u 0 u 0 u 0 0 $ b B ~ ^ ^ ( / ^ / / ( ` ' ] [ ,.3.[ 3.3.3.[ [ 3.[ ] [ 3.[ [ 1.[ [ [ 3.[ [ [ ] ] ` / T U J T ! / T ! ! / ! / ! ~ ! / ! J M t 9 7 q 9 9 6 9 9 0 9 0 9 0 0 9 0 0 0 0 9 0 0 6 0 0 0 0 0 0 0 0 0 0 0 0 6 t M _ >.:.:.:.:.1.:.@.E.qXhXvXfXsXsXfXvXvXnXAXSXSXSXSXSXSXSXkX7Xh.l.N.x.x.N.l.l.<.,.T K T T T T J U T ) ` ' :.` :.' :.` ` 1.3.,.3.3.3.,.1.' :.1.' ,.' ' ' ' 1._ T N M z z n M M M k j e 0 0 b $ y y 0 0 0 0 0 6 6 6 6 0 6 0 6 6 e u 6 6 e u e u e 6 6 e 6 6 6 8 8 8 n m m M M M n k M T ` 1.] ] [ 3.] ] ] / / ~ ~ ^ ~ ~ ~ ~ ! B e q 8 q 0 e e q e 0 e e 0 0 e 7 5 d K n.<X>X}.>X,X>X<X.Xx.` V J U U ~ ~ ~ ~ M e e q e q e q 0 0 0 0 0 0 e 6 0 6 6 j V T / / T T T T T R ` ' ` 1.' 1.3.,.[ ,.,.] [ ,.1.1.1.' 1.1.1.:.1.1.1.1.1.1.;.( T T J T ^ U T T / / T T ~ ~ ~ ~ / / ~ n e 7 0 q e e e y e 9 9 e e y b 0 y 0 0 0 0 0 0 0 0 0 0 0 0 0 y y 0 0 0 6 5 t N ( 3.3.] [ ` ' :.>.E.iXvXvXvXlXlXxXjXjXkXAXCXCXSXVXAXAXAXpX~.=.l.B.l.d.l.l.N.w.>.Y T ~ ~ ~ U U Y R -.1.:.:.:.:.:.;.` 1.1.1.1.1.3.3.2.3.1.1.3.3.2.2.q.0.1.1.( T N M z n M M m m n j a e 0 0 0 b $ u u y u y 0 u 0 0 $ u 0 0 u $ u y u 0 y y 0 0 0 0 0 $ b $ e u j n M M m k M m M V ^ 1.0.1.1.] ) 1.] ] ( U T U U U U ~ V V j 8 e e 0 0 0 0 0 e 0 e 0 e e e 0 0 ",
":X>X,X}.>X<XXX|.l.( 1.1.1.1.1.1.1.U M a 6 u 0 u u a a a u y b u u 0 0 0 n ~ 0.w.q.q.0.q.0.q.3.q.3.3.3.3.,.3.3.3.3.3.3.[ [ 3.] ' 1.[ [ 1.3.' 3.] [ 3.[ [ [ [ [ [ 1.1.1.1.[ 3.3.q.[ [ 1.3.[ q.0.) M t q q e q 0 0 9 e e q 0 0 0 0 0 0 0 0 0 0 0 0 0 0 0 0 e 0 u e 0 0 0 e 0 5 j M R 3.` :.:.:.1.+.6.+XjXnXnXnXnXnXnXMXAXAXSXZXSXDXSXSXSXSXzXxX@X4X4X1X4X1X4X<X|.c.<.:.:.,.' :.1.:.1.1.` ,.:.,.' 1.` ` ' 1.' ,.,.,.1.' 1.:.' ,.,.1.' ` ] 1.3.( H j 6 ; 5 - ; 5 6 6 6 0 0 0 y b b $ 0 0 0 6 6 6 6 0 u 6 0 6 u e 6 6 6 e 6 e 6 e 6 e e 6 8 8 e 8 7 e 7 6 6 6 8 5 5 - 8 M ( q.3.3.3.1.] 1.[ 1.] 1.q.q.0.q.q.0.) ! 8 8 8 q 8 0 0 e 0 q 0 e 8 7 8 ; 5 d K c.<X<X>X>XXX>X<XXXV.3.` :.1.:.1.1.q.1.V 8 e e 0 e 0 0 q 0 q 0 e 0 6 0 6 6 6 m ( 1.d.q.2.3.3.3.3.3.3.3.:.` ' ' [ 3.3.,.3.' 3.' ,.1.1.1.1.1.] 1.:.` 1.1.:.] :.] 1.1.3.1.1.1.1.1.1.1.1.1.0.1.1.1.0.1.) V b 9 q e q 0 e 9 e y q y 0 0 0 0 u y y 0 0 0 y 0 0 y y 0 y 9 0 $ 0 0 6 6 5 j N _ 3.3.' ] ' ' ` &.oXxXMXAXAXSXAXAXAXZXVXCXCXNXVXVXVXAXGXkXqX@X4X4X4X<X X<X4X XV.<.1.1.2.2.1.-.-.:.2.:.:.:.1.:.:.` :.:.2.:.:.;.:.) ' ` ` :.3.2.2.3.1.0.0.2.( J e - - ; 7 7 7 6 6 e e e 0 0 0 u b $ 0 0 0 u 0 0 u 0 0 y u 0 u b 0 u 0 $ u u 0 0 u 0 0 0 $ b 6 e e 8 5 5 5 ; 6 6 6 a ~ ^ q.1.1.] 1.] 1.0.] ] 1.0.[ 0.0.1.) ~ B 6 6 a e a e e e e a 0 0 e e 0 e 6 ",
">X{.>X>X>X<X.X].d.-.0.1.1.1.0.0.1.U j e 6 6 6 0 0 0 y u b 0 0 0 y u 0 $ n ~ ) q.q.[ q.[ [ q.q.1.3.3.3.3.3.[ 3.3.3.' 3.[ 3.[ 3.3.[ 3.[ 3.[ 1.[ 3.1.[ 1.[ 3.[ [ [ [ [ 3.3.[ [ [ 3.3.3.[ 3.[ [ 1.) N y q 7 e q q 0 e e 9 e 0 0 0 q 0 0 0 0 0 0 y 0 0 0 0 0 e 0 0 0 0 0 e e 6 5 8 M ( 3.,.:.:.,.1.+.&.OXjXAXAXAXAXSXAXGXAXSXSXDXDXSXSXSXSXAXAXpX/.}.<X1X<X1X<X}.].j.y.E W ,.` :.` :.:.' 1.:.1.' ,.1.,.1.:.,.1.1.1.` 1.,.,.` :.:.1.:.:.1.1.1.3.( U a 6 6 6 5 5 u 6 6 0 0 0 0 $ b $ b 0 y u $ 0 0 6 0 e 6 e 6 6 e 6 e u 6 6 6 6 6 e u 0 6 u 6 6 6 u 6 6 7 6 7 8 e 5 5 e M / 2.1.3.3.[ ] ] [ [ 0.3.1.0.q.0.q.0.) J q 8 q 8 q q 0 q 0 7 e e 8 8 e 5 5 i L S.>X>XXX>X>X,X,X.Xc.a.W :.1.W :.1.2.3.J e e q e q q e 0 0 0 0 0 0 u 0 u 7 - j T ` 3.3.3.[ ' ,.,.3.,.[ ' ' ` ' ' ,.3.3.3.3.3.3.3.' 1.' 1.1.1.] ` 1.` 1.] :.] 1.' 1.] ] 1.1.1.1.1.1.1.1.1.1.1.1.2.1.] m a 7 0 e 9 0 e y 9 y e e y y 0 y 0 y 0 0 0 y 0 0 0 0 0 0 0 y y u u 6 6 5 5 i N ` 2.[ ' ' 1.` :.&.'.xXAXAXCXDXSXDXVXCXAXCXCXCXFXVXzXVXMXkXpX+X}.4X<X{.}.XX<X].l.>.X.:.2.2.:.-.-.:.:.( :.-.:.:.:.:.1.:.1.-.:.:.:.1.` ` 1.1.3.q.q.2.1.0.0.0.( V a 7 7 6 7 5 7 6 0 e e e e a 0 0 u $ 0 0 y u 0 0 y 0 0 u $ 0 $ 0 0 0 0 0 b $ u 0 $ 0 0 0 b y u e q 0 6 6 6 6 u 6 6 a U ^ 1.1.;.1.1.] 1.1.1.1.1.1.[ ] [ [ 0.^ N 6 6 7 0 a 0 0 e u 0 0 e y u e e e ",
":X>X>X>X{.>X{.S.l.1.1.1.2.3.1.1.1.A k 6 5 6 6 6 0 a u y 0 0 u 0 0 0 0 $ m ~ ] 0.0.[ [ 0.[ 0.0.[ 3.3.3.,.[ 3.] [ [ [ [ 3.3.3.3.[ 1.[ 1.3.3.3.[ [ 3.[ 3.[ 3.3.[ 3.[ 3.1.[ 3.3.3.3.3.3.[ 3.[ 3.1.) N t q q e e e e e e e e 0 y 0 e 0 0 0 e 0 0 0 0 0 e y u 0 0 0 0 0 0 e e q 5 r M / 3.,.' ' 1.1.:.&.OXxXSXSXZXSXAXSXAXHXSXZXZXDXSXDXZXAXAXzXpX/.{.>X>X1X:XXX{.n.j.#.o.W o.+.:.:.:.` :.:.:.:.:.>.3.,.,.,.:.1.:.:.1.1.:.:.:.` :.1.1.1.1.1.3.q.` U a 6 6 u 6 6 6 u 0 0 0 $ b y $ b $ b 0 0 $ u y 0 0 0 6 e 0 6 e u 6 e 6 0 6 u 6 6 6 e 6 u e 6 e 6 e 6 6 6 6 6 8 ; 5 e m ( 1.1.1.1.] 1.1.1.1.0.1.0.1.3.0.0.) ) V e q q 8 0 0 0 e 9 q q e e e e 5 7 d L C.}.>X>X>X,XXX<XXXV.<.+.,.:.R :.1.1.2.V 8 8 8 e q q 0 0 0 q 0 e 0 0 0 a 6 - j U ( 1.1.' 1.' 1.3.,.1.' ' ' ' 1.3.3.3.3.1.1.1.1.1.1.1.] 1.] 1.] :.] ] ] 1.] 1.) ] 1.` 1.:.:.1.:.1.2.1.1.1.1.1.1.3.q.) m a q e e 0 7 e y e e y e 0 0 e y 0 0 b 9 y 0 0 0 0 y y 0 0 0 u y y 0 6 6 5 d N ` 4.3.' ,.` :.:.6.^.tXBXCXCXCXSXSXFXSXFXSXSXFXFXFXVXVXAXnXfX@X}.<X}.{.{.{.<X|.l.,.+.,.2.>.:.:.:.:.-.:.:.:.1.] 1.1.:.1.1.:.:.:.:.1.:.1.1.1.2.q.3.0.0.1.0.1.) V j 8 e 8 5 8 e 6 0 e 0 0 0 0 0 u 0 0 0 u 0 $ 0 u 0 y u u y 0 0 $ u 0 $ 0 0 y 0 y 0 0 $ y B y e e 6 u 8 e 6 6 e 6 ; a C ^ q.1.] 1.1.1.1.q.q.3.3.1.1.[ [ 0.] ( V 7 5 5 6 0 u y 0 a 0 u e 0 u e e 0 ",
">X>XXX>X>X,X{.S.d.:.1.3.3.1.1.1.1.V a 0 $ 6 0 u b u 0 u 0 0 0 6 0 0 0 $ b ~ 1.0.0.[ 0.] [ 0.1.[ 3.[ 3.] ,.' 3.' 3.3.3.3.1.' 3.3.3.,.3.[ 1.[ 3.1.3.1.3.3.3.[ 3.[ 3.[ 3.3.[ 1.[ 3.[ 3.3.[ [ 0.1._ N t 7 8 0 q e 0 e e e e 0 e e e u 0 y u a e a 0 e 0 e 0 e e 0 a 0 e a e q 7 t l _ ,.' ' ' ,.' +.&.OXkXAXAXAXAXSXAXSXSXSXZXDXZXSXSXZXAXAXzXpX(.Q.>X>X}.{.{.{.n.j.t.o.#.,.:.:.:.:.1.1.:.1.1.:.,.' ,.1.1.1.1.,.1.:.:.:.:.:.` ` ( :.] 1.1.q.q._ T a 6 6 $ 6 6 6 6 6 6 0 y u b u $ b y u y $ 0 9 0 0 0 e u 6 6 0 e 0 6 0 0 6 e 6 e 6 6 6 e 6 6 e 6 6 8 6 8 e 6 6 8 5 d m T 1.] ] ] ] ] 1.1.3.1.1.1.0.0.0.0.0.) V e q q 7 7 0 q e e e e e e e i 8 8 d K C.<X4X>X>X>X,X<XXXS.d.+.:.:.` +.2.1.1.H e e e 0 0 e e 0 0 0 0 0 0 u 0 e e 5 k T ` 1.,.1.1.1.' [ 3.3.' :.` ' 1.3.,.,.3.1.:.` ] ' 1.1.1.] ] ;.1.1.1.1.1.1.1.1.1.] 1.1.] ] 1.:.1.:.:.:.;.1.-.:.;.1.1.) V n e e e e 9 e e q e e e 0 0 0 y 0 y e 0 0 0 y 0 0 0 0 0 y 0 $ 0 0 0 u 6 8 j N ` 3.3.,.3.,.:.,.*.0XtXZXSXCXCXCXSXSXVXVXCXCXCXSXVXcXAXnXnXpX3X$X<X}.}.XX}. XS.d.>.,.3.3.<.>.:.:.>.:.2.:.,.,.>.,.,.1.1.1.:.2.1.:.` ) :.1.;.3.3.1.1.;.0.1.0.( V i 7 8 8 8 8 q 0 0 0 0 0 0 0 0 0 $ 0 0 0 0 0 0 0 0 u y $ 0 0 y u y 0 u y u u $ u 0 0 $ $ $ $ e e e e e e e e e u 6 a A ^ 2.2.1.1.q.1.3.2.1.1.0.1.1.1.[ ] ) ) V 0 $ 9 0 a 0 0 0 0 0 a 0 e 0 0 6 a ",
":X>X}.>X,X,X.XS.a.+.1.3.2.3.3.1.;.A j 7 6 u 0 a 0 u y a 0 0 0 0 0 $ u $ b ~ ) q.1.[ 0.0.0.0.[ 0.[ [ ' ' ' ] [ 3.3.3.3.3.3.3.3.[ [ 3.3.1.3.3.3.3.3.] 3.3.3.[ 3.[ 3.[ [ 1.[ 1.3.[ 3.[ [ 3.3.1.0._ N t 8 q q e e q e e e e e e e e e e e 0 e e u e b 0 0 0 a e 0 0 e a e a e 7 t H _ 3.' ' ' ' ' ` &.^.jXAXAXAXZXSXZXSXDXZXZXBXSXSXAXAXAXAXkXiX/.{.>X{.>X,X>X{.n.j.#.#.@.>.>.:.2.:.,.:.1.,.:.1.:.:.1.:.,.:.:.:.:.:.` :.` :.:.` :.` 1.1.1.3.q.) U a ; u 6 6 6 6 6 6 6 0 0 0 y $ b $ 0 y $ y 0 0 0 0 0 0 e 0 0 0 0 0 e 0 6 6 6 e u 6 e u 6 6 u 6 6 e 6 6 6 6 e 6 6 ; e V ~ 1.] ] ` ] ] ] 1.1.1.1.] 0.[ 0.0.] ) J e 8 8 8 q q e e e e e e e a 8 8 5 j P C.<X<X>X>X>XXX<XXXS.d.:.1.:.>.2.:.1.;.V 8 q 0 q e q q 0 0 0 e u 0 6 e u e 5 k T ` 3.1.1.' ' ] 3.3.,.,.` :.1.1.,.3.,.,.' 1.;.:.1.) 1.1.1.0.1.1.1.1.;.1.1.1.1.1.1.1.1.:.1.` 1.:.1.:.1.1.1.1.1.1.1.1.) V n e e b e e e e e y e e y e u e 0 y 0 y y 0 0 0 0 0 y 0 0 0 0 0 u 0 6 6 7 j N :.3.2.,.,.1.,.:.7.0XZXZXSXCXSXSXVXVXVXVXVXCXSXSXVXZXAXAXcXdX@X$X}.}.}.}.$XXX|.g.>.@.,.2.2.,.:.:.>.:.:.>.:.1.:.2.2.:.2.:.1.:.:.:.:.:.:.1.1.] 0.1.0.1.;.1.0.^ V i 8 8 8 8 6 0 0 9 u 0 0 0 0 0 0 u y y 0 y u 0 $ 0 $ y u u 0 y 0 0 0 y 0 0 $ 0 0 0 0 $ B $ B 6 e e 6 e u e u e e 5 a A ^ 0.1.1.1.1.1.q.1.1.1.1.1.1.1.] [ 1.( V 7 6 6 0 0 e a 0 e y e y 0 0 a 0 e ",
":X}.>X}.>X<X}.S.g.:.1.,.3.3.3.q.1.A j 7 6 6 6 6 e a e e a 0 0 0 $ 0 0 $ b A ) 0.0.[ [ ] [ 1.] ] [ [ ' 3.' [ 3.[ [ 3.' 1.1.1.1.1.1.1.3.1.1.3.1.1.1.3.1.1.1.3.1.3.] [ ,.[ 3.' ] 3.[ [ 3.[ [ 1.[ _ M t 8 8 e e e e e q e e e e a e e e e e e e y e e 0 a e 0 e e 0 e e e e 8 7 r l T ,.' ` W ` ` W &.^.jXAXnXZXcXZXcXZXZXZXZXZXZXSXAXzXAXzXkXiX/.}.,X>X,X<X<X>XS.j.#.W #.,.:.:.,.,.:.:.:.:.:.1.:.:.1.:.:.:.W ` W ` :.:.:.1.:.:.:.` ] 1.0.q.q.1.U e $ $ $ 5 6 u u 6 u 0 0 u $ b $ b y u u y 0 9 y 0 0 0 0 0 0 e 0 0 0 0 a 6 6 0 6 e 6 6 6 e e 6 6 6 e u e u 6 6 6 5 a V ( 1.1.] ] ] ] ] ] 1.) 1.] 1.] ] ] ] ) J 8 8 8 e e e e y e e e e e e e e ; d K n.}.<X,X>X,X>X<XXXC.<.+.,.:.,.,.2.1.;.N j e 8 q 0 7 0 8 e 6 e 0 6 6 6 e 5 - a U _ 1.1.1.1.1.,.1.1.:.1.` ` ` :.3.3.,.1.1.1.1.1.1.1.0.1.1.1.0.[ 1.1.0.1.;.1.1.1.1.1.1.' :.1.1.1.:.1.1.1.1.1.1.1.q.q.;.V b q e e e 0 q e e e q q q e y e e e e e 9 0 9 0 0 9 0 0 0 0 0 0 0 6 5 6 ; r z R ,.` ` ,.` W +.7.'.cXSXSXHXVXGXGXFXGXAXVXVXSXAXAXAXAXAXcXdX@X$X}.}.}.<XXX<X].l.,.W 1.,.>.,.>.:.` +.:.R :.:.:.:.:.:.:.:.:.1.:.1.:.1.:.1.1.1.1.;.1.;.;.0.1.) A a 5 > 5 8 5 0 0 0 0 0 0 0 0 0 y u 0 u $ y $ b u y u 0 $ 0 0 u $ 0 u 0 0 0 u 0 0 u 0 $ B $ $ e u e e e 8 e 6 u e 6 j ^ ;.0.1.1.;.1.;.] ] ] 1.1.] 1.1.1.0.) ( B 6 $ 6 0 0 e e u e 0 0 0 a 0 6 6 u ",
">X{.}.,X>X<X{.S.a.W 1.,.1.1.] 0.1.V j - ; 6 7 6 8 e q 8 0 7 7 0 5 5 5 $ b ~ ] 0.0.[ ] [ 0.[ 0.1.[ 3.3.' 3.' [ 3.3.3.[ [ 1.1.[ [ 1.1.1.1.1.1.0.1.0.3.3.3.q.3.3.3.3.' 3.3.' 3.' 1.' ] 3.[ ] [ 1.( M w 7 w 7 q 7 7 q 7 7 7 r 7 7 7 8 7 7 8 7 8 8 8 8 8 7 q q q 7 7 9 7 7 7 7 - w g T ' Q Q W W W E $.!.jXMXAXnXAXnXAXAXAXAXZXAXHXHXHXGXMXGXbXaX3X>X>X>X<X<X<X,XD.l.#.o.#.$.W :.+.:.:.:.+.:.+.:.:.:.:.:.:.1.:.R W W ( :.:.:.1.1.1.] ) 0.[ 0.0.` U a 6 6 6 6 0 e e u $ b y $ b $ b $ y y u $ 0 0 0 0 0 0 0 0 0 0 0 e 0 0 0 6 0 6 6 6 e 6 u e e 6 e 6 u 0 6 6 6 0 6 5 a A ( 1.[ 0.[ ] 0.[ 1.1.1.1.1.1.1.;.1.;.) V t 7 q 8 8 q 0 9 7 9 9 5 9 5 # - - 7 D C.>X>X<X>X>X>X,X.XV.a.` 1.>.3.,.2.' ) z 8 7 7 7 7 7 5 7 7 5 5 7 5 5 5 5 5 & t U _ 1.2.3.3.1.' 1.,.' ' ' ' 1.3.3.3.2.3.,.1.1.1.1.1.0.1.0.1.1.0.0.1.1.1.0.1.1.1.2.1.3.3.3.3.1.1.1.1.1.1.3.q.0.1.2.1.( m e 0 7 9 5 5 5 7 q 7 7 7 7 7 q 7 q 7 7 7 5 7 7 7 5 7 5 7 8 5 7 e 6 5 5 ; - 8 z W 3.' ` W ` W o.6.OXcXAXAXGXVXGXGXGXGXAXnXAXAXAXAXAXAXnXcXdX%X}.XX>X,X<X<X<X|.l.>.W W +.+.,.@.:.+.@.W +.+.` +.:.+.` :.:.:.,.3.1.3.3.2.2.3.1.0.1.0.) 0.0.0.) A a 7 5 8 5 8 6 0 0 0 0 0 0 0 0 0 u 0 0 0 0 0 0 0 0 0 0 u u y B $ $ $ $ $ $ $ $ $ $ $ $ $ B B e e u 6 0 e 0 0 e u 6 n ~ ;.q.2.2.1.0.1.1.1.1.1.1.1.1.1.1.1.1.( C 6 5 5 0 e a 9 6 5 6 5 5 - @ ; - - ",
">X>X>X>X>X<X{.n.a.W ` ,.1.1.] ] 1.J r 7 ; 8 e 7 8 7 e 8 7 7 7 9 7 9 6 9 n U ) q.[ q.0.0.[ 0.[ [ 3.[ [ 3.' ' 3.' ' ' 3.[ [ 1.[ [ 1.] [ 1.[ [ 1.1.1.1.3.3.3.3.q.3.3.,.' ' ' ' ' 1.' 1.] ' ] ] ] ` H r : 7 7 7 7 7 7 q w 7 w 7 7 q w r 7 7 w q 7 8 8 w q 7 7 7 9 6 5 5 7 7 5 - 7 l T Q W Q Q W E Q &./.sXMXMXMXMXAXMXAXnXAXcXAXGXFXGXGXMXMXzXsX2X1X<X<X1X<X,X,XS.g.$.E #.,.,.+.:.:.+.:.>.,.:.1.:.:.+.,.:.,.:.:.` :.:.:.:.:.` ` ) _ ] ] ] 1.1.) U a 6 6 6 6 e u a a B $ b y $ b $ b 0 u y y 0 0 0 0 u 0 0 e 0 0 0 0 0 u 6 6 6 u 6 a 6 6 6 6 6 6 e u 6 6 6 e 6 e 6 5 a A ^ 1.0.1.0.1.0.1.1.1.1.1.1.1.1.1.1.) ) V 8 8 8 8 8 y 0 5 0 0 9 + $ $ 5 # - > v C.<X>X<X>X,X>X<X.Xc.a.W ,.3.,.,.,.` ( M r 7 7 7 7 7 7 7 7 7 7 7 7 q 5 7 - * t U ` 2.3.3.3.3.1.1.1.1.1.1.' ,.3.3.3.3.,.[ ' :.;.;.1.1.0.1.0.0.[ 1.1.0.] 1.1.1.] 3.3.3.3.3.2.2.:.1.1.1.1.q.2.2.1.1.] / M e 7 7 5 5 7 7 7 7 7 7 7 7 q 7 7 7 7 7 7 7 7 7 7 7 7 7 7 7 7 > 7 7 5 > 5 - d M / 3.[ ` 1.` ` :.6.OXxXnXnXMXMXMXMXGXGXnXnXnXnXnXAXAXnXnXxXeX+X}.>X}.>X<X<X>X|.V.<.W W W :.+.,.,.>.,.,.,.,.+.` W ` :.:.:.:.1.,.2.>.3.3.3.3.1.1.) 1.0.] 1.0.) ~ d 6 8 5 5 6 7 0 0 0 0 0 0 0 0 0 0 0 u 0 0 u 0 0 u 0 0 $ 0 0 $ $ $ ^ ^ $ | $ $ ^ ^ $ B $ $ $ u e e e e e u 0 0 6 6 b ~ ;.w.0.0.0.2.0.0.0.1.1.0.2.1.1.1.1.;.( N 6 5 6 e e e 0 6 6 6 ; - - - - - = ",
">X,X>X}.>X,X{.S.a.#.' ,.1.] ] 1.1.~ N M M V V V N N V m V N B V C B B V V U _ 0.0.q.0.[ 0.[ [ 3.3.[ 3.' 3.3.' ' _ R U U T ~ U / / ! ~ J T J J T ~ T J J T ' [ 3.,.' ' ' ' ' ' ' ' ] ' ] ] ' ] ' T H M H M M H H M H N N H H M M M H H H H M V V J V M V V N n m M N M V M l H T q.V.j.j.j.f.j.j.P./.pXmXlXpXpXlXjXjXjX7X8X8X9X9XuX8X8X!.8XT.T.v.D.n.n.n.S.S.S.j.l.g.x.V.l.x.l.x.N.N.l.N.N.N.N.N.V.m.m.3.>.3.+.:.:.:.W ` ( ( / T ~ U J T / U M e 5 0 6 e e a a 0 $ b b $ y b y $ 0 u y 9 $ y 0 0 e 0 0 0 e 0 0 u 0 0 6 a 6 0 6 6 u 6 6 6 u 6 6 6 6 6 6 6 u 6 e 6 0 m A ~ U ~ ~ T J T ~ ( ) ` ) 1.1.1.1.) ( V q 8 8 e q q 9 9 n ^ ^ ) ) ) ^ ) ^ -.2.].<X>X>X<X>XXX<X|.S.a.W :.1.,.,.2.,.,.U M N M H M M H M V N V V J M N V M M H R ` 1.1.3.3.] 3.' ,.1.1.,.3.[ ,.3.,.' ` R T U U T T Y T ~ ~ T ~ ~ ~ T T ~ T / ` ` ] 3.3.3.2.1.1.:.1.1.:.3.1.` 1.1.1.( J H N V N M N V H N H N V H N H M N H N N J M N M N M N H M N M M N m M k l K ` d.Z.M.N.M.V.m.l.P.#XfXcXfXlXsXsXlXlXlX7X8X0X8X0X8X8XqX8X0XY.T.k.k.k.v.S.S.S.S.V.x.d.l.l.V.V.V.x.c.V.V.N.V.l.N.d.d.d.4.>.3.>.3.1.:.,.:.:.R ~ ~ ^ ~ ~ V T ~ V M 8 7 5 8 8 8 6 0 0 0 0 0 0 0 0 u 0 0 0 0 0 u u 0 0 0 $ 0 0 0 $ B $ $ $ $ ^ $ $ $ $ $ B $ ^ $ e e e e u e 0 u a 6 0 a m A ( Y ^ ^ U A T ^ ( ` 1.3.1.3.1.1.1.^ V 7 6 5 e e 0 6 6 b A R -.X.( -.X.( ",
":X:X>XXX>X<X}.n.a.W ` 1.1.1.] 1.1.` ~ T R ( ( ( ( ( ^ ( ) ^ ( ( ) ^ ( ( / / ] 0.0.[ [ q.3.q.q.3.3.3.3.3.[ ,.' ` T T N M M M N N M M M M M M M N n j l l H / ' [ ,.' ` ` ' ` ` ' ' ' ' ] ` ] ' ] _ _ T T _ _ T T / / / / T T T _ _ / / / / ( ! ~ / / / _ / ( / / / / / ( ( T _ 2.Z.G..XG.].G.D.D.E.2X;XaXiXiX;XiXiX(.(.!.J.J.i.J.i.i.i.i.u.u.&.a.f.f.j.d.d.j.c.S.S.S.]..X].|.|.|.|.|.S.|.|.|.G.G.F.S.V.d.3.>.,.:.` +.:.` T U J N M n n M m n j 6 6 6 e 0 0 0 e u b $ $ b y $ b $ y y u $ 0 y 0 0 e 0 0 0 0 0 e 0 0 0 0 0 6 e 0 0 e e 0 e e 0 6 e a 6 0 e e 6 6 5 0 a b m M n m M n n M ~ ( ` ) 1.-.1.1.:.( V e 8 q q e e 9 5 V w.B.Z.B.B.Z.B.Z.Z.]..X}.<X>X>X>X>X<XXXV.a.W :.1.,.,.3.2.2.W T / _ / / _ / _ / / / / / _ ( ( / T / ) ` ;.1.3.1.1.1.1.1.' 1.[ ,.3.3.,.,._ T K M M l M M m M n m n M M n M M M m H T ( ] ] ,.3.3.1.1.:.2.:.` 1.1.` ] 1.1.] ( / / ^ ( ( _ ( ( ( / ) / / _ ( / _ ( ` / _ / _ / / _ / / _ / ( ( R R ( Y T ` 3.Z.|.G.G.G.G.G.G.].@XqXaXiX3XyXiXiX;X;X~.K.J.J.u.i.J.J.J.H.h.6.a.a.g.a.a.l.d.x.C.S.S.|.|.|.|.].|.].|.|.|.G.F.S.F.Z.V.V.d.3.,.:.:.1.' W W U N M M M n t n n y e 8 7 8 5 8 5 0 7 0 0 0 6 0 0 0 0 0 0 0 0 0 0 0 0 0 0 b 0 0 u $ $ | $ $ $ $ $ $ ^ $ $ $ $ $ $ e e u e e e 0 0 u 0 0 u a m m m B m M k j M U ) 1.1.3.2.1.1.:.^ B 7 7 7 q 0 6 6 ; C 2.N.Z.Z.Z.F.S.Z.",
"}.}.>X}.>X<X}.n.s.#.` ,.1.[ ] 1.1.1.] ] ] 1.] ] 1.1.1.;.] ] 0.] 1.1.0.1.] ] 1.3.[ 0.[ 3.1.0.[ 3.3.3.[ 3.[ ,.[ ` R M w r e t t t 8 t 8 t 8 t 8 e 8 r r r M _ ' 1.' ' W Q ,.' ' ` ' ' ' ' ' ] ' ] ] ' ` ` _ _ _ ] ' ] ` _ _ ] _ ] _ ] [ [ [ [ [ ] ] ] ] ] _ ] ] ] 1.0.1.q.3.] d.M.G.,X,X,X>X,X,X>X>X=X2X-X-X/.-X/.-X-X}.H.*.%.@.%.O.O.O.@.o.+.@.,.,.>.,.,.<.$.a.S.|.XXXX<XXXXXXXXXXXXXXXXXXXXXXXXXXX.XZ.d.+.:.,.,.:.:.:.:.U M t r 8 8 8 r i 8 8 7 6 6 0 6 0 6 0 0 $ y b $ y 0 y b $ y 9 0 0 0 0 0 0 0 0 0 e 0 0 0 0 0 0 6 0 0 0 e 0 0 6 0 6 0 6 0 e 6 6 6 e 6 6 6 0 0 e e e t e a e t e J :.:.:.1.:.:.:.1._ H r 8 t q q y 8 7 U N.|.XXXX X XXX.X.X}.XX>X>X>X>X,X>X<X{.S.,.R ` :.1.,.3.3.3.] ` ] ] [ _ ] ] ] ] [ ] ) ] ] 1.] ] ) ] 1.1.1.1.1.] :.1.1.1.1.,.[ ,.3.' [ ' _ P l 7 r r i 8 i 8 r 8 d 8 8 t 8 t r r l H ) ] 1.1.:.1.] 1.` ` 1.` 1.1.1.1.3.3.1.[ 1.] ] ] ] ] ] ] ] ] ] [ _ [ ] ] ' ] ] ] _ [ [ [ ] ' ] ' ' ` ] ` ` 1.1.:.W >.f.F.,X,X,X,X,X,X>X1X2X2X3X+X-X-X/.-X/.+XH.%.@.>.%.@.6.5.%.@.@.$.<.#.>.>.,.,.<.s.D.|. XXXXXXX>XXXXX>X,XXX>XXX{.{.XX<XXXZ.d._ ` ,.,.,.,.' ` D w 7 q 7 7 7 7 7 5 5 7 7 5 6 8 5 9 7 9 0 0 0 0 6 0 0 0 0 0 0 0 0 0 0 0 u y y 0 0 $ $ $ $ $ $ $ $ $ ^ ^ $ $ $ $ $ u 0 0 u 0 0 0 0 0 0 6 u a u e i a i a e 8 j U ` 1.1.1.1.1.:.1.( N 8 5 7 7 0 0 5 @ K N.|.XXXXXXXXXXXX",
">X>X}.>X}.>X{.].g.W ` ,.[ 1.1.1.1.0.1.1.[ q.1.0.1.1.1.1.[ 0.0.1.0.1.0.1.q.1.1.0.1.1.0.1.1.1.3.3.[ [ [ [ [ [ [ ` _ M 7 q q q 7 q q q q 7 q 7 7 7 q 7 7 7 l ` 1.,.,.` ' ' ' ' ' ,.' 1.1.] ] ] ] 1.] ' ] ] [ [ ] [ ] ] ] ] 1.] 1.[ [ [ q.[ q.] q.3.[ 0.] [ ] [ ] 0.3.3.q.3.q.3.p.j.D.,X>X>X<X>X:X>X>X>X:X:X:X:X:X:X>X:X{.c.+.:.:.( W W ( ( R :.:.1.>.:.,.:.` W <.S..X<X>X<X<X<X>X<X>X>X<X<X<X<X<X>X,XXXS.d.R +.:.:.:.,.:.1.T t t q q 8 7 8 7 ; 8 5 6 6 6 6 6 6 0 0 b $ $ y y $ 0 $ u y 0 0 0 0 0 0 0 0 0 e 0 0 0 0 e 0 e 0 0 e 0 0 0 0 u 0 e 0 0 e 6 6 u e 6 6 0 6 0 0 0 q e q 0 8 8 8 8 K ) 1.1.:.1.:.:.) ( J 8 w q 8 q t q - P V.XX4X<X<X<X<X>X<X>X2X>X>X>X>X>X,X<X{.v.d.W ' 1.1.,.3.3.3.1.] 1.1.3.3.0.1.1.[ [ 0.0.1.1.0.1.1.1.1.1.1.1.1.1.1.1.1.1.' 3.[ 3.] 3.' 3.[ _ T l - 7 7 8 7 7 8 7 8 8 8 7 8 7 7 7 > t H ` 1.1.1.1.] 1.1.:.1.1.1.] 3.1.3.1.1.1.1.1.1.1.0.[ ] 1.0.0.1.1.1.3.3.] [ [ [ ] 1.3.3.[ 3.3.3.[ ] ' ' 1.1.' ,.1.1.,.,.j.].<X<X,X:X,X1X>X:X>X:X=X>X>XQ.>X}.:X.Xj.+.,.,.-.:.,.1.,.:.' 1.' ` [ ,.,.,.#.d.G..X>X}.<X<X>X>X<X<X>X<X<X,X{.{.}.<XXXV.p.W W 1.3.,.,.' ` H 7 7 - 7 5 7 5 5 5 9 7 7 7 7 7 8 7 6 6 7 7 0 7 0 0 0 0 0 a 0 0 0 0 0 0 0 $ u 0 0 ^ $ $ ^ | $ B B $ $ $ $ ^ $ ^ $ 6 0 0 0 0 u 0 u 0 0 0 6 6 e e 8 6 6 e 5 e i U ` 0.1.1.1.1.1.1.^ N 6 6 7 0 6 0 9 - K C.{.4X4X<X4X4X4X",
"=X>X>X:X>X4X}.n.s.+.` ,.1.1.0.] 1.3.1.1.1.1.1.3.1.3.1.0.q.[ 3.3.1.0.1.0.1.1.[ 0.1.1.[ 1.1.[ 3.1.3.' [ [ [ [ ' _ / M 7 q q q q q q 7 q q q 0 7 0 8 7 8 r z ( ' ,.' Q Q :.W ' ' ` ` 1.' ] ' ] ] ' ' ' ] ' ' ] [ ] 1.' ] ' ] 1.] 3.[ [ q.q.q.[ q.[ ] q.0.[ 1.[ ] ] ] 1.1.] _ ' ,.s.S.XX,X:X:X:X:X>X:X:X>X>X:X>X>X1X>X,X,Xx.,.1.] ] 1.] ' ] 1.1.1.1.3.1.:.:.1.W d.S..X$X>X>X}.}.}.}.XX}.}.}.}.}.}.}.}.{.V.d.W +.#.,.@.,.+.1.J n t q 7 8 8 7 8 8 7 e 0 6 0 6 0 0 0 0 y $ y b b y 0 0 $ y $ y 0 0 0 0 e 0 0 0 0 0 e 0 0 e 0 0 0 0 0 e e 0 0 0 0 6 0 6 6 e 6 6 u e 6 0 0 0 0 0 e e q 0 8 8 8 U ) :.2.:.:.1.1.` ( J t q q q q y q - K x.|.<X<X}.>X>X>X>X>X>X>X>X>X>X>X<X<X{.c.p.W ` 1.,.,.3.,.[ 1.1.1.3.0.3.1.3.] 3.[ [ 1.[ 1.1.1.1.1.1.1.1.1.1.1.1.1.` ' 1.1.[ [ [ ,.3.[ 3.` T l - 7 8 8 8 8 7 8 8 7 7 8 8 8 7 8 8 e V ] 1.1.' :.1.1.1.1.1.1.] 1.2.1.1.1.1.1.1.1.1.1.1.1.1.1.0.1.3.1.3.] 3.3.3.3.1.3.] 3.3.3.3.,.' ,.' 1.` ' ' ,.1.3.>.:.<.s.n.<X,X,X:X:X:X>X*X=X>X>X:X:X>X}.,X{.{.x.:.:.:.:.:.:.1.1.1.1.] :.1.1.1.,.1.#.d.G.XX,X<X>X>X>X<X<X>X<X<X4X1X}.{.:X>X{.V.d._ ` 1.,.,.,.' W H : : : 7 7 8 7 8 8 8 q q 7 0 7 0 7 6 7 0 7 0 6 0 0 0 0 0 0 0 0 0 0 0 0 0 0 0 0 0 $ $ B $ $ $ $ $ $ $ $ $ $ $ ^ $ 0 0 0 0 0 0 u 0 0 0 6 6 6 6 e 6 8 8 8 8 e 8 U ;.1.1.1.1.1.1.-.T m 6 7 7 0 0 7 6 - K c.{.4X<X1X4X>X>X",
"}.}.>X}.}.<X{.S.a.W ' ' [ 3.[ 1.] 1.0.1.3.[ 0.3.0.1.1.3.1.[ 0.0.1.1.1.1.q.1.1.3.[ 3.[ 3.3.3.[ 3.[ 3.3.[ [ [ ' ` _ M 5 q q q q q q q q 7 7 q 0 7 8 8 8 8 M ( ' ,.,.' ` Q ' ' ' ' ' ' ` ' 1.' ' ] ] ' ' ' 3.] ' [ ] ' [ [ 3.] 3.[ [ q.[ q.[ q.[ [ [ [ 1.[ [ [ [ [ [ 3.] 1._ ` <.j.D.,X>X>X>X>X>X>X>X:X>X>X:X:X>X:X,X,X,Xx.,.' ] :.1.1.1.1.1.1.1.1.1.1.1.1.:.+.4.F..X}.4X4X>X<X4X}.>X>X<X}.>X<X>X<X>X.XZ.d.W W :.:.1.,.,.1.T t 8 8 8 5 8 8 6 8 6 6 6 0 7 0 7 0 0 0 y $ b $ $ 0 0 0 y 0 0 0 0 0 0 0 6 0 0 0 0 0 0 0 0 u 0 0 0 0 0 u 0 0 0 0 0 a 0 0 u e 0 e 6 6 0 0 0 0 0 0 0 0 0 e e q e A ) :.1.1.1.1.1.] ( H 7 7 q 8 q b q - J j.{.<X<X>X>X}.>X>X>X>X>X:X,X>X>X,X<X.XS.a.W ` :.1.,.2.3.,.1.] 1.3.3.1.0.[ 0.[ q.[ [ 0.1.1.1.1.1.1.1.;.1.1.1.1.1.1.1.' [ 1.[ 3.[ ' ' 3.' T t : : 8 8 7 8 8 8 7 8 7 7 7 8 8 8 8 j N ] 1.1.1.1.1.' 1.1.1.1.1.1.1.3.3.1.1.1.1.1.1.1.1.3.1.1.[ 1.3.1.1.3.3.3.[ [ 3.3.,.3.3.3.3.3.,.' :.1.:.' :.,.3.3.,.#.<.s.{.,X,X,X*X:X:X>X>X:X:X>X=X>X:X:X>X>X{.j.` :.-.:.1.:.1.1.1.1.1.1.1.` 1.` ,.` d.G.XX<X>X>X<X<X<X>X<X<X<X4X1X{.}.{.>X.XV.d.` ' ' ' ,.,.,.` H w 7 7 7 7 7 q 8 7 7 7 0 9 7 9 7 6 6 0 7 0 7 7 0 7 0 0 0 0 0 0 0 0 0 0 0 0 0 9 u B $ $ $ B $ B $ $ | $ B $ $ $ $ 0 0 0 u 0 0 0 0 6 u 6 0 e u 6 6 6 8 u 6 e e U 1.1.0.1.1.1.1.1.( N 7 5 6 7 0 7 5 - K c.[.<X2X>X>X2X>X",
">X}.}.>X>X<X}.n.s.+.,.1.[ 3.q.[ q.[ 1.1.q.1.0.[ 0.[ 3.[ 3.1.1.1.1.1.1.q.[ 0.[ 1.1.3.[ 1.3.3.[ [ [ 3.3.[ [ [ ' ` R M q q q q q e q q q 9 7 0 0 7 8 q 7 8 z ` ` ,.,.Q ' Q ,.' ,.' ' ' :.' ' ' ] ` ' ` 1.' ' 1.' ] ' ' ' 1.1.[ 3.[ [ 3.3.3.[ 3.3.] [ ] ] ] ' 1.' 3.3.,.[ [ _ _ ,.s.D.<X>X1X=X1X1X:X>X:X1X=X>X,X:X>X:X:X,Xv.,.3.1.' 1.3.1.1.3.,.3.] ] 1.1.1.` +.<.D..X<X<X4X<X2X4X<X4X}.4X<X2X4X<X<X<XXXS.4.o.W :.,.,.,.,.>.J t q q 5 8 8 8 7 5 e 7 7 0 7 6 6 9 0 9 b $ b $ y y 0 0 9 0 0 0 9 0 0 0 u e 0 e 0 0 0 0 e 0 0 0 0 0 0 0 0 0 e 0 u e 0 0 6 6 6 e e 6 0 6 0 0 0 0 0 0 0 e e 8 8 U ) 1.:.:.:.,.1.:.R V 7 7 8 q q q 9 * D l.].<X<X>X>X2X}.>X>X>X>X>X>X>X,X>X,X{.v.p.` ` 1.:.,.,.3.,.1.' 1.1.[ 0.3.3.1.3.1.3.1.1.[ 1.1.1.1.1.1.1.1.1.;.1.1.] 1.' 3.] [ 3.3.' [ 3.' T l - 7 8 8 8 8 8 8 8 7 8 7 8 8 8 8 8 d H ;.1.1.1.1.1.:.1.1.1.1.1.1.1.1.1.1.1.1.1.1.1.1.1.1.1.1.1.1.1.1.1.3.3.[ 3.3.3.' 3.3.3.,.3.,.,.3.' ' ` ,.,.,.,.,.,.Q <.s.D.<X,X>X{.:X:X:X:X>X:X>X>X>X,X}.:X{.{.x.:.1.:.1.-.1.:.1.:.1.1.1.:.1.' 1.:.+.d.D..X<X}.<X}.<X2X<X<X1X<X<X>X:X}.XX}.|.v.d.` ` ` ' ,.,.` ' H q 7 7 7 7 7 7 7 7 9 9 9 7 9 7 9 7 9 6 9 0 7 0 6 0 0 0 0 0 e 0 e 0 0 u e 0 0 0 0 B $ $ $ B $ $ $ $ b $ b b u 0 0 u 0 0 $ u u 0 0 0 0 6 0 6 6 6 u u e 6 6 8 8 Y ] 1.2.1.1.1.2.) T N 7 7 7 8 e 7 5 * K C.{.4X>X4X>X<X>X",
"}.>X>X:X}.2X{.S.a.W ' ] 1.[ [ 1.0.1.3.3.[ 1.1.1.1.1.1.0.0.1.[ 0.[ q.1.3.1.1.1.[ 3.[ 3.[ ] [ 3.[ 3.[ [ ] [ [ ' ` / M 7 q q q e 9 q 9 8 0 0 0 0 0 e q 8 r M ` 1.,.' +.W ' ' Q ' ` ' 1.] ` 1.1.' 1.1.' ] ' ] ' ] ' ] 1.1.] ' 1.' 1.3.[ 3.] [ 3.' ] _ ] ` ' ' 1.,.3.' ,.' ' ' ` ,.j.D.<X1X>X:X:X=X:X>X:X>X1X,X<X1X,X:X,X,Xx.,.1.' 1.' 1.1.1.] 1.1.,.,.1.1.1.:.W 4.F..X<X$X<X<X<X<X4X4X4X<X4X<X<X4X4X<XXXC.d.W W +.:.,.:.+.1.T t 7 5 5 5 5 5 5 5 5 5 7 7 6 5 5 6 6 7 b $ $ 0 y $ 9 0 y 0 0 0 0 0 0 0 0 0 0 0 0 0 a 0 u 0 0 e 0 0 e 0 0 0 0 0 0 0 0 0 e 0 u 6 6 0 6 e 0 0 0 0 y 0 0 0 e 8 8 V ) 1.,.,.,.:.:.:./ z : 7 q 7 q 8 9 & K l.].<X<X>X>X>X>X>X>X>X4X}.>X>X>X>X<X:Xv.a.W ` 1.1.,.,.,.3.1.1.1.1.3.1.1.0.1.[ 0.[ [ 0.0.3.1.1.0.1.1.1.1.1.1.1.1.1.1.] 3.1.3.[ [ [ 3.3._ T l - 7 8 8 8 8 e 6 8 6 e 8 8 7 6 6 8 t N ;.1.1.1.1.1.1.1.1.1.1.1.1.1.1.1.1.1.1.1.1.1.1.1.1.3.1.1.1.1.1.1.1.1.1.3.1.,.,.,.3.3.1.,.' ,.,.1.,.,.,.` ,.,.,.' #.<.g.W.,X>X:X:X:X:X1X:X:X>X>X>X>X>X,X}.>X{.x.+.-.` :.1.1.1.] 1.' :.1.] 1.' :.:.' d.G.>X<X<X<X<X<X>X1X<X>X>X<X>X>X>X,X>X.XA.p.` W _ ` ` ' #.' D 8 7 7 7 9 5 7 5 7 6 5 5 7 7 7 7 7 6 7 5 7 6 6 9 0 e 0 0 0 0 0 u 0 0 0 e 0 0 0 0 $ $ B $ $ $ B $ b $ b u $ $ 0 0 0 0 0 0 y 0 0 0 0 0 u 6 0 u 0 6 e u u 6 8 i U ] 1.1.1.1.1.1.1.Y z 8 7 7 7 7 e 5 * G c.{.4X<X>X>X<X>X",
">X>X}.Q.>X<X[.n.a.:.' 1.3.3.3.1.[ 0.[ 0.[ q.0.3.q.1.[ 0.3.1.q.1.1.[ 1.3.0.1.0.[ 3.[ [ 3.3.3.3.1.3.] ] ] ] ] ' ` / m q e q e q e e e 0 9 9 0 9 6 e 8 e 8 z ( ' 1.` ` +.` :.:.:.:.:.] ` 1.] 1.] ] 1.` 1.] ] ] ] ' ] ] ' ' ] ] 1.1.] ] ] ] 3.3.] ] ] ` ` _ ' ' ,.3.,.' ' ' ` Q <.s.{.>X>X>X1X=X1X=X>X>X>X1X>X>X,X>X,X,X,XV.,.3.` 1.' 1.1.' 1.1.1.1.] ' 1.' 1.+.4.F..XXXXX<X<X<X<XXX}.XXXX<X<XXX>X,X,X.XZ.d.W W +.+.#.+.+.` J t 7 7 > > > = > ; > ; > - 7 > ; 5 8 6 $ $ $ y 9 9 0 0 0 0 0 0 0 0 0 0 0 e 0 0 0 0 6 0 0 0 0 0 0 0 0 0 u 0 0 0 e 0 0 0 0 6 e 6 u e 6 0 0 0 0 0 0 0 0 0 e 8 8 U -.1.:.:.:.:.:.` R z : : 7 7 7 8 8 : K s.].<X<X>X>X>X>X>X>X>X>X}.>X>X>X>X>X{.v.d.W ' ' ,.>.3.,.3.,.' 1.1.1.0.1.1.q.[ 1.0.1.q.1.1.1.1.1.1.1.1.1.1.1.1.1.1.' 1.1.] ' 1.] ] ] 1.` T j - 8 d e e 8 e 7 0 8 8 8 e e e e 8 8 H ;.1.1.1.1.:.1.1.1.1.1.1.1.1.1.1.1.1.1.1.1.1.1.1.1.1.1.1.1.1.1.1.3.3.[ ' ' ] 1.1.,.,.3.,.,.,.,.:.Q ,.,.,.#.' ,.<.#.<.s.W.1X<X>X:X1X1X1X>X>X>X,X:X>X,X}.>X{..Xx.:.:.` ` 1.:.1.` 1.1.1.1.1.1.,.,.` ' m.F.XX,X,X,X>XXX>X,X,XXXXX,XXX.X>X,XXX].A.s.' Q Q ` #.#.' W H r > > : - 7 7 > > 7 5 7 8 > 7 > 7 > 6 5 7 7 7 0 0 0 0 0 0 0 0 0 0 0 0 0 0 0 0 u B $ $ $ B B $ $ $ b 0 $ u y 0 u 0 0 0 u 0 y 0 u 0 0 6 0 6 6 6 u 6 e 6 6 e 8 A ] ;.1.1.1.1.1.:.R z > : 7 > > > ; * G x.}.4X>X>X>X1X2X",
">X}.>X>X>X>X}.S.a.` ' ' ] 3.[ 1.1.1.3.1.1.1.1.3.1.1.3.1.3.1.[ 1.1.0.1.0.3.1.3.3.1.3.[ [ [ [ 1.] 1.] ] ` ] ] ] ` / M 8 e b e e e e e 0 0 7 9 0 0 8 e 8 8 M ( ( ` ` ` ` ` ` ` ` ) :.) 1.) ] ) ] ) ) 1.) ` ` ) ] ] ` ` ` ` ` ` ` _ ` ] ] 1.3.3.] ' ' ' ` ` ' ,.p.p.p.,.#.,.#.W p.j.D.,X:X:X=X>X:X:X>X,X,X:X,X.X,XXX.X,X,XM.,.1.1.` ' 1.1.1.' 1.3.1.3.1.1.1.,.1.d.Z.|. X.XXX XXXXXXXXXXXXXXXXXXXXXXXXX.XC.d.$.$.$.,.,.#.+.:.P g g r d 8 d 8 8 2 i d d > d r i i d i b y y $ 0 y u $ 0 9 0 0 0 0 0 0 0 0 0 0 0 0 0 0 0 0 0 0 e 0 0 0 e 0 e 0 0 0 0 0 0 e 0 0 6 0 e 0 0 0 0 0 y 0 0 0 e e e U -.:.:.,.,.:.:.+.W H r , > : > r r , I j.{.<X<X>X>X<X}.>X>X>X>X>X>X>X>X>X,X{.c.a.W ` 1.1.3.,.3.,.1.1.[ 1.3.[ [ 0.1.1.1.[ 1.1.1.1.1.1.1.1.0.1.1.1.0.1.1.1.1.] ] ] ] ` ' _ ' ' _ T l 7 8 8 8 6 6 7 0 0 0 0 q 6 6 e 8 e e V 0.1.;.1.) ` ] 1.1.:.1.1.;.1.1.:.:.:.1.1.1.:.1.1.1.] ] ] ] 1.[ [ _ [ [ ' ` ( ` ` 3.,.,.1.' ,.' W ' <.,.p.,.#.#.#.#.t.s.D.<X,X:X:X:X:X:X>X<X>X,X>X,X.XXX.X.XXXV.1.1.:.:.:.:.1.1.1.` :.1.' 1.' 1.,.3.m.G.|.XXXXXX.XXXXX.XXX.X.X.X.X.XXXXX.XD.V.d.<.,.o.Q ,.#.#.#.K g r r , r d r , 8 , > r , r r d d 8 1 8 5 6 9 0 e 0 0 e 0 0 0 0 0 0 0 0 0 0 0 0 $ $ B B $ $ $ B b $ 0 0 0 0 0 0 0 u 0 0 0 u $ y u $ 6 6 0 u 0 6 6 u e 6 8 e U ) 0.1.2.1.2.:.:.R K , , , , > 2 > = P k.{.<X1X2X<X>X>X",
">X}.>X>X>X<X{.n.a.:.:.1.[ 3.3.3.1.3.1.1.1.1.1.0.[ 1.1.1.1.3.1.3.0.1.q.1.3.3.0.[ 3.[ [ 3.1.,.1.( T U U U U U T J V j 7 e b e e e e e e 0 0 6 9 0 0 6 6 6 k A U U Y U J U K Y U U U ~ U ~ ! ~ ~ ~ U U U U T U T J U U U U U U T U J U U T ` ] ] ] ' ` ` ' ` 3.m.x.N.x.d.f.l.s.j.n.{.>X>X>X1X>X=X>X,XW.].n.v.n.v.v.A.A.A.d.3.3.:.1.1.1.1.` 3.1.1.1.1.1.3.3.,.1.4.l.x.Z.S.c.C.c.c.S.Z.S.C.Z.S.C.S.C.C.Z.C.x.f.l.j.d.l.d.l.l.>.W R R R R R R R I R I R R R Y R R -.T k a $ $ 0 0 0 0 0 0 0 0 e 0 0 0 0 0 0 0 0 0 0 u 0 0 0 0 0 0 0 0 0 0 e 0 0 0 0 e 0 0 0 0 0 0 0 0 0 e 0 0 0 0 0 0 6 8 e A ;.1.:.:.:.+.,.:.,.` T T P T P I R P a.].{.<X>X>X>X>X>X>X2X>X>X>X>X>X>X>X<X{.v.a._ 1.,.,.3.3.,.3.,.[ 1.3.1.3.1.1.1.q.[ 0.3.0.[ 0.1.1.0.1.0.] 1.1.1.1.1.1.1.( T U J J T J U U U H t 7 8 8 e 8 6 e 6 0 0 0 0 0 0 0 8 u e k T Y U U U K U U K U U Y U Y U U Y U U T U T Y K U U U J U U J T J J J T J H T _ ' ,.1.,.1.` #.' 3.f.f.M.f.f.j.s.s.j.v.{.,X<X,X:X,X>X,X,XG.n.n.v.S.S.v.S.A.S.s.,.:.:.1.:.1.1.:.:.1.1.:.] 1.1.1.,.p.m.M.A.G.Z.D.v.V.S.S.S.A.V.S.A.A.A.S.C.V.V.x.x.f.d.x.V.x.f.f.,.E W I R R R R T I I Y T I I T R R I K j 8 5 7 0 0 0 0 0 0 0 0 0 0 0 0 0 0 0 0 0 $ $ B $ $ B b $ $ $ b $ 0 0 0 0 0 u 0 y 0 u y 0 0 6 6 u u 6 u 6 6 e 6 6 8 8 Y ] 0.2.1.2.3.>.1.,.W I P P I R E I I y.R.}.4X>X<X>X>X>X",
"}.>X}.}.>X<X{.R.a.:.` ,.1.1.1.0.1.3.0.[ 0.[ 3.[ q.1.0.[ 1.3.0.1.[ 1.[ 1.1.1.3.[ 3.[ 3.] ' 1._ N j j r 8 8 8 r 8 e q q 0 9 9 e 9 q e e 0 6 0 0 7 0 e 6 6 0 j j a a i r r t a a a a e j e b b y b a a a a t e a a t e j e t r r j t e r M J _ ' ` ' ' ` ' >.f.F.G.XX.X.X|.|.|..X{.>X<X1X<X:X1X:X1X:Xv.s.a.<.$.#.,.,.,.#.,.1.[ ' 1.1.:.1.1.:.1.,.1.3.3.3.1.3.,.3.>.,.<.,.<.<.<.<.<.<.<.<.<.<.>.,.<.<.a.V.S.|.XX.XXX.X.XXX.X|.|.F.|.|.F.|. X|.|.|.|.|.|.|.|.|.|. XZ.-.n 6 0 y 0 y 0 e e e e 0 0 0 0 0 e 0 0 0 0 0 0 0 0 0 0 0 0 0 0 0 0 0 0 u 6 0 0 0 e 0 0 e 0 0 e 0 0 b 0 y 0 0 0 e e e A -.1.:.:.,.,.,.,.d.A.|.|.G.|..XG.|.F.|.,X<X<X<X>X>X>X>X2X}.>X>X>X>X}.>X<X<X{.c.p.W ` 1.:.,.,.,.3.,.3.1.3.0.3.[ q.1.3.1.1.1.1.1.1.1.1.1.1.1.1.1.1.1.1.1.1.1.( j 7 r r r r r 8 r 8 8 8 8 u e u 6 e 0 0 e 0 0 e 6 6 e 8 e e 8 u e i u 8 8 i 8 8 8 8 8 8 8 7 > 8 8 8 8 8 8 8 w 7 r r q 8 w 8 r r r w : 7 h T ` :.' :.:.,.' <.f.F.|..X{..X.X{.{.{.,X,X>X>X:X:X:X,X>X.Xj.a.#.$.#.$.,.$.,.,.>.>.1.1.:.:.:.1.1.] 1.:.1.1.1.' 1.1.,.3.,.>.,.<.,.<.3.,.<.,.<.#.,.#.,.<.<.p.a.x.S.|.|.XX,X,X.X.XXX,X.XG.|.G.|.|.|.G.|.G.F.F.F.G.|..X.X|.N.Y j ; 0 0 0 0 q 0 0 0 0 e e 0 0 e e 0 0 0 B $ $ $ $ $ $ b b $ $ b 0 u 0 u 0 0 0 u $ u 0 0 0 6 0 6 e 6 e e u u 6 6 8 i U 1.1.1.1.1.1.3.>.l.Z.|.F.G.|.XXXX|. XXX>X<X4X1X4X>X<X>X",
">X>X}.:X}.2X}.S.s.+.] 1.1.1.1.1.q.[ 1.0.1.1.1.1.3.1.3.[ 0.[ 0.[ 1.1.1.1.3.1.1.3.[ ,.,.3.3.[ ( M j e 8 > 8 8 8 8 0 q e e e 9 e e e e q 0 6 0 0 e 6 e 6 7 6 i e e 7 6 7 7 8 8 6 0 0 0 9 e y y y y 0 0 q 7 q q e 7 8 0 7 7 8 8 8 e 8 7 8 l T ( 3.3.' ] ' ,.3.d.F..X<X<X,X,X>X>X,XXX>X>X>X>X>X>X1X>X{.v.s.#.#.#.#.#.,.' W ` 1.1.1.1.' 1.1.1.1.3.1.1.1.3.3.,.,.,.,.' :.,.,.#.' :.+.:.:.:.` #.+.:.,.,.:.<.x.G.XX,X,XXXXX,X<XXX,XXXXXXX XXXXX XXXXXXX XXX XXX X XXXXX_.>.k 5 0 0 y 0 0 u e u e 0 0 0 e 0 u 0 0 0 0 0 e 0 0 0 0 0 0 0 0 0 0 0 0 e e 0 0 u 0 0 e 0 e 0 0 0 0 9 0 0 e u 6 e 6 e U -.1.2.,.:.+.,.<.d.D.XXXXXX,X,XXXXX.XXX<X<X1X>X>X>X>X>X>X>X>X2X>X>X>X>X>X,X{.v.d.W ' 1.1.3.3.3.,.' 1.] 1.1.1.1.1.0.3.0.1.1.1.1.1.0.1.[ 1.1.1.0.] 1.1.1.1.1._ j > 7 7 r : 7 8 8 8 8 8 8 8 8 6 6 u 0 0 6 0 0 0 6 e u 6 u e e e i 8 7 8 8 > 8 8 6 > 6 > 8 > i 6 6 > > 7 > 8 > 7 : 8 , 7 > : > 7 7 > : : l T ` :.1.` ,.,.#.,.f.G.,X,X,X,X,X,X,X,X>X>X>X>X:X:X>X,X<X:Xj.<.#.#.$.,.$.@.,.,.,.3.:.1.1.1.:.1.1.1.] 1.` ' ' ' 1.1.' 3.' :.' ,.,.,.#.,.' ,.#.' ,.,.,.,.:.W ,.V.D.,X,X,X4X1X<X<X<X,X,X,X<X,X,X<X,X,XXXXXXX.X.X.X.XXXXXXXN.K d 5 9 0 e e 0 0 e 0 0 0 u 0 0 0 0 0 0 u B $ B $ B $ b $ b $ b $ 0 0 u 0 0 0 $ u 0 y 0 u 0 6 6 6 8 6 u 6 e 6 e 6 e 8 A ] 2.1.1.1.1.>.,.l.S.XXXX|.XX<X,X,X<XXX>X>X>X2X2X>X2X>X",
">X}.>X}.<X<X{.n.a.` 1.[ [ 0.[ 0.1.1.1.[ q.3.3.0.3.0.1.0.1.3.3.1.q.1.q.1.1.1.1.[ [ [ [ [ [ ' ` M j e e 7 8 8 8 q 0 9 e 9 e e e 9 0 e e 0 0 0 6 6 0 6 6 6 7 e 8 6 6 $ 6 6 9 7 9 0 9 9 9 9 $ y $ $ 9 6 6 9 0 9 7 6 7 7 9 6 5 7 8 8 e 7 8 M T ] 3.3.3.3.3.,.,.d.G.,X4X<X4X<X<X<X,X>X}.>X:X>X*X>X:X,X{.j.<.@.W W :.,.,.,.1.:.,.' ' 1.1.1.1.1.1.3.1.,.1.1.3.1.] 1.1.[ :.` 1.` ` ` ` :.` ` ` ' :.-.:.) :.,.V.|.<X<X,X,XXX<X<X<X,X,X<XXX<X,XXX<X<X<X<X<X<X<X<X4XXX<X}.Z.>.k $ 9 9 0 0 u e e e e 0 0 0 0 0 e 0 e 0 0 0 0 0 0 0 0 u 0 0 0 0 e 0 0 0 0 0 0 e 0 0 6 6 u 0 0 0 0 0 0 0 0 e 6 e e 0 U -.:.:.,.,.:.` ,.d.S.<X,X,X,X,X,XXX,X,X<X<X<X>X>X>X>X}.>X>X>X}.<X>X>X>X<X<X:Xv.a.W ` 1.1.,.p.,.3.1.1.3.1.q.1.[ 0.1.1.[ 1.[ q.1.1.] ] 1.1.] 1.] 1.1.1.1.1.1.R j 8 r 7 7 8 8 7 : 7 8 7 e e 5 e e 6 e 6 u e 0 e 6 6 e 8 8 e u 6 6 6 i 8 6 8 > 8 6 > u 6 6 8 ; 6 6 6 8 8 8 8 > 8 8 8 7 8 7 7 : w 7 7 : : l T ) :.1.1.' ' #.,.M..X,X1X1X,X,X>X>X>X1X<X1X1X1X>X>X>X<X,Xx.a.+.,.,.:.1.,.,.,.>.2.:.:.2.:.1.] :.1.:.1.1.1.1.' ` ` ' ' ' ` ' ' ' W ' Q ' ,.,.,.` #.,.` _ W ,.x.D.<X<X1X1X1X4X<X4X4X<X1X1X4X<X<X<X<X,X<X,X<XXX.X>X,XXX<XV.K i * 7 0 0 0 0 0 0 0 0 0 0 e 0 0 0 0 0 0 $ $ $ $ B $ y $ $ b $ b 0 0 0 0 u $ 0 0 0 u $ y u 6 6 6 e u e 6 e u u 8 8 e U ) 1.1.1.1.1.3.>.l.D.<X<X.X.XXX<X<X}.>X}.>X1X1X>X>X1X<X",
"Q.}.}.}.}.<X{.n.d.:.1.1.1.1.1.1.3.1.1.1.1.0.1.q.1.1.q.[ 3.1.1.1.1.1.[ 1.1.1.1.1.' ' ] ' [ [ _ M a e 6 5 6 6 0 0 0 0 0 0 0 e e e e e e 0 9 0 0 0 0 6 7 6 0 0 0 0 7 0 9 0 0 0 $ y $ b $ b $ y $ y $ y $ y y $ y 9 0 9 0 9 0 0 0 0 e 6 8 z U 1.1.3.] ] ' :.,.d.|.>X<X1X:X>X>X4X4X1X>X>X>X>X,X:X:X>X{.x.<.$.+.:.:.:.1.1.1.] 1.3.1.1.1.1.1.3.[ ,.1.1.1.1.3.,.] 1.] 1.' 1.] ] ] ` 1.) ] 1.] 1.) 1.` 1.` ,.j.S.,X<X,X,X,X<X<X<X<X<X<X<X>X>XXX}.XX>X>XXX}.}.>XXXXX<X4X_.X.k - 6 0 0 0 e y 0 e 0 0 0 0 0 0 0 0 0 0 0 0 0 0 0 0 0 0 0 0 0 0 0 0 0 0 0 0 0 0 e 0 e e 6 e 6 0 u 0 0 0 0 0 0 0 e e U -.1.:.:.+.1.#.$.p.v.,X,X,X>X<X>X[.:X>X>X<X>X>X>X>X>X>X>X>X>X>X>X>X>X>X>X>X{.V.a.W ' [ ,.3.,.3.,.1.1.1.3.1.1.q.[ 1.1.3.3.0.3.0.[ [ 1.[ 1.1.] 1.1.[ 1.1.1.] ^ n 7 8 8 8 8 8 7 7 6 6 6 7 6 6 6 7 u e 0 6 0 0 0 0 0 u e e e e u 8 u 8 u 8 6 6 u 8 8 6 6 6 6 i u 6 6 6 u 8 6 8 8 8 7 8 > 7 7 8 7 7 > ; : M ( :.1.:.1.:.1.Q #.f..X,X1X>X>X*X:X:X>X>X>X1X>X>X:X:X>X1X{.c.4.W :.1.:.:.:.1.1.1.:.1.1.2.1.1.' 1.` ] 1.1.[ 1.] ] [ [ [ [ [ [ [ 3.[ ' ,.[ 3.,.3.[ ,.3.3.' ` 1.j.S.>X>X,X<X1X1X<X1X<X1X1X<X1X>X<X>X>X<X<X>X>X>X.X}.>X<X,Xc.P d - 7 e e e 0 0 e 0 0 0 0 0 0 e u 0 e 0 0 0 u 0 0 0 u 0 u 0 0 0 0 u 0 0 b 0 u y 0 0 0 u 0 0 6 6 6 6 u 6 0 0 0 6 e i U ) 1.1.1.1.] 3.,.s.c.,X,XXX:X>X>X:X>X>X:X>X2X>X1X>X>X>X",
"}.:X}.:X>X<X}.S.a.W ` 1.1.1.1.1.3.0.q.1.3.[ 1.3.1.1.1.1.1.1.2.3.3.3.[ 1.] 1.' ] 3.] ' [ ' ] ( m a 6 ; 5 6 6 0 9 0 0 0 0 9 0 9 e 9 e e 0 0 0 0 0 e 6 0 0 0 0 0 0 0 0 0 0 y 0 0 y y y y $ y $ y $ y y y u y 0 0 0 0 0 0 0 0 0 0 0 8 6 6 M T ] 1.1.3.] ` ` #.j.|.,X1X>X>X>X>X4X4X<X>X>X>X>X>X>X>X>X].c.d.,.:.+.+.:.` ` ' 1.' 1.[ 3.1.' 1.[ 3.3.3.3.1.,.1.1.' 1.1.' 1.` 1.` ] ] ] ] ] ) ) 1.1.] 1.;.:.,.j.n.<X>X,X>X<X<X<X<X<X<X,X>X}.}.XX>X}.}.}.XX>XXX>X}.}.XX4X|.+.k @ 9 0 9 e 0 e u 0 0 0 0 0 0 0 0 0 0 0 0 0 0 0 0 y u 0 0 0 0 u 0 e 0 0 e 0 e 0 0 6 u 6 6 6 e 0 0 0 0 0 0 0 0 e 0 e A -.1.:.:.,.,.` ,.a.v.,X,X{.>X<XXX}.}.}.}.2X>X1X2X>X>X>X>X>X2X>X>X>X:X>X>X>X{.v.a.W ' 1.3.,.2.,.,.1.,.1.1.1.1.1.1.3.1.1.1.3.1.3.3.1.1.] ] ] ] 1.1.1.0.1.[ 1.^ j 8 8 8 8 > 6 e 6 6 7 6 0 6 0 0 0 e 6 u e 0 u e e 6 6 0 6 u e e e u e 6 i 6 e 6 6 u 6 i e u 6 6 6 u 8 e 6 6 8 8 8 6 8 6 6 e 8 8 8 8 5 : M ( :.:.:.:.:.:.' #.s.{.,X<X>X:X:X>X>X,X>X>X:X:X:X:X:X:X:X{.V.p.:.` :.:.1.:.2.:.1.1.3.1.3.1.1.1.:.1.1.1.1.] [ 1.[ 1.3.3.[ 3.3.3.3.[ 3.3.[ 3.[ 3.3.3.3.3.1.' ,.j.D.>X>X{.>X<X>X1X<X>X<X<X<X<X1X<X>X,X<X,X<X}.>X>X}.XXXXXXc.I f 5 0 0 e u 0 e a 0 0 e e 0 6 0 0 e 0 0 0 6 e 6 0 0 0 0 0 6 0 0 0 0 u 0 y $ 0 9 0 e 6 0 0 0 6 u 6 a 6 0 u 0 0 0 e e U ) 1.1.1.1.[ [ ,.a.c.>X,X>X>X:X>X:X:X=X>X1X1X>X>X>X1X>X",
"XX>X>X}.XX<X{.S.d.:.1.1.[ q.0.3.1.1.1.1.1.1.1.3.0.1.1.1.1.3.1.3.1.1.1.[ ] ` 1.1.] ] ' ' ,.] ( m a 5 5 5 6 6 6 0 0 9 0 0 0 e e 9 0 0 9 0 0 0 0 0 0 6 0 0 0 0 0 e 0 0 0 0 $ y 0 y y $ y 0 y y $ b y 0 y $ 0 0 $ y 0 y 0 y 0 0 0 0 6 6 6 m T ;.1.3.[ ' ` :.<.s.D.,X1X,X>X>X>X>X>X>X>X>X>X>X<X<X>X>X.Xv.g.,.#.:.+.1.:.` 1.' ' 1.3.3.,.3.3.3.3.[ [ 3.1.1.1.,.1.1.] ] ] ` 1.] 1.] 1.1.1.] 1.] 1.;.1.1.2.,.j.S.<X,X>X>X<X1X4X>X1X4X<X>X>X}.}.2X>X>XXX>X>XXX>XXX}.4X4X).X.k + 9 u 0 0 0 e 0 0 0 0 0 0 0 0 0 0 0 u 0 0 0 0 0 9 0 $ b 0 0 e 0 0 0 0 0 0 u 6 0 e 6 u e 6 u 6 0 0 0 u 0 0 0 e 6 e U ) 1.>.3.,.` ' #.s.v.,X<X>X2X2X2X$X>X}.>X>X4X1X4X4X2X>X2X>X>X>X-X>X>X,X:X>XD.v.a.` ` 1.>.>.3.,.1.,.1.1.1.1.1.1.1.3.1.3.1.[ 3.[ 1.1.1.] ] ) ] ] ] 1.1.0.1.1./ t 8 7 8 8 e 8 7 7 0 0 6 7 0 0 6 0 6 0 6 0 0 e 0 0 0 6 0 6 e 6 6 6 e 6 u 6 u u e u 6 u 6 u 6 u 6 e 6 6 u 6 6 6 6 6 e 8 8 8 e 8 8 6 6 7 > M R ( :.:.1.1.#.` #.s.D.,X>X:X:X,X}.:X>X,X,X>X>X>X:X,X>X>X|.V.d.1.1.:.1.:.1.1.1.2.1.3.1.1.] 1.:.1.] 1.] 1.1.] 1.1.[ 3.[ 3.3.3.[ 3.3.[ 3.3.3.3.3.3.3.3.3.,.' ,.j.S.>X>X{.<X<X>X>X<X>X,X>X<X>X>X<X<X>X<X>X<X<X>X>X}.<X,XXXc.L g 5 e a e e e e 6 0 0 0 e 6 6 e 6 e 6 e u 0 6 0 6 e 6 0 a 6 e 6 0 0 0 0 0 u 0 0 6 u 0 e 6 6 6 6 6 6 0 0 0 0 0 7 e i U :.] 0.0.1.[ [ ,.p.c.,X>X{.:X>X>X>X>X=X>X:X1X>X>X>X>X>X",
">X>X>X>X}.<X{.S.d.R ` 1.1.3.3.1.1.q.1.1.1.q.1.0.3.3.1.1.1.1.3.3.3.1.1.1.1.' ' 1.1.,.1.1.] ,.) z u 6 6 $ 6 6 u 0 0 9 0 0 0 0 0 0 e 0 e 0 0 0 0 0 e 0 0 0 0 0 0 0 0 0 0 0 y 0 b $ 0 b $ 9 b $ y y y 0 0 b $ y y 0 0 0 0 0 0 0 9 u 6 6 5 k T ` 1.1.1.' ' :.#.f.D.{.>X>X:X>X>X}.>X>X1X<X<X<X<X<X>X<X}.v.s.<.,.+.,.,.:.:.] ' ' ] ] ] [ ] [ 3.] ,.1.3.3.1.1.1.1.1.1.1.1.1.1.1.1.1.] 1.] 1.1.1.1.1.1.1.,.3.j.R.<X<X>X<X4X1X1X<X>X4X>X>X>X}.<X>X>X>X>X>X>X<X>X>X<X<X4X].o.d o 9 9 0 0 7 9 0 0 0 0 0 0 0 0 0 0 0 y 9 y 0 0 y 0 0 y 0 0 y 0 y 0 0 e 0 0 0 e 0 6 6 6 e 6 e 6 6 9 0 9 $ 6 7 7 6 5 A ) 1.' ,.:.' ` ,.a.v.,X<X}.$X2X$X+X2X$X+X}.2X>X2X2X>X>X:X>X-X>X>X2X>X>X>X>X{.C.a.R :.,.3.3.3.,.,.:.1.,.1.3.3.1.1.1.1.1.' 3.1.[ 3.1.1.` ] ] ] 1.1.1.1.[ 1.1./ j 7 8 7 6 7 6 e 6 6 6 0 8 e 0 e 0 0 0 e 0 e 0 0 0 0 0 e 0 u u e u e 6 6 6 6 6 6 e e 6 6 6 e e 6 e u 6 e u 8 e e u 6 6 6 e 5 6 8 8 > - 7 M R :.1.:.:.:.` #.#.j.{.,X1X:X:X>X>X:X>X>X>X>X<X>X>X<X<X<XXXV.w.1.1.1.1.1.1.1.1.3.2.1.1.3.1.' :.:.1.1.1.1.] 1.1.] 1.3.3.3.[ [ 3.3.[ 3.3.[ ,.,.3.3.3.3.,.,.,.,.c.].,X>X}.1X<X>X>X>X,X,X>X,X<X<X>X,X<X>X>X<X,X>X>X>X}.XX4Xc.K d O 7 e e e 0 6 6 6 6 6 6 6 e u 0 6 6 u 6 0 e 6 u 0 6 6 6 6 6 6 6 6 6 6 0 6 6 0 e 6 6 6 6 0 6 e 6 5 6 6 $ 6 $ 5 ; 7 C ;.] 0.] ] [ [ ' s.v.,X>X,X*X>X:X>X:X>X>X>X>X=X1X:X>X>X",
",X<X<X<X<X<XXXG.d.R ] [ 1.3.1.3.1.q.1.q.1.1.3.2.3.1.1.1.1.3.1.3.3.3.[ 1.1.1.1.1.2.3.2.2.3.1.) M a 7 5 @ 6 0 0 0 0 0 0 0 0 0 0 0 0 0 0 0 0 0 0 0 e u 0 0 0 0 0 0 0 y 0 0 0 0 0 0 u y y y b $ 0 0 $ $ y 0 0 0 0 b 0 0 0 y y 0 $ 0 u 7 5 k Y ;.1.1.1.:.' #.,.s.D.:X1X:X>X:X1X<X<X4X<X4X<X4X<X4X<X<X XS.N.<.<.>.3.:.1.1.:.' ' ] ' ] ' [ ' 1.[ ' 1.3.1.1.1.1.3.] 1.1.1.1.1.1.] 1.] 1.1.1.0.1.1.1.1.1.3.,.x.D.<X<X<X<X1X4X1X4X4X<X>X>X}.>X>X}.<X>X>X>X>X<X}.>X4X}.4X].I 1   X o O @ - @ 5 5 6 6 e 0 0 0 0 y 0 0 0 0 y 0 y 0 y 0 0 0 0 0 0 0 0 0 0 0 0 6 6 6 e u e 8 e 6 5 - + + + * + - * - K :.:.+.+.W W W Q y.v.}.>X+X/.@X/.(././.~././.+X+X+X+X/.+X>X>X1X1X<X<X<X<X<X,XA.s.W 1.,.,.3.3.3.2.1.1.1.1.1.1.1.3.1.1.1.3.3.1.3.[ 3.1.] ] ] ] [ 1.[ 0.1.0.1.^ j 8 q 8 0 e 8 e 6 6 7 6 0 6 0 0 0 0 0 0 0 0 0 0 0 6 0 u e 6 6 e 6 e a u 6 6 u e 6 e 6 e 6 0 6 e 6 u e 6 e u 6 u u e 6 6 u e 6 6 6 8 7 - M R ` :.:.:.:.:.Q #.s.{.,X1X:X:X:X}.>XXX<X,X<X,X<X4X<X4X<X,XB.w.2.1.2.0.1.1.q.1.0.2.3.1.1.3.] 1.1.1.1.1.1.] 1.[ 1.[ 3.[ [ 3.[ [ 3.3.3.3.3.3.3.[ [ 1.3.,.' ,.a.c.|.<X<X,X<X<X,XXX{..X:X:X>X<X,X>X>X>X,X<X>X<X>X>X>X<X<X4XC.F > . * - - - ; 5 6 5 5 6 5 6 6 6 6 6 6 6 u 6 a 6 e e 6 6 6 6 e e e 6 6 6 6 0 6 6 a 6 e 6 u 6 8 8 6 ; + + o o o O X = z ` ) :.' ' _ ` Q a.v.}.}.Q.Q.}.-X=X-X>X-X=X=X2X=X-X-X>X",
".X.X|.|..XXXG.Z.4.( ] 1.0.3.[ 0.1.3.1.1.1.q.1.3.3.1.3.1.1.1.3.1.1.1.1.1.` ` ) ( ( ( ( ^ ) ( Y m a 6 6 6 6 a 0 0 0 0 0 0 0 0 0 e 0 e 0 0 0 7 0 0 0 0 e 0 e 0 0 e 0 0 0 0 y 0 0 y $ y 0 0 y y 0 y b y y 0 y 0 y $ y 0 0 9 0 0 u y u 6 6 k U :.1.1.1.' ' ' t.s.D.:X:X>X,X>X>X<X<XXXD.D.S.G.|.|.G.F.Z.d.:.` ( R _ ` ` ( ( ` ] ] ` ] ' ] ] [ ] 3.' 1.1.1.,.1.1.1.1.1.] 1.[ 1.1.1.1.1.] 1.] ] 1.-.2.1.3.>.d.x.S.F.D.].|.].|.].{.}.>X>X>X>X<X>X>X}.>X<X>X>X<X>X<X4X4X{.@.G 1 f j z h k z z i e e e 0 0 0 0 0 0 0 y 0 $ 0 0 0 0 y 0 y $ 0 y y 0 0 0 e 0 u e 6 6 6 e 8 ; i a j k f h j z z z z R ,.<.d.p.p.p.#.y.j.E.4X3X@X7X(.qX7XqX7X(.(.7X@X@X3X3X3X3X2XQ.R.{.D.D.D.&XG.G.A.d.` 1.3.2.p.4.3.,.,.3.,.1.3.1.1.3.1.3.1.3.[ 3.[ 3.1.1.1.] ) ( / ( ( ( ) ( ( ~ t 8 8 8 7 0 e 6 e 6 e e e e 7 0 0 0 e 0 0 0 0 0 0 0 0 0 6 e 6 u e u 6 6 u 0 6 6 6 u u 6 u 6 u 6 6 e u e 6 e 6 8 6 e 6 e 6 6 8 e u 6 5 > M ( ` :.:.:.,.:.,.,.j..X,X<X:X>X:X:XXXXX.XS.F.G.F.|.|.|.|.Z.2.:.) ^ ^ ^ ) ( ^ 1.] ] 1.1.[ 1.1.] ] ] ] 1.1.1.1.1.1.] [ 3.3.[ 3.[ [ [ 3.[ ' 3.3.3.3.2.1.1.,.,.3.l.V.G.F.F.F.S.S.S.S.].{.>X<X<X<X>X,X<X<X<X>X>X<X}.4X}.<X4XR.+.S 2 h z z z C k k i ; 6 6 8 6 e u e e e e 6 6 6 6 6 a 6 6 e 6 u 6 6 e e 6 6 6 e 6 6 u 6 8 8 8 u a k k z h k f k h h L :.2.2.4.3.p.,.a.j.R.3X3X(.;X;X;X;X;X;X3XyX;X;X;X3X;X3X",
"Z.Z.S.S.Z.Z.V.V.4.1.1.2.1.3.1.1.0.3.3.0.1.q.1.0.0.3.1.1.3.3.1.1.1.1.] 1.) ( U A U U Y U U U U m a a 6 6 u 0 0 0 0 0 a 0 0 0 0 0 0 0 0 0 0 e 0 0 0 0 e 0 0 0 0 u 0 0 0 y y y 0 0 b 0 0 0 $ y $ y 0 b 0 0 y 9 y 0 y 0 0 0 9 0 y u 0 6 5 m ~ 1.1.1.] :.,.,.#.j.{.:X>X:X,X>X1X<X,X.Xa.$.,.d.m.d.m.4.,.` R U K V A T T T U ( ] _ ` ` ` ] ' ] ' 1.1.] 1.' 1.1.3.1.1.,.1.1.1.1.1.1.] 1.1.1.1.1.1.1.1.1.3.1.,.>.>.,.d.<.4.4.d.<.c.}.}.}.<X>X>X<X>X>X<X>X>X}.>X>X}.<X4X[.c.$.+.+.+.@.+.,.>.:.v a e 0 0 0 y 0 0 0 y 0 b y 0 y 0 y 0 0 y y 0 0 0 0 0 0 0 0 u 6 6 a 6 8 5 ; u C Y +.o.+.+.@.$.>.d.l.f.V.c.x.f.f.g.j.T./.iXiXpXpXpXjXpXpXpXpXpXiXpXpXfXfXfXiX@XR.c.v.v.v.A.A.A.A.V.f.' ,.3.3.3.4.4.3.2.,.3.,.1.1.1.1.1.,.1.3.3.3.] 3.] 1.1.] ( T J J V A ~ U ~ V e 8 8 8 8 7 7 8 8 5 7 6 7 e 0 0 0 0 0 0 0 6 0 0 0 0 0 e 6 u u e 6 6 e 6 e 6 0 e u 6 e 6 6 u e u e u 6 u e u 6 6 e 6 6 6 e e 6 6 8 8 5 - z ( :.1.1.' ` #.#.#.f.{.>X<X>X>X:X,X,X.XS.d.>.d.w.d.4.e.4.2.( Y Z U U ~ A A A ~ ( ] ] 3.3.[ ] 1.1.1.1.] 1.] 1.[ 1.3.3.[ [ 3.[ 1.[ 3.3.[ 3.3.[ 1.,.1.1.1.1.>.,.>.>.3.d.d.d.4.2.4.p.C.XX<X<X<X<X<X1X>X<X>X<X}.>X>X<X}.>X4X{.g.$.I W +.O.>.<.>.Y j ; 6 8 e e e e e u e 0 e 6 6 6 u 6 6 e 6 6 6 u e 6 u 0 u e 6 u 6 6 6 6 6 6 a K X.@.$.$.$.>.>.$.$.$.#.g.l.x.x.j.z.k.E.(.aXpXiXpXsXpXsXpXsXsXsXuXsXsXsXpXsX",
"4.3.4.2.3.d.4.3.>.1.1.3.q.1.[ q.1.3.2.1.1.1.3.3.3.1.1.3.1.1.1.3.] 3.1.] ( V j i a j b a b a a a u 6 6 6 6 0 6 0 0 0 0 0 0 0 0 u e 0 0 e 0 u 0 0 0 0 0 0 0 0 0 e 0 0 0 0 0 u $ y $ y 0 y 0 0 y b y $ y 0 y u $ b $ 0 0 y y 0 0 u 0 5 6 k Y ) 1.1.1.` ' ' #.s.D.,X,X>X:X>X>X<X].x.P g g l l l k j j j 8 e j 8 e t e j j U ] ` ` ] ' ] ] [ ] ] ' 3.1.1.3.1.,.1.1.3.1.1.1.] 1.] 1.1.1.1.1.1.1.1.1.1.1.` Y D l l g j g z g g o.n.[.<X}.<X>X2X}.<X}.>X<X>X<X>X<X<X4X}.W.R.R.c.R.P.n.S.).B.R i a 0 0 0 u $ y 0 y $ $ 0 0 0 0 0 0 0 $ b 0 y 0 0 e 0 0 0 0 6 6 6 6 8 6 - d R l._.].].].P.].].].{.].,XG..X.X.X{.[.+XiXhXvXkXxXzXzXzXzXkXzXkXzXzXxXcXnXnXfX@Xk.a.p.p.p.{ p.d.p.d.3.,.3.,.3.,.3.,.,.1.,.1.1.1.3.3.1.1.2.1.[ 3.] 1.1.] ] ] ( J n 8 e y b j k y e e 8 8 9 q 8 6 8 e e e e 6 e 0 0 0 e 0 0 u 0 6 a 0 0 0 0 0 6 e 6 e u 6 e u 6 u 6 6 6 a 6 0 6 6 6 8 6 8 6 6 6 u e 6 6 e u 6 6 e u e e 5 > M T ` :.:.:.,.` ,.#.s.{.,X<X:X:X:X>X,X|.l.H , j k M k m M k j j a i a a a a b n ~ 1.3.3.3.3.] ] ] 1.1.1.1.1.1.1.] ] 1.3.[ [ 3.[ 3.] ,.3.3.3.1.1.1.1.>.:.,.1.' T N g g l g g j l h <..X>X<X<X>X<X>X<X>X<X<X>X<X>X>X>X<X>X>X{.].].n._.].].].Z.8.v 1 8 u e e u e e e 0 e e e e e e 6 0 u e e e 6 e e 6 0 6 e 6 0 e e e 8 8 ; j -.N.].].].].].].].S.{.].{.{.{.[.{.{.+XOXiXvXvXkXkXzXzXzXzXzXzXzXnXnXzXzXnXnX",
"-.:.+.-.X.:.:.2.1.1.1.1.1.2.3.1.1.1.q.1.0.2.0.2.1.q.3.1.1.1.1.3.1.1.:.:.R M 8 ; 5 6 5 8 ; > 6 6 6 6 6 6 6 u 0 0 0 0 e 0 0 0 0 0 0 u e 0 0 0 0 0 0 0 0 0 0 0 0 0 0 0 0 0 0 0 y 0 y 0 0 y 0 0 y $ $ u 0 y $ y 0 0 0 0 0 0 0 0 y $ 6 6 6 n U ` 2.1.1.` :.+.#.s.{.,X>X:X:X:X:X4X].l.S * * - - - - - - - - 5 + @ 5 5 - 8 8 H ' _ _ ] ] ' ] ] [ ] 3.1.1.1.3.1.1.1.1.1.1.1.1.3.1.1.1.1.1.] 1.1.1.0.-.1.:.( K j = - - * * * - % G n.Q.>X<X>X<X>X}.4X>X>X<X>X<X>X<X$X}.4X}.<X$X4X4X$X$X4XXX XX.d e 6 0 0 0 $ y 0 0 y 0 0 0 0 0 0 $ y $ y 0 y 0 0 0 0 0 0 u e e 6 e 8 5 O j :.|.4X4X4X4X4X4X4X4X4X<X<X<X1X1X1X1X4X5XsXMXMXMXnXGXAXGXAXAXGXAXnXnXAXnXAXGXvXeXh.#.Q Q Q Q Q ' ' ' ' ` ' 3.,.' ,.:.:.,.1.,.1.1.1.1.1.1.1.1.3.3.3.3.3.1.[ 1.^ m 8 5 5 7 7 5 5 5 5 5 5 e 0 0 7 e 6 7 6 e q e 6 0 q 0 0 0 e 0 0 0 0 0 0 0 0 0 6 u 6 6 6 u 8 u 6 6 6 a u 0 0 0 u 0 0 u 0 0 u 0 0 u e 6 e e u 6 e 6 e e 8 ; > M R :.:.:.:.1.:.#.#.f..X,X>X=X:X,X>X<X|.d.r . X * - - - - - 5 5 6 6 6 5 @ 5 $ a U 0.1.q.3.3.1.[ 1.] 1.] 0.] 1.1.1.] [ 3.' [ 3.[ 3.,.3.1.1.3.1.1.1.1.3.3.>.3.` N 8 * * - * * & * : +.XX>X<X<X<X>X,X>X<X>X<X>X}.>X>X<X>X<X4X4X1X4X4X<X<X4X4X X|.A 6 8 u e u e a u e 0 a 6 0 u 6 0 u e 0 0 e u e e 0 0 0 a e 0 u 0 0 0 e ; + k 4.|.4X4X4X4X4X4X4X4X4X4X4X4X4X4X4X4X3XiXlXMXnXAXAXGXAXSXGXHXAXGXSXGXHXGXAXSX",
":.:.:.:.1.:.:.:.1.1.2.1.1.2.3.1.3.3.1.1.3.3.1.1.1.1.1.1.3.3.1.1.1.1.1.1.T V d ; 8 e u 6 e 8 i 8 8 8 ; 6 6 6 0 0 0 0 0 0 e 0 0 e 0 0 0 0 0 0 0 e 0 0 0 e 0 e 0 0 0 0 0 y 0 y $ y 0 0 0 0 0 0 $ b y y 0 0 u y 9 y y 0 0 y y 0 0 0 u 6 ; m ~ ` 3.1.1.1.:.:.Q a.b.{.,X:XW.:X>X4X.XN.S * : 7 : 5 7 7 5 ; 7 7 7 6 7 5 7 8 j J ] ] ` ] ] ] ] ] ] 3.1.[ ,.] 3.1.,.1.3.1.1.1.1.1.[ 1.] 1.] 0.1.1.2.1.1.1.1.` U k 7 ; > 5 7 8 > > I ].:X<X}.>X>X>X}.>X<X2X>X>X}.>X>X}.<X}.}.XX<X4X<X<X<X4XXX XI d e e e 0 y 0 0 0 0 0 y 0 0 0 y 0 b 9 b 0 0 0 0 0 y 0 0 0 6 6 6 6 6 6 > @ f 2.|.4X4X4X}.4X}.}.}.<X<X>X,X,X,X:X,X4X3XpXnXMXAXAXVXGXVXGXAXAXAXAXAXAXAXAXAXcXqXh.W ` Q ' ' Q ' ' ' ' ` ' ] ,.,.,.,.1.,.1.:.1.3.1.3.3.1.3.1.1.1.[ 3.3.[ 1.] ^ V a 7 8 e 0 e e e 6 e 8 7 7 e 8 8 8 e 0 6 8 e e 0 0 0 0 0 0 0 0 0 0 e 0 0 e 6 e 6 e e u e 6 6 e e u 6 6 u 6 0 0 0 0 0 0 0 0 0 0 6 0 6 6 e 6 6 6 6 6 6 6 5 ; z ( -.:.:.:.:.:.' #.s.{.,X1X:X>X:X>X<X|.m.g * - 7 5 5 8 6 5 7 0 6 6 u 6 $ 6 0 b ^ 1.q.2.3.3.[ ] 1.1.1.1.] 1.] 1.0.] 1.3.[ 1.] 3.[ 3.3.3.1.3.0.1.1.2.1.1.2.:.( H j : 5 5 7 : * 7 d $..X>X1X<X>X<X<X<X>X<X>X<X<X>X}.>X}.4X<X4X<X4X4X<X}.XX4X X|.K 1 6 e e 8 e 6 a e a 6 a e e a e e e a 0 e e e u a 0 0 e e e e 0 a 0 u 6 * k 4._.4X4X}.4X4X4X<X4X<X<X<X<X>X>X<X$X@XiXlXnXAXAXAXSXSXSXSXSXSXSXSXSXSXSXSXSX",
"2.:.2.2.:.1.1.2.:.2.1.1.1.1.1.0.1.0.1.3.1.1.1.1.1.0.1.3.0.3.3.1.1.1.1.1.( N a 8 8 i 6 i i 8 6 u u e 6 6 6 0 e 0 0 0 0 0 0 0 0 0 0 0 0 0 0 e u 0 0 0 0 u 0 0 0 0 0 0 0 0 0 0 u $ $ y 0 y 0 y 0 y 9 0 0 y 0 y 0 0 y 0 0 0 0 0 0 0 6 6 6 k U 1.2.3.:.1.:.` #.p.D.{.>X:X:X:X1X1XXXV.z * 7 8 7 8 8 q 8 7 0 8 0 6 7 0 8 e e J ] ] ] ] [ ] ] [ 1.] 3.3.3.1.1.1.3.1.1.1.3.1.3.1.1.1.1.[ 1.] 1.0.;.1.1.1.1.-.T k 7 ; 5 7 8 7 e > I {.>X2X>X>X>X>X>X>X>X>X>X>X<X>X>X>X<X}.$X<X>X}.}.XX<X4XXX XY 8 e 0 e y 0 0 y $ y y 0 0 y 0 y 9 y $ 0 0 0 0 0 0 0 0 0 u e 6 6 6 6 6 ; * j >._.4X$X<X}.}.4X}.>X}.:X:X,X,X:X:X:X-X;XpXnXnXVXVXVXFXSXFXSXVXAXAXAXBXAXSXSXAXqXh.` Q ' ' ' Q ' ' ' ' ' ' [ 1.,.:.,.1.1.1.,.1.1.1.1.1.3.1.3.1.1.1.3.1.] [ 0./ V a 6 6 e u e 6 e 8 6 e 0 e 6 8 7 e 6 7 7 8 7 0 6 0 0 0 0 6 a 0 0 0 0 6 0 u 6 u u 6 u e 6 e u e 6 6 6 0 0 0 0 0 u 0 u y 0 0 0 u 0 0 u e 6 6 e 6 6 6 e 8 7 - M / :.:.:.` :.:.#.#.s.{.,X>X>X:X>X>X,X|.N.l - > e e e 6 6 6 0 u 0 0 u 6 6 $ u b ~ 0.0.1.[ 1.0.] 1.] 1.] 1.1.1.1.] [ 3.[ ] [ [ 3.3.3.3.1.0.2.1.1.0.1.1.2.:.1.) K j 7 7 7 8 7 5 q j ,..X,X<X<X>X>X,X<X>X<X<X}.$X>X<X>X>X<X<X>X<X<X>X}.}.XX<X X|.K > i u e e a e e e u 0 a e e a 6 a e u 0 e a a 6 a 0 a 6 a u e e e a e 8 * k 2.|.4X4X4X<X}.4X<X<X1X>X>X>X>XQ.}.+X(.iXlXAXAXBXSXSXSXDXCXSXDXDXDXSXSXSXSXDX",
"2.1.1.1.2.1.1.2.1.1.1.2.1.3.3.2.1.1.q.3.q.1.1.q.3.[ 3.0.3.1.0.1.1.1.1.1.( N a 5 8 8 6 > 6 8 6 8 8 6 6 5 0 u 0 0 0 e 0 e u 0 0 0 0 0 0 e 0 0 e 0 0 0 0 e 0 0 0 e 0 0 0 0 0 y y y u 0 0 0 0 0 y $ 0 y 0 0 0 0 0 0 0 0 0 y 0 0 0 0 0 5 5 m U -.1.1.1.` :.:.Q s.D.,X<X1X:X>X1X<X.XB.H : 7 7 8 q 8 8 8 q 8 0 7 6 0 7 8 e r J ] ` ] ] [ ] 1.[ [ 1.[ 3.1.1.1.,.1.1.3.1.1.1.3.1.[ [ 0.1.1.1.1.] 1.0.0.2.1.;.T z 7 - ; 5 5 7 7 ; o.].>X<X4X}.<X>X<X>X<X}.}.<X>X}.>X<X}.2X<X4X$X4X}.>X}.4XXX XL d a 0 b e y y b b u y 0 y 0 y y u 0 y y 0 y 0 y 9 0 0 0 0 6 e u e 8 8 ; - j >.Z.4X2X}.}.>X}.}.>X>X>X:X1X:X:X,X>X-XyXjXnXAXAXVXVXCXSXSXSXSXNXSXSXSXSXSXSXAXeXh.Q Q _ ' _ ' Q _ ' ' ` ' ' ` ` :.` :.:.:.1.1.3.3.3.3.2.1.2.1.1.3.1.1.0.0.] ( A a 7 0 e a e e 6 e e e 6 7 e 0 0 q e 8 0 e 6 e e 0 6 0 0 0 0 0 e 0 e 0 0 e e 6 8 6 e 6 e u 6 6 e u 6 u 0 0 u 0 0 0 $ 0 u 0 0 0 0 0 6 6 e 6 u 6 e u 6 8 5 5 M R ( 2.:.>.:.+.:.$.j..X,X1X*X>X:X>X<X|.m.z * 6 8 e e u 6 a 0 0 0 u 0 0 0 0 0 b A 1.[ ] 1.[ ] 1.1.1.] 0.] 1.1.] 1.1.3.[ 3.3.3.[ 3.] [ 1.1.1.1.2.1.0.1.1.:.>.( U j 7 7 7 7 8 7 q j $..X>X<X<X,X>X>X>X>X,X>X<X>X>X<X>X}.4X>X4X<X<X>X>X}.}.4XXX_.L 1 8 e e 6 e 0 0 0 0 0 0 e e e 0 0 e e a e e e e 0 a a 0 e e 0 a 0 a e 8 O k 8._.4X4X}.<X2X<X<X>X>X>X>X>X>X>X>XQ.(.yXxXAXNXBXBXDXDXBXCXDXCXDXBXDXSXDXDXDX",
":.1.1.1.1.1.1.:.2.1.2.1.1.2.3.1.3.3.1.2.1.1.0.1.1.3.1.1.1.1.1.1.1.1.1.1.( N a 5 6 e 6 i 6 8 8 u 8 u e 6 0 e e 0 0 u e 0 0 0 e 0 0 0 0 0 0 0 0 0 0 e 6 a 0 0 0 0 0 y 0 y 0 0 0 0 y y $ u y y 0 y 0 0 0 0 0 0 0 y e 0 0 0 0 0 0 0 0 5 5 M U -.1.1.1.1.:.:.W a.D.,X<X,X,X:X>X<X|.V.l - : 7 8 q 8 8 8 0 0 7 0 6 6 0 e 8 8 J ] ] ] ] ] [ [ 1.[ 3.1.[ 1.3.1.1.3.1.1.,.1.,.1.,.] 1.1.1.0.] 1.0.1.1.1.1.1.;.Y M > 5 7 6 7 8 e > W ].>X4X<X>X>X<X>X>X>X>X2X>X>X}.>X}.<X<X}.>X4X2X>X}.>X4X$X|.I i u e e 0 0 0 b y y b 0 0 0 y $ b 0 u y 0 y 0 0 0 0 0 0 0 u e 6 6 6 e 7 * d >.V.$X>X>X2X2X>X>X>X>X>X1X:X:X:X,X:X3X;XjXnXAXVXVXVXSXDXFXFXSXSXVXSXSXSXHXSXAXeXh.:.` ' ' _ Q ' ' [ ' ] ' 1.' ' 1.1.1.1.1.1.,.1.1.3.,.2.3.1.1.0.0.[ ] [ ] 0.( V a 5 7 6 e e e 6 6 e 8 6 e 7 7 0 7 7 8 e e e 6 0 0 0 e e u e 0 0 0 0 0 0 0 0 e e u e u 6 6 6 u 6 u 0 0 0 u 0 0 0 0 0 $ 0 0 0 0 u 0 6 6 u 8 6 e e u 6 8 > > M R :.2.:.:.:.,.,.#.d..X,X<X:X>X:X1X<X|.l.M - 7 6 u 6 a u e 0 e 0 0 0 0 0 $ b b ~ 0.1.] ] 1.1.1.0.[ 1.1.1.[ ] 1.] [ 3.' 3.[ 3.[ 3.] 3.1.1.3.1.0.1.1.1.2.>.:.:.U j 7 7 7 0 8 7 e d ,.|.>X<X<X<X<X>XXX<X>X>X<X>X>X<X>X>X4X>X>X>X>X<X}.}.XX4XXX|.K > 6 5 e 0 6 0 6 9 6 6 0 0 6 0 0 0 e e e e e e e e e 0 e e e e e e e e 7 O z 4.|.4X<X>X<X2X>X1X>X>X>X>X>X*X>X}././.yXjXAXNXNXBXBXSXDXBXDXBXSXDXBXDXBXCXBX",
"1.1.2.2.1.1.2.1.:.1.1.1.0.1.3.0.0.1.1.0.q.3.3.1.0.3.1.q.[ q.0.1.1.] 1.1.( N 6 ; 6 u 6 8 u 8 8 8 8 e 8 u e u 0 0 6 0 e 0 e u 0 0 0 e e 0 0 0 0 e 0 0 0 0 0 0 0 u 0 0 0 0 y 0 0 y 0 0 y 9 0 0 0 0 0 y 0 0 0 0 0 0 u 0 0 0 0 0 e 0 u 6 ; m T ) 1.1.:.1.' :.#.s.].,X>X>X:XW.{.XXG.N.z : 7 7 q q q e 7 7 e e 6 0 6 6 8 e i H ] _ ] ] ] ] [ 3.[ 1.3.3.1.1.1.,.3.1.1.3.1.1.1.3.[ 1.1.1.1.] 1.1.1.;.0.1.2.;.Y M 8 8 e e e i 8 8 o.].>X<X>X<X>X>X<X>X<X>X<X>X>X<X<X}.}.}.}.4X4X4X>XQ.2X4X<X XR i 8 8 9 0 0 9 $ 0 $ $ 0 9 0 0 y $ 0 0 0 0 0 0 0 0 0 0 0 0 6 6 e 6 6 6 5 * k >.Z.4X2X4X<X}.2X2X>X>X>X>X1X:X1X>X:X-XyXlXGXGXAXVXSXSXFXDXDXFXSXSXZXAXSXSXSXnXeXh.,.:.' ' ' ' ' ' ' ' ] ] 1.1.] ,.,.,.,.3.,.3.3.,.3.3.1.1.1.3.[ ] 0.[ ] 0.] ( N 0 $ 6 6 e 6 u e 8 e 6 7 8 0 e e q 0 0 7 6 8 e 0 0 0 0 0 0 0 0 u e 0 0 e 6 6 u e 6 6 6 u e 8 e 0 0 6 0 0 0 0 y 0 u 0 u 0 u 0 u 0 0 6 e 8 e 6 6 6 6 6 6 5 ; M / ( 2.:.:.:.` #.#.j.].:X1X>X,X>X:X<X|.N.M - 8 e e 0 6 e e e u 0 y u 0 u 0 0 u A 0.1.] ) ] 1.] ] 1.] 1.] 0.0.] 1.1.1.[ [ 1.] [ 3.,.3.1.1.1.1.0.0.2.1.1.1.:.-.C n 7 7 7 8 q 0 q d +.XX,X<X<X,X>X>X>X>X<X}.<X>X>X>X>X<X>X>X<X<X<X2X<X}.4X4X X_.C ; ; 5 5 $ 6 $ 6 6 9 0 7 9 0 7 0 0 0 0 0 0 0 0 e e e 0 0 e e 0 0 q e e 5 * j 4.|.4X<X>X1X<X>X>X>X>X1X>X,X>X=X}.Q.(.7XjXAXNXNXBXBXBXSXSXBXSXBXBXSXBXSXCXCX",
"1.1.2.:.>.3.2.2.2.:.1.1.1.1.3.1.1.3.0.1.1.1.0.3.1.1.1.1.1.1.1.1.1.[ 1.q.^ A a 5 6 6 u 6 8 u u 6 6 u u e u e 0 0 0 0 0 0 0 0 0 e 0 0 0 0 e 0 0 0 0 0 e 0 0 0 6 0 0 u 0 0 $ 0 y 0 y 0 0 b y 0 0 y y 0 0 0 0 0 0 0 0 0 6 e 0 0 u 6 6 5 ; k Y ` :.1.:.:.1.#.#.s..X,X,X,X,X{.,X,X|.N.M - 7 8 8 7 8 8 0 q 7 0 e 6 0 e e e q V ) ] ] ] [ [ 3.[ 3.[ 3.[ 1.1.1.1.1.1.1.1.3.3.' 1.1.1.3.1.] 1.1.1.0.1.1.1.2.;.^ M e 5 5 6 7 6 5 > o.|.}.<X>XXXXX}.}.}.$X<X>X<X>X<X>X>X>X}.}.>X>X>X$X}.}.4XXX|. .1 6 $ 6 $ $ 6 6 $ $ 0 6 6 5 6 0 $ 6 u 6 6 0 0 6 0 6 u 6 6 e 8 8 8 8 8 ; O d ,.C.4X>X}.}.4X>X>X>X>X1X:X:X,X>X>X:X-XiXjXnXVXFXCXSXFXFXSXFXSXSXVXAXAXSXHXSXnXeXh.,.Q ' ' ' ' ' ' [ ' ' [ ,.[ 1.,.,.,.,.1.3.3.3.[ 1.,.1.1.1.1.1.1.[ ] [ [ 0.) V a ; 6 e e 6 6 6 6 8 6 6 e 7 8 7 0 8 8 8 8 7 0 6 e 0 e 0 0 0 0 0 0 0 0 0 0 e u 6 u 6 e 6 e u 6 u 0 0 0 $ u $ u 0 0 u y 0 0 u 0 u 6 6 u e 7 8 8 8 8 7 8 > - z R :.,.:.1.:.+.:.#.f.|.,X<X>X>XXX>X<X|.N.M - 7 e e u 6 e e e u e u 0 0 0 $ 0 u A 0.;.] ] 1.] ] 1.1.0.] 1.] 1.] 1.[ 3.[ ] 3.3.[ [ 3.3.1.3.1.1.1.1.1.0.1.:.2.) U n 7 7 8 8 e 7 q r :..X>X<X<X<X>X<X<X<X<X<X}.>X>X>X<X<X>X<X2X>X4X<X>X}.}.4X XZ.z * * ; 5 @ 6 6 6 6 $ 5 5 5 7 7 5 7 7 7 5 5 7 7 7 7 5 7 7 7 7 8 7 7 7 6 ; * j 4.|.4X<X<X<X>X<X>X>X>X>X>X>X:X:X}././.7XkXzXVXNXBXSXBXSXSXBXSXSXVXVXSXSXVXAX",
"<.a.>.2.<.<.2.4.:.:.1.1.0.3.2.1.1.3.3.3.2.1.1.1.1.0.[ [ ( ) ) ) ) ) ) 1.^ N a 6 5 u 8 6 6 6 8 6 6 6 e 6 6 6 0 0 e 0 0 0 0 0 0 0 0 0 e u 0 0 0 0 0 0 0 0 0 0 0 0 0 0 0 y y 0 0 0 0 0 y $ 0 0 0 0 0 0 y 0 0 0 u $ 6 6 k m k z z k k f k K W <.<.<.<.,.a.,.p.x.D..X].D.{.]..X XF.m.z - 7 q 0 8 q 0 7 e 8 e 6 6 6 e e a e V ] ] ] ] 1.3.1.[ 3.3.3.1.,.1.3.1.1.,.] 3.1.1.1.] ] 1.[ ] ] ) ( ) ^ ;.;.^ ^ ^ U n 6 5 5 6 7 6 6 5 Y N.C.|._.|.].].].|..X}.}.}.>X>X>X>X:X}.{.}.2X}.>X}.}.4X$X[.O.c x x x x x s x x b p d d a k k m k k k k k k z k k z k k f z k k h f g 1 v >.).<X2X}.}.}.>X}.>X:X:X>X:X:X:X:X:X-XyXjXGXzXVXVXVXSXSXFXAXVXzXnXnXmXMXvXnXvX@Xk.t.,.t.Q ,.p.p.p.,.,.' ] ,.1.[ ,.1.1.,.,.3.3.3.>.3.3.1.1.1.) ) _ ) ) ) ) ) ~ N a 7 6 e 6 e e 6 6 8 e e e 0 6 e e 0 8 0 6 e 0 0 0 0 0 0 0 0 0 0 0 0 e 0 e 6 6 6 e e u 6 u 6 e 0 0 0 u 0 y b u $ 0 0 0 0 0 0 0 0 e 5 e u d k k z f k k g g K :.,.<.<.a.,.a.a.s.j.D.D..X{.].]..X,XF.w.z - > u e e e u e e 0 e 0 0 u 0 0 0 b ~ 0.1.) 1.] ] 0.] 1.] 1.1.1.] 0.1.] 3.[ 3.[ [ 3.1.3.3.1.1.1.` ^ ) ) ;.-.( ( ^ V n q 8 8 e e 7 q a ) B.S.G.G.S.|.S.S.].{.}.<X>X<X>X}.>X<X>X<X>X>X>X<X}.}.4X$X_. .4 4 s x c x x x f f f k k f k k k f j z z g k k k k k f k k f k k h j g 2 F l.].4X<X<X<X>X>X>X>X>X>X>X:X:X=X}.Q.(.iXjXzXVXNXBXBXSXBXSXAXzXkXnXnXzXnXzXnX",
"c.S.S.C.S.G.C.V.4.:.:.1.1.1.1.1.3.3.1.1.1.1.3.3.1.1.1./ N M H H V J V V M t e 6 6 0 u 6 6 6 6 e 6 6 u e 6 6 6 u 0 0 0 e u 0 0 0 0 0 0 e 0 0 0 6 0 0 0 0 0 0 0 0 0 0 b $ 0 b 0 0 0 0 0 0 0 0 u 0 0 0 0 0 0 0 0 0 8 j Y l.l.8.l.l.g.l.8.l.j.C.c.c.V.v.V.c.S.x.d.j.d.j.V.x.x.V.8.:.j 5 7 e 0 7 9 0 0 7 0 9 6 6 0 0 6 e a U ` ] ] 1.1.1.[ 0.[ 1.[ 0.1.1.[ 1.1.1.1.1.1.[ ' 1.] ] ] ] ` T H M N M m m N N j d 7 6 5 5 6 e a a C Y R -.X.-.R X.o.>.x.{.$X>X<X>X>X>XXX}.Q.}.:X>X}.}.}.}.+XoX~.I.`.U.I.U.U.U.I.L.l.8.<.<.4.4.l.8.8.g.<.l.g.8.l.8.g.<.l.g.l.l.l.8.a.g.<.6.l.C.{.<X}.>X$X>X>X}.>X<X,X,X:X:X1X:X1X2X7XjXAXVXVXVXCXFXCXFXzXlXsXpXaXgXgXgXdX5X2X[.n.n.v.v.j.v.G.S.M.p.` ' ,.,.' 3.,.,.1.1.3.3.3.3.4.q.4.3.R M M M H N H M M M t e e e 6 6 u e 6 6 6 6 e e 6 e e e 6 e e 8 6 e 6 0 e 0 0 0 0 e 0 e 0 0 0 0 e 6 $ b $ $ b $ $ b $ b $ b $ $ B $ B $ B $ $ $ B $ 0 $ $ u k R l.8.<.g.<.8.g.<.j.V.c.c.A.S.S.G.D.F.v.l.j.l.j.l.j.c.V.4.:.d ; 5 e e 6 a e e a 0 e e u 0 0 0 u b A 0.1.) ] ] ] [ ] 1.1.1.1.] 1.] 0.[ 3.] [ [ 1.3.3.3.3.3.` ( l l l M M N N N M M n e a y j j 9 q e M Y R W R R ` I L >.j.{.<X>X>X>X>X<X>X4X<X>X4X2X}.}.}.}.[.[.`.I.I.J.U.U.I.U.K.L.g.g.g.4.l.l.h.4.g.g.<.a.<.g.<.g.g.l.g.g.<.g.g.g.g.g.a.$.g.S.{.<X<X<X>X>X}.:X>X>X>X>X>X=X>XQ././.yXjXFXzXVXBXCXSXSXSXzXlXpXpXiXaXaXaXaX",
"{.{.{.{.{.}.{.C.d.` :.:.2.1.3.2.1.1.3.2.3.1.1.1.1.1._ J t t t t t j t e e e 0 7 0 6 e 6 e 6 u e e 6 6 e 6 e 0 e 0 0 0 0 0 e 0 0 0 0 0 0 u 0 0 0 0 0 0 e 0 0 0 0 0 0 0 y y $ y 0 y 0 y 0 0 0 e 0 0 0 0 0 0 0 0 6 u k >..X[.{.[.{.].{.{.[.{.{.{.{.{.{.{.{.D.C.a.,.,.2.d.2.4.4.:.( n 7 8 5 6 9 6 7 6 9 7 6 0 0 0 6 0 a a V 1.` ] ] ] [ [ [ 1.1.[ 1.] 1.1.1.] 1.[ 1.] 1.] ] ] ] 1.` ( M j t d e d i a a i 8 6 5 5 6 6 0 a a b n n n m k j g k L <.].4X}.>X>X>X>X:X,X}.}.}.}.>X}.}.}./.OXeXfXfXtXtXtXtXtXfXdX#X].R.].].].].].R.].[.].[.].].R.[.].].[.].|.].{.].].].{.[.{.}.}.<X}.}.}.<X>X4X}.1X>X>X:X,X:X>X-XyXjXAXVXVXVXCXSXCXFXzXsX;X3X3X6X6X4X4X2X>X>X:X:XW.W.{.{.XX.XS.f.` ' 3.1.,.1.1.3.,.,.1.,.>.2.3.4.2.1.T r d r r t t t 8 8 q q 7 6 7 u e 6 e 6 6 e 6 e 6 6 6 e 6 6 6 6 6 e 0 0 0 0 0 0 0 0 0 0 0 e 0 0 0 u b $ $ b $ b b $ b $ $ $ B $ $ $ B $ $ $ B $ $ $ 0 6 6 i C 4. X].].R.R.R.].].{..X].].|.XX.X,XXX.XS.a.,.$.<.,.2.2.4.:.Y d - > e u 0 0 e u 0 y 0 u 0 0 0 0 0 a ~ 0.1.] ] ] [ 0.] 1.] 1.] 0.1.1.1.[ 3.3.3.' ' 3.[ 3.[ 3.` T j 7 8 t t 8 y e y e e j a e e e 0 0 0 e j j n k k k j d T a.].$X>X<X}.<X>X>X>X>X>X>X<X}.>X}.Q./.OXdXvXcXtXtXrXtXrXiX%X}.R.R.].{.].].{.{.{.{.{.{.].{.{.W.{.].{.{.{.].{.].[.].W.R.{.}.>X<X>X<X<X}.}.>X>X:X>X=X:X>X}./.(.yXlXzXzXFXCXCXSXFXAXxXiX3X-X-X2X-X-X-X",
"<X<X<X<X>X>X{.c.d.+.:.1.1.2.1.1.1.3.1.1.3.1.1.1.0.[ ) H w 7 7 7 7 7 8 8 8 q q e 6 e 6 6 e 6 6 6 6 6 6 6 6 0 0 0 0 e 0 0 0 0 0 0 0 e 0 0 0 0 0 0 e 0 0 0 0 0 a 6 0 0 0 0 $ y 0 y 0 0 0 0 0 e e 0 0 0 0 0 0 0 7 0 a C 8.4X4X4X<X4X4X4X4X1X4X<X4X<X<X<X<X<XXXS.a.,.+.:.:.:.:.:.:.( k 8 7 6 6 7 6 7 7 7 6 0 6 9 6 0 0 0 e V ) ` ] ] ] ] ] 1.[ ] ] 1.0.[ 1.] 1.1.[ ] 3.' ' ] ' ] 1.] ( j > ; 5 7 ; > 5 5 5 6 6 7 e 8 6 7 6 6 9 6 $ 6 5 ; - + - k o.].}.>X>X}.>X>X:X>X:X>X>X}.}.}.>X/.+XeXfXcXcXAXZXSXAXAXGXvXdX$X$X}.<X4XXX<X4X4X<X4X}.4X>X4X<X<X<X2X$X}.4X$X}.}.}.<X<X}.<X<X4X}.2X4X4X>X>X<X,X>X:X1X1X:X>X3X7XjXAXVXVXFXVXVXCXGXvXsX3X-X2X>X>X>X>X>X>X>X:X:X:X:X,X,X>X.XV.s.` ' [ ,.,.3.,.,.,.,.1.,.:.1.:.:.] ( H > : : 7 7 7 8 8 q 8 8 0 6 6 e 6 6 6 6 u 6 e e e 6 6 6 e 6 6 6 u 6 0 u 0 0 0 e u 6 0 0 u 0 0 0 0 0 $ b $ b b $ b b B $ B $ B $ $ $ $ $ $ $ $ ^ ^ $ 6 6 6 k K l.$X4X}.}.}.}.}.XX}.}.<XXX<X<X<X<X,X.Xc.,.o.W W +.X.:.2.R N d ; 8 6 e u e 0 e 0 0 y 0 0 0 0 0 0 b ~ 1.] ) ] ] [ 1.[ ] 0.] 1.] 1.1.1.] 3.[ 3.' ] [ 3.3.[ 1.` T j : 7 7 q 8 q q q q e q 0 0 0 q 9 0 7 9 5 5 5 5 # - * * z +.|.}.}.2X>X>X>X4X>X4X4X<X>X>X>X>X$X3XiXvXMXAXAXAXSXZXAXvXhX6X}.}.}.>X>X>X1X>X>X<X>X<X>X2X4X>X2X<X4X4X<X2X2X<X>X}.>X}.}.}.>X>X>X}.}.>X}.:X:X>X:X>X=X=X}./.(.iXjXFXVXVXBXCXCXSXAXjXyX/.Q.Q.=X=X=X=X",
">X<X>X<X,XXX].S.<.-.:.1.1.1.1.1.1.1.1.3.1.1.1.1.3.[ ( J > 7 7 7 8 8 q 8 e e e e 0 6 e u u 6 e e u e e 6 e 0 6 e 0 0 0 0 0 0 e 0 0 0 0 0 0 e 0 0 0 0 0 u 0 0 0 0 0 0 0 0 y 0 0 0 y 0 y 0 0 0 0 0 0 u 0 0 0 0 6 6 j m 4.XX<X4X$X>X>X4X>X>X4X<X>X<X<X1X<X<X.XS.<.,.R :.W R :.:.-.^ k 7 5 e 0 7 6 0 6 0 7 0 0 6 0 6 7 e a K 1.) ` ] ] ] ] [ [ 0.] 1.] 1.] 0.] 1.0.] 1.] ] ] ' ] 1.` ( j 7 5 > 8 6 > 8 > 8 8 6 6 7 8 6 0 9 0 0 0 0 6 6 5 ; - ; k +._.$X<X>X<X>X>X>X:X>XQ.>X}.2X>X>X/.@X@XxXnXAXAXSXSXAXSXnXvXdX$X$X+XXX}.<X>X}.}.}.>X}.>X>X}.}.2X}.>X>X>X}.<X<X<X>X<X>X>X$X<X}.4X<X>X}.<X2X>X1X1X:X,X:X,X>X2XpXlXAXVXVXGXFXSXCXAXlXiX;XQ.Q.=X>X>X>X>X>X:X:X:X>X>X:X>X,X{.v.d.` ' 3.3.] ,.,.1.1.:.1.1.:.1.:.:.1.( H : : : : 7 7 8 8 7 7 0 6 0 6 e 6 e 6 e e 6 6 u 6 6 e u 6 6 e 6 e 6 e e 0 0 0 0 e 0 0 0 e 0 0 0 0 0 b $ b $ $ b $ $ $ $ B $ $ $ B $ $ B $ | $ $ $ $ u 6 6 a C g.$XXX$X>X$X>XXX4X<X<X<X<X<X<X<X<X,X.XS.<.+.W +.:.:.:.2.R K i ; > 8 e 6 e e e e u e e 0 y 0 9 0 u ~ 0.1.0.] [ 0.] 0.] [ 1.1.1.] 1.[ 1.3.] [ 3.] 3.3.[ 3.[ ` ~ j > 7 7 7 q q 0 0 9 0 0 7 0 7 0 0 9 9 0 6 5 9 9 6 5 - - z ,.].}.<X>X>X<X>X<X>X>X>X>X>X<X>X>X+X3XiXvXGXAXSXSXSXSXSXnXhX5X2X}.>X>X<X>X>X1X>X4X1X4X<X>X>X2X>X>X>X>X<X<X>X>X>X>X>X}.}.>X>X}.}.>X}.>X>X>XQ.>X>X*X:X>X+X/.(.uXlXzXFXVXFXBXCXCXGXlX;X/.Q.=X*X*X*X=X",
",X>X>X>X>XXX].S.a.` :.:.1.1.1.1.1.3.1.1.1.1.1.1.1.1.` J w w r 7 q 8 e e 6 e q e 6 6 e 6 e 6 e 6 6 e e 6 6 e 0 0 e 0 0 e 0 0 0 u 0 e 0 0 0 6 a 0 0 e 0 0 e 0 0 0 0 y 0 0 y y 9 0 0 0 y 0 0 0 0 0 0 0 0 0 6 e 6 6 a k 6.$X}.}.}.}.}.}.}.}.}.<X}.>X>X>X>XXX.X).<.,.:.:.:.:.:.2.;.^ e 7 6 6 7 9 6 7 7 6 9 7 7 0 6 6 0 0 e V ] ) ) ] ] ] 1.] ] ] ] ] 1.] 1.0.1.1.1.1.[ ' ] 1.] ] 3.) T j 7 8 i 6 8 8 i 8 8 8 e e e e e e e a e y u 0 6 u e > ; m ,.|.}.<X>X>X>X>X,X:X:X>X}.2X>X>X>X}.+XqXxXnXAXSXSXSXZXAXnXxXdX+XoX[.}.}.}.}.}.}.:X=X}.}.}.Q.}.:X>X}.<X}.>X2X4X>X<X2X<X$X>X>X}.<X<X2X2X<X>X>X<X1X1X:X1X:X>X-XpXjXAXGXVXFXSXCXCXVXlXiX/.Q.E.>X}.}.>X}.>X>X>X:X>X>X>X>X<X.XS.a.` _ ,.] ' 1.1.,.,.1.:.:.:.:.:.:.` R V = : : > 5 7 7 8 8 0 8 6 e 5 e u e 6 6 e u 6 6 u e 6 u e e u 6 6 a 6 0 u e 0 0 e 0 e 0 0 0 0 0 e u 0 0 0 b u 0 0 0 $ B $ B $ $ $ B $ $ $ $ $ $ $ $ u 6 ; a C 8.}.}.}.<X$X}.<X<X<X<X<X<X<X<X<X<X<X,XS.<.@.W @.,.:.>.>.+.K i ; 8 8 u a 6 a 6 a 0 0 e 0 0 0 0 0 a ~ 0.0.] ] ] 0.[ [ 1.] 0.1.1.0.] 1.1.[ 3.[ [ ] [ 3.[ 3.3.) / t 7 7 5 7 q 9 9 7 9 9 9 9 0 0 9 0 9 9 y 0 q q e e e 7 7 H >.|.}.>X>X}.<X>X$X>X<X<X>X<X>X>X>X2X@XiXnXGXHXDXDXDXDXSXAXhX6X/.=X}.>X1X>X>X>X1X4X2X>X2X>X>X>X>X}.}.>X>X>X}.>X>X}.>X>X>X}.}.>X>X>X>X}.>X>X=X:X:X=X=X>XQ.+X(.yXlXFXzXVXCXSXSXSXGXlXiX/.Q.Q.*X=X>X=X",
">X>X,X>X,X>X].S.<.W :.1.2.3.2.1.1.1.1.1.' 1.1.] 1._ ` J r 7 w 8 8 e q e e q 0 e 0 e u 6 e 6 u 6 6 6 u 6 6 u 6 e u 0 0 0 0 0 e e 0 u 0 0 0 0 0 0 0 0 0 0 0 6 0 0 0 0 0 0 u $ 0 y 0 0 0 0 0 0 0 0 0 0 u 0 6 u 8 8 i z <.XX4X}.2X>X}.2X2X}.>X2X2X>X>X>X>XXX.XC.<.,.W :.:.+.:.1.) U e 9 6 7 0 7 6 9 6 0 7 0 0 9 0 $ 6 e 8 U 1.] ` _ ) ] ] ] 0.] ] 0.1.1.] ] ] 1.] ] ] 3.3.] ] 1.1.] ( j 8 7 8 8 8 8 8 8 8 8 e 5 7 8 0 0 0 e e e e 0 e e u 5 ; z X.].4X}.>X<X>XXX:X:X}.>X>X}.2X>X2XQ.+XqXvXnXSXSXSXSXBXAXnXxXdX+X+X>X}.}.}.}.:X:X:X1X>X>X>X>X>X>X>X>X>X>X>X>X>X<X<X>X>X2X>X2X2X2X>X}.2X>X>X>X>X>X:X:X1X:X>X2XyXkXAXAXzXFXVXCXCXVXsXiX2XQ.>X>X>X>X>X>X>X>X>X:X>X>X}.>X<X{.v.d.' [ ' ,.,.,.,.,.,.1.1.,.1.:.:.:.:.` H 8 > 7 7 7 7 8 8 7 8 0 e e 6 6 6 6 e e 6 6 6 e 6 6 e 6 6 6 0 6 6 6 6 0 0 0 0 0 0 0 0 0 0 e 0 0 0 0 0 0 $ u 0 0 0 u $ $ $ $ $ B $ B B B $ B $ | $ B 6 6 5 i K l.XX$X}.<X}.}.>X<X<X<X<X<X,X<X<X1X,XXXS.a.#.W :.,.2.:.2.( K j ; 8 e e 6 0 0 u 0 e 0 u a 0 0 0 0 a A 0.1.1.0.] ] [ [ 1.1.] 1.[ ] 1.] 1.3.1.] 3.] 3.3.3.3.3.] / j 7 8 8 q q e 9 0 e e q 9 e 0 9 9 9 0 0 q 0 q 0 9 e 5 - H >.|.}.<X>X>X<X<X>X<X>X4X>X4X>X}.>X2X;XyXnXAXSXSXDXDXDXCXAXsX5XQ.Q.:X:X:X:X=X:X>X2X1X2X>X=X>X>X}.=X>X}.>X}.}.:X>X>X>X}.}.>X>X>X>X}.}.:X>XQ.>X=X>X:X>X/.+X/.(.yXlXGXFXzXCXSXSXSXAXvXiX/.Q.Q.=X>X>X>X",
">X>X>X>X>X<X{.v.a.W :.:.3.1.1.1.,.1.1.1.1.1.' 1.[ ] _ J w 8 8 8 q e q 0 q e e 6 6 6 6 6 6 6 6 6 e 6 e 6 6 6 0 0 e 6 0 0 0 0 0 0 0 0 e 0 e 0 0 0 e 0 u e 0 0 0 0 0 0 0 y 0 y 0 0 y 0 0 0 0 0 0 0 6 0 6 6 7 6 6 ; i z 4.<X}.}.<X}.>X2X}.4X<X>X>X>X<X<X<X}.XXZ.<.>.:.` 1.,.>.2.) U j 5 9 7 6 6 7 7 6 7 6 6 6 6 0 0 0 e e V 1.) ] ) _ ] 1.) ] ] ] 1.1.[ 1.1.0.] 1.] ] 1.' 1.3.] 1.) ( z > 7 6 > ; 8 8 6 e 6 6 6 6 6 0 0 0 0 0 0 0 0 6 e 8 ; - k -.|.XX4X<X<X>X>X>X>X:X>X}.2X}.>X>X/.+XqXvXnXSXSXSXSXSXAXnXfXiX+X+X+X}.>X>X>X>X:X:X:X>X>X1X>X>X>X>X>X>X>X>X>X>X>X>X4X4X}.>X$X<X<X2X<X<X4X>X<X>X<X,X1X:X:X1X-XyXkXAXAXFXVXSXVXVXAXlXiX-X/.2X>X4X>X>X>X>X}.:XQ.}.Q.}.}.>X{.C.d.W ' 1.1.' 1.,.,.1.:.1.,.1.1.1.:.:.( K 7 7 7 8 8 8 e 8 8 7 7 0 e e e 6 6 6 u e 6 e e e 6 6 6 6 6 6 6 6 0 e 0 0 e 0 0 0 0 0 0 0 u 0 0 0 0 0 u $ 0 0 0 0 0 $ $ B B $ $ $ $ $ $ $ $ $ $ $ $ 6 6 ; d K 8.XX}.2X>X2X}.>X>X<X}.<X<X<X1X<X<X<X,XS.<.,.+.:.,.2.2.2.` Y d ; 8 e 0 u 6 e e 0 e 0 0 u 0 0 0 0 b U q.q.1.3.] 1.3.1.1.] 1.1.1.1.1.0.[ 3.[ [ 3.[ 3.3.[ [ 3.] / j 7 7 q q e e y q e e 0 0 0 0 9 0 9 0 9 0 0 9 9 0 0 5 - M >.|.<X<X>X<X<X>X<X<X>X>X<X>X>X>X>X2X(.yXlXAXSXBXDXBXDXDXAXsX3XQ.Q.=X>X>X=X>X>X-X1X>X2X>X2X-X>X>X>X}.>X>X>X>X>X>X>X>X>X>X>X>X>X>X>X>X>X>X>X>X>X>XQ.}.}.+X/.(.pXlXMXzXVXFXSXAXSXGXvXiX+XQ.=X>X=X=X:X",
">X>X>X>X>X<X{.S.a.W ` 1.1.1.` 1.1.' 1.' 1.1.1.1.1.] ` H r 7 7 8 8 0 e e q 0 e 6 0 e 6 e u e 6 e u 6 6 e u e 0 0 0 0 0 0 0 e 0 0 e 0 0 0 0 0 0 0 0 0 0 0 0 e 0 0 0 0 b $ 0 0 y 0 0 0 y 0 0 0 0 0 6 7 6 5 ; 5 ; ; 6 k <.$X}.}.}.>X}.}.}.}.}.$X2X<X>X<X<X<XXX].a.<.,.3.>.2.2.2.;.~ n 9 5 7 7 9 0 6 6 9 6 6 9 0 9 6 0 e e A 1.1.1.] 1.0.1.0.] 0.] 1.] 0.] 1.] 1.1.1.3.[ ] [ ] ] 1.` ( j 7 8 8 8 e 8 8 8 8 e e 6 e e y e 0 0 0 0 0 9 6 6 e ; ; k X.].$X<X<X<X>X<X>X>X>X>X>X}.>X>X>X}.OX@XfXAXSXSXDXSXAXAXnXfXaXOX/.}.}.=X{.Q.1X:X:X:X>X1X:X>X2X1X>X>X<X2X1X>X<X<X>X>X>X<X<X>X4X}.<X<X<X}.<X2X<X>X>X,X,X1X1X2XiXkXMXGXGXGXHXAXVXnXsXiX2X/.>X2X>X>X>X>X}.>X>X>X:X>X}.>X,X.Xj.<.W _ ' 1.:.` ` :.:.1.:.:.:.2.:.2.:.-.C > > 7 7 8 e 7 8 8 0 q e 6 6 u 6 e 6 8 6 6 6 u 6 6 e e u 6 e 0 e 6 0 0 0 0 0 e 0 0 0 0 0 0 0 0 0 0 0 y u 0 u 0 0 0 B $ $ $ B $ B $ $ B B $ $ $ B $ $ ; - 8 z 6.4X}.<X4X}.}.}.4X}.}.<X<X<X4X<X<X<XXXC.<.$.R :.>.:.>.:.( Y i ; 6 e e e 6 a 0 e y u 0 0 0 0 0 0 e ~ 0.0.q.q.q.1.3.1.1.1.1.[ 0.[ 1.[ 3.[ 3.3.[ ] 3.3.[ 3.3._ ^ j 7 8 q 0 0 e 9 9 0 0 0 0 9 0 0 9 0 9 9 0 0 9 0 0 e 5 o N <..X4X4X4X4X4X<X4X4X<X4X>X<X<X:X:X2X-XiXxXMXSXCXBXDXBXCXnXlX3XQ.Q.Q.Q.>X=X=X=X>X=X1X>X>X>X>X>X>X}.>X>X>X>X>X2X>X>X>X2X>X>X>X>X>X>X2X<X>X>X2X>X2X>X2X2X2X+X;XiXsXMXzXFXFXHXHXHXGXvXiX2X=X>X=X>X=X1X",
">X>X>X>X:X<X}.n.l.#.,.3.2.3.3.3.2.3.1.] ] 1.] 1.] ) ) J q 7 q q 0 q e e 0 q q e 6 e e 6 6 6 0 6 e 0 6 u 6 e 6 0 e 0 0 0 0 0 0 0 0 0 0 6 0 e 0 0 0 0 0 0 e 6 0 0 0 0 0 0 0 0 0 0 0 y 0 0 0 0 0 7 a a a a u i j 6 i v 4.XX}.}.[.}.{.>X}.}.[.}.}.}.>X}.}..X XS.4.,.:.2.:.,.>.1.) ~ b 7 0 7 6 7 7 0 7 7 0 9 6 0 0 0 6 6 a V ] ] ] ] 1.0.] ] ] 1.] 1.0.[ 1.1.1.] 1.] ] ' ' ] ] [ 3.] ( j 5 7 e 8 u 7 6 6 6 8 7 0 0 0 0 0 0 0 0 0 0 0 6 7 u 5 ; k R C.}.}.[.>X{.{.{.=X}.}.}.}.>X>X>X+X+XeXxXAXHXSXSXSXZXzXnXfXiX3X+X+X>XQ.:X:X>X:X*X:X>X>X>X>X:X:X=X:X>X>X>X,X:X}.{.>X>X}.>X>X}.}.}.}.}.}.XX}.,X,X,X,X,X,X>X+X@XjXnXAXVXVXAXzXkXcXpXiX3X2X>X>X>X>X>X2X>X>X>X>X>X}.>XXX<X].x.d.' _ 3.2.,.,.3.3.,.' 1.1.:.,.2.:.-.( C 7 5 5 7 7 0 7 6 e q 8 0 7 6 0 7 0 6 6 6 0 6 6 6 6 e 6 6 6 6 e 6 0 0 0 0 0 0 0 0 0 0 0 0 0 0 0 0 0 0 0 0 0 0 0 0 0 0 y 0 y 0 0 u 0 $ $ $ B $ B $ B a a 6 j F h.<X4X4X>X4X}.}.>X}.{..X}.XXXX>X,X,X.XV.>.:.W +.` :.-.2.R K j ; 7 0 e u e e a 0 0 0 a e 0 0 0 u b ! ;.1.0.1.] ] ] 1.] [ 1.] 0.3.q.1.[ 3.3.[ [ [ 3.3.3.3.1.] ~ n 7 0 7 0 9 0 9 0 y 9 9 9 0 9 0 y 9 9 0 9 9 0 9 0 e 5 * N 2.].<X>X}.<X}.}.>XXX}.>X>X>X<X1X:X2X-XiXbXMXGXSXCXCXCXSXAXlX6X=XQ.=X:X>X>X=X>X>X>X1X=X:X>X>X>X>X:X:XQ.}.}.}.}.:X}.}.>X>X>X>X>X>X:X>X>X>X:X>X:X>X}.}./.+X+X/.iXpXlXkXzXVXVXAXAXnXlXiX2X-X>X>X=X>X1X",
">X,X>X>X1X1X}.n.j.<.,.d.d.3.3.d.m.3.,.1.1.) 1.] ] 0.) V 8 q 8 e e q 0 q 0 e 0 e e 6 6 6 e e 6 6 7 6 6 q 6 6 0 0 0 0 e 0 0 0 0 q 0 0 0 0 0 0 0 0 0 0 0 0 0 0 0 0 0 0 9 y y 0 $ y 0 0 9 0 y 0 0 0 k k V v z m z g z I g.XX.X}.}.XX}.}.[.}.}.{.{.{.{.{.{..X.XZ.,.:.R ) ( -.-.-.^ ~ n 0 0 7 0 9 6 7 0 6 6 6 9 6 $ 0 6 9 6 B ) ( ) ) ) _ ( ( _ 1.1.1.] 1.] 1.] 0.] [ 3.] ] ] ] 3.1.] / j - 8 8 8 8 8 8 6 6 6 6 6 6 9 0 0 0 0 0 9 y 0 0 8 8 6 5 j Y z._.].].].S.].].n.R.W.{.=X}.>X:X+X+X@XfXnXAXSXFXVXZXzXnXjXiX3X3X@X-X3X-X2X6X>X*X*X=X:X=X=X>X=X}.}.{.{.{.|.{.{.].{.]..X|..X.X|.|.{.|..X{.{.].{.D.{.D.|.{.{.+XeXfXfXhXvXcXfXtXiXiX3X3X2X2X>X=X>X}.>X}.>X}.>X>X>X>X>X<X{.v.j.4.d.f.d.d.,.3.d.,.,.:.1.:.,.:.:.-.-.N > ; 6 6 7 e 8 e q 0 0 e 0 0 0 0 0 6 e 0 0 0 e 0 e 0 0 6 e 0 6 0 0 0 e 6 0 0 0 0 0 e 0 0 0 0 0 0 0 u 0 0 u u 0 0 u u u $ 0 0 0 y y $ ^ $ $ | | B B C C k v I l.4X4X2X4X2X}.<X>X{.n.D.{.].].|.|..X|.N.:.W R ( ( R ( ( ( Y a ; 8 e u e 0 e 0 u 0 e 0 a e 0 0 0 b V ) ) 1.) ( ( ) ` ` ] 1.[ 1.3.3.3.q.3.3.[ 3.] 3.[ [ 3.1._ ~ n 7 7 0 7 q 9 9 9 0 0 9 9 9 0 9 9 9 0 9 9 e 9 0 0 7 5 5 K :.Z.].].{.|.].|.].].{.}.XX>X,X>X:X=X-XyXlXMXGXSXCXCXCXBXAXxXsX;X;X3X3X;X3X-X3X2X>X=X=XQ.>X>X>X=X[.W.{.{.{.{.{.{.{.{.{.{.].].{.{.{.{.].{.{.{.{.{.{.{.{.{.[.oX+X3XiXhXlXvXvXcXxXvXiX@X2X2X=X=X=X=X=X",
"1X>X>X>X>X4X1X{.n.c.C.S.V.F.Z.F.F.m.4.1.] 1.1.] ] ) ) J 8 9 0 0 e 0 q e q 0 q q e 6 e 6 e 6 7 0 e 6 e e 6 e 6 0 0 0 6 0 0 0 0 0 0 0 0 0 0 0 0 0 0 0 0 0 0 0 0 0 0 y 9 0 y 0 y 0 9 y y 0 0 0 0 k R 2.8.4.4.8.<.<.8.l.].XX}.}.}.}.}.>X}.].n.x.j.x.l.j.j.x.V.<.K C M V m V N A V B a 9 6 0 7 9 7 0 7 6 6 6 9 6 0 6 6 6 7 a m n m V V V V M J / ) 0.1.1.0.] 1.1.1.0.] [ 1.' ] [ 3.1.( j ; 6 8 8 6 8 8 6 6 6 6 0 0 0 0 0 y 0 0 y 0 0 0 6 6 5 6 i m R R I R R E I I #.j.{.>X}.>X>X>X/.+XqXxXnXGXSXSXSXVXVXnXxXlXlXsXvXsXsXsXsXaX3XQ.=X>X>X:X>X>X=X}.{.v.j.x.j.j.j.x.x.j.x.l.j.j.j.d.x.x.l.j.f.j.f.j.f.j.f.j.l.z.K.I.E.E.I.E.I.I.I.I.[.}.>X>X>X>X>X>X>X>X}.:X>X>X}.>X>X>X>X|.S.v.S.S.S.S.Z.S.V.f.>.,.:.1.,.:.:.2.( C 8 6 5 8 8 7 0 e 0 8 0 7 0 0 7 0 7 6 6 0 0 0 6 6 0 0 6 0 6 0 6 0 6 0 0 0 0 q 0 0 0 0 0 0 e 0 e 0 e 0 0 0 0 0 0 0 0 9 0 y 0 0 $ 0 0 $ $ ^ ;.2.e.e.e.8.8.<.8.l.].<X>X>X>X2X}.>X}.].c.g.l.x.j.l.j.N.8.:.H M z m N m V m m M a 7 7 0 e e e 0 0 y e e y 0 0 u 9 u a b B N V V V N M m U / ] ] 1.1.q.1.1.[ 3.3.[ [ 1.3.1.3.3.` ~ n 9 0 0 q e 0 9 0 9 0 y 0 y 9 0 0 0 y 0 e 0 0 e q 0 q 8 j C Y W R R I R I I $.C.{.}.>X<X>X1X>X6X;XlXMXVXSXCXSXCXSXSXAXxXjXsXlXsXsXpXsXaX5X3X>X[.=X=X1X>X:XW.n.j.j.f.j.f.l.j.g.j.j.j.s.s.l.j.d.j.g.j.f.s.g.f.s.s.j.l.j.x.P.P.I.E.E.E.I.I.I.E./.+X2X>X=X1X=X>X",
">X,X>X>X>X4X1X>X,X{.{..XXXXX,X,X,XS.d.1.1.] ] 1.] ] ) J 8 8 7 0 q e e e e e e 0 8 e 8 6 e e 8 8 6 7 8 e e e e 0 q 0 e e e q 0 e e e q e e e e q e q e 0 q e e e 0 0 0 0 0 0 9 y 0 0 0 e 0 9 0 M d.|.XX4XXX<X$XXX<X<X}.$X}.2X<X<X<X<X>Xn.g.<.+.:.,.:.1.:.3.Y j 8 7 q q 0 0 a e e 6 9 9 9 7 0 0 7 6 6 0 7 6 6 6 0 9 6 6 6 7 7 8 0 q e 8 8 n ~ ) ] ] 1.] 1.] 1.] ] [ ] ' ' ] 1.1.] ( j ; 6 6 8 6 6 6 6 6 e 6 0 0 0 0 0 0 0 0 y 0 0 0 6 6 5 8 u i > ; 7 > > : = = h <.].4X:XQ.:X}.}.+X@XvXnXHXHXSXAXVXVXGXGXGXnXGXGXGXGXMXMXmXsX2X2X>X=X>X=X>X>X:X{.a.+.` +.' ` ` ' ` ' ' ' ' ' ' ' ' ` :.' ' ' ` ' ' ' W ` +.:.,.,.$.,.>.@.>.<.g.c.R.>X<X>X>X>X>X>X>X>X}.,X}.}.>X}.>X>X>X>XXXXX<X<X>X,X.X.XN.a.,.,.1.1.>.:.:.-.C e 8 e 8 8 0 e q 0 q q 0 0 0 0 0 0 e 0 7 e e e e e 0 e e e e e e e q e q 0 e e e e e e 0 q 6 0 0 0 0 0 0 0 0 0 e 0 0 0 u $ y b 0 0 $ B B e. X$X$X#XXXXX$XXX}.$X2X}.}.>X>X}.<XXX].j.$.@.,.:.@.,.:.W K j 8 7 8 8 q q 6 e 6 7 9 0 0 e 0 y u 0 e 0 u e 0 y e b y 0 0 0 8 e e e q 5 - j U ) ] ) 1.0.] ] 3.3.3.[ [ 3.[ [ 3.3.` ~ j 5 7 0 0 e 0 y y y 0 9 0 0 0 0 0 9 9 9 9 y e e e e e e e 7 5 > > ; > : - = h l.].,X<X>X>X:X=X-XaXmXGXGXSXSXSXSXSXSXSXAXVXAXAXnXnXzXnXvXpXiX2XQ.>X>X2X>X>X{.n.$.Q W W Q ' Q W ` Q +.Q Q W ` Q ` Q ` ' ' Q ' ' Q ` Q ' +.:.,.>.:.>.@.O.$.#.h.W.=X2X=X>X=X1X=X",
">X:X>X>X:X>X>X:X:X:X{.:X}.>X<X<XXXC.4.,.:.1.] ] 1.] ( J t 8 q 8 e e e q e q 0 7 7 7 0 e e q e 8 e 8 6 e e 8 e 7 e q q e 0 q e e 0 e q 8 0 e 0 e e q 0 e 0 e e q e q q 0 9 0 0 9 e 0 0 9 0 0 8 l <.].<X<X<X<X2X<X>X<X>X>X4X}.2X<X<X}.}.].l.,.,.3.' 1.1.1.1./ t q 9 0 e 9 9 b e e 9 $ 7 0 8 7 0 0 0 6 6 6 6 6 6 6 0 6 9 6 6 6 e e 0 7 9 5 M U ) 1.1.0.[ 1.1.1.1.1.[ ] ] ' [ 3.3.] ( j - 6 8 6 8 6 8 6 6 0 0 6 0 0 0 y 0 0 0 y 0 0 0 6 6 6 8 e e 6 6 6 7 8 7 7 - h <.].4X1X}.:X:X}.%X@XfXnXGXHXSXFXVXVXSXFXVXVXFXSXSXSXSXVXzXsX3X2X=X>XQ.>X:X}.}.R.<.:.1.1.1.' 1.] ] 3.' ] ] [ [ [ ' [ 3.[ [ [ 3.[ [ [ [ [ ] [ [ [ [ [ 3.' 3.,.s.c.{.,X>X>X>X>X>X>X}.>X}.>X>XXX>X>X>XXX<X>X}.<X<X>X<X<X,X|.x.<.,.1.:.:.,.:.1.-.C 7 ; 7 8 8 e 8 q 7 0 0 7 0 0 7 0 0 0 0 0 e 0 0 8 q e 7 0 q q 0 e q e 0 e 0 q e 0 q q 0 0 q e 0 0 0 0 0 0 e 0 0 0 0 0 0 0 0 0 0 e y 0 0 M 8.|.<X4XXX}.4X}.<X>X>X2X>X}.>X2X}.<XXXS.j.,.,.:.:.:.>.:.( U j 8 q q e e y 9 y 0 9 0 0 0 0 y 0 0 a y u 0 0 0 e u 0 0 u y 0 0 0 a e a 6 @ b A ) 1.] 1.1.1.] 3.3.[ 3.] 3.[ 3.3.1._ ^ k 9 7 0 0 9 0 9 0 0 9 9 0 9 0 9 0 e 9 e 0 e e 9 e e e e e e e 8 8 8 8 8 7 ; v N.|.XX>X>X>X:X>X;XyXlXMXGXCXSXCXSXSXSXSXBXSXBXSXBXVXVXNXnXxXiX+XQ.=X1X1X<X>XW.v.<.` ` ' ` ` ` ` ` _ ' ` ` ` ` _ ' [ _ [ _ [ _ [ [ _ _ { _ [ [ [ 3.3.[ ' ' Q j.{.Q.>X>X>X=X=X>X",
">X>X>X:X>X>X:X:X:X>X,X}.XX>X<X<X,XC.<.:.) ] 1.1.1.] _ J 8 7 8 q e q e e e 0 e e 6 e 7 8 q q e e 0 7 7 8 6 7 e 7 e 0 8 e 0 e q 8 q q e e q q 0 q q 8 e q q q e 8 0 0 e e 0 9 y 0 q e q e q q q z <.{.1X<X4X>X>X>X<X}.>X>X>X2X>X4X2X4X}.].j.<.,.] ] ] ] 1.1.~ j q 0 9 e 9 9 y e q 6 9 9 0 0 0 0 7 0 7 6 6 6 0 0 6 9 0 0 $ 6 0 e u 0 6 - - n ! ) 0.] 0.] 1.[ 1.] ] 1.1.' 1.1.[ 1.] ( j 5 7 8 8 6 6 6 6 6 6 0 0 0 7 9 0 0 9 0 0 0 0 6 6 6 6 u 6 e 6 6 6 6 6 8 5 : h <.S.4X<X=X}.}.}./.OXxXnXAXHXSXSXVXAXGXVXAXVXVXVXSXSXAXVXnXsX3X+X=X>XQ.>X:XQ.}.].a.1.1.3.1.1.3.3.1.' 1.[ 3.[ 3.[ 3.3.3.3.3.3.3.3.3.3.3.[ ' ' [ [ p.[ 3.` 1.,.s.n.:X<X<X>X>X,X>X>X>X>X>X>X>X>X>X}.>X>X>X}.}.<X2X<X4X4X,XXXf.,.,.W :.:.@.1.:.R V 7 ; 7 7 7 q 8 8 0 7 0 7 0 0 7 0 7 0 7 8 0 q e q 0 e 6 e 0 q 8 0 0 e 7 e q e q 8 0 8 e 8 e q 6 0 6 0 0 6 6 7 0 6 0 0 0 0 0 0 0 9 0 0 0 k l..X$X}.XX}.}.4X}.2X<X2X>X2X>X>X>X<X<XS.g.,.+.>.:.:.:.2.) U j t q q y e y y 0 y 9 9 0 y 0 0 0 y 0 e e e 0 e 0 y y 0 0 9 0 9 u u b a 6 5 a A ) 1.] ) ] [ 1.1.[ [ [ ] 3.3.3.3.q.] ^ n 7 6 9 0 0 0 6 0 9 9 0 9 9 9 0 9 9 0 9 e 9 e y e 9 e e e e e e e q e 8 7 - N l.|.<X<X>X>X>X=X-X;XlXMXMXAXAXNXVXSXBXSXSXSXSXBXSXSXZXZXzXfXiX2XQ.=X>X1X<X>X:Xv.p.` ' ` ` ` ' ` ' ` Q ` ' ' ` ' ' ' _ ' _ _ { _ _ [ [ _ [ [ ] 3.1.3.,.,.' Q j.{.>X1X>X>X1X1X>X",
">X1X:X>X:X>X:X:X>X>X>X}.,X>X<X<X<Xc.a.:.1.1.1.1.1.1.` J r 8 e t t 8 e e q e 8 q e e e e 8 8 8 8 e e 8 e e e e e e 8 q e e q e e e e e e 8 e e e 8 e e e e e e e e e e q e e 0 q e e e e e e q l a.D.<X<X<X>X>X>X>X>X>X>X>X2X2X2X2X$X$X].x.,.[ ] [ ] 1.] _ T j 8 7 0 q 0 0 e 0 q 0 9 7 0 q 6 0 0 0 0 6 0 0 0 6 6 6 6 0 0 9 0 0 0 u 0 5 5 n ~ ) 1.] ] 1.] 1.1.1.] [ 1.[ ] ] [ 1.) ~ j ; 6 u 8 6 6 6 6 6 6 6 0 0 q 0 0 0 0 0 e 0 0 0 0 6 6 0 6 6 6 6 0 6 6 e 8 - z <.].4X>X}.}.}.}.+X@XfXnXGXSXSXSXFXVXSXHXAXFXAXSXFXVXSXVXnXsX3X+XQ./.:X}.}.}.}.S.<.>.1.1.3.3.3.[ [ 3.3.[ 3.3.3.3.3.3.3.3.3.3.3.[ 1.' 3.,.` ,.' ,.[ [ ' ` :.:.a.n.,X4X<X<X>X>X>X>X>X>X>XXX>X>X>X:X>XXX}.}.}.<X4X>X4X4X<XXXj.,.W W +.:.' >.:.-.V > 5 8 6 e q q 7 8 8 q 0 0 7 6 7 q 7 0 8 7 8 6 e e e 7 e 6 e 7 0 8 0 8 7 0 8 8 e q 0 6 q 6 e q e e q 6 e e 0 0 e e e e 0 0 0 0 0 0 0 e k l.|.4X<X}.}.4X>X<X<X>X2X>X>X>X>X>X>X,XS.j.@.+.:.:.,.,.2.:.U t 8 q e q y q 0 y 9 0 9 0 0 0 y 0 y 0 0 0 0 0 0 y u 0 0 0 0 0 0 y e u a u 6 b ~ ;.1.[ ] 1.1.[ 3.3.[ 0.[ 3.3.1.3.1.) ~ a 7 e e 0 9 9 9 9 0 0 0 9 6 0 0 0 0 9 0 9 e 0 q e e e e e e e e e e e a 8 - z N.|.<X}.>X,X:X=X/.;XlXMXVXVXNXZXVXNXAXAXBXBXSXZXZXZXAXAXAXsX3XQ.Q.:X>X1X1X>X{.A.p.Q ` ` ' ' ' ` ` ' _ ' ' ` ' _ ' ' ' ' [ { _ ' _ [ _ { [ ' ' [ [ 3.,.,.#.W j.}.>X1X>X>X<X=X>X",
">X>X>X>X>X>X>X>X:X>X>X>X>X>X<X<XXXn.<.:.:.1.2.1.1.1.` H r 8 t q e e 8 e q e 8 8 8 8 8 e 8 8 8 8 e 8 8 8 e e 8 e e e e e 8 e e e e e e e q 8 e e e 8 e e e e e e e q 8 e e e e e q 8 e e e e 7 l d.D.,X1X<X1X>X>X}.>X}.>X}.>X>X2X4X4X$XR.x.3._ [ ] 3.[ 1.] T l e 7 e e 0 q e 0 0 0 0 0 0 0 0 0 0 0 0 0 0 0 0 0 0 0 0 0 0 9 0 0 0 u e 9 9 n V ) 0.0.0.] 0.[ 1.1.1.[ ] ] ] 1.1.1.) ~ k 5 i 8 e 6 6 6 6 6 6 e 0 0 0 9 0 0 0 9 e 9 e 6 0 7 6 6 6 a 6 e 6 e 6 6 7 - z 4.].4X>X:X:X}.$X+X@XfXMXGXVXSXAXAXSXSXVXVXAXSXSXSXSXGXSXAXlX3X+X+X}.Q.}.}.}.}.S.4.3.1.1.' [ 3.] [ 1.[ 3.[ ] ,.1.1.1.3.[ ] 1.1.3.1.,.1.' :.,.,.,.,.,.,.#.+.+.a.n.,X4X4X<X,X>X>X>X>X>X>X}.>X>X}.}.}.}.}.>X}.2X>X>X4X<X,XXXc.a.+.o.,.+.:.2.>.R M > 7 8 8 8 8 7 8 7 8 8 7 8 e e e 8 8 8 8 8 e 8 8 8 8 8 8 8 e e e 7 8 e 0 e e e e q q e e e e 6 e 6 e e e 6 e e 7 0 7 0 q 0 e 0 q e e 6 k l..X4XXX}.>X<X<X<X}.>X1X>X>X>X>X>X>X<Xn.l.#.:.:.>.>.:.2.:.Y 8 8 8 q b q y y 9 y 0 0 9 y 9 9 0 9 0 9 y y 0 0 0 y 0 0 y 0 0 0 0 b 0 u 6 6 b ~ ) 1.1.1.] ] 0.q.1.3.1.1.1.q.[ 3.0.] ^ k 5 q q q 0 6 6 9 0 0 9 9 6 9 0 e 9 e e e q 0 e e 9 e 0 e e e e e e e 8 > - z l.|.XX}.XX>X>X>X/.;XlXMXnXAXNXAXNXAXZXAXZXAXAXAXZXSXSXAXMXpX3X:X=X>X>X1X1X>X:XA.p.` ' ' ` ` ' ' ' ` ' ` _ _ ' _ ' _ ' ' ' _ [ [ ' ' [ ' ' 1.' 1.,.3.,.,.,.Q x.XX>X<X<X<X<X1X:X",
">X>X>X>X>X>X>X>X>X>X>X>X>X>X<X,XXXc.<.1.:.:.1.2.2.1.` H 8 7 r 8 8 8 q q 8 7 7 8 8 7 8 8 7 8 8 8 8 7 8 8 8 7 8 8 q 7 8 8 0 7 7 7 e e 7 e 8 q 8 8 8 8 7 8 8 8 8 7 7 7 6 6 8 7 7 8 8 7 0 8 7 8 7 h s.D.<X>X<X2X>X>X:XQ.>X=XQ.Q./.2X$X5X$XR.g.,.1._ 3.[ ] ] ] ~ t q 8 e e e 8 e e q 6 0 0 0 u 0 0 0 0 0 u 0 0 0 0 0 0 0 e 0 0 0 0 0 0 a 0 9 n A ) 1.0.] ] 0.[ ] 1.] 1.] [ ] 3.1.0.] ~ k 7 6 a a a e a e 0 0 9 0 e e q e e q e q 0 7 0 0 6 0 6 e 6 6 6 e e 6 e 8 ; z 4.].<X<X>X<X<X$X+X@XhXnXnXAXVXVXVXVXVXVXVXVXVXVXVXAXAXGXAXfX3X+X}.}.}.}.}.}.[.].<.:.1.1.1.' ' 3.] [ [ 3.] 3.1.1.2.3.3.] ] 3.1.1.1.` ,.,.1.:.,.:.,.,.,.<.,.Q d.S.>X<X4X<X,X,X>X>X>XXX{.W.:X>X>X,X>X>XXX>X}.>X<X$X<X4X<XXXC.a.#.W ,.@.:.,.,.R N > 7 8 8 8 8 8 7 8 8 7 7 8 8 7 8 8 8 8 8 8 8 8 8 8 8 8 7 8 8 8 8 8 8 8 8 7 8 8 8 8 8 8 8 8 8 7 8 8 8 8 8 8 0 7 7 7 e e e e 8 8 8 8 q 8 l l.].<X<XXXXX>X>X>X{.>X2X2X}.>X:X:X<XXXn.a.@.X.:.:.:.>.1.1.T t t 8 e y y 9 9 9 0 9 0 9 y 0 y 9 9 0 0 0 0 y y 0 0 0 0 y $ b $ b y $ u 0 6 n ~ ;.1.] ] 1.[ 1.1.3.0.[ [ 0.3.3.1.3.] / n 7 6 0 0 0 q 7 0 7 0 0 0 0 0 0 0 q e 0 q 0 q e 0 q e e q 6 e e e e e e 7 * z N. X4X}.{.>X<X4X+X@XsXnXAXAXAXAXZXnXAXAXAXAXAXAXSXAXAXGXGXhX3X}.{.,X>X1X1X,X:XS.p.' ` ' ` ' ' ' ' _ ' [ [ ' ' _ [ [ [ [ ' ] ' [ ' ] ' ] ' [ 3.' 1.1.,.,.#.Q j.XX>X<X<X<X<X<X<X",
">X>X>X1X>X<X>X>X>X>X>X:X>X>X<X>X.Xc.<.+.W ` :.:.,.:.R D : : : : : - : - - 7 - - - 5 - - 5 - - - - 5 - - 5 - 5 - - - 5 - - - 5 5 - - - - - - - 5 5 - - - - 5 - 5 5 - 5 - - 5 5 - 5 - - 5 5 - : d p.D.,X<X1X>X>X>X>X}.>X>X}.Q./.2X/.2X$XE.g.,.' ] ] [ q.[ ] ~ j e 5 6 e 5 8 e 0 e 0 7 0 0 0 0 0 e 0 0 e 0 e 0 0 0 0 0 0 0 0 0 0 e e e 5 5 n ! ) 0.0.] [ 0.0.[ 1.] [ ] [ 1.] 1.1.] U a 5 7 e i 6 5 7 0 0 0 e e 9 e 0 0 q 0 0 0 e e 0 7 6 6 6 6 u e 6 6 u 6 6 5 ; z 2.F.4X<X>X<X<X$X5X%XhXMXMXAXnXVXAXzXMXVXAXMXVXGXAXGXGXGXMXhXdX2X}.+X}.}.}.XX{.S.<.1.1.1.' 1.3.[ 3.3.3.3.3.3.3.2.3.3.3.2.2.3.2.1.3.>.3.3.>.3.,.,.<.,.>.,.,.,.l.D.,X<X<X<X>X,X<X,X,X<X>X{.>X<X>X>X}.}.}.>X}.<X>X<X4X4X<XXXS.l.#.+.#.W o.:.o.T g > : : : : : - - - - - - - - : - : - 5 - - - : - - - : - - : - : - - - 7 - - 5 - - - - - - - 5 - - - - - - - - 5 5 - - - - 5 - 5 5 - - d d.{.<X<XXX>X>X>X,X}.>X2X/./.=X=X=X>X}.k.g.+.:.+.>.:.:.>.2.T t 8 e e e 9 9 0 y 9 y 9 y 9 0 0 9 y 0 y 0 0 0 y u y 0 y $ b $ b $ b b u 0 9 b A ) 1.1.] [ 1.1.0.[ 3.q.[ [ 3.1.3.q.1.( n 7 7 7 6 7 9 7 7 0 6 9 0 0 0 0 0 q q 0 e e q 0 e e 0 q e 8 e e 8 e 7 8 8 ; N B. X4XXXXX,X<X4X%XeXhXMXMXAXnXAXnXnXAXAXnXGXGXAXAXAXHXGXMXhX2X}.:X>X>X1X1X,X.XA.a.` ` ' ` ' ' 3.,.3.3.[ [ 1.3.3.3.3.[ [ 3.3.[ [ [ 3.[ 3.1.3.3.3.3.3.,.,.,.#.j.XX,X<X<X<X<X<X<X",
":X:X>X:X>X>X>X>X>X>X>X,X>X,X<X>X.Xx.a.+.` ` :.1.,.1.W z = : - - & - - & & & - & - & - : - : - - : - - - - - - - - - - - - - - - - - - - - - - - - - - - - - - - - - - - - - - - - - - - - - - g s.D.,X>X<X4X>X4X>X>X2X2X-X/.-X-X+X@X@XE.l.:.) ] ] [ 0.] ' U l 8 8 e e 6 7 e e q 0 q 0 0 6 0 0 0 0 e e 0 0 0 0 e 0 0 0 0 e 0 0 0 u e 7 5 n J ) 0.0.0.] ] 0.] 1.] ] 3.] 1.] ] 1.( U k 5 8 8 8 7 9 6 0 0 e e 0 e 9 e q q e q e 0 e 0 6 u 0 6 e 6 e u e 6 6 6 6 ; k 4._.,X>X.X>X<X4X$X5XhXMXMXnXnXzXMXnXzXMXnXzXnXzXnXMXGXGXMXhX3X$X}.}.}.XXXX{..X_.2.:.:.1.1.1.1.3.3.3.3.3.3.3.3.2.2.3.3.2.2.2.3.1.2.3.4.2.3.,.2.>.,.,.3.p.<.,.x.G.XX<X<X<X,X<X,XXX>X<X1X{.>X<X<X>X>X>XXX}.}.<X<X<X<X<X<X<XS.j.$.o.#.o.o.W W P l > : : : - - & - - - - & - - - - & * * * - & * & * & * - - - & & - & - & - - & - & & : - - - & & - - & * - - * - * * - - * - & - - - & d a..X4X,X}.>X,X>X:X}.2X3X2X-X-X2X2X4X4Xk.g.+.:.:.,.:.>.:.1.U e q q q y e y 0 y 0 0 9 0 0 9 y 9 0 9 y 0 0 0 y $ y 0 0 0 0 0 $ b $ b u 7 6 n ~ ) ] ] 1.] 1.0.3.3.1.1.1.1.1.q.3.0.) ( n 7 7 9 5 7 q 8 q 0 6 6 0 0 e 9 0 q e e e q e 0 0 q e q 0 q e e e e e e 8 > N N.|.<X<XXXXX4X5X%XdXvXMXnXnXnXnXnXnXnXnXGXGXGXAXAXGXGXGXMXhX2X}.{.,X,X1X,X,X.XA.,.#.' ' ,.' 3.3.3.3.3.[ 3.p.3.3.3.[ [ q.3.3.[ 3.[ [ [ 3.2.3.3.2.3.3.2.3.<.,.c.|.,X,XXX,X>XXXXX",
">X1X,X>X>X>X>X>X1X>X<X<X>X>X<X<X.XS.j.d.4.d.d.N.l.l.d.1.H H P T Y T T U T U T U U T U T U T T T T T T K T T T T T T U Y T T T T T T Y T U T T T T U T T T Y T U U T T T T Y T Y T T U T K T T W x.&X,X>X1X>X2X>X>X2X3X6XiX3X;XiXiXdXdX[.z.3._ [ [ [ [ q.' U l 8 6 6 e e 6 e e 0 7 0 0 0 0 0 0 0 0 0 0 0 0 0 0 0 0 e e u 0 0 6 0 e 0 6 5 n V ) [ ] ] ] 0.[ 1.1.1.1.] ] [ [ 1.1.] ^ C M M m m B n m m n e q e e e 0 e 0 e q 0 e q 0 0 6 6 e u 6 6 e 6 6 e e 5 ; k R 4.V.s.s.j.j.x.H.K.%XhXsXlXlXlXlXlXlXlXlXlXsXlXlXlXlXlXvXdXE.E.P.P.R.R.P.R.c.x.:.:.1.:.:.' 1.2.3.' ( T / / / / / T / ( / / / ( T T T R R R T T R T T I R P W ,.d.V.A.c.x.j.l.x.v.{.>X,X>X<X>X,X.X>X}.XX}.}.>X4X4X<X<X<X{.j.s.a.d.s.d.j.d.<.` K K U T Y T P T U T U T P P K T T T U T T T T T T T T T K T U P T U Y T T T P T U T T K T T T T T T T T U Y T T R T T K T U P T T T P W c.].<X<X,XXX>X,X,X}.2X6XiX3X3X3X6X6X6X].l.@.:.1.,.2.>.2.1.~ t 8 q q e 9 y 9 9 y 9 0 9 y 9 9 0 y 0 9 0 0 y 0 0 0 0 0 y 0 y b $ y u u 6 5 b ~ ) 0.1.] 1.[ 1.1.3.1.0.1.1.[ 3.3.1.] ) U M M M n n n m n a e 0 0 e e e 0 q 0 q 0 0 e q e q 0 q 0 e 7 e e 8 e e 6 - j 2.l.V.j.j.c.x.h.h.K.eXvXxXxXxXxXcXcXfXlXxXxXxXvXlXvXcXxXvX3XE.b.n.n.A.D.D.D.A.f.<.` ` ` :.' ,.3.3.' _ T / / / / / T / / / / / / _ _ / / / T / / / T T T T I ,.d.f.j.l.x.s.j.l.",
">X>X>X>X>X>X>X>X:X>X>X>X>X<X<X<X>X{.D.A.V.S.G.].F.F.G.V.s.s.l.N.N.V.V.V.N.N.N.m.l.N.N.N.m.N.m.N.d.N.m.V.N.N.N.m.l.N.N.N.N.N.N.N.l.l.l.N.N.N.m.N.N.N.N.N.d.M.N.N.N.N.N.N.N.N.l.N.d.l.m.N.N.N.l.x.D.:X,X>X>X>X}.:X>X2X5XhXsXsXsXsXfXhXhXOXP.,.] [ [ [ 0.1.] J j 8 6 8 e 6 6 e e 0 0 0 0 0 0 0 0 0 0 0 0 e 0 0 0 e 0 0 0 0 0 0 u e e e 6 5 n U ) 0.0.] ] 0.1.] 1.] [ [ 1.[ 1.[ 1.[ ` ~ U ~ ~ ~ ^ ^ ~ ~ n e 0 0 q e e q e e e e 0 0 6 e e 6 6 e e 6 u 6 6 6 6 6 ; i M U W I P I I E o.O.I.5XiXiXiXiXyXiXiXiXiXiXyXiXiXiXiXiXiXoXP.j.g.j.j.j.g.s.j.d.1.:.` ` ] 3.3.3._ _ H D M M M N N M m N M N z N z N m M z M M N M M H H M g H P R W W W R I P E p.S.>X>X>X<X>X>X}.>XXX}.}.<X<X<X4X>X4X<X].R.v.v.S.S.S.G.S.F.V.4.d.l.m.m.N.V.N.N.N.N.N.M.M.V.m.V.N.V.N.N.N.N.N.V.V.m.V.V.x.m.V.N.N.N.V.M.N.N.N.V.d.N.V.N.N.V.N.N.x.m.V.m.N.N.N.N.l.V.N.V.N.V.N.N.m.V.V.D..X<X<X<X<X1X>X>X2XgXhXsXhXsXaXmXgXgX+Xz.@.X.1.:.>.1.1.:.T e 8 8 q y e 9 y 9 y 0 9 0 0 y 0 9 y 0 0 0 0 0 $ y 0 0 $ y $ y $ y u y e 6 5 k A ) 1.1.1.) 0.1.0.3.q.[ [ 1.1.[ 3.3.1.) ( / ^ ^ ~ ~ ~ ! U B n q e e e e 0 e e e q e q e 0 q 8 0 q 7 0 e 8 8 e e 5 ; i K T I I E X.I G  .O.!.eXdXdXfXdXdXdXiXiXiXiXiXwXwXiXiXiXiX}.k.f.s.s.s.s.j.s.f.s.,.:.` ' ` ' 3.3.3./ H M V V M V M N N m M M N M B M N M N m M V m M z m M l H R I I T I I R I ",
">X>X>X>X>X>X>X>X:X>X>X>X<X>X<X<X<XXX{..X.X.X,X,XXXXXXXXXD..X.X.X|.XX|..X|..X.XXX.X.X.X.X.X.XXX|.XX|..X|..X.X|.XX.X.XXX|.|.XX.X.X|..X.X.XXX|.XX|.XX|..X.XXX|.XX|..X.X.X.X|..X.X.X.X.XXX|..X.X.X|.,X,X<X>X:X:X{.{.>X2XgXmXmXzXzXmXnXvXvX@XI.>.1.3.] ] [ [ ] T j 8 6 e 6 6 0 e 0 0 0 0 0 0 0 0 a 6 0 0 0 0 0 e 0 u 0 0 u e 0 0 e 6 e e 7 5 n A ) [ ] ] 0.] ] 0.] 1.1.[ 1.1.3.1.1.1.1.] ] ] ] ] ) ) ;.( V b 7 q e e e 0 0 e 0 q e e 0 6 6 u 6 6 6 u e 6 e 6 6 6 5 6 7 7 > : > > r > 1 3 7.oX+X+X-X-X-X=X-X-X-X-X-X-X-X/./.(.+XR.g.a.#.,.p.t.<.,.#.,.1.' ' :.' [ 2.q._ T t 7 t t r w 8 e 8 8 8 8 e 8 8 8 8 e 8 8 8 r 8 8 8 8 r 8 8 j r r r r i 8 8 g P c.}.<X<X<X.X{.>XXX}.<XXX<X}.>X<X<X<X<X}.{.{..XXX>X,X<X<XXXXX|..X,XXXXXXX,X,X,X,X,XXXXXXXXXXXXX,X,XXXXX,XXXXX,XXXXXXX,XXXXX,XXXXX,XXXXX,XXXXX,X,XXXXXXX,X,XXXXXXXXXXX,X,X,X,X,XXXXXXX,XXXXX,X,XXXXX,X<X<X1X1X4X1X<X>X5X3XhXMXMXMXMXMXMXMXmX3XK.$.` >.,.:.:.2.1.T e 8 8 e e q y y 0 9 0 y 0 0 9 y 0 9 0 0 y 0 y y 0 y 0 b 9 b 0 y y 0 0 e 6 5 M U ] 1.1.] ] ] 1.[ 3.0.1.1.1.1.q.3.3.[ ] ] ] [ [ [ ] ] ) ( J M e e a a e e q 0 q 0 q 0 e 0 e 0 e e e 8 0 e 8 q e 8 5 8 e 8 8 r 8 > > = 2 4 h.$X%X%X+X@X@X$X+X/./././././.(.OX/.+XR.a.t.Q Q #.,.#.,.,.,.,.` :.' 1.' 3.3.' J n 7 q y w y y q y y 9 y q y y e q e q 9 y 9 q q e 8 6 8 r r 8 r r r 8 8 > ",
">X>X>X>X>X>X>X>X>X>X>X>X>X<X<X>X<X>X>X<X<X<X<X<X,X>X>X,X,X>X>X>X>X>X>X>X<X<X>X,X>X>X>X>X,X,X<X>X<X<X<X<X>X,X,X>X,X>X>X,X>X,X>X<X<X<X<X>X,X>X>X>X,X>X>X,X>X>X<X,X,X,X,X>X>X,X>X<X,X,X<X>X>X>X>X>X>X1X>X,X:X{.{.}.>X2XaXMXVXMXVXVXnXMXnXqXI.>.1.3.] ] [ [ [ U t r 6 e e 6 6 e e 0 7 9 0 0 0 0 0 0 0 u 0 0 0 0 0 e 0 0 0 e 0 0 6 6 6 6 7 5 n J ) 0.0.] 0.[ 1.1.1.0.0.[ 1.[ 1.[ _ 1.] 1.1.1.1.] 1.1.0.) V e 7 0 e e e 0 q e e e 0 e 6 6 e e u 6 e e 6 e 6 e 6 6 6 5 5 5 5 5 7 & 5 & = 1 5.XX.X}.,X:X*X>X:X*X:X:X:X:X=X}.E.Q.{.c.s.,.Q ' ' ' ' ' ' ' ' ] ] ' ] 1.] 3._ T t 7 7 q 7 q 8 7 7 7 8 7 5 8 8 8 8 7 8 q 8 7 0 7 8 q 7 q q q 5 7 8 7 8 5 - r K c.,X<X<X<X,X}.XXXXXX}.XX}.<X4X4X>X4X<XXX{.}.>X>X,X1X<X4X<X<X>X<X<X4X<X<X<X<X4X<X4X1X1X4X<X<X<X1X<X<X1X<X4X<X<X<X<X<X4X<X1X<X<X<X1X1X4X<X4X<X<X<X1X<X<X1X4X4X<X<X1X<X4X1X<X4X<X<X<X4X1X<X<X<X4X<X4X4X1X4X4X1X4X<X4X1X3X5XhXGXVXVXGXGXGXGXMXiXK.%.+.:.:.1.2.1.1.T t 8 q e y 9 y 9 9 9 9 9 y 9 y 9 0 y 9 y u 0 0 $ b 0 y $ b 0 0 0 0 0 y a 6 ; j U ) 1.1.] 1.[ [ 1.1.3.3.3.[ 1.1.q.0.] ] ] 1.0.q.1.0.] [ ) ~ M e e a e e 0 8 e 0 e e q q q 0 q q 0 8 0 q e e 0 0 6 6 7 5 5 o 5 8 : - & = 3 g.}.XX[.<X}.>X}.Q.{.E.Q.}.Q.Q.}.+X+X[.c.s.' Q Q ' ` ` ,.` ' ' ` ' ' 1.] 1.3.` ! y # $ y 9 y $ e y 9 y 9 9 $ $ y $ 9 9 y $ 9 9 0 7 9 9 5 7 7 5 - 5 5 5 - - ",
">X>X:X>X>X>X>X>X>X>X>X>X>X>X:X:X>X,X>X>X1X>X1X>X>X,X>X,X>X>X,X>X,X>X,X>X:X,X>X>X,X,X>X,X>X>X>X}.:X:X:X,XXX>X>X,X>X>X,X>X>X{.>X>X>X,X:X,X,X>X,X>X>X,X>X,X>X>X:X,X>X>X>X,X>X>X:X,X>X>X>X}.,X}.}.>X:X>X:X,X:X:X{.}.1X3XhXMXMXFXVXzXVXnXnXwXI.@.1.3.] ] [ ] ] T j 8 6 e e 0 6 e 0 0 0 0 0 0 0 0 0 0 0 e 0 0 0 0 0 0 0 0 0 0 e 0 0 e e a 6 5 j V ) 0.] 0.] 0.] ] 1.[ ] 1.1.1.1.[ ` ` ' 1.3.3.] ) ] 1.[ _ J n 8 q e e e e e e q 0 0 0 e u 6 6 e 6 6 6 6 6 e u 6 e 6 6 9 7 5 5 w w 7 ; > f 8. X}.>X:X:X:X:X:X:X:X=X:X:X:X:X}.>XXXS.s.,.' ' ' ' Q ' _ ' ' ] ` 1.` ' [ q.] J t 7 7 8 q q q 8 e e e e 8 e e 8 e e q e q q e e q q q q e q e q e q e q 7 t T Z.>X1X<X<X>XXX>X>X}.}.<X}.}.>X<X<X<X<X>X}.}.,XXX>X>X>X<X,X>X.X,X<X<X,X>X>X>X>X<X<X>X<X,X>X,X>X,X<X>X,X<X<X>X>X,X<X,X>X<X,X<X<X<X>X,X>X,X<X>X>X<X,X<X<X,X>X,X<X>X,X<X<X<X>X,X>X,X>X<X,X,X>X<X,X<X,X>X,X<X<X<X>X>X>X=X2X3XsXGXNXVXzXVXMXMXMXwXK.@.-.:.:.>.:.1.1.~ t t q e y 0 e 0 y 0 y 9 0 0 9 y 9 9 9 y $ y 0 y 0 0 y $ y y 0 0 0 0 u e 5 5 j U ] 0.] 1.] 1.1.3.[ q.3.0.1.[ [ [ [ ] _ ] _ ] ] 3._ ] ] _ J n q 8 e e 7 0 q q 0 q 0 e 0 e e e 0 q e 6 e e e e 7 9 9 6 7 7 5 q e 8 : = > S j.$XXX$X}.}.}.:X{.}.:X>X}.}.>X}.>X}.XXv.p.{ Q ' ' ' :.` :.` 1.:.' ' ' [ [ [ ( ! y $ y 9 y 9 y y 9 y $ y 9 y y $ 9 9 y $ y 0 9 9 0 9 0 q 7 9 0 7 q q q 7 7 ",
">X>X>X>X>X>X>X>X>X>X>X>X>X>X}.{.}.:X>X>X<X<X>X>X,X}.}.>X}.}.}.{.}.}.{.,X}.{.}.{.}.>X}.:X}.,X}.:X}.:X}.:X}.>X>X{.}.:X}.:X}.}.:X}.}.:X}.}.:X{.:X}.{.>X,X}.{.}.}.:X}.}.}.}.{.:X{.>X}.>X{.}.:XQ.:XQ.=X:X:X:X>X:X:X}.>X3XhXMXGXVXVXzXNXnXnX8XI.@.] 1.0.[ 0.] ] ^ b 8 7 0 6 6 0 e e 7 0 6 0 0 0 0 0 0 e 0 0 e 0 0 u e 0 0 0 u e 0 u e 6 a 7 5 n ! ) 1.0.] 0.] ] ] 1.1.] 0.[ 1.1.[ ] ] [ [ 3.[ 0.[ [ [ 0._ T n 7 7 q 8 e 8 e e e e q e 6 0 u 6 6 0 6 0 e 6 e 6 6 6 u e 0 0 8 q e 8 e > i f z. X>X>X>X>X>X:X:X>X*X1X=X>X:X>X>X=X<XS.s.3.Q ,.,.' ' ` ' ' [ ' ] ' ] ] 1.2._ J t 5 q w 8 q q e q e e e e e e e 8 e e q e e y q e q q y q e q q e e e 8 7 j U C.{.>X,X>X>X,XXXXX}.>X}.<X}.<X<X>X<X4X>X>X,X.X>X>X<X>X>X>X,X<X<X<X<X<X>X<X>X>X>X,X>X>X>X>X>X>X>X>X>X>X>X>X>X>X>X>X>X<X>X<X>X>X>X>X>X>X>X>X>X>X>X>X<X>X>X>X>X>X>X>X>X>X>X>X>X>X>X>X>X>X>X>X>X>X>X>X>X>X<X<X<X1X>X>X>X2X3XsXGXSXVXVXAXGXAXnXqXJ.%.:.:.>.1.2.3.1.T e e 8 e e 9 0 y 0 y 0 0 9 e 0 9 0 y 9 0 0 0 0 0 0 y 0 y 0 0 0 e e e a u 8 7 j J ] 1.] 1.] 1.1.q.[ 1.3.1.[ 1.q.1.[ ] ] ] [ [ [ [ [ [ [ ) J n 5 7 e 7 8 6 q q e e q q q e q 0 0 q e 0 e 6 e 8 6 8 7 0 9 7 0 e e 8 7 ; > v z.4X$X}.$X}.}.}.}.}.}.>X>X>X1X>X>X>X}.A.p.' Q ` ' ` 1.,.,.' :.` ' ' :.] 1.1.` V y $ 9 y $ $ y y y $ b $ y y $ b $ b $ $ y y 9 0 9 9 9 9 0 q 9 q e e e q q ",
"2X>X<X}.>X}.2X>X>X>X>X2X>X}.:X,X{.}.:X>X>X>X>X>X>X:X}.>X,X:X>X>X>X}.>X>X>X:X}.>X{.}.}.}.{.}.}.}.}.}.}.}.}.{.,X>X}.}.{.:X:X}.:X{.}.}.}.}.:X}.}.}.{.>X}.}.:X:X}.:X>X}.:X}.}.:X>X}.}.:X:X=X:X}.:X:X:X:X:X,X{.,X}.:X1X3XsXMXMXVXNXNXNXZXnXqXJ.>.) 1.] [ ] [ ] ! t t 8 q e 6 e e e 0 0 0 0 0 0 0 e 0 0 0 0 0 0 0 0 0 0 0 e 6 0 6 6 6 6 e 6 5 n V ) 0.0.] [ 0.0.[ ] 1.1.1.1.[ 1.[ [ [ 1.3.3.0.[ 1.0.q.0.] J n 5 7 8 e e 8 e e e 6 0 u a 6 e e 6 u 6 6 e u 6 e e 6 e e 0 0 e e e e e 8 i k l.$X<X>X>X>X=X>X>X=X:X:X>X*X:X,X:X>X>XS.s.,.' ,.,.,.' _ ' ' ' [ ] ] ' 1.1.1.] T t 5 q 8 8 q t q e e e e e 8 8 e e e e q e q q e e q q e q e e q 8 e e 8 q j K V..X{.>X>XXX>X>X}.XX}.}.>X<X>X>X4X<X4X<X>X>X>X>X,X<X>X>X>X<X<X1X1X4X1X<X>X>X<X<X>X<X>X>X>X>X<X,X<X,X<X>X>X>X,X<X>X>X,X>X>X>X<X>X>X>X,X>X:X<X>X,X<X>X>X>X>X>X>X>X>X>X>X>X>X>X>X>X>X>X>X>X>X>X>X<X>X>X>X>X<X>X>X>X>X2X2X3XlXGXHXVXSXGXGXGXnXqXJ.@.+.:.:.>.3.1.1.T t e 8 e e y 0 9 0 9 0 y 9 y 9 y 0 0 0 0 y 0 y 0 y 0 0 0 0 0 0 u e e 8 8 7 - j U ) 1.1.] 1.1.1.1.3.q.1.0.1.1.3.1.0.1.] [ [ 0.1.] 1.[ [ ] V q 5 7 8 5 5 7 e 8 e 0 0 e 0 e q 9 0 q 0 7 e e e 8 e q 9 0 0 9 0 e e 8 8 = 3 v C.$X$X$X$X$X}.}.}.}.>X>X>X=X:X1X2X<X>XA.s.' ' ' ` :.1.1.' 1.` :.` ` ,.] [ 1.( J t $ $ $ y y $ $ $ y $ $ y $ y $ y $ y y 0 $ y 9 0 0 9 9 0 7 0 q 8 e e q 7 ",
">X>X>X<X<X<X<X>X>X>X>X>X>X<X>X{.:X}.:X:X>X>X>X<X>X>X<X>X<X2X>X>X<X>X<X<X>X<X>X>X>X>X:X}.:X>X:X}.}.:X}.:X}.:X:X}.:X}.:X}.}.}.>X}.:X}.:X>X>X}.>X}.>X>X>X}.:X}.>X}.}.:X:X>X>X>X,X}.:X:X>X}.}.=X=X>X>X:X>X}.,X{.W.Q.2X;XsXMXGXVXVXVXAXAXAXwXU.>.] 0.[ ] 0.[ [ U t w 7 0 0 7 7 e e 0 6 0 q 0 u e 0 0 0 e 0 0 0 0 0 0 0 0 0 0 e 6 6 6 0 e 7 5 j J ) 1.0.0.] ] 1.1.1.1.[ 1.] 3.1.1.[ [ [ 1.0.[ 0.[ 0.q.0.] ~ n 7 7 8 t e e 7 a e 0 e e 6 u 6 6 e 6 0 6 6 6 6 u 6 6 6 e 6 6 0 6 e 6 0 6 i f 9.XX<X>X>X=X>X=X>X>X>X>X:X1X>X>X>X>X<XS.d.' ` ,.,.,.' ' ' ' [ ] ' ] ] ] ] q.[ J t 7 q 8 e q q e e e e e 0 e e e e e e e e e e q y q e q e q q 8 q e e q 7 j T Z.>X,X<X<X<X<X>XXX>X>X<X}.}.>X4X>X>X4X<X>X>X>X>X>X<X>X>X}.>X>X>X>X<X>X:X>X}.>X}.>X,X:X}.}.}.:X}.}.>X>X}.}.}.}.}.:X>X:X:X:X>X>X,X>X>X>X>X,X:X}.:X}.}.>X}.>X>X,X:X:X}.:X,X:X:X:X>X,X:X:X>X:X:X:X:X:X:X:X}.1X<X>X>X>X=X2X3XvXGXSXSXAXAXGXGXnXqXJ.@.-.:.:.:.2.1.1.T e 8 e e e e 0 0 0 y 9 9 0 y 9 9 9 y 0 9 0 0 0 0 0 y 0 0 0 y 0 0 e e e 8 8 7 j U ) 1.] ] 1.[ 0.0.[ 3.0.3.1.1.[ 0.[ [ ] ] [ [ [ [ ] 0.0.] ! M 5 7 e 8 q 6 e 8 q q 6 0 9 0 0 0 7 0 q e e e 6 e 8 7 0 0 e 0 0 9 7 8 8 ; 1 h z.$X#X$X+X$X$X}.}.}.}.>X>X>X>X=X1X>X>Xb.s.' ' ` ' :.` ` ' :.:.:.' ` ,.1.[ [ ( J t 5 9 y y $ b b $ y 0 y y y 9 y $ y y 9 9 0 9 0 9 0 0 q 7 0 7 8 q 0 q q 7 ",
"<X<X}.<X}.}.<X}.<X<X2X1X>X,X>X}.}.>X,X>X>X>X>X>X>X>X>X4X2X4X2X2X2X3X2X3X2X3X2X2X2X+X+X+X+X/.+X+X+X+X+X+X/.+X>X/.2XQ.}.}.:X}.:X}.:XQ.Q.>X>X+X=X>X>X+X}.>X+X>X>X>X:X>X>X:X>X}.}.:X:X>X:X>X>X:X:X>X2X+X+X2XQ.}.Q./.2X3XsXnXVXGXGXVXAXAXAXwXI.5.1.3.[ [ ] [ _ T t t 8 0 e 0 0 e 0 0 6 0 0 0 0 0 0 0 0 0 0 0 0 0 0 e 0 0 6 0 e e e 8 e u 7 5 j U ) 0.] ] 0.[ ] ] ] 0.1.[ q.1.1.[ 1.3.1.[ ] 1.1.[ [ 0.0.] ! n 7 7 t 8 e 7 0 a e 6 0 e 0 0 u e 0 6 6 0 6 e 0 0 u 6 6 6 6 6 6 6 6 6 6 6 1 f l. X}.>X>X>X:X1X:X1X:X>X>X>X>X,X>X>X,XS.d.,.W ,.,.,.,._ ] [ ' ] ] ] ] ] [ 0._ J t 5 8 e q q e 8 e e e 0 e e e 8 8 e e e e e e e e q e q y e e q e q q q 0 j K Z.XX<X<X4X<X<X,X<X>XXX<X}.<X<X>X>X>X1X<X<X>X>X>X>X>X,X}.}.}.>X2X2X+X}.Q./.Q.Q.}./.Q.Q./.}.Q.Q.}.Q.Q.}.Q.+X}.+X+X+X}.}.}.,X{.{.{.>X{.{.Q.}.}.-X-X}.Q.Q./.}.:X}.}.=X{.=X{.:X}.Q.=X{.Q.:X{.}.}.:X:X:XQ.}.+X2X2X}.+X}./.;XiXlXGXFXSXVXAXAXMXnX0XL.@.:.:.:.>.1.1.1.T j e q e e y 0 y 0 0 9 0 0 0 0 0 0 9 0 0 y 0 0 0 0 0 0 0 0 $ b e e i 8 8 8 7 j J ` 1.1.1.] [ 1.1.3.3.1.1.[ [ 0.1.[ ] [ ] 0.0.] [ [ [ ] ] J t 5 8 t e 8 e e 8 8 7 0 0 7 0 0 0 0 6 0 6 q 8 q q 0 0 0 0 0 9 7 7 6 7 7 ; 1 h z.$X$X+XXX[.}.XX}.}.>X,X>X,X>X>X>X>X.XA.s.' Q ' ` ' ' ` ` ` ` ] ' 1.' ] 1.[ ) V b 9 9 y $ y y $ y $ y y $ $ y $ b y $ y 0 0 0 9 0 0 9 7 0 7 q 8 8 7 0 7 7 ",
"XX<XXX<X<X<X4XXX4X<X2X<X>X<X>X}.>XXX>X>X>X>X>X>X>X>X+X$X3X+X@X3X@XqX3X@X@X@X@X@X@X@X@X/.;X(./.(.(.(.(.;X(.3X/./.2X=X:X:X:X}.:X}.}.Q.>X-X=X-X/.2X-X2X2X2X2X>X>X>X:X>X>X>X>X>X=X>X>X:X>X>X:X>X>X+X+X+X+X+X+X+X@X3XiXiXxXnXVXAXAXSXAXSXAXwXI.%.1.1.[ ] [ [ [ U t w 7 0 e e e q e 0 0 7 0 0 0 0 0 e 0 0 0 e 0 0 0 0 6 6 6 0 a u e 6 8 i 7 > j T ) 1.[ 0.q.] 0.0.[ [ [ 0.3.[ 1.3.3.[ 1.1.1.0.1.1.0.0.1.] U j : 7 r 8 e 8 e a 0 6 6 6 6 6 6 u 6 0 6 0 0 0 6 0 e 0 6 6 6 6 $ 6 6 6 6 ; 6 d 8. X$X}.<X4X1X1X<X<X>X>X,XXX>X>X,XXX,XA.d.,.` >.>.3.[ ' ] ] ] ] [ _ 1.[ [ ] ) ! b 7 5 q q q q e e q 9 e e 0 8 q e e 0 q e q q q q e q e q e q e e e e e e t N Z.XXXXXXXXXXXXXXXX<X<X4X>X>X>X>X>X>X4X>X1X>X>X>X>X>X*X>X=X>X3X2X3X-X;X/./.-X/././.-X/././.-X/./././.+X(.@X@X@X+X3X2X+X}.Q.{.}.:X:X}.W.Q.>X4X2X;X3X-X-X2X2X2X2XQ.}.*X:X}.:X:XQ.:X{.*X:X:X:X:X=X:XQ.=X-X-X3X-XQ.-X/.3X3XiXjXAXCXAXAXVXAXAXnXqXK.@.+.1.,.3.3.3.1.~ e 8 e e 0 e 0 0 9 0 0 9 0 9 0 0 0 0 0 0 0 0 u u 0 0 0 0 0 9 b e a e a e 8 8 l U ) 0.1.] 1.1.0.[ 1.1.1.1.1.1.1.0.3.[ [ 1.[ ] [ [ [ [ [ ] J j - 7 q 7 7 8 q e e 7 0 q 0 0 0 0 7 7 0 0 7 0 0 0 9 0 0 7 q 7 9 0 7 8 6 ; 1 h z.4X$X$X}.}.XX>X>X>XXX{.{..X.X{..X|.XXV.p.[ _ ' ' ] 1.' ` ` ' 1.] ) :.' ] 1.( V b $ y y y $ y $ y y 0 y $ $ y y y $ y 0 9 e 0 0 0 0 7 0 e e 8 8 7 0 7 7 5 ",
"l.l.l.g.l.l.c.].{.4X<X>X}.}.<X>X>X>X>X>X>X>X<X>X>X2X+X5XdXdXdXpXiXfXpXpXpXpXpXpXiXpXiXpXyXpXiXpXiXiXiXyXpXiXiXiX3X2X}.>X:X>X>X:XQ.>X2X2X6X3X3X3X3X3X3X3X2X3X2X>X>X>X=X:X:X:X>X:X>X}.:X=X>X=X=X2X5XdXaXdXiXiXdXpXfXfXnXzXzXAXAXZXZXAXZXwXY.5.` 1.[ [ [ [ ] U t r q 0 0 q e e e 0 0 0 0 0 0 e 0 0 0 0 0 0 e 0 0 u 0 0 0 k N N m m M N M j V ~ 1.1.1.1.1.1.[ 1.1.1.1.3.1.1.3.[ 0.1.1.[ [ [ 0.1.[ 1.1.] T V j l M M k M M N a 0 6 6 6 6 6 6 6 0 6 u 0 0 u 0 0 6 6 6 6 6 6 u 6 u 6 6 1 p l. X}.4X>X<X>X1X<X}.{.D.n.n.S.S.G.F.F.V.3.,.` 3.3.3.1.1.] ( / T T / ~ ~ ~ / J N t 7 q q e q q e e q e e 0 e e e q 0 0 e 0 q q e e q q q e q e e e e e e e e M >.N.l.N.N.l.l.g.c.]..X4X<X<X2X4X>X>X4X>X>X>X>X>X<X>X>X>X-X3XgXaXiXiX3XyXyX3XyXiXiXiX;XiXiXiX;XiXiXiXiXaXiXdXaXiXiX5X3X+X}.}.}.}.:X:X}.Q.2X2XaXiXiXiXiXiX3X5X2X+XQ.{.:X:X:X:X:X:X}.>X:X>X>X>X>X:X:X>X3X3XiX3X3X5XiXiXiXpXkXkXAXSXVXVXAXAXnXqXI.@.:.` 1.,.3.1.1.~ j e 8 e 0 y 9 0 0 0 0 0 0 e 0 0 0 0 0 0 0 $ y 0 y 0 0 0 0 b B N N N m m n M K ~ ] 1.] ;.] 1.[ q.1.0.[ 0.[ q.3.1.1.1.1.[ [ 1.1.1.0.[ q.] T N t n n M M V N N b u e e e e 0 0 0 0 9 0 0 0 7 7 0 6 e 0 q 0 0 0 7 8 6 - 3 z z.XXXX}.<X}.>XXXXX.XD.c.v.v.S.A.A.S.A.M.d.3.' ' ' ] ] 1.' / T U T U T Y T ~ U B b $ $ $ y $ b b $ $ y y y b y b $ y y 0 0 y 0 0 0 0 e q 6 0 7 6 7 7 0 6 5 ",
"z z z S h h F >.n.<X>X>X}.}.>X<X>X<X<X>X<X2X<X2X4X2X5XdXhXvXnXcXvXnXnXnXnXvXvXvXvXvXvXnXnXvXvXMXnXvXmXMXvXvXmXlXsX3X2X:X>X>X>XQ.>X2X3XgXgXhXsXsXsXsXsXaX6X3X3X>X>X>X:X>X>X}.>X>X>X:X>X>X>X:X:X2XhXvXvXvXvXvXvXvXnXnXnXzXVXZXZXZXZXZXcXwXU.@.] q.[ ] [ [ _ P t t 7 0 q 9 0 e e q q 0 0 0 0 0 0 0 0 e 0 0 e u 0 0 6 u a V ) ) 0.-.;.;.:.;.) 1.1.0.[ 0.1.1.3.[ 0.1.3.1.[ 0.0.[ 1.1.[ 0.0.1.0.1.0.1.1.1.( ( ( ( ( ( ( ( ( ) A a 6 $ 6 6 6 6 u u 6 0 0 u 0 0 0 0 0 6 0 6 6 0 0 0 6 6 u d 8.$XXX}.>X=X>X=X{.W.v.a.a.a.y.<.<.a.d.2.3.,.:.,.1.3.1.3.' T M t l t n t t t t e t y q y e e q e e e 9 q e q q q e e q q e e e e e e e q e e 8 q e e e e e e e M K z C v D z z F $.n.}.4X>X>X>X>X<X>X>X>X>X>X,X>X>X>X2X2XiXbXhXhXlXlXmXlXmXvXvXvXmXvXvXvXmXvXvXvXvXvXvXvXvXvXvXvXhX5X2X}.}.>X>X>X>XQ.}.2XgXhXlXvXlXsXsXhXhX6X-X}.:X=X>X:X:X>X:X>X>X>X>X2X>X>X>X>X3X6XsXsXhXsXhXhXhXlXnXzXAXSXSXSXSXAXAXMXwXI.%.1.1.1.1.3.1.1.~ e e 0 0 a u y 0 0 0 0 0 0 0 0 0 0 0 0 0 0 0 0 0 0 y 0 u b B ;.) ) ` ) ) ) ) ) ] 1.1.] 1.] 1.1.3.1.3.3.[ 1.0.[ 0.1.1.0.1.0.0.1.1.[ [ ] ] ) ` ( ( ) _ ) ( / ~ V a b a a q e 0 0 0 0 0 0 q q 0 q q q q 9 0 0 e 0 6 e 7 i h z.$XXX}.XX>XXX}.}.n.j.$.p.a.s.a.p.a.a.a.3.' ' ] ] ] 3.1.` T l j j j j j j j j y q $ y $ y b $ 0 0 0 0 $ y b $ y y $ b 0 0 0 0 0 8 6 e 7 8 6 8 e e 0 6 6 5 ",
"> 2 > , > = h +.C.<X>X}.}.>X}.}.}.}.>X>X>X>X>X>X4X+X5XhXvXnXnXAXAXAXAXAXAXnXnXzXnXnXnXnXMXzXMXzXnXMXzXGXzXMXMXvXhX3X-X=X>X4X1X=X/.2X6XhXmXMXvXnXvXnXmXsXaX6X3X>X:X>X>X>X:X>X:X}.>X>X>X:X>X:X>X5XhXnXnXnXMXnXnXnXnXnXAXzXVXAXZXAXAXZXZX9XU.>.1.[ ] ] [ [ [ T t w q q e e e e 0 q q 0 0 0 u e 0 0 0 0 0 0 0 0 0 6 0 0 u A ;.1.1.1.1.1.1.1.1.1.1.1.1.] q.1.1.0.1.1.0.3.1.3.1.1.q.1.1.1.1.1.1.1.1.0.1.1.` ) ) ] ` ` ) ) ;.1.A a 6 6 6 u 6 6 $ 6 0 0 0 0 0 0 u 0 0 6 0 0 $ 0 u $ 6 6 8 k l. X}.}.>X>X>X:X}.].j.#.#.$.,.,.+.,.,.,.>.>.1.>.2.>.2.>.` T j 8 q t q q q t q q e e e e e q e e e e e e 0 q e e e q e 0 0 q q e e q q e q y q e e e q y q e e r 8 d 8 i 8 r = z @.v.4X<X>X<X>X2X>X>X2X>X>X>X>X>X>X>X-X;XpXmXMXMXMXMXzXMXMXMXMXnXMXnXMXMXMXnXnXnXnXnXnXnXnXnXnXMXvXfX3X}.}.>X>X>X}././.5XhXmXMXnXMXlXvXmXmXaX2XQ.Q.>X>X>X:X:X=X>X>X>X>X>X>X:X>X2X6XsXvXmXvXMXnXvXnXnXnXAXAXAXAXSXBXAXAXAXqXI.@.:.1.1.3.1.1.0.~ a e 0 0 0 e 0 y e 9 0 0 0 0 0 0 9 9 0 0 0 y u 0 u a u 0 y V 0.;.;.1.] ) 1.] ) ] 1.1.1.1.[ [ 0.[ 0.1.0.1.1.1.1.1.1.[ [ 1.1.[ 1.[ 0.1.1.[ [ ] ] ] ] ] ] ] ] ] J a e u 0 0 0 0 0 0 0 0 8 0 9 0 0 9 0 0 0 9 0 0 6 7 8 ; d z N.<X<X}.<X>XXX>X.Xv.l.#.Q #.,.,.,.,.,.,.3.] ' ' [ ] [ [ ` U d 7 e 6 7 e e q e e e y $ y y $ y 9 0 0 0 0 0 $ y y $ b $ e 0 0 0 0 0 e q 0 e 6 e 6 e 6 6 5 5 ",
"5 ; 5 - - O , W C.4X>X>X}.>X}.}.}.}.}.>X}.{.}.>XXX3XiXfXnXAXSXSXSXDXSXSXSXAXZXAXAXAXnXAXVXAXFXVXMXVXGXVXVXMXGXGXlXiX-X:X>X>X2X=X/.-XgXmXMXGXAXAXAXAXnXnXsXiX3X:X:X:X:X>X>X>X:X>X>X>X=X>X:X}.>X3XvXAXAXGXGXAXAXAXAXAXGXAXSXAXSXSXSXSXAXrXU.5.:.1.] ] ' ] ' T t w 7 q 8 8 e e q q e e 0 0 0 e 0 0 0 0 0 0 0 0 0 0 u u e A ;.1.1.1.3.2.1.2.3.3.1.3.1.[ 1.1.1.0.1.0.[ 0.[ 3.1.1.0.1.0.3.3.3.1.[ 1.1.1.] 1.] ;.1.1.1.) 1.1.1.U a e 6 6 6 6 6 6 6 6 0 0 u 0 0 0 0 6 $ 0 0 0 $ 0 0 $ 0 6 k 8. X,X}.>X>X>X>X}.S.l.,.o.:.+.( R +.:.1.,.:.3.2.2.2.2.2.-.U e 9 $ 6 9 9 9 9 9 $ 9 9 0 q 0 9 0 q 7 e q 0 e 0 0 e 0 q q 0 0 e q q q q q e q e q t e e e e e e 7 5 5 5 5 5 5 @ O d +.C.4X>X>X>X>X2X>X2X>X>X>X>X=X>X=X>X-X;XsXGXGXGXVXVXMXVXVXVXVXGXGXVXGXAXFXGXAXAXAXAXHXAXAXAXAXGXnXfXqX}.>X>X2X1X>XQ.-X6XvXMXFXHXFXAXnXMXmXhX/./.=X:X>X>X>X*X>X>X1X>X>X>X>X:X:X2XaXsXMXGXGXGXGXGXAXMXAXAXAXAXAXAXSXAXAXMXqXI.>.:.1.1.[ 3.3.1.~ e e e e e y e 9 0 0 e 0 q e e 0 e 0 0 0 e e a a b 0 u 0 0 B 0.0.0.] ] 0.[ 0.] 0.0.1.1.1.0.1.1.1.3.0.3.1.0.0.1.3.[ 3.1.1.0.3.0.[ [ 3.[ q.0.[ 1.3.3.q.3.q.[ 1.J e a 0 e 0 6 6 $ 0 0 0 0 7 0 0 0 0 0 9 9 0 9 9 9 0 7 6 1 z j.4XXX<X<X>XXX>X{.S.d.W Q :.W ,.:.1.:.,.' 1.' ' ] 3.3.3._ H 8 5 ; 5 5 $ 5 5 6 $ 6 $ 9 0 9 $ u 0 0 0 0 0 0 6 0 0 0 0 0 0 0 0 e 0 0 6 e e e 8 6 8 7 0 6 6 6 ",
"8 7 7 8 5 O i R C.4X4X>X>X>X<X>X>X>X}.}.}.>X}.>X>X+XiXxXnXAXSXSXSXDXDXDXSXSXAXZXVXAXVXAXAXVXVXSXVXVXVXVXFXVXFXAXzXyX/.:X=X>X2X2X/./.iXvXGXSXBXCXVXSXGXnXlXiX2X=X:X:X>X:X:X>X:X>X:X>X:X>X>X>X}.;XvXAXSXAXSXAXAXAXSXAXSXAXSXSXSXSXSXSXSXrXU.@.:.3.,.' ' [ _ T t w 7 8 q q q e e e e e e 9 0 0 0 0 0 0 0 0 0 0 0 e e a a C ;.` 1.1.1.[ 1.1.3.] 1.1.1.[ 0.1.1.[ 1.[ 1.1.0.1.[ q.[ 1.1.3.0.1.1.q.[ 0.1.1.1.1.1.1.:.) :.:.1.1.U j e 6 5 u 6 6 u 0 0 u 0 0 y 0 0 u 0 0 0 0 0 u 0 0 u 0 6 f N. XXX<X:X}.>X>X>XS.d.@.:.+.:.:.:.:.1.,.:.:.:.,.3.3.2.1.:.Y j 9 9 9 0 9 0 $ 0 0 0 0 0 0 9 7 0 0 0 e e e q q e q e e e e q q 0 0 e q q q e e y q e e e e y e 0 9 9 0 9 9 0 7 * a >.V.4X>X}.>X<X>X>X>X>X>X=X>X>X>X>X>X-XyXsXMXGXVXCXVXVXVXFXVXVXVXVXVXVXVXVXVXVXCXAXSXSXSXAXSXHXHXAXjXqX+X>X<X>X>X/././.aXlXGXFXCXFXVXVXMXMXsX(./.Q.>X>X>X>X:X=X>X1X>X>X:X=XQ.Q.2X3XsXzXHXAXVXAXAXAXVXzXVXVXVXVXBXBXBXAXGXwXK.5.:.] 1.1.3.0.1.~ a e e 0 a u 0 0 0 e e e q 0 q e q q 0 0 0 0 0 0 0 0 $ 0 0 V 0.1.] 0.] ] ] [ [ [ [ 0.[ [ [ [ 1.[ 0.3.1.3.[ 1.1.1.0.q.1.3.1.3.1.0.3.[ [ [ 1.0.1.0.1.[ 3.3.q.1.! e e 0 0 0 6 9 0 0 0 e 9 9 0 q 0 0 e 9 e e e e e e e 7 d h l.XXXX}.}.}.>X,X.XS.d.+.` 1.1.3.,.,.1.' 1.1.` ] ] [ 3.3.' U t 5 6 6 6 6 6 6 $ 9 6 6 6 6 6 0 9 0 $ 0 0 0 0 0 0 0 0 u 0 e u 0 0 0 0 e q e 6 6 6 u 6 0 6 6 6 ",
"e 6 0 6 5 - j R V.4X4X4X2X4X>X<X>X>X>X>X>X>X}.}.}.+X@XpXcXAXSXSXDXBXBXSXBXAXZXZXVXVXVXSXSXSXVXVXVXFXFXSXSXFXFXGXzXaX=X:X>X-X>X-X/.-XaXmXAXSXCXBXCXSXGXzXlX;X-X=X:X=X:X>X:X:X}.>X}.>X:X}.:X}.Q.3XvXAXAXSXAXSXAXSXSXAXSXSXAXSXSXSXSXSXAX9XU.%.` 3.3._ [ [ ' T r r q 8 q e q y e e e e 9 0 0 0 0 0 0 0 0 0 0 0 0 0 u a e A 1.:.1.1.] ' 1.' [ [ 1.1.[ 0.3.[ 3.3.3.q.1.[ 3.3.1.1.1.1.1.1.1.1.0.3.1.1.1.[ 1.] 1.] ] 1.:.1.1.0.U u u 6 6 6 6 u 6 u 0 0 0 u 0 0 0 y 9 0 0 u 0 0 0 u 0 6 u f l.XX$X}.}.>X:X>XXXS.d.:.+.:.:.2.:.1.2.3.:.-.` :.1.>.2.3.2.U a 0 9 0 0 9 0 0 0 9 0 0 0 9 q 0 9 q 0 q 0 q 0 e 7 0 q 0 0 q e 0 e q e 0 e 0 e q q e q e e e q e e e e e 0 0 e 7 - k +.c.<X>X}.>X>X>X>X>X>X>X=X:X>X>X>X=X-X;XuXMXVXVXVXBXVXVXVXVXVXVXVXNXNXVXCXVXVXVXAXSXSXSXVXAXAXHXAXxX@XQ.<X>X2X>X}./.(.iXvXGXSXSXCXCXVXnXMXhX(./.=X=X>X>X>X=X>X>X=X1X:XQ.:XW.W.=X3XlXzXVXFXAXVXVXAXVXVXNXNXNXSXZXSXSXSXGXwXI.@.:.1.] [ 3.[ 0.T a 0 0 e e e 0 e e 9 e q e e e 0 e e e 0 0 0 0 0 0 6 5 9 0 V 1.0.[ [ ] ] ] ] 1.[ 0.[ [ [ 1.1.0.1.1.1.1.1.3.1.[ 1.3.[ 1.0.[ 0.1.[ 0.[ 0.[ [ [ 3.[ 1.3.3.p.q.[ J e 0 0 0 0 9 0 0 u e e y e e e e e y e y y e y e e e 8 d v x.4XXX}.>X}.>X>X.XS.m.` ,.1.1.3.3.3.,.1.1.' :.1.' [ 3.2.` J e 6 6 6 6 $ u 9 0 6 9 0 0 0 0 0 0 6 0 0 9 0 0 0 0 0 0 0 0 0 0 0 0 0 0 0 6 e e 6 e 6 e 6 e 6 6 ",
"e 0 a e 6 - i R c.XX>X}.>X}.>X>X<X2X>X>X>X<X>X}.}.+XqXpXnXAXSXSXSXDXDXSXSXBXSXAXSXCXSXSXSXCXFXCXCXCXCXCXHXFXFXFXzX3X-X=X>X>X>X>X/.-XiXvXMXSXNXCXVXVXGXnXsXiX-X=X:X:X:X>X>XQ.>X}.:X}.>X>X}.>X>X3XvXAXSXAXSXAXSXAXAXSXAXSXSXSXSXSXSXSXSXrXU.%.+.3.3.' ' [ ' T t w q e y e e e t y e e e 0 0 0 0 e 0 0 0 0 0 0 e u 6 e a A ` ' 1.1.] 1.' 1.1.1.[ 1.3.1.1.0.1.0.1.1.1.q.1.1.3.3.0.[ q.[ 0.[ 3.1.[ 0.1.1.1.1.) 1.1.] ] 1.1.1.A a 6 6 u 6 6 6 0 6 0 6 0 0 u 0 0 u 0 0 9 $ 0 $ 0 0 0 u 8 f 8. X}.>X>X}.>X<XXXD.x.:.:.:.2.1.1.1.2.:.:.:.:.:.,.3.2.2.1.^ j 0 y 0 9 0 9 0 0 0 9 9 0 0 9 0 e q e q 0 e q e 0 e e q 0 e e q 0 e q 0 e q e q e e y e e e q e e e q 9 0 0 e 0 - j :.C.4X<X>X}.}.>X>X>X>X>X>X}.>X=X>X:X-X7XsXzXzXVXCXCXVXFXCXCXVXFXCXCXVXSXSXCXCXCXSXSXSXAXVXAXSXGXAXkX@X/.}.>X1X2X/.-X/.aXlXGXDXFXCXSXVXnXMXsX;X/.=X2X1X=X=X>X=X=X2X>X=X}.=X*XW.>XiXsXzXGXAXVXVXVXSXAXVXVXAXSXSXDXSXSXAXnXqXK.>.1.] 1.3.[ 0.[ ~ a e 7 e a a 0 y e e e e y e e e e e y e 0 0 0 0 0 u 0 u 0 A 1.[ [ 0.[ ] [ q.[ 0.[ 3.3.0.[ 3.[ 3.[ 0.[ 0.[ 1.q.0.1.0.1.3.1.[ 3.1.[ 3.[ 1.q.1.1.3.3.3.3.q.q.[ ! e 0 6 7 6 9 0 0 0 0 0 e e y 9 e 9 y 0 9 0 y 9 0 e 6 8 2 z l.XX<X}.<X>X}.>X.XS.N.#.` 1.,.3.,.,.3.,.1.1.] [ 3.[ 3.3._ U t 6 6 u $ 6 0 6 0 6 $ 0 9 6 9 0 0 0 0 6 6 0 0 0 0 0 0 0 0 0 e 6 0 0 8 7 0 6 6 6 6 6 e 6 u ; $ ",
"e a e e 6 - i X.B.4X2X}.>X<X<X4X4X4X4X1X<X>X}.}.}.+X@XpXnXAXSXDXSXSXSXZXBXSXZXSXCXSXCXSXCXCXCXVXCXCXVXFXCXCXFXGXlXyX/.>X>X>X2X>X/.-X5XvXAXSXCXCXCXCXAXnXsXiX-X>X=X:X>X>X}.>X>X}.:X>X}.}.}.:X}.3XvXAXAXAXSXSXAXSXAXAXAXAXSXAXSXSXAXSXSXrXU.%.` 3.[ ' ] [ ] T t w 7 q q q e e q e 0 0 q q 0 0 0 9 0 0 0 9 0 9 0 0 6 0 u J 1.1.1.1.1.` ] ' ] ] 1.1.1.1.0.1.0.1.0.1.0.[ [ 1.1.0.1.0.1.0.[ q.1.0.[ 3.1.1.[ 1.] :.' 1.1.' ` 1.A u 6 6 6 6 6 6 6 6 6 u u 0 6 6 6 0 6 6 $ 0 6 6 9 0 0 6 e f N. XXX4X}.}.}.>XXXS.l.:.:.,.>.1.:.1.1.2.1.2.:.>.2.2.1.2.1.^ a q 0 9 0 0 9 9 0 y $ y 9 9 0 0 q q e 0 e 0 q q q q e q q e 0 0 q q e 0 q e 0 0 q e e e y q e e e e e y e e e 7 - g :.C.4X<X}.>X>X>X>X>X>X>X>X:X:X>X>X=X-X;XsXzXAXVXSXSXSXCXFXCXSXVXSXSXFXCXSXCXCXCXSXSXSXSXVXAXAXGXAXxXqXQ.}.>X>X>X2X-X-XiXvXAXSXSXFXSXFXAXMXsX;X-X>X>X2X=X>X=X:X>X:X1X=X:X*X=X=X-X3XsXVXVXGXFXVXVXVXSXAXSXSXSXDXSXDXSXAXnXqXL.>.] ] ] 3.[ 0.1.~ e 8 5 0 e e e 0 0 0 q q q q q 0 7 0 0 a 0 9 6 0 9 0 6 e a A 1.] 1.[ 1.1.[ 3.3.[ q.q.1.[ 1.q.[ q.1.1.q.3.1.1.1.[ 3.q.1.1.1.0.3.q.1.3.0.0.1.1.1.3.3.] 3.q.1.] V e e 7 6 6 9 7 0 6 6 0 7 9 9 9 0 0 9 9 0 9 0 0 e 7 6 : r h l.XXXX}.}.}.>X>X.XF.M.,.` ,.,.2.,.,.3.1.1.0.[ [ [ ] 3.3.( U a 6 6 u 6 6 6 0 $ 0 9 6 9 0 6 6 0 0 6 0 0 0 0 0 0 0 0 e 0 0 0 0 0 u 0 e 6 6 6 6 e 6 6 e 6 u @ ",
"6 6 6 e 6 - a -.C.4X<X<X<X4X4X1X4X4X4X<X>X>X}.}.[.Q.@XdXvXnXAXSXSXAXAXAXAXBXBXSXVXSXCXCXCXVXFXFXFXCXFXFXFXVXFXGXlXyX/.:X>X=X>X-X2X/.3XhXMXGXAXAXAXAXMXMXsXiX3X=X>X>X:X}.>X}.}.>XQ.>X>X>X>X>X+X3XvXGXAXGXnXGXAXMXAXAXGXAXAXAXAXAXAXGXGXwXY.@.:.1.' ' ' ' _ J r 7 5 7 7 7 0 7 7 7 7 7 8 q 7 7 7 7 7 0 7 9 6 6 6 7 5 6 e V :.1.3.1.1.1.1.1.1.1.1.1.[ q.1.3.3.1.[ 1.1.1.0.1.1.[ 1.[ 3.1.1.1.3.1.1.1.1.1.1.[ :.` :.1.1.1.] :.V e 5 5 @ 5 5 5 5 5 $ 5 5 5 6 6 $ 5 6 5 6 $ @ ; 6 $ 5 ; 1 f 8.XX4X}.>X}.}.>X}.S.l.o.:.,.:.:.:.:.1.1.2.1.2.1.2.3.2.0.;.A b 9 9 9 9 0 0 y 0 0 $ 0 0 0 0 0 e 0 e q q 0 e 0 e 0 e 0 0 e q e e 0 e q 0 e q e e q e e e e e e e e e e e e e 7 - j :._.4XXXXX<X4X4X4X4X<X>X>X1X>X>X>X>X2X3XsXmXMXGXHXHXGXFXFXGXFXFXSXFXDXSXFXSXCXSXSXSXSXAXVXAXAXGXAXxXqX}.{.<X2X2X2X3X3XaXmXMXGXFXGXGXGXMXvXhX3X-X-X>X>X>X>X:X:X=X=X>X>X>X>X=X>X-X6XmXMXGXGXMXGXGXGXGXAXSXHXSXHXSXSXAXGXnX@XJ.>.] 0.[ q.[ 0.] T t 7 5 7 e 5 5 6 7 7 7 6 7 5 7 9 9 7 7 0 0 5 # o 5 5 # 0 e V _ ] [ ] ] [ [ ] ] [ [ [ [ [ [ [ 1.3.1.1.1.1.1.3.3.1.1.1.1.3.1.1.3.1.1.3.1.[ 1.1.1.[ 3.[ 3.3.] ) N 8 e 7 5 $ 5 7 8 $ 5 9 5 9 9 $ 5 7 7 9 $ 5 5 5 7 5 ; - , h j.<X>X>X>X>X}..XXXS.N.#.` ' 1.3.3.1.,.3.1.[ 0.] [ ] 0.2.` U a 6 6 6 6 u 6 6 0 6 0 6 0 0 0 0 0 0 9 0 0 0 0 e 0 0 0 0 0 0 q 0 e q 6 0 6 u 6 6 6 e u 6 u 6 6 ",
"u e 6 u 6 ; a Y e. X X.X|.|.|.{.{.}.}.<X<X>X}.}.}.Q.+XiXhXvXnXnXAXnXnXcXcXZXAXAXVXAXVXVXVXVXVXGXVXFXVXzXVXVXGXVXlXyX-X=X2X>X>X2X}./.3XgXhXMXnXvXxXnXvXhXaXaX2X>X>X>X:X>X>X:X>X}.}.>X}.>X>X}.Q.2XhXmXnXvXnXmXnXvXvXMXvXnXvXvXvXnXvXMXnX7XK.$.` ,.] ' ' ' ' P l r 8 r t q e t 8 w e t t 8 t q e j t t e a a e y j a a k U ` 1.1.1.1.' 1.1.1.[ 1.1.1.1.1.3.3.1.q.[ 0.1.1.1.3.3.3.q.1.0.3.1.3.1.q.[ 1.1.1.` ] :.] 1.1.] 1.` U j e i a a a i a a a a j a a a a a i j p k f k f k k f f v z. X}.2X2X}.}.>XXXD.l.+.$.>.1.,.:.` 1.1.1.1.) ) ] ) ;.) ^ V b 9 e 9 9 9 9 0 $ y y 0 0 0 0 e e e 0 q q e 0 e q 0 q 0 0 q e q q e 0 q e q 0 e 9 e e e e e e q e e e e e e e 0 - j :.N.|.|.].|.|.]..X]..XXX>X>X1X:X>X>X2X;XaXbXmXMXMXMXMXnXzXnXVXVXVXGXSXFXFXDXDXSXSXSXSXSXAXAXAXGXAXlXiXQ.}.>X>X2X2X2X;XgXhXvXlXMXmXMXMXvXhXgX3X3X>X=X>X>X=X:X>X>X>X>X=X>X:X1X>X>X3XaXbXmXmXlXvXMXMXnXnXnXnXnXAXnXnXcXvXvX+XP.>.1.] 0.1.3.[ ] T j j 8 a a j e e e t t 8 t q t 8 t t t t j e 8 8 t e e j k J ] ] ] [ ] ] ] _ ] [ 1.1.[ [ [ [ 1.3.1.1.1.1.3.1.1.1.1.3.3.1.1.1.1.1.1.3.1.1.1.1.3.] 3.1.[ [ [ ] U j j j j a a a e e e e t t e e e e 8 e k k n l j f g f g G j.4X>X>X}.}.>X,X.XS.m.:.` ' 2.,.3.3.3.] ] ) ) ) ( ) ] [ ) A a 6 6 6 6 6 0 0 0 0 $ 7 0 6 $ 0 0 6 u 0 0 0 0 0 0 0 0 0 0 0 0 0 0 0 e e 6 e 6 6 e 6 6 6 6 6 $ ",
"e e a 6 6 ; a C -.B.N.z.B.N.l.l.l.S..XXX}.>X<X}.}.}.+X5X5XhXvXvXvXfXhXfXcXcXAXAXAXGXGXVXVXFXVXVXVXVXVXFXVXVXGXzXsXaX-X=X1X>X=X>X-X2X2X6XgXhXhXsXhXsXaXaX6X3X2X>X>X>X>X>X}.Q.>X>X>X}.>X>X}.=X>X2X6XhXhXgXhXgXhXhXhXhXhXhXhXhXhXhXhXhXhX(.T.$.` ,.] ' ' ' ' T D M l l l l l l M l l M M M M M M M M M M M m M M M M N M T ) 1.1.1.1.1.] 1.1.1.1.1.3.[ 0.[ 0.1.1.1.3.3.q.[ 1.0.1.1.3.[ [ 0.1.0.1.1.1.1.1.1.] 1.1.] 1.1.' ` Y N M M M M M M M M z m m z m m m C z N U R X.X.X.I X.I I o.c.XX4X<X4X}.}.>XXX].d.#.,.,.,.:.:.:.1.) ^ ^ ~ ^ ^ ^ ^ ~ A V y 0 9 0 y 9 0 0 y 0 0 0 0 0 0 q 0 q 0 e 0 e q e e e q e e q 0 e 0 q 0 e 0 e q q e e e e e e e e y e q e e e q 7 ; a T 2.B.l.l.N.l.4.l.j.D..X>X>X>X:X>X>X>X-X6XgXgXhXhXsXvXmXlXzXzXzXVXSXCXSXHXHXFXFXSXSXSXSXSXVXAXAXAXjXiX}.{.>X2X>X>X-X4X6XgXgXhXsXhXbXsXgXaX6X;X1X>X>X>X=X:X:X*X*X*X>X>X>X:X=X=X1X3X6XsXbXsXsXhXhXhXhXhXvXvXlXxXfXpXdXhXgXoXz.@.` [ ] 3.[ 1.] T H M j M M M M M m M M M N N M M M M M M M M M N N N N N m T ] _ ] ] ] ] ] ] ] ] [ 1.] ] [ [ 3.3.3.1.3.1.1.1.1.3.1.1.1.1.3.3.1.1.3.1.1.3.3.1.[ ,.3.[ 1.] ] _ T H M M N N N N N M M M M M z M M M k M T R R Y Y P P G G G k.<X<X}.>X>X:X:X.XF.V.,.' ,.,.3.3.3.] ) ( ~ ! ~ ~ ! / ) / A a $ 6 6 u 6 6 6 0 0 0 0 0 0 0 0 0 0 $ 9 0 0 e 0 e u e 0 0 0 0 0 0 e 0 0 6 e 6 e u e u u 6 6 u ",
"6 e e u 6 6 e u k C v z z z z h S a.].XX>X>X}.}.}.}.}.+X@X3X@XiXeX@X3XqXiXjXcXAXnXAXAXnXVXVXzXVXFXGXVXGXMXVXGXzXlXyX/.-X>X>X>X2X+X}.3X2X3X3XiX3X3X3X5X3X2X2X2X2X>X>X:X:X}.>X}.>X>XQ.>X>X>X>XQ.2X2X3X3X3X3X3X2X3X4X3X3X2X3X2X3X3X3X3X-X/.R.$.` ' ' ' ' ' ' ' T T _ T T T T T T T T / / / / ( ( / / ( ( ) ( / / ( / ( / ( ' 1.1.1.1.1.1.' 1.] 1.3.1.3.0.3.1.3.1.3.[ 0.1.q.1.1.1.1.1.1.1.q.[ 0.1.3.3.1.1.[ 1.1.1.:.1.] 1.] ` ( ( ( ( ( R ^ T / ( ( Y ( ( ~ R R Y ( 4.N._.C.C.).Z.C.P.R.[.4X2X4X4X>X>X>X}.].l.,.<.,.,.1.1.' ] / V M n M n n n b y y 0 0 9 9 9 9 9 9 0 0 0 9 0 9 0 0 q e 0 q e q q e 0 q q e e q e 0 q e 0 q q e q e e e e e y e e e e e e e e e 0 7 5 e k k z z z z g g g h a.{.}.>X>X>X>X>X>X=X-X3X3X2X;X3X3XiXiXpXlXzXVXGXVXCXSXCXSXBXVXSXSXVXSXSXSXHXAXjXiX}.}.}.>X2X>X}./.2X3X3X3X3X3X6X3X3X3X2X>X>X:X=X:X=X{.*X*X:X:XQ.:X:X:X:X=X=X2X3X3X5XiX;XiX3X3XiX3XiXiXqX@X@X(.@X5X5XE.k.,.` ] 1.,.[ 3.] ` / T ( R / ( / _ / / / _ / T _ / _ / / T / / / ] ( ( ( ( / ` ] ' 1.] ` ] ' ] ] ] 1.[ ] ' ] 1.3.' 3.' 1.1.' 3.[ 3.[ ' 1.3.[ 1.1.[ 3.[ 3.1.3.3.,.' 3.' 3.' ] 3.` / / ( T / ` ( / ( R / R T T R T T T W l.Z.F.V.V.V.c.j.j.j.{.>X>X>X>X>X:X>X.XS.N.W :.,.,.,.1.2.3.~ ! n q t j j n n n e e 6 6 6 6 6 6 0 0 0 0 6 6 6 9 0 0 0 0 0 6 0 0 0 0 0 e 0 0 0 e 0 0 q e e 6 6 e 6 e 0 6 6 u 6 @ ",
"a e e e 0 a 7 5 - ; - * + - = = = W S.XX<X4X>X}.>X}.+X}.$X+X@X(.+X/.+X+XwXpXcXAXAXAXAXVXGXVXFXGXzXVXGXzXVXVXMXzXlX;X/.>X>X=X=X>X=X>X2X2X2X2X2X/.2X3X/.-X2X2X2X>X>X>X>X>X>X>X:X}.}.>X}.>X:XQ.>XQ.}.+X}./.}.Q./././.}.Q./.+X/.+XQ.Q./.-XQ.c.$.` ' ' ' ' p.' ' ' ' 3.' ' [ [ [ _ ] [ [ ] ] [ 3.[ [ [ 0.] [ 0.[ 1.1.1.] :.' 1.] 1.1.' 1.1.:.1.1.1.1.1.1.3.1.3.0.0.3.3.1.1.2.1.1.0.1.[ q.1.3.1.1.1.1.1.1.3.1.] 1.1.:.1.:.1.` ] 1.1.3.1.1.1.1.1.1.] 1.1.1.1.1.1.:.` >.C..X4X4X4X4X4X4X4X4X4X4X<X4X2X>X}.<X<X|.x.,.,.,.,.1.1.1.` T j 8 7 9 8 0 0 7 7 q 0 0 0 0 9 0 0 0 y $ 0 0 0 0 0 0 q 0 0 0 0 0 6 0 0 0 0 0 0 0 0 0 0 e 0 0 0 0 0 0 9 9 0 e 0 e 0 e e e e e 9 e 0 0 6 5 ; ; * + * O O * O = $.].XX>X>X>X>X>X2X=X=X2X2X/./././.-X;XyXsXlXVXAXSXSXCXCXCXNXVXSXAXSXAXSXAXAXnXkX3X+X}.}.:X>XQ.Q.Q.2X2X+X/./.-X2X+X-X=X=XQ.Q.Q.:X:XQ.*X:X{.=X{.=X}.Q.>X:X*X:X=X-X-X-X-X-X/./.-X/././.+X(./.!./.~.2X5XR.g.@.' 1.1.3.[ 3.3.1.] 1.3.3.1.3.1.1.3.3.] [ 3.[ 3.[ [ [ ] _ ' ] 3.3.3.2.3.1._ [ 3.] ] ' ' ' 1.` ' ] [ 3.[ ] ] ] 3.3.3.,.3.1.1.1.,.3.1.,.1.1.,.1.1.1.3.1.1.,.] 1.3.,.,.1.' 1.3.3.3.' ' ] 1.3.q.2.3.3.3.[ 3.,.1.3.,.,.` 4.Z.XX4X,XXXXXXX<XXX1X<X<X>X}.,X>X:X>X{.D.N.,.:.' 1.,.1.3.q.! y 9 5 9 5 5 5 7 7 7 8 0 7 u 0 6 0 0 6 6 0 0 0 0 0 6 0 7 6 0 0 0 0 0 e 0 0 u 0 0 0 0 0 0 6 0 6 e u 6 u u 6 u 6 $ u ",
"6 0 0 0 0 e 0 0 6 6 6 6 ; 8 i 8 1 @.|.XX4X>X>X<X>X+X>X$X}.+X/.+X+X}.}.+XdXxXcXAXAXSXAXSXSXFXAXVXGXFXVXVXVXGXVXzXsXiX-X>X2X=X>X>X>X+X4X3X>X2X+X+X+X+X+X2X2X$X>X>X+X>X}.}.$X>X}.}.2X}.}.}.>X>X>X>X$X}.+X>X+X>X-X}.}./.+X/.>X/.}.-X}.2X4XE.j.,.W 1.' ' ' ' ' ' ' ' ' ' [ ' ' ' ' ' ' [ _ ] ] ] [ [ ] ] ] 1.] 0.[ 0.1.] 1.1.1.1.:.] ' 1.:.1.1.1.1.0.q.1.1.0.1.3.1.1.1.1.1.1.0.1.1.1.1.1.3.3.3.1.q.[ 3.3.1.1.1.' 1.' 1.` ] :.] 1.1.1.1.1.1.1.1.1.1.1.1.1.1.1.1.1.+.,.C. X4X$X$X}.<X2X<X2X>X2X4X>X2X>X>X<X,X].l.@.,.3.>.,.1.' ] T n e 5 7 0 7 0 0 0 0 7 0 q 0 0 0 0 0 0 0 0 0 0 0 0 0 0 0 e 0 0 0 0 0 0 0 q 0 0 0 0 0 0 0 0 0 6 0 q 0 e 0 e e 0 0 9 e 0 0 q 0 0 0 9 0 6 6 6 5 ; - 7 5 ; ; ; > ,.|.XX<X>X>X>X>X2X>X>X4X2X2X2X2X=XQ./.yXlXzXAXHXSXCXSXCXSXSXBXAXCXAXSXSXSXGXAXlXqX+XXX>X}.{.Q.}.:X$X2X/.=X2X2X+X/.Q.Q.}.Q.:X:X}.=X:X:X:X=X:X{.:XQ.:X}.>X}.Q.}.Q.=X/.}././.}.Q.$X2X+X2X+X+X+X+X}.2X4XR.j.,.:.1.' 1.3.3.3.1.' 1.' ` 1.' 1.3.' [ [ [ ' [ [ [ [ [ ] ' ' [ [ [ 3.3.3.1.` ' 2.3.' ] 1.] ' ' ' ' ' [ ' ' :.' 1.' 1.] ' 1.' 1.' ' 1.' 1.' ' 1.' ] 1.' 1.' ' ' 1.1.` ' ,.' ' 1.,.] 1.] 1.3.2.1.,.1.1.' ] ' 1.' ` ` Q d.A.{.>X:X1X}.}.>X>X>X>X>X>X>X>X:X>X:X.XS.m.+.' 1.' ,.1.>.3./ t q 5 7 7 7 0 0 7 7 0 6 0 6 e 0 6 0 0 0 6 0 0 0 0 0 0 0 0 0 0 0 0 6 0 e 0 e 0 0 0 0 0 0 q 0 6 6 6 e 6 6 6 u 6 6 6 ",
"0 0 0 0 0 0 0 0 0 0 6 6 6 e i > 8 >.].$X2X>X>X2X>X}.+X}.}.$X$X$X}.}.>X+X5XfXnXAXAXSXSXFXCXHXSXSXFXVXFXVXVXGXGXnXvXiX-X:X>X>X>X>X>X=X2X2X2XQ.}.>X+X$X}.}.2X}.+X}.}.}.>X}.}.}.>X}.}.}.}.>X}.}.}.Q.>X}.+X=X>X}.Q.>X=X>X:X>X>X>X:X}.}.2X1X].j.#.` ' ' ' ' ,.' ' ' ' ' ' ' ' ' ' ' ' ' _ ] ] _ ] _ ] [ ] ] ] ] ] [ 1.1.1.1.1.' 1.1.1.1.1.:.] 1.1.1.1.1.1.3.3.3.2.0.1.1.q.1.q.1.1.1.1.1.0.1.0.1.0.1.1.0.1.3.3.1.1.1.1.1.1.] :.' 1.1.1.1.1.1.1.1.1.1.1.1.1.1.1.,.,.:.<.C..X4X2X}.2X-X}.}.2X$X>X2X4X2X>X<X<X,X|.V.,.,.,.3.' 1.] ] ~ M e 5 7 7 0 8 7 8 0 0 0 0 0 0 0 0 0 0 0 0 0 0 0 0 9 0 0 0 0 0 0 0 q 0 0 0 0 0 0 0 q 0 0 0 e 0 0 0 0 0 0 9 0 e 0 0 0 0 0 0 0 e 0 e 0 6 6 6 7 6 9 6 6 5 6 ; 1 >.|.XX}.>X>X:X>X>X>X:X2X>X>X4X>X>X}.2XiXpXzXAXSXSXCXCXCXBXCXAXCXSXSXSXVXAXSXAXjX3X}.>X>X}.}.}.}.>X>X:X>X>X4X2X>X:X}.Q.Q.>XQ.>X:X}.:X:X{.:X:X=X}.>X>X>X}.:X:X>X}.}.}.>X}.}.>X>X}.>X>X>X>X}.:X}.}.>X<Xn.g.>.:.1.1.1.] ,.1.1.1.1.1.1.1.1.1.' 1.' [ ' ] [ ' ' ] ' [ ] ' ] ' ,.3.3.3.1.' ] 3.1.' ' ` ' 1.1.' ] 1.1.' ' ' ' ' ' ] ' ' ' ' ' ,.' ' 1.] ' ' ' ' ' ' ' ' 1.,.` 1.,.` 1.' ' 1.1.` 1.' ' 1.3.3.,.,.' ' ' ' ' ' Q ' Q W p.A.{.>X>X:X>X>X>X>X>X>X>X>X>X>X:X:X>X.XF.N.,.` :.1.,.1.3.2.T t 7 5 7 0 q e 0 0 0 0 6 0 0 0 0 0 0 0 0 0 0 e 0 0 0 0 0 0 e 0 0 e 0 0 0 0 0 0 0 0 e 0 0 6 6 e 6 e 6 e u 0 6 6 6 6 ",
"0 0 0 0 0 0 0 0 0 0 0 e a a 8 ; > @.|.XX4X}.}.}.}.}.}.}.}.$X2X}.}.}.:X+X3XvXnXAXAXSXSXDXHXFXSXSXAXAXSXVXVXAXnXnXlXiX+X2X>X>X>X>X>X}.2X4X}.+X+X}.>X+X}.}.}.Q.}.}.}.}.}.}.}.}.}.}.}.}.}.}.}.}.}.}.Q.}.=X}.}.Q.:XQ.Q.=X=X=XQ.=XQ.{.{.>X<XW.j.#.` ' ,.' ,.' ' ' ' ' ' ' ' ' ' ' ' ' [ ' ' ] ] ] ] ] [ ] ] _ ` 1.1.1.1.1.1.1.] 1.1.:.1.:.:.1.] 1.1.1.1.1.1.1.0.1.1.0.1.1.1.1.1.2.0.0.2.0.2.1.1.1.1.0.1.1.1.2.1.1.' 1.1.:.] :.1.` 1.1.1.1.1.1.1.1.1.1.1.2.1.1.:.:.:.<.c.[.4X2X>XQ.>X>X>X-X>X2X2X4X2X<X>X<X}.|.x.#.,.,.,.1.' 1.1.~ M q 5 7 7 e 7 0 8 0 8 0 0 0 0 0 0 0 0 e 0 0 0 0 0 0 e 0 0 0 0 0 0 0 0 0 0 0 q 0 0 0 0 0 0 0 0 e 0 0 0 0 a 0 0 0 0 0 0 0 0 e 0 0 e 6 0 6 6 9 6 $ 9 0 7 6 ; > 1.|. X}.}.}.}.>X>X}.:X}.>X>X4X1X>X:X/.3XpXnXAXSXSXBXCXNXVXCXSXAXSXSXSXAXAXAXzXxXiX$X>X>XXX}.{.:X2X:X}.:X4X4X4X4X1X>X>X>X>X>X>X>X>X>X>X>X>X>X>X>X>X>X>X>X>X>X>X>X>X>X>X>X>X>X}.<X4X>X<X>X>X}.}.}.>X,X].l.<.1.1.1.,.,.3.,.,.' 1.,.' 1.' ,.1.3.' [ ' [ ,.[ ' [ ' ,.' ] ' ' ' 3.,.[ ' ` ' 3.' ' ] ' ' ,.' ' ' 3.' ' ' ' ' ' 1.' ' ' ,.' ' ' ' ' 1.' ' ' ,.' ' ' ' ' ' ,.' 1.,.` ,.` 1.:.` 1.' 1.:.1.1.,.,.1.' ,.' ' ' ' ' Q Q W p.v.:X1X=X=X>X>X>X>X=X:X1X>X1X:X>X*X,X,XS.m.,.` ,.,.3.,.2.3.J t 7 5 0 q q q 0 q 0 0 0 0 0 0 0 0 0 0 0 0 0 0 0 0 0 0 0 0 0 0 0 0 0 0 0 0 0 0 0 e 0 0 a 6 6 6 6 6 e 6 u e 8 e 6 $ ",
"0 0 0 0 0 y 0 0 y e 0 u 0 e i ; ; @.|.XX4X}.>X}.2X}.}.}.>X$X}.$X}.}.}.$XdXxXnXnXAXSXHXSXDXSXFXSXVXSXVXVXAXAXGXnXlXiX+X}.>X}.}.>X2X>X2X4X2X}.>X}.}.}.}.+X>X$X+X>X+X>X}.}.}.}.>X$X}.}.}.}.>X>X>X}.>X}.}.>X=X>X:X>X:X>X:X>X>X>X>X>X>X2X4XR.j.#.' ' ' [ ' [ ' ' ' ' ' ' _ ' ' ' ' ' ' ] ] ] ] ] ] 1.1.[ ] ] ] ' 1.' ` 1.:.' 1.:.1.' ] 1.1.] :.1.1.1.1.0.1.2.2.1.1.2.1.0.0.1.1.1.1.1.1.1.1.0.0.1.1.1.2.1.1.1.1.1.1.1.1.' 1.] ` :.1.1.3.1.1.1.1.1.1.1.1.3.1.1.:.:.W <.C.{.2X2X-X}.=X=X>X>X-X2X2X>X4X>X<X<XXX|.V.,.,.3.,.' ' ' [ ~ M q 5 6 6 0 0 8 8 q 0 0 0 0 0 0 0 0 0 0 0 0 0 0 0 0 0 0 0 0 0 e 0 0 0 0 e 0 0 0 0 e e 0 0 0 0 u 0 0 0 0 0 0 0 0 0 e 0 0 0 u 0 e u 0 u 6 0 6 6 6 6 9 6 ; ; ; ,. XXX<X:X}.}.:X>X>X}.}.>X<X4X<X>X:X2XiXxXnXAXAXCXCXAXBXCXSXVXSXSXAXSXSXSXAXVXlXqX}.XX<X>X}.{.}.>X}.}.}.:X4X<X>X}.}.>X:X}.>X>X:X>X}.>X>X}.>X>X}.>X>X}.>X}.>X}.>X:X}.}.>X}.<X>X}.}.>X>X>X>X>X}.}.>X<Xn.j.<.:.1.,.1.1.3.,.,.1.,.,.,.,.,.,.,.' [ ,.' 3.[ ' [ ' [ ' ' ' ' 1.' ,.3.,.,.` ,.,.,.' ' ' ' ' ' ' ' ' ,.' ' 1.' ,.' ' ' ' ' ` ` ' ' ' ' ' ' ' ' ' ` ,.' ' :.` ` :.:.,.:.,.,.' ,.' 1.' :.:.3.>.1.,.,.' ' ' { ' ' ' Q Q p.A.&X1X1X:X>X:X=X>X>X>X>X>X=X:X>X>X>X,XS.x.+.,.:.' ,.3.3.d./ t 7 7 7 q q 0 e q 0 q 0 e 0 0 0 0 0 0 0 0 0 0 0 0 0 0 e 0 0 0 0 e 0 0 0 0 0 e 0 0 0 0 0 6 e 6 u e e u 6 6 6 u 6 u ",
"0 0 6 u 0 0 0 0 0 0 0 0 e e e ; > ,.|.$X4X2X}.4X4X}.}.}.<X}.}.}.}.}.$X+XiXxXAXAXAXAXHXFXHXHXSXSXSXSXGXVXVXzXAXnXvX5X+X>X}.>X>X2X>X$X4X2X2X}.}.$X$X}.2X}.2X}.>X$X>X>X}.2X2X>X>X}.2X}.}.2X>X}.>X>X>X>X2X=X>X>X>X>X>X>X=X>X>X>X>X2X>X4X<X{.c.,.,.,.' _ ' ' _ ' ' ' ' ' ' ' :.` ' ' ] ] ] ] ] 1.[ 3.3.1.] ) ] 1.1.1.1.1.:.1.' 1.] 1.1.` 1.:.1.1.1.1.1.0.1.0.1.1.2.1.2.1.2.1.2.0.;.0.0.;.1.1.1.2.2.1.1.1.1.:.,.1.1.1.1.1.` 1.` 1.1.1.1.1.1.:.' :.1.1.' 1.1.:.,.:.W <.C.].<X2X>X=X=X>X=XQ.+X>X2X2X2X4X>X<XXXD.M.,.,.>.1.' ` ' [ ~ M 8 5 7 8 7 0 7 7 0 0 0 u 0 0 0 0 0 0 0 0 0 0 0 u 0 0 0 u 0 0 0 0 0 0 0 0 0 0 0 6 u 0 0 0 e 0 0 0 0 0 0 0 0 e 0 0 0 0 e 0 0 0 0 0 6 0 6 6 0 6 0 0 6 e 8 ; > >.|.XX4X>X}.}.>X<X>X}.[.>X<X<X4X>X>X/.3XpXcXAXAXSXBXBXVXSXVXVXSXVXSXSXSXAXAXzXkXiX+X>X<X>X}.}.{.}.{.W.}.=X>X>X}.}.}.}.}.}.>X}.}.}.}.}.}.:X}.}.}.}.}.}.>X}.}.>X}.}.}.}.}.}.}.>X}.>X>X>X>X>X>X>X}.<X>Xn.f.<.,.1.1.,.1.:.,.1.,.1.,.' 1.1.1.,.' ' 3.' ' ' ' ' 3.' ' ' ' ,.' ` ' ,.' ` ` ` ,.1.' ,.' ' ' ' ' ,.' ' ` ' ' ' ' ' ` ,.` ' ' ' ' ' ` ' ' ' ' ` ' ' ' ' ` ` ,.,.:.,.` :.,.` ,.` :.,.' :.1.:.:.:.:.,.' ,.' ' ' ' ' ' W t.v.D.1X:X=X>X=X>X>X=X>X:X>X>X>X>X>X>X,XF.m.:.` ,.,.3.,.3.3.U t 7 7 7 0 0 e 0 0 0 0 0 0 0 0 0 0 u 0 0 0 0 0 0 0 0 0 0 0 u 6 0 0 0 0 u e 0 0 0 0 0 0 0 6 u e 6 e 6 6 u e u e 6 6 ",
"0 0 e 0 0 0 0 0 y 0 0 0 6 6 ; ; ; -.|.4X4X<X4X<X}.<X}.<X}.}.<X>X>X}.}.+X%XxXnXAXAXAXAXGXHXSXVXAXVXAXVXVXAXzXGXnXvXiX+X2X}.}.}.>X>X2X4X4X4X2X4X>X2X4X2X4X>X$X4X}.4X$X2X<X<X$X4X}.<X4X4X}.4X>X4X<X2X<X2X>X2X>X>X>X2X>X>X2X>X2X>X>X}.>X>X{.j.p.' ' ' Q ` ` Q ` ' W Q ' ` ` ` _ ` ` ` ' ` ' _ _ ' 3.3.1.] ` ] 1.1.' 1.1.` 1.1.1.1.] 1.1.1.1.] 1.1.1.1.1.1.1.0.1.1.0.1.0.2.2.1.2.2.2.2.2.2.2.0.1.2.0.2.1.1.3.1.1.1.1.1.] 1.:.1.` ` ` ' 1.' ` ' :.:.:.1.:.:.,.:.+.o.<.c.{.2X2X/.=X>X=X>X2X>X2X<X4X4X>X<X<XXX|.x.' ,.,.' ' ` 1.[ / M t 5 6 0 7 8 8 0 e 0 q 0 0 0 0 0 a 0 0 e 0 0 0 0 0 0 0 e 0 e 0 0 e 0 e 0 0 e 0 0 e 0 0 0 0 0 0 0 0 0 0 0 0 0 0 0 0 0 0 0 e 0 0 e 0 0 e 6 0 6 6 6 6 e u ; i >.|.XX<X4X<X>X4X<X<X>X>X<X<X2X>X>X}.2X3XpXkXnXAXAXCXAXAXVXSXSXSXSXAXAXSXSXAXVXxXqX}.>X<X>X>X}.}.}.}.}.>X>X4X>X>X}.>X<X<X>X<X<X<X<X<X<X<X<X<X<X<X<X<X<X<X<X<X<X<X<X<X<X4X<X<X}.<X}.<X>X>X>X}.>XXX>X<Xn.l.#.` W :.:.` W ` W ` ` ` ` ` W :.` ' ` ` W ` ' ' ' ' ` ' ` 1.' ' ' ' ,.,.,.W :.1.' ' 1.' 1.' 1.' ' 1.' 1.1.` ,.` 1.' ' 1.,.' 1.:.,.` :.1.,.` ,.1.' ,.1.' ,.' ` ,.1.:.' ` ,.1.1.1.' ` :.:.:.:.:.` ' ,.' Q ' Q Q W E Q Q v.D.:X*X:XQ.>X>X=X1X:X:X>X>X>X>X:X,X.XF.M.,.1.1.1.,.1.3.3.U t 7 5 8 q q q q e 0 0 0 0 e 0 0 0 0 0 0 0 0 0 0 u 0 0 0 0 e e 0 0 e 0 0 0 0 0 u 0 0 0 0 0 6 e 6 6 e u 6 e 6 6 6 @ ",
"0 0 0 0 0 0 y 0 y $ u 0 9 0 5 @ > X.N. X X|.].|._.S.].{.}.XX$X<X}.}.}.}.5XhXvXvXvXlXnXmXnXnXzXVXVXVXGXVXVXVXMXnXvXdX+X2X}.}.<X<X>X4X}.[.{.|.].|.|.|._.[.].|._.].|.].].].|.|.|.].].|.|.|.|.].].].].].].].].].].].{.].}.>X2X>X>X>X=X>X}.R.j.a.y.<.,.#.,.,.#.,.,.,.' #.,.<.,.,.,.#.,.,.' ,.,.,.,.p.d.3.[ ` ' 1.1.1.1.1.1.] ) ( ` _ _ ( ` _ ( ] _ ) :.) ` ) -.` ;.-.;.;.;.-.;.-.;.-.-.;.-.;.-.;.-.;.;.-.;.:.-.) -.-.-.) ` ) ` :.` 1.:.` :.` ] >.2.6.7.7.6.*.7.&.&.h.E.}.2X2X+X=X>X>X:X>X}.}.}..X.X.X{..XF.F.m.` ,.3.,.' ' ] ] / M 8 5 e 8 7 6 e 8 6 0 0 0 0 0 0 e 0 0 0 0 0 e 0 0 0 0 e 0 0 6 u e 0 u 0 0 0 e 0 6 0 0 0 0 0 0 0 0 0 0 0 0 0 0 0 0 0 0 0 0 0 0 0 0 0 e e 6 6 6 e 6 6 0 6 8 1 >.Z._.|..X].|.{.{.{..X<X<X<X>XXX}.2X2X3XaXsXvXnXnXnXvXnXnXAXVXSXSXSXVXSXSXAXVXjX3X+X<X<X<X1X}.}.<X{.].].]..X].].].].|.{.|.{.|.{..X].]..X].|.]..X|.{.|.]..X].].|.{.].|. X].].].].].}.>X>X>X}.}.}.<XXXR.j.a.,.<.>.,.<.,.,.,.,.<.<.>.>.$.,.$.,.,.,.#.Q ,.,.Q p.' ,.p.' ,.` ' ,.,.` :.` ` ` ( ( _ ) ( ( ( ( ( ` ( ( ( ( ( ( ` ( ( ( ( ( ( ) ( ( _ ( ( ( ( ` ( ( ( ( ) ) ( ( ( ( ` ( ( ` ) ] ` :.:.1.:.:.:.:.,.2.@.@.&.%.%.@.O.$.u.R.W.1X=X>X>X>X>X>X}.:X{.:X{.{..X{.G.D.V.m.,.,.,.1.,.1.,.2.U j 7 - 7 q e 0 e q 0 e 0 0 0 0 0 0 0 e 0 0 0 0 0 0 0 0 0 0 0 0 u e 0 0 e 0 0 0 0 e 0 0 0 6 0 e 6 6 6 u u 8 6 e u $ ",
"e 0 0 0 0 0 0 0 0 0 y 9 $ 6 6 5 6 C :.>.>.>.>.>.>.>.>.z.XX$X}.4X}.}.}.}.4X5XgXgXsXaXsXsXsXsXlXlXVXGXVXHXSXAXAXnXvXiX+X}.}.}.}.<X>X2XR.u.@.@.>.@.@.+.>.+.@.>.@.>.@.>.>.@.@.+.>.>.@.@.+.@.+.@.,.>.,.@.+.@.@.+.+.$.,.$.n.>X=X>X=X>X}.>X>XQ.R.v.j.j.c.j.j.j.j.j.x.j.x.j.j.x.j.x.v.j.x.V.j.v.x.j.x.x.M.m.>.:.` 1.1.1.1.1.` / H V H J V J V J V V A J V V V V V V A C A A A A A A A A A A A A A A A A A A U A U A A A A A H V T ( ) 1.1.:.` ` ' 4.z.oX^.^.^.^.^.^.~.~.OX+X2X>X>X=X=X>X>X{.b.j.c.C.C.x.V.V.V.V.d.' ,.3.[ ' ] ] [ T m e 5 5 6 e 8 8 6 6 e 0 e 0 0 0 0 0 e 0 0 0 0 0 0 0 0 0 0 0 0 0 0 0 e 0 0 0 0 0 u e e 0 0 0 0 a 0 6 0 0 0 e 0 0 0 e e 0 0 0 e 0 0 0 6 0 e u 6 e 6 7 0 u 6 8 C ( -.:.>.:.2.>.>.d.c.XX>X>X>X>X:X}.>X3X5XiXgXhXhXgXhXiXsXlXnXSXAXSXAXSXAXAXAXjXiX}.>X<X>X<X}.<X}.n.g.>.,.<.>.>.>.,.>.,.,.>.,.>.>.>.,.>.2.$.,.,.@.,.,.>.,.>.>.,.>.,.@.,.,.>.,.>.8.n.<X>X}.>X>X>X}.>X}.{.k.c.j.c.c.j.c.c.j.c.j.j.x.j.c.x.c.j.x.c.v.v.j.v.j.v.v.f.s.,.' ,.` ' 1.,.:.W T H V V V V m V V m V m V V V N V B V m V V m V V V V N N V V B V m V V V N N V V V V V V V V V J / ] :.:.-.:.:.:.:.l.).[.oX(.OX(.OX(.OX+X2X-X=X:X>X=X>X>X>X{.n.v.v.v.A.v.c.A.x.s.3.1.[ 1.,.,.1.3.2.T t 7 5 q q q 0 0 q 0 0 0 e 0 0 0 0 0 0 e 0 0 0 0 0 0 0 0 0 e 0 0 0 0 0 0 0 e 0 0 u 0 0 0 e 0 6 u e 6 e e 6 6 u 6 6 ",
"0 0 0 y 0 0 y 0 y 0 0 0 0 6 6 6 6 k m C V C M k k v L <. X$X$XXX}.}.{.}.}.2X2X6X6X3X3X3X3X6XsXlXzXVXHXSXSXAXAXnXxXiX$X}.}.<X<X4X4X=Xu.O.F k v m k m k v v z m z m k v m k k v z k m v m m v k z z z v z z z z g D P g.<X>X>X>X>X>X>X>X}.W.{.{.D.].W.R.].{.{.n.{.{.S.{.].].].{.S.].{.{.D.D.D.{.D.S.V.3.:.1.2.1.>.1.1.] U l j t t t n t n b t b a j b a j n j j j p b b b k a b b b p n a a k b b a n p k k a b a a a k k A ) 1.1.1.` ` -.:.4.I.eXjXrXkXrXkXjXpXpXiX3X+X2X}.=X>X1X>X:Xv.y.a.a.d.d.d.d.d.d.3.' ' ,.' [ ] [ 1.~ M e 5 6 8 8 e 6 6 6 6 0 0 0 0 0 0 0 0 0 u 6 0 0 e e 0 0 0 0 0 e 0 0 0 0 0 e 0 0 e 0 0 0 0 0 0 0 0 0 0 e 6 0 0 0 0 u 0 0 e 0 0 0 u 0 e u 6 e 6 6 6 6 0 e 6 6 j m m z M C K m z R a..X<X,X>X>X:X}.}.2X2X2X5X5X3X3X3X3X2XiXnXAXAXSXSXSXSXAXzXlXqX+XXX<X<X2X<X}..Xg.W K z N N N M z m z z z N m m z M N N m z v z N N m z z m z z M z N M M z F I l.4X>X>X}.}.>X}.<X}.}.{.W.].R.R.W.].E.{.].].[.{.{.].W.{.{.].D.W.D.D.W.D.D.D.D.f.d.' W ,.,.,.,.,.( U n b b b b n b b b y n a b b b b b y b b b n b b b b b b b b b b b b b b b n a a a b b b n y n M J ( -.:.:.:.2.:.+.l. XhXcXkXcXcXcXcXjXpXiX2X=X=X=X2X=X1X:X{.v.a.s.s.s.p.p.p.' ,.,.' [ 1.3.3.,.3.2.T t 7 - e e e e q e 0 0 0 0 u e 0 e 0 0 0 u 0 e 0 0 0 0 e 0 0 0 0 0 e 0 0 0 u 0 0 e 0 0 0 6 e 6 u 6 e 6 u e u 6 6 6 ",
"0 y 0 0 0 y 0 0 0 0 0 y 9 6 6 6 e 6 8 ; ; - @ ; + - f X. XXX<X}.}.}.}.{.}.2X2X2X2X2X2X-X-X-XyXpXzXAXFXHXHXSXGXnXvXdX+X}.}.}.XX}.4X>Xu.G 1 * @ ; - ; - @ @ ; - @ @ - @ ; @ - @ - @ - - @ - + * - + - + - - - * * = g $.<X2X1X2X>X}.>X>X>X}.}.}.>X<X>X<X4X<X<X>X>X}.>X}.>X<X,X>X>X,X,X1X<X1X,X,X>X.XA.m.1.,.3.3.1.1.1.` J 8 7 7 q 7 7 q 7 7 7 7 7 7 7 9 6 7 7 6 6 7 6 u $ ; 6 6 5 6 6 7 6 6 ; 6 6 6 6 7 6 6 $ 6 5 6 6 6 7 B ( ) 1.1.1.:.:.+.8._.xXVXSXVXVXAXVXGXvXiX(./.Q.>XQ.:X>X,X&Xy.#.' ' ' ` 1.` ` ' ,.' ' [ [ [ _ ] 1.~ n q ; 7 e 5 e 6 e e u e 0 0 0 0 a 6 0 0 e 0 0 0 u 0 0 0 0 e 0 0 0 0 0 0 0 0 0 0 0 0 0 0 0 e 0 0 0 0 0 0 u 0 0 e 0 0 0 0 0 0 0 0 0 6 0 6 6 6 0 6 0 0 e e 6 5 6 e 5 ; - ; 5 - = g @.XX<X<X<X<X>X>X>X2X2X-X2X>X+XQ.}.Q./.;XxXAXSXAXFXSXAXAXAXjXiX}.}.<X<X>X4XXX}.$.h = * ; - ; - - * - - - * - * - * - - O - + * - - * - - - - - - * - * = - 8 z a.<X>X}.>X}.>X>X>X}.<X$X}.4X}.4X>X4X}.<X2X}.<X<X>X$X<X>X>X>X>X>X,X<X>X1X>X,XG.x.3.' ,.W ,.:.,.,.` H e 0 9 9 9 0 7 0 0 0 7 0 0 0 0 0 9 7 0 7 0 0 0 $ 0 0 0 7 0 0 0 9 0 9 7 0 9 0 0 0 0 0 9 9 9 9 q e V ( ) :.-.:.:.:.:.N.oXMXHXHXSXSXAXGXMXlXiX;XQ.1X=X1X>X>X:Xb.s.#.#.#.Q ' Q ` Q ' [ ,.,.,.' ,.3.3.3.T t 7 5 7 0 0 q q 0 0 q 0 0 0 0 0 0 0 0 0 e 0 0 0 0 e 0 0 0 0 0 0 0 0 0 0 0 e 0 0 0 0 e 0 0 u e e 6 e u 6 6 e 8 6 @ ",
"0 y 0 0 y 0 y 0 0 0 0 $ 9 6 6 6 6 5 6 5 ; 5 ; ; ; ; f >. XXX,X>X}.}.XX{.}.>X>X>X>X2X=XQ.Q.-XiXlXzXnXGXFXAXGXAXnXcXdX+X}.$XXX<X<X<X}.u.G 1 ; ; ; ; ; ; ; @ 6 - ; ; ; ; ; ; ; @ ; ; ; ; @ - ; ; ; ; - - ; - - - * > g $.4X>X2X>X:XQ.}.=X>X>X>X<X>X>X4X>X>X2X>X>X>X>X<X>X>X<X>X>X>X>X>X>X,X,X>X,X<X.XZ.4.1.:.3.3.3.:.:.1.V 7 q 7 7 7 5 7 5 7 7 7 7 7 7 6 9 5 5 6 5 6 6 6 6 5 6 6 6 5 6 6 6 6 6 6 6 6 6 6 6 6 6 6 6 6 u 6 e m ` 1.1.1.3.2.,.>.8.Y.fXVXCXCXCXVXAXGXmXpX@XQ.Q./.Q.:X1X,XD.s.#.W ` ' ' ' ' ' [ ' ` ' ] [ ' ] [ 1.T M 8 5 7 8 8 6 6 6 6 0 0 0 0 0 0 6 0 0 0 0 e 0 0 0 0 u e 0 0 0 0 0 e 0 e 0 0 0 0 0 0 0 e 0 0 0 0 e 0 0 0 0 0 0 0 0 e e 0 0 0 0 0 0 0 e 6 e e 6 e 0 6 0 0 6 6 5 5 5 - 5 5 5 - : j +.XX<XXX>X>X>X}.=X}.>X+X-X>X-X>X-X=X/.;XvXAXSXSXVXSXSXAXAXxXiX[.>X<X1X>X}.<X X<.D = - ; 5 > ; - - - - 5 ; 5 > 5 - > ; - : - 5 > ; ; 5 > ; ; 5 5 ; - ; ; * e C d.,X>X>X>X}.>X>X}.}.<X>X<X4X}.4X2X}.4X2X<X4X>X4X>X2X4X4X>X<X>X>X<X<X>X1X,X>X.Xx.d.' ' :.' ] >.>.` M 5 y 0 0 0 0 y 0 0 0 0 0 0 9 0 y 0 0 y 9 0 $ u y 0 0 0 0 0 0 0 0 0 9 y 0 0 0 9 y 0 0 0 9 9 9 e q V :.2.2.:.:.>.:.+.N.oXvXGXSXSXSXSXAXnXvXiX;X=X>X>X>X>X>X>XD.a.Q Q ' Q ' W Q ` ' ,.3.[ 3.,.3.3.3.2.U t 8 5 7 0 0 q e q 0 0 0 0 0 0 6 0 0 0 0 e 0 0 0 0 0 0 0 0 e 0 0 0 0 0 0 0 0 0 0 0 0 0 0 0 6 e e 6 u e 6 6 u 6 6 6 ",
"0 0 0 y 0 0 0 0 y 0 0 9 9 6 $ 6 6 ; 6 6 e 6 6 6 5 1 z >. XXX<X>X}.}.}.}.}.>X>X2X>X>X>XQ./.2X3XsXzXAXVXGXVXAXGXnXvXaX+X}.<X}.}.>X4X$X&.S 1 i 6 u u u 6 i 6 u u i u e 6 u 6 i u e i u e e u 8 8 8 6 6 i > 8 8 8 - i z a.<X=X>X}.Q.:X}.}.}.}.>X<X>X>X>X>X>X}.>X}.>X}.>XXX}.>X>XXX>X{.}.{.{.:X,X>X,X.XV.d.:.` >.2.3.:.1.-.N 7 7 7 q q 7 q q q 7 7 0 7 9 7 6 6 e e 6 6 6 6 6 6 6 6 6 6 6 6 6 6 6 6 6 6 6 6 6 6 6 0 u u 0 u e N :.1.1.2.3.,.1.:.g.I.cXSXCXCXFXCXAXGXnXiX(./.Q.:X>X=X>X,X{.s.#.W ` ` ] ` ' ] [ ] ' ' [ [ ] [ ] 1.( M e 5 6 6 e e e 6 e e 0 0 e 0 0 u 0 0 e 0 0 0 0 0 0 0 0 e 0 0 0 0 0 0 0 0 0 0 0 0 0 0 u 0 0 u 0 0 0 0 0 0 0 0 0 0 0 e u 0 0 0 e 0 6 0 6 6 e u e 0 a e a e 0 6 ; 5 5 0 e e 7 > g $.XX,XXX{.}.{.}.>X>X=X>X>X2X2X4X1X2X2XiXnXAXVXSXAXSXSXAXVXlXiX+X>X>X>X>X<X<XXXa.F i 5 e e e 7 ; 8 e e 8 8 i 8 u 8 e 8 e u 8 8 e e i 8 8 8 e e i 8 e e 8 - d K l.,X>X>X}.>X}.>X}.}.<X<X>X<X>X}.<X<X}.>X}.$X}.}.<X}.}.}.>X>X>X>X>X>X>X>X,X,X:Xf.,.+.,.:.1.,.,.:.( m 5 $ 9 0 u 0 y u 0 0 0 y b u y u y 0 u b e y b y y u 0 0 b 0 y 0 y u u 0 y 0 u 0 a e y e e e e e K :.:.:.:.:.:.:.R l.#XxXAXAXSXSXSXAXnXlXpX;X2X=X>X=X>X>X{.{.a.#.Q ' ,.,.,.' ,.3.,.,.,.3.3.,.,.3.3.T t 8 : 6 q e q 6 e 0 0 0 0 e 0 u e 0 e 0 0 0 0 6 e 0 e e 0 0 0 e 0 0 0 0 e 0 0 0 e 0 0 0 e 6 u 8 u 6 e e u e 6 6 6 ",
"0 y 0 0 $ y 0 y 0 0 0 0 0 6 $ 0 6 6 5 6 0 e u e 5 8 z :.XX,X<X<X>X}.$X}.}.2X>X>X>X>X>XQ.=X2XiXsXzXAXAXGXzXnXAXnXxXdX+X>X}.}.<X<X4X>X&.G i u 6 6 6 6 u e 6 u 8 6 6 6 6 6 6 8 6 e u 6 6 u 8 e 6 e 6 8 8 8 8 8 7 - 8 D <.}.>X>X>X>X:X}.}.:X>X<X>X>X:X}.>X}.>X}.>X}.>X>X>X>X>X>X>X>X:X}.=X{.:X,X>X<X,XV.4.' 1.1.1.3.1.1._ H 7 q 8 q q q q 7 q 8 7 0 0 7 7 0 6 6 6 0 6 6 6 6 6 6 6 6 6 6 6 0 6 6 6 6 0 6 6 6 6 u a 0 e 0 6 6 N -.1.1.1.' ` +.:.8.I.jXFXBXBXBXCXFXGXnXpX(./.Q.2X>X>X>X,X{.f.,.,.' [ [ 1.] 3.3.[ ' ] [ ] ] [ [ 1.~ M q 5 6 6 6 5 6 6 e 6 u 0 0 0 0 0 0 0 0 0 0 0 u 0 0 0 0 0 0 e u e 0 0 0 a 0 0 0 0 0 0 0 0 e 0 0 0 0 0 0 0 0 0 e 0 0 0 0 0 e 0 0 0 6 e 6 u 6 e e 6 e a 0 0 0 7 6 6 0 a 0 0 6 7 z $.|.XXXX>XXX>X>X:X>X>X=X2X2X2X2X2X4X2XiXnXAXAXSXSXAXAXAXzXkXiX+X<X1X4X>X>X}..X$.D > 5 6 8 8 5 5 5 8 6 8 e e e 7 7 8 8 e 8 8 e e 8 8 e 8 e 8 8 8 e 8 7 6 5 j K a.,X>X>X>X}.>X}.>X>X>X<X>X>X>X>X>X>X>X>X}.>X>X2X}.}.>X}.2X>X$X>X>X>X>X>X>X,X{.x.3.` W ,.` ' ,.1.:.N 5 y 0 y y 0 u u y y u 0 0 y 0 b $ u 0 0 0 y $ u 0 y u y 0 u b y u y 0 u y y u b 9 0 0 9 e q y e U 2.>.:.:.:.:.( :.N.[.vXAXZXSXSXSXAXAXxXpX;X-X=X-X>X=X>X}.{.s.Q Q ' ' ,.,.,.3.,.1.3.3.3.' 3.,.3.3.U t 8 5 7 0 0 q q e 0 0 e 0 0 0 e 0 0 0 u e 0 0 u 0 0 0 0 0 0 0 0 0 0 e 0 e 0 0 0 0 0 e 0 6 e 6 6 e 6 6 8 e 6 e u 6 ",
"y $ y y u 0 0 0 y 0 0 0 0 $ 6 0 0 6 5 6 6 e e e 6 e z :. X,X,X<X<X2X}.}.}.>X>X>X>X>X}.:X:X2XaXsXzXMXzXVXVXzXGXAXvXdX$X$X$X4XXX}.<X<Xu.G d 8 0 6 6 6 e 6 6 e 6 6 e e u 6 u e 6 6 8 6 6 e e u 6 6 6 8 6 8 8 e ; - 8 v <.<X>X>X1X>X2X>X>X>X>X2X>X>X>X}.>X>X}.>X>X>X>X>X>X>X>X>X>X>X>X:X{.:X:X:X>X>X.XA.a.:.:.' 3.>.1.1.1.H 7 t q 8 q 7 q q 8 q q 7 0 0 6 6 e 6 0 6 u 0 0 u u 6 0 6 u 6 6 0 0 0 6 6 6 6 0 0 0 0 e e e a u 7 N -.-.:.' ' ` W W g.I.kXBXFXBXCXSXSXGXnXpX(./.>X=X=X>X>X>X,Xj.<.,.3.[ 3.3.3.3.3.3.[ 3.3.[ [ [ [ ] ~ M e 5 7 7 6 e e 6 u 0 e 0 0 0 e 0 0 0 0 0 e 0 0 0 0 e 0 0 0 0 0 0 0 0 0 6 0 0 u 0 e 0 e 0 0 0 e 0 0 a 0 0 0 0 0 0 0 0 0 0 0 0 0 0 a 6 0 e 0 6 e 0 e 0 0 0 0 9 0 0 a a 9 7 7 7 h ,.|.XX,X,X<X>X>X>X>X2X>X>X>X2X>X>X2X+X3XvXAXAXSXAXHXAXAXnXxXiX}.>X<X<X<X<XXX.X>.D 7 5 7 q 8 8 6 e 8 5 7 6 7 6 7 8 8 e 7 7 8 7 7 6 5 6 7 5 8 5 6 7 8 8 5 5 a K 4.XX,X>X}.<X<X<XXX<X>X>X4X}.>X>X>X>X2X}.2X}.>X}.}.4X}.>X}.}.2X}.}.>X1X>X>X>X.Xj.p.#.` ` #.@.,.:.:.z 6 0 0 0 u $ y 0 0 0 0 0 0 y u $ y 0 y 0 0 b $ 0 y 9 0 0 0 y $ $ y 0 0 0 y $ 0 0 0 y 9 e 9 q e q K :.:.1.>.:.>.o.W l.#XxXAXVXSXSXSXAXAXxXiX3X-X>X>X=X1X:X,X].s.Q Q ' [ ' 3.,.1.,.1.' ,.' 3.' ,.3.3.U t 8 5 0 e 0 0 0 0 q 0 0 0 0 0 0 0 0 0 0 0 0 e e 0 0 0 0 0 u e 0 0 0 0 0 u 6 e 0 0 0 u 0 e 6 e 6 u e u 6 u 6 u 6 $ ",
"0 0 0 y y 0 0 0 0 $ y 0 0 9 0 0 0 6 6 0 0 0 0 0 6 8 z ,.XX,X,X>X<X<X<X}.}.>X1X>X:X:XQ.W.Q.2XiXsXzXzXVXGXVXAXHXGXnXdX+X$X4X4XXXXX<XXXa.G d 6 0 0 0 6 6 0 6 0 0 0 6 u 0 0 0 0 6 0 6 0 0 6 e 0 0 0 u 6 6 e 6 6 6 $ u z g.XX<X4X4X4X1X4X>X1X1X>X>XQ.:X}.>X>X=X}.>X>X>X}.>X:X>XQ.>X}.>X:X}.:X>X:X>X1X{.S.d.,.,.,.,.>.,.>.1.H 8 8 q w 8 8 8 q r 8 q q e 6 6 6 8 6 0 6 e u e u 6 e 6 6 6 6 e 0 e 0 0 0 0 6 6 6 0 0 0 u u 6 6 e m -.+.:.` ` Q W W 8.Y.xXAXSXSXZXAXSXHXzXuX;X-X=X1X=X-X2X1X}.j.2.>.[ [ 3.3.3.3.3.[ ] [ [ [ [ [ ] 0./ n e ; 6 5 8 e 6 6 0 0 0 0 0 u 0 0 0 0 0 0 e 0 0 a 6 e 0 0 0 0 0 e u u 6 0 e 0 0 e 0 0 0 0 u 0 0 0 0 0 e 0 0 0 0 e 0 0 0 0 e 0 0 0 0 e 0 0 e 0 0 0 0 0 0 9 e 9 9 e e e e 9 7 8 l 1.|.XX<X<X,X>X:X>X>X>X>X>X2X2X2X>X2X2X3XvXGXGXGXSXAXAXGXMXvXiX2X<X1X1X1X4X<XXX<.D 8 7 e q t q q e t 8 e e 8 e e e e e q 8 e e e 8 e e e e e e e 8 e e 8 8 t J d.XXXX<XXX<X<X4X4X<X4X<X>X>X>X>X>X>X2X2X}.>X>X>X}.>X2X2X}.>X$X>X$X>X2X>X>X>X].j.a.Q Q #.#.,.,.+.R M 5 0 0 0 0 $ y y y 9 0 $ y 0 y y 9 0 $ y 0 y $ 9 0 y u 0 0 $ y 0 y 0 $ 0 $ y 0 0 y 0 0 9 0 0 0 8 H :.,.,.$.$.,.W W l.`.xXAXAXSXBXSXAXnXlXiX3X/.=X=X=X=X>X,X.Xs.Q ` ' ' 3.3.1.1.:.,.3.3.' 3.' 1.1.1.U t 8 5 0 0 0 0 0 0 e 6 0 0 e 0 0 0 0 u 0 e 0 0 0 0 0 e e 0 0 0 0 0 0 0 0 0 0 e 0 u e 0 0 0 0 u e 6 6 e 6 6 e 6 6 ; ",
"y 0 0 0 y u y 0 0 y y 0 0 0 0 6 6 0 6 0 6 9 0 6 0 e k +.|.XX,X<X1X<X>XQ.}.>X>X>X:XW.W.}.Q.>X3XsXlXAXzXVXVXGXGXGXvXdX+X$X$XXXXXXXXX,Xa.K i 6 0 7 e 0 0 0 0 0 6 6 7 8 0 7 6 0 0 6 0 0 6 0 0 6 0 0 6 e 0 6 0 0 6 5 e N 4. X<X4X4X1X4X1X>X>X>X>X=X}.:X>X>X>X>X>X}.>X}.>X>X}.}.>X:X>X}.>X=X}.:X=X>X:X{.v.d.,.,.,.:.,.,.,.+.H t q 8 8 8 q q 8 q 7 e q e 6 e u 6 u u 6 6 6 6 6 6 u e 6 6 0 6 6 7 0 0 0 0 6 0 0 u 0 a 0 e a e 5 N ` :.,.` ` ` W :.l.oXfXZXSXZXZXAXAXGXzXjXyX-X=X=X-X-X1X$X[.x.>.:.[ 3.[ [ [ [ [ 0.[ [ q.[ [ ] [ [ ~ M q 5 7 e 8 e 6 e 6 0 0 0 0 e 0 0 e 0 e 0 0 0 0 0 0 0 0 0 0 e 0 0 0 e 0 0 0 0 0 0 0 0 0 e 0 e 0 0 0 0 0 0 0 e 0 u 0 0 0 0 0 0 0 0 0 0 0 0 u 0 0 e 0 0 0 e e e 0 9 y y q 9 9 8 M >.|.XXXX<X>X>X:X=X>X>X>X>X2X>X>X2X>X$X3XvXGXAXAXAXAXAXGXMXhX5XQ.>X,X<X<X<X<XXX<.D r 9 e y b b q e e a e e j e e t e e j e a j e a 8 e i e t j e t e e e 7 n U 4.XXXXXXXXXX<X<X<X<X<X4X}.>X>X>X>X>X}.}.>X>X$X+X>X}.2X}.<X>X>X}.>X>X>X>X>X>X{.j.a.,.$.#.,.,.$.:.W z 7 7 0 0 0 y u 0 $ $ 0 y 0 $ u 9 0 0 y 0 0 0 y y u y $ 0 y y 0 0 $ y y y $ 0 0 y $ 0 9 0 0 e 9 8 N +.$.,.<.#.#.o.E 8.[.cXAXBXZXVXSXAXnXlXiX3X-X>X>X=X=X>X,X|.s.Q ' ' ] 1.3.1.' 1.,.,.' 3.' 1.' ' 1.U t 8 5 7 0 0 0 0 0 0 0 0 0 u 0 0 0 0 e 0 0 0 0 0 0 0 0 0 0 0 0 u e e 0 0 0 0 0 0 e 0 0 e 6 6 6 6 u e u u e u 6 6 $ ",
"y y 0 0 y $ y 0 0 0 0 0 0 9 0 9 0 9 6 $ $ 0 6 6 5 8 j -.|. XXX.X}.XX.X].{.>X>X1X:X}.:X:X>X4X3XaXlXMXMXzXvXnXnXvXhX@X[.[.{..X.X.XXX|.p.P d 6 0 0 6 0 0 6 0 6 6 0 0 0 0 0 0 0 0 6 0 6 0 6 0 6 0 7 0 0 0 0 0 0 6 6 a m 2.|..X}.}.{.}.{.W.}.}.}.>X=X>X>X1X>X>X>X}.>X>X}.}.>X>X}.}.>X>X}.:X>X>X:X=X:X{.v.j.<.,.#.#.<.<.,.+.H 8 8 8 8 q 8 8 q q 8 e 8 e 6 6 6 6 6 u u u 6 e 6 u e e e 6 e 6 e 0 e q 0 0 0 0 0 0 e a 0 e e e 6 v :.,.,.,.' Q Q #.l.[.fXAXAXnXkXnXAXAXnXsXyX;X-X;X-X;X;X+X[.h.@.1.3.q.] [ ] 0.[ [ [ [ q.[ [ [ 0.1./ m e 5 7 8 6 8 6 6 e 6 0 0 e 0 e 0 0 0 u 0 0 0 0 0 0 u e e 0 0 0 0 0 0 0 0 0 0 e e u 0 0 0 0 0 0 e 0 u e 0 0 0 0 0 0 e 0 0 0 0 0 0 0 0 0 0 0 0 0 0 0 0 0 0 0 0 9 0 0 e y e e j M :.|..X.X.X,XXX.X{.:X>X>X>X>X>X>X>X2X>X3XhXvXnXnXnXnXnXvXvXhX2XW.:X:XXXXX XXX|.,.H 8 9 y q e y t e e e 8 e e e t e e e e e e e 8 e e e e e e e e e 8 e q 7 e V 4.XX.X.X.X.X.X XXXXX4X<X>X>X}.>X}.>X2X$X>X2X}.>X2X}.}.2X}.}.2X}.2X+X>X>X>X<X{.j.a.a.#.#.$.<.y.$.+.z 7 9 0 9 0 y $ y 0 b y y 0 y 0 0 y y $ y 0 0 0 0 $ 9 0 y $ 0 0 $ b 0 y $ y y 0 0 0 0 y 0 0 0 q 8 D o.,.<.$.,.#.W E u.E.xXAXAXzXzXAXMXnXsXiX;X;X2X-X-X-X2X1X{.g.W ` ] ] ' 1.1.1.' 1.1.' ' ' [ 1.] 1.T e 7 7 6 0 0 0 0 e 0 0 0 0 e 0 e 0 0 0 0 0 0 0 0 e 0 0 0 u e 0 0 0 0 0 0 0 0 0 0 0 0 e 0 6 e e u e 6 6 e 6 0 u 6 $ ",
"0 u $ y 0 0 0 0 0 y 0 0 0 0 0 0 6 0 0 0 0 9 9 9 e e j Y B.V.l.l.x.c.c.l.S.{.>X>X>X:XQ.:X:X2X3X3XiXaXiXpXiXaXhXhX%X[.k.x.x.x.x.V.A.M.Q D a 7 0 0 0 0 0 0 0 0 0 0 0 0 0 0 0 0 0 0 0 0 0 0 0 0 0 0 0 0 e 0 0 0 6 5 6 k R x.x.C.c.c.c.k.x.v.{.}.:X>X>X1X>X>X>X}.>X}.}.>X>X}.>X}.>X:X}.:X}.>X:X:X:X:X:Xb.b.v.v.j.c.v.v.c.x.L t t q q 8 q q 8 8 8 8 8 e 6 e e 6 u 0 6 u 6 u 6 e 6 u 6 0 6 0 e q q e 0 9 0 7 0 e e 0 a a e 0 5 Y N.x.C.j.c.j.c.x.P.}.eXdXfXqXpXdXfXfXsXuXsXuXsXsXuXsXsXdX5XP.>.2.[ [ [ [ q.[ [ [ ] [ [ [ [ [ [ 3./ M q 5 7 6 8 e 6 6 e e 0 0 0 0 0 0 0 0 e 0 0 0 e 0 0 0 0 0 0 0 0 0 e 0 e 0 0 0 0 0 0 0 e 0 0 0 0 0 0 0 0 0 e 0 0 0 e 0 0 0 u 0 0 0 0 0 0 0 0 e 0 0 e 0 0 0 0 9 0 9 9 q y e q 8 z X.B.Z.V.V.c.C.j.j.n.{.=X>X>X}.>XQ.>X>X/.5XaXdXaXhXaXdXaXiX+XE.g.j.x.x.x.V.V.V.` M 8 0 e e y q e e e e e e e e e 8 e e 8 e q 8 e e e e e 8 e e q 8 8 q 9 7 y m 1.Z.V.V.V.C.C.V.V.]..X}.<X>X>X>X>X>X<X>X>X>X>X>X>X>X>X>X>X>X>X>X>X>X>X>X:X:X,XD.n.j.j.j.c.v.v.c.l.K 5 9 $ 0 0 0 0 0 0 y $ 0 0 $ 0 0 0 0 b $ 0 0 y 0 y 0 y 0 0 0 y y 0 0 0 b 0 $ 0 0 y 0 0 0 0 0 e i Y j.c.v.j.c.n.c.j.n.+XdXhXdXpXiXfXhXiXpXpXiXpXpXsXsXsXsXgX4Xz.@.>.1.1.] 1.1.' 1.' ' 1.' ] ] 3.] 1.U j 7 9 6 0 0 0 0 0 0 0 e 0 0 0 0 0 0 0 0 0 e 0 0 0 0 0 0 e 0 0 0 e 0 0 0 0 e u 0 0 0 0 0 0 0 u 6 6 e u 6 e 6 6 6 6 ",
"0 y 0 0 0 y 0 0 0 y y 0 0 0 0 0 0 0 0 0 0 0 0 0 e e a V 1.1.:.+.+.,.>.,.g.R.}.<X>X:X}.W.{.Q.>X/.;X/./././.(.3X+XE.j.$.#.,.#.' t.p.p.H g 8 q e q 0 0 0 0 0 0 0 0 0 u 0 0 0 0 0 0 0 0 0 0 e 0 0 0 0 0 0 e 0 0 9 6 7 u C :.>.<.>.>.,.@.$.l.v.}.>X>X>X2X>X>X>X}.>X:X>X>X>X}.>XQ.Q.>X>X=X>X=X:X>X=X}.:X:X:X:X>X,X>X>X>X.X].:.r 8 8 q q 8 q 8 7 8 0 8 8 0 6 u 0 6 6 u 6 6 0 6 6 u e 6 6 e 6 q e e 0 0 0 7 0 0 0 a a 0 0 a 0 7 :.|.|. XXXXX}.{.}.+X}.+X/././.~./.(.(.;XsXbXbXzXzXMXzXMXvXhXR.6.>.3.q.[ [ q.[ 0.[ [ [ [ [ [ [ ] 0.~ M e 5 6 6 7 6 6 6 u 0 0 0 e 0 6 a 0 0 0 e 0 0 0 0 0 0 0 0 e 0 0 0 0 0 0 0 0 0 e 0 0 0 0 0 0 e 0 u e 0 0 0 0 0 0 e 0 0 0 e 0 0 0 0 0 0 0 0 0 0 0 e 0 0 e 0 9 0 9 9 9 q q 9 9 7 j Y w.4.2.,.,.#.#.#.g.b.{.:X}.}.}.}.}.>X/.2X/.+X+X3X@X(.+X+XE.g.#.Q ,.' $.,.>.>.T M 8 9 q y e q e q q 6 e 6 e 6 e 7 8 8 e 8 8 e 6 7 e e 6 8 e e e 8 8 8 8 7 9 n / 4.2.:.>.<.d.<.$.x.D.,X>X>X>X>X>X>X>X>X>X>X>X>X>X>X>X>X}.>X>X>X>X>X>X>X>X>X>X>X}..X,X>X.X>X<X,XD.E : 6 6 0 0 0 0 0 0 0 y y y u 0 0 y y y 0 0 y 0 y 0 0 $ b 0 y 0 0 0 y 0 y y b y $ y 0 0 0 0 7 8 d :..X}.XX{.{.<X<X>X<X4X2X2X+X+X/.+X/.(.@XfXxXnXAXAXVXMXMXvXhX).>.>.1.1.1.1.] 1.' 1.' ] ' ] ] [ 1.] J t 7 6 6 9 0 0 0 0 0 0 0 0 0 0 0 0 0 e 0 0 e 0 0 0 a 6 0 e 0 0 e 0 0 0 e 0 0 0 0 0 0 0 e 6 u 6 u 6 u 8 e 6 6 u 6 5 ",
"0 0 y y 0 0 y 0 0 0 0 0 0 0 0 0 0 0 6 9 0 0 7 0 7 e b A 0.0.1.:.:.:.:.+.l.n.{.<X>X:XW.}.*XQ.>X>X>X2X=X2X}.}.4X[.].g.#.Q #.' Q ' ' ,.H t 8 8 0 q 0 0 0 0 0 0 0 0 0 0 0 0 0 0 0 0 0 0 0 0 0 0 0 0 e 0 0 0 e u 0 6 0 e C >.,.,.2.>.:.+.:.l.S.XX1X>X1X1X>X:X}.:X}.>X>X}.>X}.>X:X>X}.:X}.:X>X:X=X:X:X:X:X:X>X=X>X:X>X>X>X|.+.d e 8 8 8 q 8 q q q 6 q 8 e 6 0 6 u 0 6 6 u e u 0 6 e 6 6 6 0 0 0 q e q 0 9 9 9 0 0 0 0 0 0 0 6 R  X.X}.}.>X}.}.}.}.}.}.}.}.}.}.}.=X/.-XaXzXFXzXFXFXVXzXvXgXP.@.<.[ ] [ [ ] [ [ q.[ [ [ [ [ [ [ [ ~ n q 5 6 6 6 e e e 6 0 0 0 0 0 0 0 0 0 0 0 0 0 0 0 0 0 0 0 0 0 e 0 0 0 0 0 e 0 0 0 0 u e 0 0 6 0 0 0 e 0 0 0 0 0 0 0 0 0 u 0 0 0 0 0 e 0 0 0 0 0 u 0 0 0 0 0 9 0 y 0 y e e 9 8 j J 2.2.1.:.' :.:.' s.n.}.2X>X>X}.>X>X:X:X}.>X}.+X+X}.}.+X[.c.s.Q ' ' ' :.,.3.1.T M 8 9 9 q 9 q e q e 7 8 7 0 7 6 6 e e e 7 8 8 e 6 6 7 6 7 6 e q 8 8 q q 9 e n U 1.+.:.,.,.2.:.@.d.D.{.>X>X>X>X>X>X>X>X}.>X}.Q.>X>X>X>X>X>X>X>X2X>X>X>X>X:X>X>X>X>X,X>X>X>X<X}.].R - 7 0 0 0 y 0 y 0 0 0 0 $ y y 0 0 $ b 0 y 0 y $ b 0 y $ y y $ y 0 0 0 0 $ $ b 0 y 0 y y 0 7 e 8 @..X}.>X{.{.>X<X>X}.:X}.}.>X>X:X>X}./.@XsXnXGXAXCXFXFXSXnXtXJ.%.>.:.1.1.1.1.] 1.] 1.' [ ] ] 1.] [ J j 7 5 7 0 0 0 0 0 0 0 0 0 e 0 e u 0 0 0 0 0 0 0 0 0 0 0 0 0 0 0 0 0 0 0 0 e 0 e 0 0 0 0 6 e e e e 6 6 u 6 a 6 6 u ",
"0 b 9 u 0 y 0 0 0 u y 0 0 0 0 0 0 0 6 0 6 0 6 0 e e j A 1.0.;.-.-.:.-.+.a.v.{.1X{.:X}.}.:X:X>XQ.>X+X2X>X}.>X4X[.R.a.Q Q Q ' ' _ ' [ J l t 7 0 0 0 0 8 0 0 0 0 0 0 0 0 7 0 0 6 e 6 0 0 0 6 0 0 0 6 e 0 6 0 0 e 7 e a U :.+.-.>.:.:.X.+.l.S.XX1X1X>X1X>X:X}.}.>X>XQ.>X}.>X>X}.>X>X}.Q.:X:X=X>X=X=X=X:X>X>X:X:X:X>X>X,X.X:.r e 8 8 8 q 0 7 0 7 8 e 6 u 0 6 u 6 u 0 6 u 6 6 6 u 6 6 6 e 0 8 e 0 q 0 0 0 0 0 0 e 0 a y u 0 6 ` |..X}.}.>X=X}.:X}.}.}.}.}.Q.}.Q.Q.-X3XsXmXFXFXFXFXVXVXnXhXP.$.,.,.[ 3.[ [ [ [ [ [ 0.[ [ 3.[ [ 1./ m e ; 6 e e 6 6 e 6 6 e u 0 0 6 0 0 0 0 0 0 6 0 6 a 0 e 0 0 0 0 0 e u e 0 0 0 0 0 0 e 0 0 0 0 0 0 e 0 0 0 e 0 0 0 0 0 0 e 0 u 0 0 0 0 0 0 e 0 0 0 0 0 0 0 y 0 9 9 0 y q e 9 q j K 1.1.W W ` ` :.:.g.].}.<X>X}.2X>X>X}.>X:XQ.Q.}.}.Q.}.}.[.R.j.Q ' ' W :.:.1.1.K M 8 9 9 e y q 0 0 8 6 6 6 7 6 6 5 e 6 6 6 7 6 5 6 7 6 6 5 e 7 8 7 q 8 7 q y n T -.` +.,.,.,.` R l.D..X1X>X>X>X:X>X>X>X=X}.>X>X>X>X>X>X>X>X>X>X>X>X>X>X>X>X>X>X>X>X>X<X>X>X<X,XS.I > 0 0 0 0 0 0 y 0 0 y b y 0 0 0 y y $ y b 0 0 y $ $ y y 0 $ b 0 y 0 0 b y 0 y 0 0 0 0 0 0 7 6 r ,..X}.>XW.{.<X>X}.}.W.}.}.>X>X}.Q././.3XhXMXGXSXDXCXFXFXnXeXI.%.@.2.1.1.1.1.] ] ' ' ' ] ' ' ] [ 1.T t 0 9 0 0 0 0 0 u 0 0 a 0 0 0 0 6 0 0 0 0 0 u 0 0 0 0 u e e 0 0 0 e 0 0 0 0 0 0 0 0 0 0 6 6 6 e 6 u e 6 6 6 u 6 $ ",
"y $ y $ y $ y 0 y $ y 9 0 0 0 u 0 0 0 0 0 0 0 9 e e a A 0.1.2.>.2.-.:.o.<.c.{.<X>X}.=X=X}.>X>XQ.2X>X=X2X$X}.4X{.].g.#.#.` Q ' ' [ [ J t 8 q 0 7 0 7 0 7 6 0 7 0 7 0 0 6 6 6 6 6 0 0 7 6 6 0 0 0 6 u 6 e 0 6 6 0 a a C 2.>.>.:.:.:.+.,.l.S.XX>X:X>X>X>X>X:X}.>XQ.:X>X>X}.}.>X}.>X>X>X>X=X:X:X:X:X:X>X=X>X>X>X:X1X>X.X.X+.r e 8 8 q 8 8 0 8 8 e 6 0 6 6 6 0 u 6 0 u 6 0 u 0 6 u a 6 6 0 8 0 7 e e 0 0 0 0 0 e a e e 0 0 6 (  X}.XX{.>X}.}.}.*X}.}.:X:X:X:X}.}./.3XsXmXFXFXFXVXCXVXnXgXP.$.,.,.1.[ [ q.[ 0.[ [ [ [ [ [ [ 0.] / M e 5 7 e 5 e 7 u 0 0 0 0 0 0 0 0 0 e 0 0 0 u 0 0 0 0 0 0 0 0 0 0 0 0 0 0 0 0 0 e 0 0 0 e 0 0 0 0 0 0 0 0 0 u e 0 0 e 0 0 0 0 0 0 0 0 e u 0 e 0 0 0 0 0 0 9 e e 0 y e y e 0 q t U 2.1.` :.:.1.' +.a.].{.4X>X>X>X>X>X:XQ.W.W.:X=X>X>X>X>X{.n.g.,.>.,.:.,.3.>.2.U l 8 9 e e e q e q e e e e e e e 8 e e e e e e e e e e e e e e 8 e q q 8 q y n ~ 1.:.:.:.>.,.+.W N.].{.>X>X>X>X,X>X}.}.>X>X}.>X}.}.}.}.}.}.}.}.}.Q.:X}.:X=X}.>X,X>X>X>X<X<X<X}.].W = 6 6 0 0 9 0 0 0 y $ $ 0 0 0 y $ 0 y $ $ 0 0 0 0 y 0 0 0 y 0 9 y u $ $ 0 0 y $ 0 0 0 9 0 7 u d +.].}.}.{.}.>X}.}.}.}.>X>X>X2X>X>X}./.qXlXnXSXSXDXDXDXSXzXeXL.%.>.:.1.;.1.1.] 1.' ] ] ] 1.] [ ' 1.J j 7 7 0 0 0 0 0 0 0 0 6 0 0 0 e 0 0 0 0 e 0 0 0 0 0 0 0 0 6 0 0 0 u 0 e 0 0 0 0 e u 0 0 e e u 6 u e 6 u 6 6 6 6 u ",
"y 0 y 0 0 y 0 y 0 0 y 0 0 0 0 0 9 6 0 0 9 6 9 9 0 q b A 0.1.:.:.:.:.-.X.<.c.{.4X>X>X}.>X}.=X>X=X+X2X}.2X<X}.$X.X].l.<.,.,.,.' 1.[ ] ! M e q 8 q e e e e 0 6 6 e 6 u 6 e 6 6 u 6 e e 6 8 e 6 0 0 e e e e e e e e i a C -.:.:.:.:.,.:.,.l.S.XX>X:X>X>X{.}.}.:X>X}.}.>X>X}.>X>X}.:X:X=X>X>X>X=X>X:X=X>X:X:X:X:X>X>X}.}.].:.d i e e e e e e e e i e 6 6 u 6 u 0 u u 0 0 u 0 u 6 6 e 0 e e e e e e e e e e 0 a 0 u e e y 0 6 ( |.}.XX}.}.>X{.:X:X}.:X}.:X:X}.=XQ.Q.;XsXvXAXBXBXBXBXSXnXhXP.$.,.q.q.[ [ [ ] [ q.[ [ [ [ [ [ [ 1.T M e 5 5 e 8 8 6 6 6 0 0 0 0 0 0 0 0 e 0 0 0 0 0 0 0 0 0 0 0 e 0 0 0 0 0 0 0 0 0 0 0 0 0 0 0 0 e 0 0 0 0 0 0 0 0 0 e b $ b y $ b 0 0 0 0 0 0 0 a 0 0 0 $ b 0 y 0 e e y y q e q j U 1.1.2.1.,.,.1.W g.n.}.<X>X>X>X>X}.:XQ.:X=X>X:X:X1X=X>X}.n.g.,.,.>.:.:.>.2.2.T l 7 9 e e y q e e q e e e 8 8 e 8 8 e 8 8 8 8 8 e 8 8 8 8 8 e 7 e 8 8 8 8 e M ~ 3.3.2.3.,.>.+.+.l.|.,X>X>X>X>X>X:X>X>X>X=X}.:X}.}.}.}.}.}.}.}.}.}.}.:X}.}.:X>X>X>X>X>X<X<X4X}.{.R > 7 0 0 0 0 0 0 0 0 0 0 0 0 0 y 0 0 0 0 y 9 0 0 0 0 0 y 0 0 y 9 0 0 0 0 0 0 0 0 0 0 0 0 0 7 a j @.].}.>X}.}.4X}.}.}.}.>X<X2X>X>X$X+X+XqXxXzXSXDXDXDXSXSXcXtXJ.%.-.0.1.1.1.1.3.] ' ] ] ] 1.] [ ] [ T a 6 5 9 0 0 0 0 0 0 0 0 e 0 0 u e 0 0 0 0 0 e 0 e 0 0 0 0 e 0 0 0 0 e 0 0 0 e 0 0 0 0 0 6 e e 6 u 6 6 u 6 u e $ 6 ",
"$ 0 0 0 0 0 0 0 y 0 0 0 0 0 9 0 6 9 6 0 6 6 6 6 7 0 n A 0.2.:.2.:.2.2.+.d.n.{.<X}.>X>X>X>X}.:X=X}.:X}.Q.>X>XXX.XS.l.,.p.,.,.3.1.q.0.~ n e q e q e 8 8 e 6 0 e e e e e e a 6 e e e e e u e e e u 8 u i e 8 u e e e e V >.+.-.>.2.,.:.@.l.S.XX>X:X}.:X:X}.>XQ.>X>X>X>X}.>X}.}.>X}.}.}.}.:X:X:X>X>X>X:X>X>X>X>X>X<X<X}.|.+.d 8 e e 8 e a 8 8 8 a e a u e a u a a u u a u a a a a u u e a e e e a 8 e e a e 0 a 0 a a e a e `  X.X}.XX>X}.}.>X:X:X{.:X:X}.:X:X}.Q.;XiXlXAXVXBXBXBXAXvXgXH.@.1.[ ] [ [ 0.[ [ [ 3.[ [ [ [ ] [ 1./ M e 5 7 5 8 8 6 6 a 6 e 0 e e u 0 0 0 0 0 0 0 0 0 e 0 0 e u 0 0 0 0 0 0 0 e 0 0 0 0 e 0 0 0 0 0 0 0 0 e e 0 0 0 0 0 $ b $ y b $ 0 0 0 0 0 0 0 0 0 0 b 0 9 0 0 9 e e e y q e q t V 1.1.:.,.2.3.3.:.s.n.}.}.>X}.}.>X}.:X>X>X>X>X>X:X:X:X>X{.v.s.@.,.' :.W ' ,.,.J l 8 q q q q 9 0 0 q q 0 8 8 8 5 8 8 7 8 8 8 8 6 8 8 8 8 8 6 8 7 7 8 8 8 q t n / q.2.2.,.:.:.:.+.N.|.,X>X>X>X1X>X>X:X>X}.}.}.}.>X}.:X:X}.:X>X:X}.:X>X}.}.}.>X<X<X>X>X}.{.}.<X<X.Xo.> 7 7 0 u y y u 0 y u e 0 e e 0 a 0 a a u a 0 a e u 0 e 0 u a a 0 y u e 0 e a y u 0 0 e a 6 a d ,..X}.<XXXXX}.}.[.}.}.$XXX<X}.}.}.+X+X@XxXnXSXSXSXBXBXZXxXeXr...>.-.1.1.1.] ] 3.[ [ ' [ ' [ ] ] 1.U a 7 5 0 u 0 0 e 0 0 0 0 0 0 0 0 0 e 0 0 0 u 0 0 0 0 0 e 0 u 0 0 0 0 0 0 e 0 0 0 0 e 0 0 e u 6 6 e e 0 e 6 6 e 6 6 ",
"b 0 0 0 0 y 0 0 0 0 e 0 0 0 0 0 6 9 9 7 6 $ 0 9 6 7 a A ;.1.2.:.2.:.2.:.l.c.{.<X}.>X>X2X2X>X>X=X>X>X:X:X>X,X>X.XS.m.,.,.2.3.3.1.0.[ ~ n e 7 7 7 5 5 7 5 5 7 7 5 5 8 7 7 7 8 5 8 5 5 5 9 5 7 7 7 8 7 8 8 8 7 5 5 e 8 V :.-.2.2.-.>.` :.d.D.XX1X,X>X<X>X1X>X>X1X>X>X2X>X>X>X>X<X1X>X>X1X>X>X>X>X>X>X<X<X<X>X<X,X<X<XXX.X+.7 5 5 ; 5 ; 7 5 7 5 5 8 6 6 6 6 5 6 ; ; ; ; ; $ 6 @ ; 6 5 ; 5 ; 5 5 ; 5 5 5 5 5 5 7 5 5 6 7 5 ; X. X.XXX<X<X<X<X<X<X>X<X<X<X<X<X>X$X+X5XhXvXAXAXVXSXSXSXMXhXP.@.,.1.q.] [ q.[ q.[ [ [ [ 1.[ [ [ 1./ M e 5 5 e 6 6 0 6 6 0 0 0 0 0 0 e 0 0 0 e u e 0 0 0 0 0 0 0 0 0 e 0 0 e u 0 0 0 0 0 a 0 e 0 0 0 0 0 0 0 0 u 0 0 0 0 b $ $ y y y 0 0 e 0 0 e 0 0 0 0 0 0 0 0 0 q e e e q e q 7 j V 1.1.:.:.2.,.:.+.s.n.{.>X>X>X>X>X>X>X>X4X4X1X4X>X>X,X>X{.v.s.,.,.:.:.:.,.2.2.K t 8 5 9 q 7 7 7 7 9 7 5 5 8 5 5 ; 7 5 7 8 7 ; 7 5 5 5 7 ; 7 5 7 7 7 7 7 7 e n / 2.2.,.:.:.2.@.,.V.].<X>X1X1X<X1X:X>X>X>X>X>X2X>X2X>X>X2X>X2X>X2X2X>X2X>X>X4X1X4X<X<X<X<XXX4X}..XR = @ 5 5 5 6 5 7 6 $ 6 $ 9 5 5 6 $ 5 $ 5 $ $ ; @ ; ; ; 5 $ $ @ 6 $ 5 $ @ 9 $ 9 5 $ 5 5 @ - ; 5 1 +. XXX<X}.4X4X4XXX$X4XXX<X4X}.}.4X%X$XdXhXnXAXSXSXSXSXAXnXtXL.%.@.2.;.1.[ 1.] 1.] ] 3.] [ ] 3.[ ] U e 6 5 6 0 0 0 0 0 e 0 0 0 0 0 0 0 0 0 0 0 e 0 e 0 0 0 0 0 0 0 0 e 0 0 0 u 0 0 e 0 0 0 0 6 e u 6 6 u u 6 e u e 6 6 ",
"$ y y 0 0 0 0 y y 0 9 0 0 0 e e 6 0 0 0 0 0 9 9 0 0 k A ;.;.:.-.-.:.-.W <.C.{.}.}.>X1X4X4X2X4X>X>X<X>X>X,X,X,X|.S.l.,.3.3.3.1.1.q.] ~ M 8 7 5 5 5 5 ; ; 5 - 5 5 ; - 5 - 5 - 5 - 5 5 - 5 5 5 5 5 5 5 - 7 ; 5 5 5 8 d C :.>.:.:.:.:.+.:.m.F.,X<X,X<X1X4X>X>X1X>X>X>X>X>X4X>X>X2X>X2X<X<X<X>X<X<X>X<X<X<X<X<X<X<X>XXXXX.XE - ; - - ; - - - ; ; ; ; ; ; ; ; ; @ @ - @ + @ + + ; @ $ - - - - - - - - 5 - @ - @ - @ 5 + @ ; + R  X.X}.<X4X4X<X4X<X4X4X4X<X4X<X4X4X2X5XbXMXGXAXAXSXSXHXGXhXR.@.@.1.[ [ [ ] [ [ 0.[ 0.[ [ [ ] q.] ~ M e 5 6 e 8 e 7 u 0 0 0 0 e 0 0 0 0 0 0 e 0 0 u e 0 e 0 0 0 e 0 0 0 0 0 e 0 0 e u e 0 0 6 0 e u 0 e 0 0 0 e 6 e 0 0 $ b b y $ y 0 0 0 0 0 0 0 0 0 0 0 9 0 0 0 0 q e 8 q q q 8 t K 1.:.-.1.1.1.1.:.a.n.}.4X:X>X>X:X}.>X>X4X3X5X1X<X,X,X:X{.v.s.,.>.,.:.1.,.3.,.H t 7 5 7 9 7 7 5 9 7 7 6 5 5 7 > 7 5 7 5 7 7 7 ; 7 7 7 5 > 5 7 7 5 5 7 7 q t M T 3.2.,.' :.:.1.1.N.F.,X>X>X:X:X1X>X1X>X1X2X4X<X2X>X>X2X>X4X>X2X>X4X>X4X>X>X<X>X1X}.<X4X<X4X}..X|.I - ; - - $ - $ @ $ $ 5 @ 5 + 5 @ $ - @ @ @ @ + + @ O @ @ @ @ O O O + + + O + O + O + + O @ O - = +..XXX4X<XXX4X4X<X4X<X$X<XXXXXXX$X4X$X5XhXvXAXGXSXAXAXAXvXfXL.@.-.2.1.1.1.1.3.[ ] ] ' [ ] ] ' ] 1.T j 6 6 9 u u 0 0 0 0 0 0 0 e 0 0 e 0 0 0 0 0 0 u 0 0 e 0 0 0 e 0 0 0 0 0 e 0 0 u 0 0 0 0 0 6 e a 6 6 6 e u 6 6 6 6 ",
"y y 0 0 0 y 0 0 0 0 0 0 y e b e a b n n n m m m m m m ~ 0.2.1.-.-.:.:.X.a.c.{.{.}.>X>X2X2X>X:X{.{.D.D.b.D.D.G.D.A.d.1.3.3.q.1.] q.0./ V n n n n j j n n n j n n n n j n k n j n n j j j n n n n j j n j j j j j l M Y 1.:.,.,.:.:.R +.4.V.G.].D.{.{.{.{.W.b.b.v.n.k.k.k.j.k.k.v.v.k.k.b.v.k.v.n.v.v.c.v.v.n.c.v.C.c.V.,.L U K K C K U K K K A C C Y C L U Y Y Z Y Z Y | -.Y Y Y Y A K C C K U A U C A K C C U C A A U C 2.z.c.C.c.P.P.k.n.P.k.k.k.k.R.P.n.P.P.E.+XdXxXrXrXrXkXrXfXeXL.$.1.1.] [ [ [ [ [ q.[ [ [ [ [ 1.[ q.~ M e ; e e 5 6 6 e 6 6 0 0 0 0 0 e 0 0 0 6 u e 0 0 0 0 0 0 0 0 u e 0 0 0 e 0 u e 0 0 0 0 0 0 0 e 0 0 0 0 u e u 0 0 0 y $ B y B $ B $ 0 0 0 0 0 0 0 u 0 0 0 0 e e n m M M n n t M Y 2.>.1.,.,.,.,.W s.S.>X<X1X=X1X>X>X}.}.[.[.}.W.{.W.D.D.v.c.a.+.1.,.+.1.>.d.,.T l j t n n b n M n n n n n n k n j n n n n n n n n n k j n j n j n n n j b M V / 2.:.1.:.>.,.` :.d.C.S.b.D.D.b.b.W.n.R.R.R.k.k.k.k.k.k.k.k.k.k.k.k.k.k.c.k.k.c.k.j.j.c.c.c.c.j.z.+.v C C A C C A C C A A A A A A C C C Z Y Y | ..Z ....Y X.Z Z Z C C C C C C C C C C C C C C C K v +.x.c.c.c.P.c.c.P.).c.c.c.C.V.c.).).P.[.@XeXpXrXkXrXjXpXeXeX9.@.>.-.1.1.1.] 3.] [ ] ] [ 1.1.' ] ] J j 0 5 6 0 0 0 e 6 0 0 0 e 0 0 0 0 0 0 e 0 0 0 0 0 0 0 0 0 0 0 0 0 0 u 0 0 0 0 0 0 0 0 0 e 0 6 e u e u 6 6 u e 6 @ ",
"0 0 0 0 0 0 0 0 0 0 9 y e e b b n B V A A U A ~ U U Y ) 2.1.1.2.2.1.1.:.4.c.{.{.}.}.}.>X>X=X[.n.v.v.j.f.f.v.A.S.M.,.` ] [ 3.[ 0.0.1.( ! U ! J J U U V U J J U J J J J ! J J J J U ! V ~ J U V A U U J T U U U U T U R :.:.:.>.:.-.` +.3.f.c.c.j.c.A.v.v.j.a.#.$.o.o.E E E o.E o.+.+.#.o.W $.+.+.@.W +.@.+.#.+.@.@.+.$.2.4.8.4.<.4.4.<.<.4.<.8.4.<.8.8.8.8.9.9.z.L.L.L.I.L.I._.L.z.8.6.<.<.4.4.4.d.4.8.4.8.4.4.8.4.4.4.l.<.,.@.,.+.+.+.+.+.+.+.@.X.@.+.+.+.o.o.@.c.I.OX~.Y.Y.!.^.oX_.9.,.0.[ 0.[ q.] [ q.] [ [ [ [ [ ] 0.1.~ n q 5 5 8 8 e 6 u 6 0 0 e u 0 0 0 0 e 0 0 0 e 0 0 0 0 a 6 0 0 0 0 0 0 0 0 0 0 0 0 0 0 0 0 u 0 0 0 0 0 e 0 0 e 0 0 e y $ $ $ $ y $ y 0 0 0 b 0 0 9 y 0 0 0 0 a n A A U ~ U V J T ( w.3.1.1.>.1.:.:.g.S.{.1X4X>X>X>X>X>X}.P.k.k.x.v.j.j.x.x.f.,.W ` :.:.:.3.3.4.` T V J J J J ! J A ~ J J J U U U J T J ~ J J J U J J U T ~ U T J V ~ T J V ~ ~ ` 1.:.:.( :.1.:.+.4.l.j.j.j.j.j.j.j.g.g.$.O.o.o.+.o.o.o.o.o.o.o.X.+.o.o.o.E W o.o.I o.E o.+.o.W $.>.,.>.4.4.8.4.4.4.8.4.8.2.4.4.4.2.8.8.9.L.I._.r.I.L.r.I._.L.9.8.8.8.6.4.8.8.<.8.6.8.8.8.8.<.4.<.2.>.+.+.+.+.+.+.X.+.+.+.+.X.X.X.X.+.@...@.z.I.Y.~.~.~.~.`.oX[.6.X.:.:.] 1.] ] 1.,.] [ ' ' ] [ ] [ 1.U t 7 5 0 0 0 0 e u 0 0 0 0 0 e 0 e 0 0 0 0 e 0 e 0 0 0 0 6 0 0 6 0 0 6 0 0 e 0 0 e 0 0 u 6 6 e 8 6 6 6 u e e 6 6 u ",
"y u 0 0 0 0 0 y e e 0 0 e b e a b A ^ ;.-.-.2.;.:.-.) :.1.2.1.-.:.1.:.:.4.c.].{.}.:X>X>X>X}.{.l.a.<.,.<.p.,.p.3.3.2.3.] 1.[ 0.[ q.q.1.) ] ) ] ) ;.) 1.) ) _ ) ] ) ) ] ) ) ) ) ] ) ) ) ] ) ) ] ] ) ] ] ) ;.) 1.-.( :.1.1.:.:.1.1.:.:.` 1.,.<.<.<.<.<.<.,.,.P S r > 7 , 8 8 2 8 d > 8 8 r 8 > i 8 8 7 8 r 8 8 r 8 r d g @.|.]..X].]..X|.].].].].[..X XXX X X#X%XdXcXnXcXcXtXtXfXdXeX$X[.].|.|..X].|..X.X|.|.]..X]. X{..X X4.F j 8 i i i i i i i i i i i i 1 1 > f I @.@.@.@.@.%.>.5.<.,.:.] 0.[ q.[ [ [ [ q.[ 1.[ [ [ [ [ 1./ M e 5 5 6 8 e 6 e 6 0 e 0 e 0 e 0 0 0 0 0 0 0 0 0 e 0 0 e 0 0 0 0 0 0 0 0 0 0 e e 0 0 0 0 0 0 0 e 0 0 0 0 0 0 e 0 0 B $ y $ $ y $ $ y $ 0 $ $ y 0 0 0 0 0 0 V ^ ;.0.] 1.) ] ) 1.:.1.2.3.1.1.1.1.+.d.W.>X1X1X>X>X>X=X>X{.h.<.<.4.<.,.p.p.,.,.,.:.1.:.1.1.3.2.2.3.` ) _ ) ] ) _ ] ) ] ] ] ) ] ) ] ] ) ) ) ] ) ] ] ] ] ) ) ] ) ) _ ) ] ) ] ) ) ] 1.1.:.:.:.:.:.` :.,.>.#.<.,.#.Q #.@.+.P h d i d i > i 8 1 i > i 1 > 8 1 > > > > > 1 8 1 i i > d v 2. X|.{. X X X X X X X X X.X X X X X[.%XhXfXcXtXtXcXtXxXhXdXoX[.[._._. X|. X[.|._. X X|. X|. X|.|.:.z f i i u i 8 i u i i u i i u 8 i 1 k I +.%.@.%.@.%.@.<.>.,.:.` ` ' ] ` ] ] 1.' ] 1.] [ ] [ ] 1.U j 0 5 0 0 0 0 0 0 0 0 0 0 e 0 0 0 0 0 0 0 0 0 0 0 0 e 0 0 0 0 a 0 0 0 0 0 0 0 0 0 0 0 e 0 6 u 6 u 6 e 6 e 6 u 6 $ ",
"9 0 0 0 0 0 0 0 0 0 e e e e e e e A ;.1.1.>.2.1.:.:.2.1.2.1.1.2.2.1.:.` d.S.|.>X}.}.}.}.:X>X].g.,.W :.,.' ' 3.3.3.,.1.1.1.1.3.1.1.0.0.1.0.1.1.0.1.0.0.1.0.0.0.0.0.0.1.0.0.1.0.0.[ 0.0.0.1.1.1.0.1.0.1.1.1.1.1.1.1.1.1.1.:.:.1.1.1.:.:.:.:.1.' ` ` :.1.:._ H r 7 - - 5 5 - 5 5 5 5 5 5 - 5 5 - 9 - 5 5 5 5 5 - 5 - 5 > W .X>X4X>X<X2X<X>X<X}.<X<X+X4X4X4X+X3XaXvXGXHXDXHXSXSXAXnXvXdX$X2X>X<X>X>X>X<X2X>X<X4X>X4X4X4X4X4X8.f ; O ; $ 6 @ 6 $ 5 5 $ 6 $ 5 5 $ o 8 A ( ` ` W ` ` ` ' ' ` ' [ [ [ [ 0.[ 0.[ ] [ 1.[ [ [ [ [ 3.~ M e 5 7 e 7 e 6 6 e 6 0 0 0 0 u 0 0 0 0 0 e 0 0 0 0 0 0 0 0 0 0 0 e 0 e 0 0 0 0 0 0 6 0 0 0 0 0 0 0 0 0 0 0 0 0 0 0 $ $ B $ $ B B $ y u y y u y u $ 0 0 0 0 ~ ;.1.0.0.1.1.0.1.1.1.1.3.3.,.:.1.,.W j.R.:X4X>X1X2X>X>X>X].<.,.1.>.,.3.3.3.,.,.,.1.,.1.,.1.,.,.1.3.1.1.1.1.0.1.0.1.1.1.1.0.1.0.1.0.1.1.1.1.0.1.0.1.0.1.1.1.0.1.1.0.0.1.1.1.1.1.1.1.1.1.:.:.1.:.:.:.1.' :.:.+.W W ` :.R K 7 - 5 - $ $ $ $ $ $ 5 $ $ $ $ $ 5 5 5 $ 5 - ; - 5 - + 5 g 2.}.4X$X4X4X4X4X4X4X4X4X4X<X<X<X$X@X@XdXvXAXSXDXSXSXSXSXnXhX3X+X+XXX}.$X<X$X}.<X$X4X}.4X<X$XXX}. X>.a 6 5 $ 5 6 5 5 5 9 5 $ $ 5 5 5 5 ; i K Y W W W :.W ` ( ( :.) ` ] ] ` ] ] ' ] [ [ ' [ ] [ ] ] ] U a 7 5 0 0 u 0 0 0 e 0 0 0 u 0 0 0 e 0 0 e u 6 0 0 0 0 0 u 0 a 0 0 0 0 e 0 0 0 0 0 e 0 0 0 e 6 6 e e u 6 u 6 8 6 5 ",
"0 0 0 0 0 0 0 0 y 0 e e e e e 8 e V ^ 1.>.:.>.:.:.:.-.:.1.1.1.1.-.1.-.:.<.S.{.XX}.}.>X}.}.:X{.d.:.:.2.1.1.1.1.3.3.3.1.,.1.3.1.1.3.1.1.1.0.3.0.1.0.3.1.0.0.0.0.3.1.1.0.1.0.1.0.0.0.0.1.0.1.1.1.1.1.1.0.3.1.1.1.2.1.1.1.1.,.1.1.>.1.:.1.1.,.:.,.1.1.,.] [ 1.T t 8 5 9 9 0 9 e y e 9 e 9 e 9 0 9 9 e q 9 9 e 9 0 0 5 5 8 +.XX>X1X>X>X>X>X>X}.>X}.>X>X>X2X}././.iXjXzXSXCXBXAXSXAXMXvXdX/.2X>X1X>X>X>X<X>X1X>X>X>X4X>X2X4X<X<.g 7 @ 6 a u y u y y y y y u y a 0 $ t U ( [ [ [ ] [ ] [ [ [ ) [ [ [ [ [ [ [ [ [ [ [ [ [ 1.[ 0.[ ^ M q 5 5 e e 8 6 6 6 6 0 0 0 0 0 0 0 0 0 0 e 0 0 0 6 0 6 0 0 0 0 0 0 0 0 0 0 0 6 0 0 0 0 e 0 0 0 0 0 e 0 0 0 e 0 0 0 0 0 0 0 $ B $ $ y y y $ $ y $ $ B B $ $ A ;.0.0.1.1.3.1.1.3.,.2.3.1.:.:.:.1.+.s.W.>X<X1X>X>X>X>X>X].a.1.1.,.1.3.1.3.1.1.3.1.1.1.,.:.>.3.3.1.1.1.2.1.1.1.3.2.3.1.1.1.1.0.1.0.1.1.[ 1.0.0.1.1.1.0.1.0.1.0.1.0.1.0.1.1.1.;.1.1.1.:.:.2.1.:.:.:.:.2.:.+.' W W :.( :.~ 0 b $ $ $ y $ 6 9 $ y $ $ u y y 9 0 0 0 0 0 e 0 7 5 - 6 f <.$X>X>X4X4X>X2X>X>X}.$X>X}.}.}.$X/.(.iXnXGXSXSXSXBXSXAXMXmX3X/.+X>X4X}.>X}.2X$X>X4X>X2X<X<X$X}.XX:.a 0 $ 0 0 b 0 y 0 a 0 u y u y a 0 7 k ~ ( ` W ' ` ' ] [ ] [ ] ] ' ] ] ` ] ' [ ] ] ' ] ' ] [ ] 1.U j 7 5 6 0 u 9 0 0 e 0 0 0 0 u e 0 0 0 0 0 0 0 0 u e 0 0 e 0 6 0 0 0 e e u 0 0 0 0 e 0 0 e e 6 6 u e e 6 6 6 u 6 6 ",
"0 0 0 0 0 0 0 0 e e e e e 9 e e e V R 2.1.2.:.:.:.:.>.:.1.1.:.2.:.-.-.` d.C.{.XX>X>X:X,X,X>X].l.:.` :.1.1.1.1.1.1.3.1.1.1.1.1.3.1.1.2.3.1.3.3.3.[ 0.1.[ [ 1.3.0.3.0.0.[ 3.0.[ 3.[ 3.1.[ 3.1.3.1.0.1.1.q.1.3.1.3.,.1.3.1.1.1.1.1.1.1.1.,.1.1.3.1.1.3.3.1.1./ n t 9 9 9 0 e e y e e y e y e e y e e e e y e y q 0 5 5 1 o.{.>X4X>X2X1X2X>X>X>X>X>X<X<X>X+X+X+XiXpXnXAXSXBXBXSXAXnXvX3X/.+X>X>X>X:X>X>X>X<X>X>X4X>X1X1X<X4X<.z 8 5 0 0 y 0 y y 0 u 0 u 0 y e e 5 e ! ) 0.[ [ [ [ ] [ [ [ [ [ [ [ 0.[ [ 0.[ 0.[ q.[ [ [ [ ] [ ~ M e 5 6 6 8 8 6 u e 0 e 0 0 0 0 0 e 0 0 0 0 0 u 0 0 0 0 0 0 e 0 0 0 0 a 0 0 u 0 0 0 0 0 0 0 e 0 0 e 0 0 e 0 u 6 e 0 0 0 0 b y y $ B $ u y u y $ B $ $ $ $ b A ;.1.1.1.1.1.3.1.1.1.1.2.:.1.:.:.:.#.g.n.,X1X<X>X>X=X1X>XD.d.,.1.1.1.1.1.1.1.,.1.1.3.1.1.1.1.3.1.1.2.3.3.1.3.3.1.1.1.1.1.1.q.1.1.3.0.1.0.3.1.1.0.3.[ 0.3.1.3.1.3.1.3.1.1.1.1.1.:.1.:.:.:.:.1.:.1.:.:.:.:.:.,.` W :.:.:.U b u $ y y $ $ 0 0 0 y b y $ y u 0 u y e 0 e e 6 a 6 ; 6 k <.XX>X>X>X>X<X<X<X<X<X>X>X}.}.}.2X+X@XpXnXnXSXSXSXSXCXGXzXsX;X/.+X$X>X$X$X}.}.4X>X$X$X<X<X<X<X}. X>.a 0 9 0 0 0 0 b 0 0 0 y u 0 e 0 0 0 k ~ W ,.,.,.,.3.3.3.3.3.1.] ] ' ' ] ] ] ] ' [ ] 3.] [ ] [ ] U e 8 5 6 0 0 0 0 0 0 0 0 0 e e e u 0 0 0 e 0 0 0 0 0 0 0 0 0 0 6 0 0 0 0 0 0 0 0 0 6 0 0 u 6 e 6 e u 6 u e 6 e u $ ",
"0 0 0 0 0 0 0 0 0 9 0 q y e e e e V ( :.:.+.:.+.X.` -.1.2.2.:.1.:.:.:.:.d.S..X<X>X}.}.:X>XXX].d.>.1.:.:.:.1.3.1.,.1.3.3.1.3.1.3.1.3.1.3.1.1.3.0.1.0.1.0.3.1.3.1.1.3.[ 3.3.1.1.3.1.q.0.[ 1.1.2.1.1.1.1.1.1.1.1.3.1.1.1.,.,.,.1.1.1.1.,.1.1.1.1.1.3.1.3.3.3./ l t 0 0 0 0 e y e e e e e e y e e e e e e e e e e q 5 5 8 +..X}.4X>X>X<X<X>X>X>X>X>X>X2X4X2X2X@XdXlXnXAXSXVXAXCXGXnXvXiX+X}.>X>X>X>X>X>X>X1X1X2X>X>X>X>X>X<X<.z 8 ; 9 u 0 y 0 u 0 y 0 y y 0 e 0 7 t ~ ) ] _ [ ] ] ] [ [ [ [ [ [ 0.[ q.[ [ [ [ q.[ [ [ [ [ [ ] ~ M q ; 8 7 e e 6 6 e u 0 0 0 u e 0 0 0 e 0 0 0 0 0 0 0 0 0 0 u 0 0 e 0 6 e 0 0 0 0 0 0 0 u e 0 0 0 0 u 0 0 0 0 0 0 0 y $ 0 $ $ $ $ b b $ y $ y b $ b b $ y b U ;.1.1.0.2.3.3.1.2.3.1.,.,.1.:.:.1.+.d.R.>X1X1X1X>X>X:X>XG.d.] 1.3.3.1.1.3.1.1.,.1.1.3.,.1.,.1.1.1.1.3.1.1.1.1.1.3.1.3.1.1.0.1.1.3.3.3.3.1.1.3.[ 1.0.1.1.0.3.3.0.3.1.3.0.1.1.:.1.:.:.:.:.1.:.:.:.:.:.:.' :.,.' ` :.,.1.U a b $ y $ b $ u y u u y u b u a a e u e a e e a a 6 6 e k 2.}.}.{.}.>X<X>X,X<X>X4X4X2X>X4X2X3X;XpXvXAXAXCXAXBXVXAXMXsX3X-X+X>X>X}.4X4X>X>X2X>X>X2X<X4X4XXX X:.a 0 $ 9 0 9 0 $ 0 0 0 0 7 0 0 0 0 7 n / ` :.,.,.3.3.3.3.3.3.[ ] ] ] ] ' ] [ ' ] ] ' ] ' ' [ ] 1.U j e 5 6 0 0 0 u e 0 0 0 0 0 0 0 0 0 e 0 0 0 0 0 e 0 0 0 0 0 0 e u 0 0 0 0 0 e a 0 0 0 0 0 6 u e e 6 6 e u 8 u 6 6 ",
"0 0 u 9 0 0 0 0 0 e e 0 9 e e q e V ( :.:.:.>.:.:.2.:.:.1.2.1.-.-.-.:.-.4.C.{.,XXX>X>X}.>X>X|.d.:.1.:.:.:.1.1.3.1.1.1.1.1.2.1.1.1.3.1.1.3.1.1.1.3.[ 1.[ q.1.1.1.1.3.0.1.[ 0.1.1.1.1.1.3.3.1.3.1.1.1.3.1.3.3.1.1.1.3.3.3.,.1.,.3.1.1.1.1.3.,.1.3.[ 3.[ 3.] T t 8 7 9 9 9 9 e e e e 9 e q q e e e e e e e e e q 0 5 7 d +.{.>X2X>X>X>X>X>X>X>X}.}.}.}.>X}.+X@X3XfXvXGXAXVXVXZXAXnXmXiX+X+X>X1X>X>X>X>X>X<X>X>X<X>X>X>X>X,X>.z i 5 0 0 0 0 y 0 0 0 0 0 0 0 q 0 9 e ! _ [ [ [ ] ] [ [ ) [ [ [ [ [ [ [ [ 0.[ [ [ [ [ [ [ [ [ 0.~ M e 5 5 8 6 e q u 6 e 0 0 e 0 0 e 0 u 0 0 0 0 e 0 0 0 u 0 e e 0 0 0 0 0 0 0 0 0 0 e 0 e 0 0 0 0 0 0 e 0 0 0 0 e 0 0 y b $ b b $ b $ $ b $ b $ b $ $ $ b $ b A ;.1.2.2.3.2.3.3.3.3.3.3.2.1.1.:.1.#.s.S.<X1X<X>X>X>X>X>XG.d.>.:.1.1.1.1.1.1.3.1.1.3.,.3.,.3.,.3.,.1.1.1.3.1.3.1.1.1.1.1.1.3.1.1.[ 0.1.0.3.1.1.3.1.3.3.3.[ 0.1.3.1.1.1.1.1.1.:.2.1.1.:.1.:.1.1.:.:.:.:.:.,.,.+.` ,.,.1.T j b b $ B $ b 0 0 y 0 0 0 0 y 0 0 e 0 e e 0 u 6 6 6 6 i k 4.XX}.}.{.XX>X}.<X>X>X<X<X$X$X2X2X@XyXpXnXnXAXSXNXVXVXAXvXsX;X/.+X}.}.2X}.}.$X$X<X<X<X<X$XXXXX}. X2.j 0 $ 0 0 0 0 0 0 0 0 9 0 0 0 6 7 7 k T ` ` ,.' [ 3.[ 3.[ 3.] [ ' ] ' [ ] ] ] 3.[ 1.] [ ] [ ] 1.U j 8 5 6 u 0 0 0 0 0 0 e 0 0 0 0 0 0 0 0 0 6 a 0 0 0 0 0 0 e 0 0 e 0 0 0 e 0 0 0 0 0 0 0 e 6 e u 6 u 8 6 6 e 6 6 6 ",
"0 0 0 7 0 6 6 9 q e e 0 e e 8 8 8 H R :.,.,.+.>.:.:.+.:.:.:.:.:.:.:.:.R a.C..X,X>X,X,X>XXX,X].d.>.:.:.1.1.1.1.>.1.1.1.1.3.,.1.1.1.1.1.1.1.3.1.3.1.1.1.3.1.3.1.1.3.1.3.1.1.3.2.3.1.1.3.1.1.1.3.1.3.2.3.1.1.1.1.3.1.,.3.1.,.1.3.3.1.1.1.3.1.2.,.[ 3.3.[ ] [ T l 7 9 7 9 9 0 q q 0 9 q 0 0 0 0 0 9 0 e 0 e 0 e 0 7 6 7 i W {.>X4X>X>X>X>X>X>X2X}.Q.E.}.+X+X/.@XiXpXnXAXVXVXAXNXAXnXvXiX/.}.>X>X>X>X>X>X<X<X<X<X<X>X}.<XXXXX2.h 8 5 0 0 0 0 0 y 0 0 0 y 0 0 0 0 7 n / ) [ [ _ ) [ [ [ [ [ [ [ [ [ 0.[ [ [ [ [ [ [ [ [ [ [ 0.3./ M e 5 5 e 6 8 6 6 0 6 0 0 u e 0 0 0 e 0 0 0 0 6 a 0 0 0 e u 0 0 e 0 e 0 0 0 0 0 0 0 0 0 0 e u 0 e 0 0 0 0 0 0 e 0 0 0 0 0 0 u y $ b $ b y b $ b b $ $ b 6 8 K -.1.1.3.,.>.3.:.:.>.>.:.:.:.:.:.,.+.s.S.}.<X<X<X<X>X>X,X|.d.1.1.2.3.1.,.1.1.3.1.1.1.3.1.,.3.3.3.1.1.1.1.1.3.1.1.1.3.,.1.1.1.1.3.[ 3.1.2.3.1.1.3.1.1.1.1.1.1.q.1.1.3.3.1.1.1.1.2.:.:.:.:.2.:.1.:.1.:.:.,.,.,.' :.:.:.1.T a a u y $ b $ B $ b y 0 $ b $ 9 0 0 6 e 6 6 8 6 6 8 6 i k >.<X}.}.}.}.>X}.}.>X4X2X4X+X+X$X2X3XiXpXnXzXAXVXNXSXAXAXxXsX;X-X>X2X>X>X4X}.>X<X<X}.XX4X$X4X<XXX X>.a 0 6 0 0 0 0 0 0 0 0 0 e 0 0 0 0 6 j T ( 1.' :.1.' 1.[ ] ] 1.' ] ' ] ] ] ' ] ' [ ] ' [ ] ' ] 1.J e q 5 6 0 0 0 0 0 0 0 0 0 e 0 0 0 0 0 0 0 0 0 0 0 0 e 0 0 6 a 0 0 0 0 0 e 0 0 6 0 0 0 0 6 0 6 e u e u 6 8 6 u 6 @ ",
"0 0 0 0 0 9 6 6 0 0 8 7 > 7 7 8 8 M R :.+.o.+.+.+.+.W +.:.>.:.:.X.:.:.W a.C.XX<X,XXXXX>XXXXX|.d.1.1.2.1.:.1.1.:.1.,.1.3.1.1.3.1.3.1.,.1.1.2.1.1.1.3.1.1.1.3.1.3.[ 0.1.1.1.1.1.1.1.3.1.1.1.3.1.1.1.1.1.1.1.3.1.1.1.3.3.,.3.3.3.3.1.,.1.1.1.1.1.3.1.' [ 1.[ T t q 9 9 0 0 0 q e e e e e e q e q e e 9 e e e 9 e 0 7 8 i @.{.}.1X>X>X>X}.:X>X2X>X+X/./.+X+X@X7XiXsXxXAXVXNXNXSXAXnXvXiX/.2X>X1X>X:X<X<X<X>XXXXXXX<XXXXXXXXX<.k 8 7 0 e 0 y b 0 y 0 u 0 y 0 0 0 q n / ) q.[ [ [ [ [ [ [ [ [ [ q.[ [ [ [ q.[ [ 0.[ [ [ [ 1.] 1.T M e 5 7 7 6 8 6 e 6 e 0 0 0 0 0 0 e 0 0 0 0 0 0 0 0 0 0 0 0 0 0 0 0 0 0 0 0 0 e 0 0 0 0 0 0 e 0 0 0 0 e 0 0 0 0 0 e 0 0 9 y u $ y $ $ $ $ $ b $ $ $ $ y 5 7 V R ` 1.1.:.:.,.:.1.,.:.,.:.+.:.o.+.o.a.n.{.,X,X>X,X.X,X.XG.a.,.1.1.1.,.1.1.1.3.1.,.1.3.3.3.,.3.,.1.,.1.3.1.3.1.3.1.1.1.3.1.3.3.1.0.3.1.1.1.1.3.1.1.3.3.1.3.1.1.3.1.1.1.1.1.1.1.1.1.:.1.:.1.1.1.1.:.:.:.` ,.,.` W ,.1.:.U a e e b $ $ b $ y $ $ $ b $ b b 0 0 0 6 6 6 6 8 e ; ; a k <.}.>X>X2X>X4X}.}.}.4X+X3X+X/./.@X@XyXjXnXAXAXAXNXAXVXAXvXhX;X/.Q.>X}.$X}.}.<X$XXX XXX4X<XXX4X X X2.i u 6 9 y y 0 0 0 0 0 0 0 0 e 0 0 7 b ~ ) 1.1.:.` 1.3.3.] ] ] ' ' ] ] [ ] 1.[ ] ' ] 1.] [ ] ] 1.T a e 5 0 0 u 0 e 0 0 0 0 0 0 0 e 0 0 e 0 0 0 0 0 0 0 0 0 0 0 0 0 0 0 e 0 0 0 0 0 0 0 0 0 e e u 6 e 6 6 u e 6 e 6 6 ",
"0 0 0 0 9 9 9 u b b n k k j j j z T 3.d.d.a.4.d.<.4.<.4.<.l.4.d.4.d.4.a.l.S.].|.].S.].].G.].Z.4.:.;.:.:.1.1.1.1.2.,.1.1.1.,.1.1.3.1.,.1.3.1.3.1.1.1.3.1.3.1.3.1.3.3.1.1.3.3.1.1.1.1.3.3.1.1.3.3.1.3.,.1.1.1.1.3.3.1.1.3.3.1.1.>.3.1.1.1.3.1.1.3.3.3.[ 3.[ T M t 7 9 0 9 q y e e y q e e e e e y e e e e e e e 0 7 8 r +.[.>X>X>X>X>X}.}.>X2X6X5X3XiX3XiXiXiXfXlXnXAXVXVXAXCXAXnXmXiX/.+X>X1X>X>X<X>X{.n.g.j.j.c.x.x.c.B.` k u 5 e e y 0 0 y 0 y y y 0 0 y e 0 b ! ! ! _ _ ! ) ! ! _ ) 0.q.[ [ [ 0.[ [ 0.q.[ 0.[ [ [ [ [ [ / M e 5 7 6 e e 6 6 6 6 0 0 0 e 0 0 0 0 0 e 0 e 0 0 0 0 0 0 e 0 0 0 0 0 0 0 u 0 0 0 0 0 0 0 u 0 0 0 e 0 0 0 0 0 0 0 0 0 0 0 0 y 0 $ b y $ y y B b b b b b n k Y 2.d.m.d.d.d.d.d.d.d.d.l.d.d.d.d.s.a.j.c.v.n.S.D.S.S.S.D.V.3.>.1.,.1.1.2.1.,.1.1.1.1.1.1.,.3.1.1.3.1.1.3.1.1.1.1.1.3.1.1.1.1.1.3.1.1.1.1.3.1.1.1.3.1.1.1.3.1.1.3.1.,.1.1.1.1.1.1.:.1.:.1.1.1.:.:.1.:.:.,.:.,.` :.+.1.:.T 8 8 e $ b y $ $ B b $ $ b b y e 0 u e 6 6 7 6 6 6 6 6 e f <.XX$X>X>X4X2X$X$X$X3X5XdXiX3X3XiXiXpXkXnXAXNXAXBXSXAXAXnXsX3X/.$X}.>X$X}.4XXX[.].g.z.C.c.x.B.z.N.Y 6 6 9 6 $ y $ b 0 0 0 0 0 e 6 0 0 6 a V T ( ( T T U T T T ` ] ] [ 1.[ ] [ ] ] [ ] ] ] [ [ ] [ ] U j 7 6 6 0 0 0 0 0 0 e 0 0 0 0 0 0 0 0 0 0 0 u 0 e 0 0 0 0 0 0 e 0 0 0 0 0 u 0 e 0 0 0 0 6 6 u 6 u 8 6 6 u 6 u 6 5 ",
"0 0 0 0 6 0 b n A ^ T ~ R ^ R Y R 4.Z.|.|.|.].|.|.G.|.|.|.|.|.|.|.|.|.|.].C.x.l.d.l.s.g.d.d.d.:.:.:.:.1.1.1.2.3.1.1.3.1.1.1.1.3.1.1.1.1.3.1.1.1.3.1.3.1.2.:.1.1.1.1.1.3.1.1.1.3.3.1.1.1.3.1.1.1.1.1.1.1.3.3.1.1.1.1.,.1.1.1.1.1.3.1.,.1.1.1.1.[ 3.3.[ 3.[ T t t 6 9 0 0 e e e e e e e e e e e e q e e e e e e q 8 8 d @..X}.2X>X>X>X}.=X4X3XhXhXsXhXvXvXlXlXxXnXnXSXAXAXAXAXAXMXvXiX/.+X>X<X>X>X>X[.j.$.S F G L G G L K K z 8 7 0 0 0 0 0 0 0 0 0 0 0 y 0 0 7 0 y n M M M M n n M M ) ] [ [ [ 0.[ [ [ [ [ [ [ [ 1.[ [ [ 1.~ m e 5 6 6 e 8 6 u e 0 0 e 0 0 0 0 0 e 0 0 0 0 0 0 0 0 e 0 0 0 0 e 0 0 0 e e 0 0 0 e 0 0 0 e 0 0 0 0 0 0 0 e u e 0 0 0 0 0 u 0 0 b $ b b B ^ ;.^ ;.^ ) ^ ^ Y 4.Z.F.|.|.|.|.|.|. X|.|.|.|. X.X].|.|.C.l.g.g.a.a.a.a.a.a.d.,.3.1.1.3.,.3.1.1.1.1.3.,.1.1.1.1.1.1.1.1.3.1.1.3.1.,.1.1.1.3.2.3.1.1.1.3.1.1.3.1.3.1.1.1.3.1.1.1.3.1.1.1.1.1.1.1.:.1.:.1.1.1.-.1.:.1.:.:.1.` ,.,.,.W ` ' :.Y j u 6 $ b $ b $ $ y $ b $ b $ u 0 e e e u u 6 8 6 8 5 a z 2.$X>X2X4X2X4X2X4X6XdXgXhXhXlXsXsXvXlXzXAXAXAXBXSXSXSXVXMXsX;X/.2X2X>X>X>X>X{.l.@.F G L G K K K C k 6 0 9 6 b $ y $ 0 0 0 0 0 0 0 0 0 6 a k n M M M j j t l H / 1.1.] [ ,.1.' [ ] ' 3.[ ' ] 3.[ ] 1.U a 6 5 6 0 0 0 0 0 0 0 e 0 0 e u 6 0 0 0 e 0 0 0 0 u 0 0 0 0 0 0 0 0 0 0 0 e e 0 0 u 0 0 6 e 8 6 e u 6 e e 6 e u $ ",
"0 0 0 0 0 7 a B U -.( -.-.-.-.+.:.N.|. X,XXX,X,XXXXXXXXX XXXXX.X X.XXXXX].Z.a.$.<.>.,.>.>.>.>.,.1.-.1.2.:.1.1.1.2.,.1.1.3.,.1.1.,.1.1.1.1.,.1.3.1.3.1.1.1.,.1.3.>.1.1.1.1.,.1.3.1.3.3.1.1.1.1.3.3.,.1.1.1.1.1.1.,.1.3.1.1.1.,.1.,.1.1.1.1.1.3.3.3.3.' 3.[ T j 8 9 9 9 0 9 y e e e e e e 9 q q e q 0 q q q e 0 8 7 e g @.].>X4X>X>X>X=X{.1XgXbXnXvXvXvXnXvXnXnXnXAXSXSXSXSXVXAXMXvXiX/.+X>X>X>X>X4X{.g.L , , d d d d d j 8 8 e 5 0 0 0 0 0 0 0 0 y 0 e 0 0 0 0 q q 8 t q 8 8 8 7 w l / [ [ [ q.[ ] [ q.[ [ q.[ [ [ [ [ 3.[ ^ n e ; 6 8 e 0 0 0 0 0 0 0 0 0 0 0 0 0 0 0 0 0 0 0 e 6 0 0 0 0 0 u 0 0 0 0 0 0 0 0 0 e 0 0 0 0 0 0 0 0 0 0 e 0 0 0 0 0 0 0 0 0 0 u 0 9 b A ^ 1.-.-.:.) ` ` +.N.|..XXXXXXXXXXX XXXXXXXXXXXXXXXXXXXXXD.j.<.$.,.,.>.>.<.<.,.,.,.1.1.,.1.1.1.1.3.2.1.,.1.2.:.1.1.3.1.,.1.1.3.1.,.1.3.1.1.1.1.1.1.3.1.3.1.1.1.1.,.1.3.1.1.3.1.1.1.1.3.1.3.1.1.1.:.1.1.1.:.:.1.:.:.:.:.:.:.:.:.' ` W ' 1.:.Y t 8 6 0 0 y $ B $ B $ $ $ $ $ $ ^ $ $ $ $ $ $ 8 > 6 ; u z <.$X4X2X4X4X4X2X3X5XgXvXnXnXnXnXnXnXzXAXSXSXSXSXSXSXSXAXnXlXiX/.2X2X>X}.$X<X].<.L 2 B b b f p a a a 6 9 6 $ $ $ y b 9 0 $ y b $ b y 9 0 y b $ B B B 8 e 8 d M / ] 1.[ 3.[ 3.] [ ' ] ] ] ] [ 1.1.3.1.J j 0 9 0 0 0 0 e 0 0 0 0 0 0 0 0 0 0 0 0 u 0 0 0 e 0 0 0 e 0 0 0 u e 0 0 e 0 0 0 0 0 0 0 e 6 6 e 6 6 6 e 6 u e 6 ; ",
"0 0 0 e 0 6 b V Y ;.-.:.,.>.>.:.>.V..XXX<X<X4X<X<X,X,X<X4X<X,X<X,X<X<X4X.XS.<.W W +.:.:.' :.:.2.2.:.:.:.1.1.2.1.1.1.3.1.1.1.3.1.1.1.1.3.1.1.1.,.1.1.1.,.1.1.1.1.3.1.3.1.1.1.1.1.1.1.1.1.,.3.1.1.1.1.3.1.,.1.3.1.1.1.1.1.3.1.1.1.1.1.1.3.,.2.1.1.3.] [ 3.[ T l 7 5 6 9 0 e e e e e 9 0 e 0 q 0 0 0 7 0 0 7 0 0 0 7 e j +.{.}.>X>X=X:X{.Q.2X6XmXMXAXAXAXAXAXAXzXAXAXHXSXAXVXSXAXnXmXiX/.+X>X>X>X>X}.{.>.z % * - - - * - - 5 @ - 7 0 0 y b y 0 y b 0 0 b y e a e q q q 7 7 5 5 5 - 7 t ~ ] ] [ [ [ [ q.] [ [ ] [ [ [ [ [ [ [ / n q 5 6 6 e 0 0 0 0 e 0 0 0 0 0 0 0 0 0 a 0 0 0 0 0 0 0 0 0 0 0 e 0 0 0 0 e 0 0 0 0 0 0 0 0 0 0 0 0 e 0 0 u 0 0 0 0 0 0 u 0 y 0 y 0 0 b A ^ 1.1.1.3.1.>.:.,.Z. X,X<X<X<X<X4X4X4X<X4X4X<X4X4X4X<X<XS.l.,.W +.:.+.,.,.` :.:.1.1.1.1.1.1.,.1.1.3.1.1.1.3.1.3.3.1.1.1.1.1.1.1.3.1.1.1.3.,.2.3.1.,.1.1.1.1.3.1.3.1.1.1.3.1.1.2.,.1.1.1.3.3.>.1.1.1.:.1.1.1.1.1.1.:.:.:.:.1.:.,.` +.,.:.:.T 8 e e 0 0 u $ $ $ B $ $ ^ | $ $ $ ^ $ ^ $ $ B 6 6 6 6 e g <.XX}.4X4X2X4X2X3XdXhXMXAXAXAXGXSXAXVXSXSXSXCXSXDXHXDXSXMXvXiX/./.>X}.<X}.4X].>.z * $ $ $ @ @ 5 6 $ $ 6 9 9 b $ b $ 0 0 y b $ b $ $ 0 y $ $ $ $ $ $ 8 7 - 8 j / 1.1.3.[ 3.[ [ 3.[ ] ] ] [ ] 1.' ] 1.T t 7 5 0 e 0 0 u 0 0 0 e 0 0 0 0 0 0 e 0 e 0 0 0 0 0 e 0 0 0 0 0 0 0 0 0 0 0 0 0 0 e 0 0 u 0 e u 6 u e 8 u 6 6 6 6 ",
"0 e q e q 7 a N ( 2.>.>.:.>.:.+.,.c. X<X<X<X<X4X<X<X<X<X<X>X4X}.<X<X>X<X.XC.<.:.:.:.1.2.1.:.:.1.-.:.1.1.1.:.1.:.1.1.2.1.3.1.1.1.1.3.1.3.1.1.3.1.1.,.1.1.1.3.1.1.3.1.1.,.1.3.,.1.,.1.,.1.1.1.1.1.,.1.1.1.1.1.3.1.3.3.1.1.2.:.3.1.1.3.1.1.1.1.1.' 1.3.3.1.[ T l 8 7 9 0 9 e e y e e e 9 9 0 0 0 0 0 0 0 0 0 0 0 7 7 e d @.{.}.>X>X:X}.Q.:X2XiXMXAXVXAXVXAXAXVXnXVXVXFXSXSXSXSXGXnXvXiX/.2X2X>X2X>X<X].8.K - - 8 7 6 6 9 5 6 9 6 0 0 e 0 e 0 0 0 0 0 0 e e e 0 q 0 e q 7 7 7 6 5 # 7 t / [ [ ] 0.[ [ [ [ [ [ [ [ [ [ [ [ 3.3.^ M q 5 6 6 6 0 0 0 0 0 0 9 e 0 7 0 0 0 0 6 0 0 e 0 q 0 0 0 0 e 0 0 0 e 0 0 0 0 0 0 0 0 0 e 0 0 0 u 0 0 0 0 0 0 0 0 0 y 0 0 0 $ u 0 0 0 b A ( 2.1.,.3.>.3.,.<.A..XXX<X>X4X<X4X4X}.<X2X<X4X}.4X2X:XXXS.l.<.+.>.:.:.:.:.:.:.1.1.3.1.1.,.3.1.3.1.1.1.1.3.1.3.1.1.1.3.3.1.2.1.1.1.1.3.1.,.1.1.1.,.1.3.1.,.1.1.1.1.3.2.1.,.,.1.3.1.1.1.,.1.1.1.1.1.:.1.,.:.1.:.1.1.:.1.:.1.:.:.,.#.W :.1.1.Y t e 0 0 u y 0 B $ $ $ $ $ $ $ $ $ ^ $ $ $ $ B 6 6 6 6 u f <.4X$X2X2X$X$X+X+XiXhXnXCXCXAXCXSXBXCXCXSXSXSXSXDXDXDXSXnXlXiX(.+X$X4X>X}.XX|.>.C ; $ B B $ 7 9 0 $ 9 0 0 0 $ b B $ $ u y $ b $ $ b 0 0 y y y y B $ 6 5 5 8 a ~ 1.1.1.[ 3.3.[ [ 1.' [ ] ] [ ] ' 1.1.T a 7 6 0 0 e 9 q 0 0 0 0 0 0 e 0 e 0 0 0 0 0 0 0 0 e 0 0 0 0 0 e 0 0 0 0 0 0 0 0 0 0 0 0 0 6 u e 8 e u 6 6 6 e 6 @ ",
"q 0 e e 0 7 a V Y :.:.+.+.>.,.+.,.V..X<X<X<X<X<X<X<X<X}.>X}.>X>X<X>X1X<X].C.<.@.>.2.1.2.1.1.:.1.1.1.:.:.:.1.1.1.3.1.,.1.1.1.1.,.1.3.1.1.3.1.1.1.1.1.1.3.1.,.1.3.1.1.1.3.1.1.1.1.1.1.1.1.3.1.,.1.1.1.3.1.3.1.1.1.1.1.1.,.3.1.3.1.1.3.1.,.1.3.3.3.3.3.[ [ ' T l w 7 0 9 0 e e e e e 9 e e q 0 q q q 0 q e 0 q q 0 8 q d +..X}.2X<X>X}.{.Q.1XgXmXVXVXVXAXVXAXVXVXAXAXSXSXSXNXSXGXMXvX5X/.+X>X>X>X>X>X].8.U - 5 e 8 6 9 9 7 9 7 9 9 0 0 0 0 0 0 0 0 y 0 0 0 0 0 0 0 8 q q 8 6 7 6 5 7 t / [ [ q.[ [ 1.3.3.1.q.] [ 0.[ 3.[ 1.3./ m e 7 7 0 0 0 0 0 0 0 y 0 0 0 0 0 0 0 0 0 0 0 0 0 0 a 0 0 6 0 0 0 0 0 u 6 0 e 0 u e e 0 0 0 0 0 0 0 0 0 0 0 0 0 0 0 0 0 0 u 0 y 0 0 $ b V ) 2.2.,.2.3.>.,.,.A.|.>X<X}.<X}.}.}.2X}.>X}.<X}.>X:X}.}.].x.2.:.,.:.:.>.1.:.:.:.:.2.1.1.1.1.1.1.1.1.,.1.3.1.1.1.,.1.1.1.1.,.1.3.1.1.1.1.1.3.1.1.1.1.1.1.1.,.1.3.1.1.1.1.1.1.1.1.1.3.1.1.1.3.1.1.1.1.:.:.2.1.1.1.1.1.:.:.:.1.,.,.` :.:.:.1.T j u 0 0 0 0 0 $ $ $ B $ $ ^ $ B $ $ $ B B $ $ 6 u 6 6 e z >.<X>X>X4X>X+X+X%XdXxXnXAXCXBXVXSXZXBXSXDXSXSXSXFXSXHXGXnXvXiX/.+X}.}.$X4X}.|.8.L 6 $ B $ $ 0 0 0 0 0 0 $ 0 y $ $ y 0 0 y y $ b b $ 0 0 $ b y y $ B 0 e 5 8 b ~ ] 1.3.[ ] [ 3.3.] 1.1.[ 1.[ [ 1.1.1.U a 7 9 9 0 0 9 0 0 e 0 0 e u 0 0 0 0 0 0 0 e 0 0 0 u 0 0 0 e 0 0 0 0 0 0 0 e 0 e 0 0 0 0 e 6 e u 6 6 6 u e u e 6 6 ",
"q e 0 q 8 7 j M T 2.:.+.:.+.:.+.,.x..XXX<X<X<X<X<X>X<X>X>X>X>X>X2X2X>X<X{.C.4.,.,.1.:.:.3.3.1.1.2.:.:.:.1.:.1.1.3.1.,.1.1.1.,.1.1.>.3.1.,.1.3.1.1.2.1.,.1.1.1.1.3.3.1.1.1.3.1.1.3.3.1.1.3.1.1.1.1.1.1.,.1.1.1.3.3.1.,.1.1.1.1.,.1.1.1.1.1.1.1.3.' 3.] 3.] T M t 9 9 0 9 0 q e e e e q e q 0 q e e 0 q q e q q 0 5 8 d ,.{.}.<X>X>X}.}.>X5X6XnXGXVXVXVXVXVXVXVXFXVXSXVXVXVXFXGXMXvX7X/./.}.Q.}.Q.}.].l.U - 5 e e 9 9 0 0 9 0 9 e 0 9 0 0 0 0 0 0 0 0 0 0 0 0 0 0 0 8 e 8 7 0 9 5 q t ~ ] 0.[ [ q.[ 1.3.3.[ 1.[ 1.3.3.1.3.2./ n y 0 0 0 0 0 0 y 0 0 0 9 0 0 7 0 0 7 0 0 7 0 0 0 0 0 0 0 0 0 0 0 0 0 0 0 0 0 0 e 0 u 0 0 0 0 0 0 0 0 0 0 0 0 0 0 u 0 0 0 0 u 0 0 0 9 y ! ) 1.2.3.2.3.>.,.<.V..X>X>X>X4X>X2X>X2X$X>X<X2X>X>X>X:X}.n.x.2.:.,.:.:.,.:.:.1.:.2.3.1.3.1.,.3.1.1.1.1.,.1.1.1.3.1.1.3.1.,.1.3.3.1.,.1.3.1.1.3.1.1.3.1.,.1.3.1.3.1.1.1.1.3.1.3.1.,.,.1.1.1.3.1.1.1.1.1.1.1.1.3.1.,.:.1.1.1.,.:.,.,.W ,.,.1.~ a e a b $ b $ $ B B $ $ $ $ ^ $ $ $ B $ $ $ B 6 6 6 6 a p 4.4X4X2X2X}.$X@X%XqXxXAXAXBXSXSXSXBXSXSXSXSXAXAXSXHXHXHXnXhXdX+X+X$X$XXX4X$X X2.Y 6 B $ $ $ $ $ $ B 0 0 $ $ y b $ $ y 0 0 $ $ y y b 0 $ u y $ $ B $ 0 6 5 6 k U 1.] 1.[ [ 1.[ 3.[ 1.[ [ 1.[ 3.] ] q.U n q 7 q q y 9 9 0 0 0 0 0 0 y y 0 0 0 e 0 0 0 0 0 0 e u 0 0 0 0 0 0 0 0 0 e 0 0 e 0 0 0 e u 6 u 6 e e u 6 e u 6 6 ",
"0 0 0 0 0 7 a m T -.+.+.X.` :.o.+.x.|.<X4X<X4X>X<X}.>X>X>X>X>X>X>X>X>X<X|.V.4.,.' 1.:.:.>.2.,.1.:.:.:.2.:.1.1.1.1.1.1.1.3.1.1.1.1.3.3.1.1.1.1.1.1.3.1.3.3.1.3.1.1.1.1.3.1.1.1.3.1.1.2.:.1.1.1.3.1.3.1.3.3.1.1.3.1.1.1.1.1.3.1.1.,.1.3.1.1.3.1.[ 1.3.[ ,.[ T t 8 6 9 9 0 q e e y e e 0 q q e q 0 e q e 0 0 e 0 7 8 e j >.XXXXXX<X>X4X<X2X4XdXvXVXVXAXVXAXVXVXAXVXFXVXGXFXVXFXFXMXnXiX/.+X+X2X>X>X$X.Xl.U 5 7 e e 9 0 9 9 9 0 0 0 0 9 y 0 0 y 0 y 0 0 y 0 0 0 9 e 0 0 e 8 0 7 6 6 q b ~ [ ] [ q.] ,.3.3.[ 3.3.3.[ [ [ ] ] q.~ M y 9 0 $ y 0 0 0 0 0 0 9 0 0 0 0 9 9 0 9 0 9 0 0 0 0 e 0 0 0 0 0 e 0 0 0 0 0 0 0 0 e 0 0 0 0 u 0 0 0 u 0 0 0 0 0 0 0 0 6 6 7 0 0 0 $ b B ^ 1.,.3.,.,.,.,.,.v.|..X>X>X}.}.>X>X<X<X2X}.>X>X>X>XQ.}.].x.4.,.:.>.:.:.1.:.1.3.1.3.1.1.1.1.1.3.1.3.1.1.1.,.1.1.1.1.3.1.1.:.1.1.1.1.1.3.1.1.1.1.3.1.1.1.1.1.1.1.1.,.1.1.1.1.3.1.1.1.1.3.3.1.1.3.3.1.1.1.:.1.1.1.2.2.1.,.3.' :.' ` ` ,.1.1.U a e e $ b $ b $ $ $ $ $ B $ $ $ B $ $ $ B $ $ a 6 6 6 u k <.$X2X4X$X$X4X%X%XeXxXzXSXSXSXSXDXDXSXSXSXSXAXGXGXAXAXGXnXhXqX+X$X X<X4X$X$X|.8.C 6 $ $ B $ B B $ $ y u b $ y $ B $ 0 0 $ b $ b $ y 0 0 0 y B $ $ $ u 0 5 e a T 1.1.3.3.[ [ 3.1.3.1.3.1.1.1.1.1.3.3.T q q 7 q e q q 9 y 9 y 0 9 0 0 0 0 0 0 0 0 0 0 0 e u 0 e 0 0 e 0 0 0 e 0 0 0 0 0 u 0 0 0 6 6 e 8 6 u 6 8 e 6 6 6 6 ",
"7 8 7 7 7 5 a z K :.W W W o.W I W j..X<X<X<X<X1X>X>X4X<X}.2X<X>X}.<X>X}.].V.2.,.:.:.:.:.:.:.:.:.:.1.:.:.:.1.1.1.1.2.3.1.1.1.3.1.1.1.1.,.1.1.1.3.1.1.1.1.1.1.1.1.1.3.1.,.1.,.1.3.1.,.3.1.2.,.1.1.1.1.,.1.1.1.1.1.1.3.1.3.1.1.1.3.3.1.1.1.3.1.1.,.[ 3.] 3.3.T l t 9 9 0 9 e e e e e q e 0 q 0 e e e 0 q 0 q e 0 0 7 e j >.XX<X<X<X4X<X4X1X6XgXmXMXzXAXAXAXVXMXGXzXGXnXGXVXGXFXMXMXmXgXdX5X6X6X6X4X4XXX8.U - 5 e 9 0 0 0 9 0 y 9 0 0 0 0 0 0 0 0 0 0 0 0 0 0 e 0 0 9 e e e 0 6 9 $ 8 t / [ 1.[ [ [ 3.1.,.1.1.3.[ 3.1.3.` ` [ ~ b e 9 9 y y 9 9 0 0 9 6 0 6 9 0 0 0 0 9 0 0 7 9 q 0 0 0 0 0 0 e 0 0 a 6 0 0 0 0 0 0 0 0 0 0 0 0 u 0 0 0 0 0 0 0 0 6 6 5 5 $ ; - $ 5 $ y B ^ ` W W #.:.Q Q #.j.].XX>X>X:XQ.}.}.}.<X}.>X<X<X>X}.}.{.].x.4.1.>.1.1.1.1.:.,.1.1.1.1.1.1.3.1.1.1.3.1.,.1.1.1.3.1.1.1.1.3.2.3.,.1.1.1.1.1.1.,.1.1.1.3.1.3.1.,.,.1.1.1.,.1.1.1.1.3.1.1.1.1.1.,.1.1.>.2.1.2.2.,.2.1.3.1.1.2.1.1.,.:.` :.,.1.~ b $ b $ y b $ B $ B B $ $ B B B $ B $ $ $ B $ 6 0 6 ; 6 j 8.$X4X4X4X4X4X%X%XfXvXGXAXSXSXSXAXSXAXSXHXGXGXAXMXGXMXMXvXhXdX4X$X$X4X4X$X4X Xe.A @ $ ^ $ $ $ $ $ $ $ b $ b $ $ y y b $ b $ $ y $ b $ b y $ B $ $ $ 0 0 $ 6 a T 1.1.3.[ [ 3.[ [ [ 1.1.1.1.1.] 1.1.q.T t 5 - 9 7 9 9 9 0 9 0 9 0 0 0 0 0 0 e 0 0 e 0 0 0 0 0 0 e 0 0 0 e 0 6 0 0 0 0 0 e e 0 0 6 0 u u e e u 6 u e 6 6 $ ",
"a 8 e i e i j z R >.$.#.+.#.#.#.$.c.{.<X<X<X<X<X<X<X>X}.{.{.{.].{.{..X XS.V.<.,.:.1.:.:.:.:.:.:.:.:.:.:.:.:.:.1.1.,.1.1.,.1.3.1.3.1.1.1.1.3.1.1.,.1.3.1.1.3.,.1.1.1.1.1.1.3.1.1.1.1.1.3.1.1.3.1.3.1.1.1.1.3.>.3.1.1.1.1.,.3.1.1.1.1.3.1.,.1.1.3.3.3.[ 3.] T j 8 9 7 0 0 e e e e e 0 q 0 e e q 0 q 0 e e q 0 0 7 7 a j >. X|..X X.X.XXX XXX6XhXMXMXnXMXMXMXnXMXMXnXMXzXMXMXzXMXmXhXdX$X$X XXXXXXXXX Xe.U 5 6 e 0 0 9 0 9 9 0 9 e 0 y 0 0 0 y 0 0 y 0 0 0 9 e 0 e 7 q e e 7 0 6 6 8 t ~ 1.[ [ 3.1.[ 1.1.1.1.3.1.,.3.] ' ] 1.~ M y q y u b b a a a 0 6 0 7 7 9 7 0 7 0 9 7 0 0 0 e 0 0 e 0 0 u 0 0 0 0 0 0 0 e 0 e 0 0 0 e 0 0 0 0 0 0 0 u 0 u 0 6 e e u e 8 e e e y b ! ) <.,.<.<.#.#.#.y.c.{.,X>X>X$X}.2X2X4X}.{.{.{.{..X.X.X.XS.V.<.,.1.>.:.,.3.2.2.,.1.1.3.1.,.1.1.1.,.1.1.1.1.3.1.,.1.1.,.1.1.3.1.1.1.3.1.,.1.1.3.1.,.1.1.1.1.1.1.1.1.3.3.1.1.1.,.1.1.1.3.1.,.1.1.3.1.3.1.1.1.1.1.3.1.1.,.1.3.1.1.1.:.` 1.1.1.! b b b $ y $ b $ $ $ $ B $ $ $ B $ $ $ B $ B $ 0 u 6 6 u a 1. X|. X|. X X XoX%XhXnXnXnXnXnXAXnXAXnXnXAXnXMXnXvXMXMXhXhX#X[.[.|. X X X X_.2.A 5 $ $ B $ B $ | $ b $ b $ y y b $ $ b $ b y $ b $ b $ b u $ $ B $ 0 0 6 0 k ~ ) 1.3.] 1.[ 3.3.3.1.1.[ 1.] 1.1.1.1.J j 7 q q t 8 t e e e 0 0 0 0 y e u 0 0 0 0 0 0 0 0 0 0 0 0 0 0 0 e u 0 0 e 0 e 0 0 0 0 0 e 6 e 6 6 e 6 6 e u 6 6 6 ",
"l j j g g j z T +.d.a.a.a.a.a.y.a.v.}.>X,X<X>X<X>X>X}.{.n.n.S.S.S.S.S.S.B.f.3.,.:.1.:.:.:.:.:.:.:.:.:.1.:.,.1.,.1.3.1.3.1.1.1.1.2.,.1.3.1.1.1.,.,.1.1.1.1.3.3.1.3.1.,.1.1.1.1.,.3.1.1.1.1.3.1.,.1.1.1.1.1.,.3.1.1.,.1.1.1.1.3.1.1.1.3.2.,.1.1.3.3.] [ 3.[ T t t 0 9 e 9 q e e e e e q e 0 0 q e q e q q 0 e e 0 5 e a R N.V.B.Z.B.N.V.V.].+XdXvXmXmXbXmXhXmXmXmXmXmXmXbXmXvXvXhXhX[.P.P.C.V.C.C.V.B.2.U 6 6 0 9 0 9 9 0 9 9 0 0 y 0 y 0 0 0 0 0 0 0 0 0 0 0 0 9 0 e e 0 9 6 6 5 t t ! 1.[ 3.3.[ [ 1.1.1.,.3.,.3.,.,.1.1.1.R V j n n m m n n m n 0 7 0 7 0 7 7 9 0 0 9 8 7 0 0 e e 0 0 0 0 e 6 0 0 0 e 0 0 0 0 u 0 0 0 0 0 0 u 0 u 0 0 $ u u y 0 e b n k j n n n b B / [ d.f.s.g.s.s.g.j.S.{.XX>X>X>X>X2X4X<X}.R.].].D.D.|.D.F.Z.V.3.>.,.1.,.:.>.1.,.3.1.1.1.1.1.1.3.1.3.1.,.1.1.1.,.1.3.1.1.3.1.1.1.1.1.1.3.1.3.1.1.1.1.1.3.1.,.1.1.,.1.,.1.1.1.1.1.1.3.1.1.1.1.1.1.2.,.3.1.1.1.1.1.1.>.1.1.2.1.:.1.1.:.` 1.1.:.U j 8 8 y 0 0 $ $ $ $ $ ^ $ $ ^ $ $ $ $ | $ B $ e 6 u 6 u j X.e.N.z.z.V.C.B.z.#X%XvXvXxXvXvXvXvXvXvXnXnXvXvXvXvXmXmXhX5XE.z.z.B.Z.Z._.Z.e.0.A $ $ B $ $ $ $ $ $ $ $ $ $ $ | $ $ y $ B $ $ $ B $ $ b $ y $ y $ B 0 6 5 e a ~ 1.[ 3.[ 3.[ 3.3.3.' 1.3.1.1.] 1.1.1.T H l t n t j n n n j q 0 0 0 0 0 0 0 0 0 0 0 0 e 0 0 0 0 0 e 0 0 0 e 0 0 e 0 u 0 0 e 0 0 6 e e 6 e 6 e e 6 8 e 6 u ",
"T R T Y T T W >.V.].S.].S.R.n.n.D.].}.>X<X<X>X1X>XXX}.n.g.a.a.a.<.d.a.d.d.2.' ` ` 1.:.:.:.1.:.:.1.:.:.:.,.:.1.1.1.1.1.3.1.,.1.3.1.1.1.1.1.3.1.3.1.1.3.3.1.1.1.1.1.1.1.1.1.3.1.1.1.1.,.1.1.1.1.1.,.1.3.1.1.1.1.1.1.1.3.3.3.1.3.1.1.,.1.1.3.1.1.3.3.3.3.[ [ T l 7 9 9 9 e e e y e e e q 0 q e 0 e 0 e 0 e e q e e e e a j V F K K K N z h +.z.$X5XiXiX5XaXaX3X3XiX3X3XyXyXyXiXgX%XoX@.c F F K F C K H N a + 9 6 9 6 0 9 9 0 9 y 0 9 0 0 0 0 y 0 y y 0 0 0 0 0 0 e 0 e e 7 6 6 6 9 q n / [ 1.[ 1.3.3.1.3.1.1.1.1.3.1.' 1.1.1.) ( T ~ ^ ^ ^ ( ^ ^ ! a 7 7 6 6 0 0 7 0 7 q 9 0 0 0 0 u 0 0 0 0 0 u 0 0 e 0 0 0 0 0 0 0 0 0 0 0 0 0 0 0 0 0 0 y 0 0 0 b A ( ^ ( ~ ^ ^ U / d.Z.|.D.D.{.].].W.b.{.>X>X>X4X2X>X4X4X}.S.a.a.a.a.s.d.d.d.d.p.>.,.3.1.1.1.1.1.1.1.1.3.3.1.,.1.1.1.1.1.2.3.1.1.3.1.1.1.3.1.1.1.3.1.,.1.1.1.1.1.,.1.3.3.2.1.1.3.1.1.1.1.1.1.3.,.1.1.1.,.1.3.1.3.1.1.1.2.1.,.1.2.3.3.3.3.1.3.1.1.:.1.` ` :.1.` U e e q $ 0 u y $ $ ^ $ $ $ $ $ $ B $ $ $ $ B $ 0 u e 6 8 u k z C N C H v C c @.L.%XiXiXqXqXwXqXiXiXdXqXiXiXiX(.dXgX5XE.o.x v C C A K Z A m b $ $ $ $ B $ B $ $ $ $ ^ $ $ $ $ $ b y $ $ B $ B $ b $ b $ $ b $ B u 0 5 e a ~ 1.1.3.3.[ 1.] 3.3.1.1.1.1.3.] ] [ 1._ / / J T T / T / / J n 0 0 y 0 y 0 0 0 0 e u e 0 0 e 0 0 0 0 0 0 0 0 0 0 0 0 0 0 0 0 0 0 6 0 u 6 u 6 u u 6 u 6 6 $ ",
":.:.:.+.:.:.3.x.F.,X<X,X<XXX<X>X,XXX>X1X<X>X1X>X>X.X].c.$.$.#.+.@.#.,.#.:.` ` W ` 1.:.` :.:.1.:.:.:.:.:.:.:.1.1.3.1.,.1.1.1.1.3.1.3.1.3.1.1.1.1.1.1.1.1.1.3.1.3.,.3.1.3.1.,.1.3.1.3.1.3.3.1.,.3.1.1.1.,.1.3.1.3.3.1.3.>.3.1.1.1.1.1.1.,.1.3.1.[ 3.[ 3.1.[ T M t 7 9 q 9 e e e e e y 0 q q 0 q e 0 q e q 0 0 e e e e 8 > ; ; > ; ; = * * F $.[.-X-X/.-X-X-X/././.-X-X-X/././.3X+XP.c = ; ; ; ; ; - 5 5 5 9 5 9 9 $ 9 9 9 9 9 9 e 0 0 0 0 0 b 0 0 0 0 0 0 0 9 e 9 8 q e 0 9 6 9 $ q t / [ 3.[ 3.[ 3.1.1.1.3.,.3.3.,.' 1.' 1.1.1.1.1.1.1.0.1.0.0.^ k 7 7 7 7 7 9 0 9 7 0 0 9 0 9 q e 0 0 e 0 0 e 0 0 u 0 0 e 0 0 e 0 0 0 0 0 u 0 0 0 0 0 u 0 u 0 u n ) 1.0.1.0.1.1._ 1.N.|.<X1X<X<X<X,X>X}.>X>X>X>X>X>X2X2X<X{.c.<.o.W #.#.,.,.,.:.,.,.1.,.1.,.,.,.>.[ ,.1.1.1.1.2.,.1.3.,.1.,.1.1.1.1.1.3.1.3.1.3.1.,.1.3.1.,.1.3.1.3.1.,.1.1.1.3.,.1.3.1.3.1.1.1.1.1.3.1.3.1.1.,.1.1.1.3.3.1.3.1.3.1.1.1.2.3.1.1.1.1.:.1.` 1.1.` T d e 8 y 0 0 0 ^ $ $ B $ $ $ $ $ $ $ ^ $ $ $ $ 6 e 6 e e ; ; @ - ; = > ; = = F 6.I.%X~./.OX+X~.OX@X3X(.@X(./.(./.5X}.h.4 % = ; @ 6 ; ; $ 9 $ u $ B $ B $ $ B ^ ^ $ ^ $ $ ^ $ ^ $ B $ $ B $ $ $ $ b y y y y $ $ 0 0 5 6 n U 1.1.' 3.[ [ [ [ 3.[ 1.,.1.1.1.1.] ] ] [ ] ] [ [ ] ' ] ] / n 0 y y 0 0 0 0 0 0 6 e u 0 e 0 0 u e 0 0 0 0 0 0 0 0 0 0 0 0 0 0 0 e e u u 6 e 6 e 6 e u 6 @ ",
",.,.:.:.` @.4.x.].<X<XXX,X,X,X>X>X>X>X1X1X1X>X>X>X>X{.c.#.+.+.:.,.,.,.,.,.:.` ' :.:.:.:.:.:.:.:.>.:.:.:.:.:.,.1.1.1.1.1.1.,.1.1.1.3.1.1.,.1.3.1.1.3.1.,.1.1.1.3.1.1.1.1.1.2.1.1.1.3.1.1.1.1.1.1.1.3.1.3.1.1.1.1.1.1.1.1.1.1.1.,.3.1.1.1.1.1.1.,.,.3.3.[ 3.T t t 0 0 e e e e y e e e 0 q e e q 0 e q 0 0 q e 0 q e e e 8 7 5 7 5 7 8 > > K >.].>XQ.2X=X=X=X=X2X-X=X-XQ.-XQ.-X+X+Xc.G = > 6 7 7 7 7 0 7 0 5 9 6 6 0 9 0 9 9 0 0 e 0 y 0 y y $ y 0 0 0 0 0 0 0 0 0 0 0 0 7 0 6 6 6 8 t / [ [ ] 3.3.,.1.3.1.1.3.1.,.1.1.1.1.' 1.1.1.1.1.1.1.0.1.] ~ a 7 7 7 9 0 0 0 0 0 q 9 7 0 0 0 0 0 0 0 0 e 0 0 0 6 0 6 0 0 0 0 0 0 0 0 0 0 0 u 0 u 0 0 0 0 0 0 m ) 2.0.1.1.1.1.` 3.V.|.<X1X<X<X,X>X>X}.>X>X>XXX>X>X}.4X<X.Xx.#.#.W ' ,.,.3.3.,.,.,.,.3.,.>.3.3.3.,.1.1.1.,.1.3.1.1.1.1.1.1.1.3.1.3.1.1.>.3.1.1.1.1.1.1.1.3.1.1.1.1.1.1.1.3.1.1.1.1.3.1.1.1.3.3.3.1.,.1.2.1.1.1.,.3.1.1.2.1.1.1.1.3.2.1.2.1.1.1.1.1.1.1.` ` 1.1.T e e 8 0 $ y 0 $ $ $ $ | $ $ ^ $ ^ $ $ $ $ ^ $ e u 6 u 8 6 6 ; ; ; 7 - > - - K 8.XX3X+X+X+X+X@X5X@X3X+X+X/././.+X5XE.h.v = ; 6 u 6 6 6 u 0 y u $ B $ $ B $ $ $ $ $ $ $ $ $ $ $ y $ $ B $ $ B $ b $ 0 u $ y B $ 0 9 6 e a ~ ] 1.3.] 3.[ 3.3.1.3.1.3.1.3.1.] 1.] [ [ ] [ ] [ ] 3.3._ / e 9 0 0 0 y 0 0 0 6 e 6 6 0 u 6 0 6 0 e 0 0 a 0 0 0 0 e 0 u e 0 0 0 0 6 e e 6 e u u e 6 6 6 6 ",
",.,.+.>.,.+.<.j.|.<X>X>X<X>X>X>X:X:X>X2X1X>X>X>X<X>X].V.$.+.,.,.>.,.,.,.,.,.:.,.:.:.:.2.:.:.:.:.1.:.:.:.:.:.1.1.1.3.1.3.3.,.1.1.3.1.1.1.3.1.3.1.1.1.,.1.1.1.3.2.1.1.1.3.1.1.3.1.2.3.1.1.1.1.1.3.1.,.1.1.1.1.3.,.3.1.3.1.1.1.1.3.3.1.1.1.1.3.1.,.1.3.3.] 3.T l 8 7 9 9 0 q e e e e e q e 0 0 q e q e e e q 0 0 e e e e e 0 7 0 0 e 8 8 7 K <.].>X=X>X>X>X=X1X>X=X>X>X=X>X>X-X4X.X_.K > 5 0 9 y 9 9 y 9 9 9 9 0 q 9 0 9 0 9 0 9 9 0 y 0 0 $ y 0 0 0 0 e 0 0 0 0 0 9 e e 8 0 7 9 6 8 t ~ ] 1.[ 1.3.3.1.1.,.,.1.1.3.3.1.1.' ,.' 1.` ` 1.,.3.1.1.) ~ t 7 8 8 0 7 9 0 9 0 0 9 7 0 0 0 0 0 0 0 0 e 0 0 6 6 a 0 6 0 0 e 0 0 0 0 0 0 0 0 0 0 0 0 0 u 0 0 n ^ 1.1.1.1.1.1.` 2.N.G.1X<X<X>X>X>X>X>X>X:X}.:X}.}.Q.>X,X.XV.#.Q Q ' [ 3.3.m.[ 2.3.,.,.3.3.>.3.3.3.3.1.3.1.1.1.1.1.1.1.1.1.3.1.1.3.1.1.3.1.1.1.1.3.1.1.1.3.3.1.2.,.3.1.1.3.3.1.1.1.1.3.1.1.1.1.1.1.1.1.3.1.3.1.1.1.1.1.>.3.3.3.1.:.1.1.2.3.1.2.1.1.1.1.) ` 1.) J t q 8 0 0 0 0 $ $ $ $ $ $ | $ $ $ $ $ ^ $ $ ^ 0 u e 6 u 6 6 5 5 8 8 7 8 : - J N.<X5X+X$X$X$X2X2X4X2X$X2X/./.+X+X5X[.x.h = 8 6 0 0 0 $ 0 0 u b $ B $ $ B $ $ $ $ $ $ $ $ $ $ $ $ $ $ B $ $ $ B 0 u 0 $ u 0 0 0 u $ 0 0 j ~ 1.1.3.[ [ 3.] ' 3.3.1.1.1.1.1.] 1.] [ 1.] ] ,.] ' 3.3.' T t e 9 y 0 0 0 6 6 6 e 6 6 6 e 6 6 e 6 0 0 0 0 0 0 0 0 0 0 e 0 0 q 0 6 6 6 6 e 6 e 6 u 8 6 6 6 ",
"+.+.:.+.+.+.<.d.D.,XXX,X}.}.>X{.:X:X>X>X=X>X>X1X>X,X.Xc.$.,.,.,.3.,.2.,.:.` 1.' :.1.1.:.:.2.1.:.1.2.:.:.1.1.1.1.1.1.1.1.1.1.3.1.1.1.3.1.1.1.1.3.3.1.1.1.3.1.1.1.3.3.1.1.3.1.,.1.1.1.3.1.,.3.1.1.1.2.1.3.1.3.1.1.1.1.1.1.,.1.1.1.1.1.3.1.1.1.1.1.1.1.1.3.[ T t r 9 0 0 9 8 e e e e e 0 q q e 0 e 0 e 0 q e e q 0 e e 8 8 7 0 9 0 e a 8 7 K 2.|.>X1X:X>X1X:X:X:X1X>X>X>X=X=X>X4XXXZ.K > 8 0 e 9 y 9 y y 9 9 0 0 0 0 9 0 9 0 0 0 9 0 $ y 0 y 0 y 0 0 0 y 0 0 0 0 0 8 q e 7 6 0 6 $ 8 t ~ ] [ 1.3.[ 3.3.1.1.1.1.3.1.3.1.,.:.,.` ` 1.:.1.1.2.1.1.) U r 7 5 8 7 9 q 0 q 7 9 0 9 0 0 0 0 e 0 0 0 0 0 0 6 6 6 6 e 0 0 0 e 0 0 0 e 0 0 0 0 e u 0 0 0 0 u k ) 1.1.1.1.,.1.W ,.x.D.,X,X:X:X:X:X:X:X:X}.}.}.Q.{.{.>X>X|.V.W W ` 3.q.3.3.q.q.3.1.3.3.3.3.3.1.2.,.3.1.1.1.3.1.2.1.3.3.3.1.1.1.1.3.1.3.1.1.1.1.1.1.3.1.1.1.1.1.1.1.1.1.1.1.1.1.1.3.1.3.3.1.3.1.1.,.3.1.3.1.1.1.3.1.3.1.1.3.>.1.3.2.1.3.1.1.1.1.1.1.1.1.` 1.1.] T 8 8 7 9 9 0 u ^ $ $ | $ $ $ $ $ $ ^ $ $ $ $ $ 0 6 6 e 0 6 $ 6 6 8 8 8 8 7 7 T N.<X<X}.}.}.}.}.$X4X$X2X>X2X>X}.2X4XXXV.v ; > 0 $ y $ y u y 0 y B $ $ B $ $ B B | $ $ ^ ^ $ $ ^ B B $ $ B $ $ $ 0 0 0 y y 0 0 u 0 9 6 0 e T ] 1.1.[ 3.] 3.3.] 3.,.1.3.1.1.1.1.] 1.] [ ] [ 1.' 3.[ ` J n 9 e 0 0 0 0 6 e 6 e e 6 6 e e 6 6 6 e 6 0 6 0 6 0 0 0 0 0 0 0 0 e 0 e u e u u 8 6 e u 6 6 6 ",
"+.:.+.:.+.+.<.l.].,X>XXX>X,X>X,X>X=X>X>X1X>X>X1X>X>X{.V.$.:.:.,.,.,.,.,.,.1.:.1.1.:.-.2.:.1.2.:.:.:.1.:.1.1.2.1.3.1.3.1.3.1.1.1.1.3.1.3.1.3.1.2.1.1.3.1.3.1.3.1.1.1.3.1.3.1.1.1.3.1.1.1.1.1.3.1.2.1.1.2.1.1.1.3.1.,.1.,.1.1.3.1.,.1.1.1.,.1.3.1.1.1.3.1.3.T l w 7 9 9 7 e e e e e q e 0 q 0 q e 0 q 0 8 e 0 q e e e e 8 7 0 e e e e 8 5 K 3.|.>X>X>X:X>X1X>X:X:X>X>X>X=X=X2X4XXXS.K 7 8 9 9 9 y 9 9 e 9 0 0 e 0 0 9 9 9 0 0 0 9 0 y 0 y y u 0 0 0 0 0 0 0 0 e 7 5 e e e 0 7 7 5 q t T [ [ 1.1.3.1.1.1.3.1.1.1.1.,.' ' 1.1.:.` :.` :.1.3.1.1.) U t 7 7 9 q q 9 7 0 q 8 0 0 0 0 e e q 0 q e 0 0 7 8 8 8 e e 7 6 0 0 0 e 0 0 0 0 e 0 6 0 0 6 e 0 a n ) 1.1.1.1.3.1.:.,.x.S.>X:X:X:X}.{.:XQ.Q.:X=X:X:X}.Q.>X,X.Xx.W W T ] [ ] ] [ [ ] 1.] 1.3.1.1.1.1.1.1.1.1.1.3.1.3.1.1.1.3.1.3.1.1.1.1.1.1.3.1.1.3.3.1.1.2.1.3.3.1.1.3.3.3.1.3.3.1.1.1.1.1.1.1.1.1.3.1.1.1.,.1.3.1.1.1.3.1.3.1.1.1.1.2.1.2.3.1.1.1.1.1.:.` ] 1.] U r 7 8 6 9 0 0 $ B $ $ ^ $ $ ^ ^ $ $ B $ $ $ $ 0 0 0 6 6 6 7 6 8 q 8 8 q - + U m.XX4X$XXX}.}.}.}.$X$X>X+X>X+X+X$X4X Xc.z = 6 9 y $ $ u 0 y u y $ B $ $ $ $ $ $ $ $ $ $ $ $ B $ $ $ B $ B $ B $ 0 0 0 0 0 0 0 0 0 6 5 6 j ~ 1.[ [ 3.[ 3.] ,.3.3.3.1.1.1.[ 1.1.] ] ,.] [ [ ' ' 3.3.` J t e 9 9 9 9 9 e e e e 8 8 8 8 6 6 e e 6 6 0 0 6 e e 6 e 0 0 0 0 0 6 0 0 6 6 8 6 6 6 6 u e 6 6 ",
":.+.:.+.+.:.<.j.|.<X>X,X>X>X>X>X=X1X=X>X1X=X>X>X>XXX[.V.,.+.:.:.1.,.,.2.:.:.:.1.:.:.2.1.1.:.1.-.1.2.1.1.1.1.1.1.3.1.2.1.1.1.3.2.1.3.1.2.1.1.1.1.3.3.2.1.1.1.1.3.2.1.2.1.1.1.3.1.1.1.3.3.2.1.1.1.3.1.3.,.,.2.1.1.1.1.1.1.3.1.,.1.1.1.3.3.1.1.1.1.3.1.,.1.[ T t r 7 0 7 0 q e e q e e q 0 e e q 0 e q q 0 e q e q e e 6 7 0 7 0 q e j 5 5 K <.D.<X>X1X:X>X>X>X=X>X>X>X=X>X>X>X<X X_.K 7 9 y y 9 9 y q 9 0 0 9 9 0 9 0 9 0 9 9 0 0 0 0 0 0 y $ y 0 e 0 0 0 q 0 e 6 8 e e e 7 7 7 7 r t T ] 1.[ 3.[ 3.,.1.1.1.3.,.1.1.1.1.:.:.:.1.' ` :.,.2.1.1.( T r 7 8 7 7 q q 8 9 9 7 9 7 0 q q e 0 e q 0 q 0 e e e 5 6 e 0 0 e q e 0 e q 0 6 0 0 u 6 e u 0 6 e m ) 1.1.q.2.3.>.:.,.V.].,X:XW.{.*X{.}.:XQ.:X>X>X>X:X:X<X,X.Xx.Q Q R _ _ ) ] ] ] ] ] ] ` ] ] ] ' 1.1.1.1.1.1.1.1.3.1.3.1.1.1.3.1.3.3.0.3.1.1.1.1.1.1.1.3.3.1.1.1.3.1.1.1.1.1.1.1.2.3.3.1.1.3.2.3.1.2.1.3.1.1.1.1.1.3.:.2.1.2.3.1.3.1.,.1.3.1.1.1.:.1.1.:.` :.1.` U r 8 7 7 6 0 0 $ $ $ B $ $ $ $ $ $ $ $ ^ $ $ ^ u 6 6 6 0 6 0 7 8 8 q 7 7 & o A d. X4X}.$X}.$X}.}.$X>X+X}.-X>X2X2X5XXXB.v - 6 y y u 0 0 0 0 0 0 $ | $ $ $ ^ $ | $ $ ^ $ B $ $ $ B $ $ $ $ $ B $ 0 0 0 0 9 0 0 6 0 7 5 e a T ] 1.1.[ [ 3.[ 3.[ 3.1.1.3.3.1.1.1.1.[ 1.[ ] 3.' ' ,.3.` J t e y y e 0 0 q e 7 8 7 8 7 e 8 8 e e e 6 6 e 8 q 8 8 8 7 8 q 8 0 q 6 e 6 6 6 u 8 8 6 e 6 $ 6 ",
"+.+.W ` W o.<.g.S.>X}.}.}.}.}.Q.=X*X:X2X1X=X>X2X>X>X XZ.<.,.:.:.1.1.2.:.:.1.1.1.1.:.:.2.1.:.2.:.1.1.:.1.1.1.1.1.1.1.1.1.1.1.1.1.1.1.1.1.1.1.1.1.1.1.1.1.1.1.1.1.1.1.1.1.1.1.1.1.1.1.1.1.1.1.1.1.1.1.1.2.3.1.1.3.1.1.1.1.1.3.1.1.1.3.3.1.1.1.1.3.1.1.1.1.' U t 7 5 5 7 7 7 8 8 7 q 8 q e e q q e 0 0 q e e 0 q q e e 7 6 e e e 6 e e q - U 2.|.1X>X>X>X>X>X>X>X>X>X1X>X>X2X2X4XXX_.U 5 8 8 e y q y 9 e y 9 9 e 9 0 7 0 0 9 0 0 0 0 e 9 0 u y 9 0 y 0 0 0 0 0 0 7 6 e e 7 7 6 7 : 8 t T ' ] [ 3.,.] 3.1.3.1.1.1.1.3.' 1.' :.,.' 1.,.1.1.1.1.1.` J t 7 7 7 7 q q 7 q q 7 7 q q 7 q q 8 q 8 8 8 q 8 8 8 8 8 8 8 q e e e 9 e 9 e e e e e e 6 6 6 6 u z ( 3.3.2.2.3.,.` ,.j.].<X}.}.}.W.}.}.Q.=X:X>X>X>X>X}.>X<X.Xc.' ' _ ` 1.] [ ] [ 0.[ 0.[ ] ] ] 0.[ 0.[ 0.1.1.1.1.1.1.1.1.1.1.1.1.q.1.1.0.3.3.1.1.1.1.3.3.1.1.3.3.1.1.3.3.1.1.1.1.1.1.1.1.1.1.1.1.1.1.1.3.1.1.1.3.3.1.3.1.1.3.1.3.2.1.1.3.3.1.1.1.1.1.1.` ) 1.:.` U r 7 7 7 8 e q B $ B $ 0 0 0 u 0 0 0 0 0 0 0 0 6 e 7 6 6 6 7 7 0 6 5 9 8 - * U 4. X4X}.XX}.<X$XXX4X$X2X2X<X2X4X4X4X X_.v - e e e 0 0 0 u 0 0 0 ^ $ $ $ ^ $ $ | $ B $ $ B $ $ $ B $ B $ $ $ B $ 0 0 7 e e e 8 q q 8 5 8 t T ] 1.[ [ 3.[ 3.3.] 3.3.1.1.1.,.1.1.] ] ,.] [ ' 3.' 3.3._ J t e e q q q 8 8 8 7 7 8 q 8 7 e 5 8 8 0 0 8 e 8 7 8 e 8 8 0 0 0 6 7 0 7 6 6 e 7 8 8 e e e 6 6 ",
",.+.#.#.#.#.$.k.[.@X@X+X/./.+X/././.=X2X2X>X>X1X>X>X XC.,.+.:.:.:.-.2.2.:.:.) ( ( -.) ( ) ) ( ( -.-.( ) -.-.-.;.) ) ) ) 1.;.] ) ;.;.) ] ;.) ;.;.] ) ;.) ;.;.` ) ;.) ;.;.` ) ;.) ;.;.` ) -.-.) 1.` 1.2.1.1.3.1.3.1.3.1.3.1.3.1.3.1.1.1.1.,.1.1.1.,.1.3.1.' T l 8 7 7 q 7 q e e e q 7 8 q 0 e q 0 q e 0 e q 0 e 0 e e e e 6 q e q q q 8 - H <..X<X1X>X>X>X<X<X<X,X{.]. X].|.{. X|.Z.K 8 e e e q y q y 9 y e e e e 0 q 0 9 q 9 0 0 0 0 0 e 0 0 0 0 0 0 0 0 0 0 6 e e a j i e a e 8 d l T ] 1.3.3.3.3.1.1.1.1.,.1.3.1.1.1.1.' 1.1.' ` ,.:.,.1.1.) Y l r r 8 t 8 t t 8 t t t t e t t e j t t t e a a j e e a a 8 8 8 e 9 e e 9 e e e a a a a a a a j m ` 3.2.,.p.,.,.<.a.j.{.3X+X/././././.2X/.}.=X>X1X>X:X>X<XXXc.W Q _ _ _ ) ] ] _ ] ) ] ) ] ] ] ] ] ) ) ] ) ] ] ) ) ] ] ) ] _ ] _ ] _ ) ] ] _ ] ] ] ] ] _ ] ] _ ] ] ] ] _ _ ) ] ` ] ( ] ) 1.) ] ` ) ] ` ' 1.1.3.3.3.3.1.3.1.2.1.1.3.1.3.3.0.3.2.1.1.1.1.:.` ` :.` T l r r e t e y B $ B $ 0 0 0 0 0 0 0 0 0 0 0 0 0 6 0 0 0 0 0 0 7 6 5 5 e - - U d.XX4X}.4X4X4X4X4X$X.X X]. X X.X$XXX XN.C ; e e 0 u 0 0 y 0 b $ $ $ $ $ $ $ $ $ $ $ ^ $ $ $ B $ $ $ $ $ B $ B $ 0 7 e e a a b e j e 8 t n T ] [ ] 1.] 3.[ 3.3.3.1.1.3.1.1.1.3.] 3.] 3.] ' ,.' 1.3._ T l q t a t t t t e t t t e j e d a e j e a a e a a j e a a e 7 7 0 6 7 6 e e e i u i i i i e i ",
"j.l.j.j.g.j.c.E.3XfXjXpXpXpXiXiXiX3X2X2X2X>X>X>X>X}. Xl.K K A U A U U U A A C V K V C U A A A A A V A A A A A U A U U A A V J J A V J V J V U A J J K U U V J J J A U A A J U A U J U V K H U U ( ) 1.q.1.1.3.3.3.3.3.2.2.3.1.1.3.3.1.3.3.1.3.1.3.1.3.1.] / J H M m V V V V J V e 7 8 q 8 q 0 8 0 7 q e q e e 6 q q e q q 8 q e e y 5 o V 4..X<X<X>X>X>X>X<X,Xj.s.<.d.l.8.8.N.e.2.C 7 0 y y q y y y q e 9 e e 9 0 0 0 e 0 0 0 e 0 y 0 0 0 0 0 0 0 0 0 0 0 u 6 a n N U V N N V m H U _ 1.3.[ [ ,.3.1.3.,.1.1.1.3.,.1.,.1.1.1.1.1.1.' 1.,.3.1.] ( H M H H H H N H N N M H M H H H H N N N M H V N M V V N N n q q q e q 9 9 e b n A A A N B N C U R d.x.j.f.j.c.j.j.j.].5XhXpXpXpXpXpXiXgX3X2X-X=X2X>X>X1X<X,Xs.D D P J J J J ! J ! ! ! ~ J ! J J ! ! ~ J U U ! A J U J U ~ J J J J J J U J U J J J J J U J U J J J J J J U U U U J U J T A U U U U U Y / ` ' [ 3.,.1.2.3.2.3.3.q.3.2.3.2.3.2.3.3.1.1.:.1.` ( ( ` T J J H J V B J ! B ! $ 9 0 0 0 0 0 0 0 0 0 0 0 0 e e 6 e 7 0 7 7 9 5 5 e - @ U 8.XX<X}.}.<XXX<X4X.Xk.g.<.8.8.8.8.B.q.-.m u 6 0 0 0 u 0 0 0 $ u B $ B $ $ $ $ $ $ $ $ $ B $ $ $ B B $ $ $ B $ $ 0 5 e V J J V V N J H J J ` ] 1.[ 3.[ [ [ 3.[ 3.,.1.1.1.3.1.,.3.1.1.3.1.1.` ` ' >.[ R U J J J J J J V V J J J J H V V V J U A A V V V V K U A m a 7 6 7 6 6 6 0 8 a M C C C K N C N ",
"D.W.D.n.R.R.W.2XpXnXNXzXkXkXlXxXvXiXiX2X>X>X2X>X>X}..X4.z j k k k n n M n k k j j j a k j j k k k k j n j n a k j j j k k b n j k n j n n j k j a n k j k b j n n j n j j j j k k a j j j j j k T ] q.1.1.1.2.3.3.2.3.3.3.3.2.3.1.1.:.2.1.3.>.1.1.1.1.1.] ` ( T / / / ( ( ( ~ ~ n 7 q 8 8 q 8 q q e q 0 0 e q e e 8 q e q 9 8 0 q e 5 5 U 2..X<X>X>X>X,X>X,XS.<.L D K U Y Y U Y U p 7 7 9 9 q 9 9 9 q 9 0 e 9 e 0 0 0 0 q 0 0 0 0 0 0 0 0 0 0 0 u 0 0 0 0 6 7 a A T ( ( R ( ( R R T ` 1.1.1.3.3.1.1.1.1.1.,.1.1.1.1.1.3.,.1.,.' 1.1.1.1.1.1.3.] _ T T R T T T T W T R R R R T T T T W T R T R R R ( ( ~ ~ m e 6 e 9 e 9 e e n V Y ;.^ ^ ^ ^ ^ -.2.C.D.S.S.S.S.D.n.R.2XgXvXzXnXzXnXxXvXvXiX-X2X1X1X=X=X1X<X.Xa., r g t t t n M M n n n b n n M n M n b n n n n n n n n j n j j j l l t j t l l j n n j n t n l j j n n j j j l j j j j j j k j j k j l T ) ' ,.2.2.3.3.3.3.3.3.2.3.3.3.2.3.3.2.3.1.1.:.:.1.1.-.:.( W ( ( / ( ^ / ;.^ ! B 7 0 0 0 0 0 0 0 0 0 0 0 0 e q e q e 0 7 6 6 7 7 q - - K 4. X4X}.$X4X4XXX<XR.o.L F K Y K U Y Y N a $ 6 0 0 0 0 0 $ y $ y $ $ $ $ ^ $ $ ^ $ ^ $ $ $ $ B B $ $ $ B $ $ $ B 7 7 y J ( ) ) / / / / _ / ` ] [ 3.] 3.[ 3.[ 1.3.1.1.3.1.1.1.1.1.,.3.1.' 1.' ,.,.[ ,.1._ ( ( / R ( ( ( ( ( ( / ) ( ( ( ( ( ( ^ ^ ( / ^ ( ( ( ^ A n 6 7 6 6 7 q q e j U R R R Y Y R R ",
"<X<X>X<X>X}.2XiXmXGXFXSXAXAXnXMXMXpXiX/.>X>X=X=X}.}.].@.1 > 8 5 5 5 6 6 8 5 5 5 5 5 7 7 6 5 6 5 5 5 5 5 7 6 6 5 7 6 5 5 5 5 5 7 5 6 5 5 7 6 6 5 5 5 5 6 5 5 7 5 7 5 7 5 6 5 5 6 5 ; 5 - 5 - 7 r U ) 1.3.1.1.2.1.2.3.3.2.3.3.1.1.3.2.1.3.1.1.2.3.1.3.1.3.3.3.1.1.[ q.0.2.2.0.1.( M 8 8 q 8 8 q 8 e 0 q e 0 q 0 q 0 q 7 0 0 7 9 9 e y 7 5 J m..X<X1X>X>X}.}..Xj.F d * - 5 5 ; ; ; ; ; 5 $ 9 9 9 9 9 9 0 9 9 0 0 9 0 q 0 0 0 0 0 0 0 0 0 0 0 0 0 0 0 u 0 u 6 6 6 a A ;.2.1.] 1.1.1.3.' 1.1.1.3.1.1.1.3.,.2.3.3.1.1.,.1.1.1.>.1.1.1.1.1.1.3.3.3.3.2.3.1.1.2.,.3.3.3.3.>.3.3.2.3.2.,.3.,.2.3.3.2.2.3.2.0.0.0.) V 7 7 9 q q 9 9 0 M U -.1.2.0.1.0.2.q.N.|.,X,X>X,X,X>X{.}.3XhXGXHXGXGXGXMXMXMXhX3X-X:X1X>XQ.}.,X].+.= = > : : > 5 5 5 5 5 7 5 5 7 5 7 7 7 7 5 5 7 9 5 7 7 5 5 - 5 5 5 7 5 7 ; - 7 5 : 7 5 : 5 5 - 7 - 5 5 5 : 5 ; 5 - 5 5 - 7 > - 5 ; 5 - r T ` ' 1.,.,.3.3.3.3.3.3.3.3.3.2.3.3.2.3.3.1.1.1.2.1.:.1.1.,.1.1.2.q.[ ] [ 0.;.~ b 9 9 0 0 0 0 0 0 0 0 0 q e 0 q q q 0 e q 9 9 6 6 0 - - K 8. X4X}.>X<X<X}.XXg.F > * ; ; ; ; ; ; ; 5 5 6 6 y $ 0 u u $ u y $ | $ B ^ $ $ B $ ^ $ ^ $ $ $ $ 9 9 $ y $ $ B $ 7 q n / ] q.0.1.[ [ 3.1.3.[ 3.3.3.[ 3.[ 1.3.,.1.1.1.3.,.1.1.1.1.1.3.3.1.1.1.:.1.,.,.1.1.1.1.1.3.1.1.2.q.q.1.0.3.1.q.1.0.2.0.1.0.1.1.1.;.1.2.1.^ N e e e 8 8 8 e 8 m R :.2.>.:.:.,.,.",
"1X<X<X>X>X>X2XgXvXGXSXAXAXAXAXGXMXsX3X/.=X4X4X=X4XXX_.,.1 7 ; 5 - 5 6 7 e 6 6 7 6 7 6 7 7 6 7 7 8 6 e 7 7 7 6 7 7 7 6 6 e 6 6 7 8 5 e 7 7 7 6 7 7 8 e 5 e 6 6 7 6 7 6 7 6 6 7 6 e 8 7 > 5 > 7 t T ) 0.2.1.0.1.1.2.3.3.3.3.2.3.2.1.1.1.1.3.1.1.1.1.3.1.,.3.1.1.1.0.3.2.1.q.q.] ( M q q 8 q 7 8 q 0 8 0 e q e e q q q 0 q q 8 0 q q q 7 5 V 3..X1X<X>X:X:X>X,Xc.F 1 * - 5 5 5 6 5 6 7 5 6 9 9 9 9 9 9 9 9 y 0 0 0 0 0 0 0 0 0 0 0 0 0 0 e e 0 0 0 0 0 6 0 6 6 6 a U ` q.1.1.3.2.3.3.1.,.3.3.1.3.1.1.1.1.1.1.1.,.1.1.1.1.3.3.1.3.3.1.1.1.1.3.1.3.3.3.3.3.1.3.,.3.>.3.,.3.3.,.3.,.,.>.3.,.1.3.,.3.>.1.1.1.1.) V 7 9 q q e y 0 7 m T 1.q.0.1.;.1.1.4.N..X<X,X,X<X<X,XQ.2X5XvXGXGXSXFXAXGXMXnXhX3X-X1X1X>X:X>XXX].#.= ; > : : 5 5 7 7 7 q q q 7 8 9 8 9 7 7 8 9 7 9 7 7 8 7 6 8 8 5 7 7 7 5 7 7 7 5 8 7 5 7 7 7 8 5 7 7 7 7 7 6 7 5 8 8 7 5 7 e 7 7 7 5 7 r U ) :.1.1.3.3.3.3.2.3.2.3.2.3.2.3.3.2.3.2.1.2.1.1.1.1.1.:.1.1.3.3.3.0.1.0.0.) A b 6 9 0 0 0 e 0 0 0 0 0 e e 0 e 0 e e q q 7 5 7 6 7 5 - C d..XXX}.}.4X$XXXXXz.v 1 - ; 5 5 6 5 6 6 6 6 6 6 0 0 0 $ y 0 $ 0 $ $ $ $ $ $ B $ $ $ $ $ ^ $ $ B 0 y 9 y B $ y $ 0 7 n ~ ) ] [ _ _ ] ] ] [ 1.] [ ] [ 3.] [ 3.[ 3.3.1.1.1.,.1.3.3.1.1.3.1.:.' ' 1.3.,.' 1.1.1.1.2.3.1.1.[ 0.1.3.0.0.2.0.1.1.1.2.1.1.1.1.1.1.1.;.( A 7 8 i 8 e 8 q 7 z R :.:.:.:.>.@.:.",
">X>X>X2X2XQ.2XiXhXGXVXVXVXVXVXMXGXpXiX/.2X4X2X>X4X$X X>.i > 8 5 9 9 7 e e e 0 q 7 0 q e 0 e e e e e e e e e 0 0 e 8 e e e e e e e e e e e e 0 0 e e e e e e e e 0 e e e e e e q e e 8 8 e 7 7 j ~ ) q.0.1.1.1.2.3.2.3.2.3.3.1.1.2.,.3.1.1.3.,.1.1.1.3.1.1.1.1.1.3.1.1.1.1.q.) ^ t 7 q 8 8 q 8 8 q q q q 0 0 e 0 e e e 0 e q q q e e 5 5 J 4.|.4X>X>X>X,X,X4XS.I g - 7 0 a e e e 0 0 9 y 9 w y y y 0 y 0 0 9 q q 0 0 0 0 0 6 0 0 0 0 0 0 0 0 0 a 0 0 6 0 6 6 ; a U ) 2.,.1.1.1.2.2.3.3.[ 1.1.1.1.3.1.3.1.,.1.1.1.3.1.1.1.1.3.1.1.,.,.1.,.1.1.1.1.1.1.' 1.' ,.[ ,.:.,.1.,.' ,.1.:.[ ,.1.1.1.:.:.1.1.1.0.1.` N 5 5 q y y 9 9 0 M ( 2.2.1.2.-.-.1.4.V.|.,X>X,X>X>X<X}.2XiXhXMXVXVXGXSXGXGXmXpX3X2X:X=X1X}.2X[.|.+.= ; ; ; 8 e e 0 e q e q q q e q e q q e e e q 0 q e e e e 8 8 e q q q q e e e e e e q q q e e e e e e q q e e 0 0 u e u 8 u 8 t e 8 e j T _ :.] ,.,.3.,.3.3.3.2.3.3.2.3.3.3.3.3.2.1.1.:.:.:.) :.:.1.1.3.3.1.1.1.1.0.) B y $ 9 7 0 0 0 0 q e 0 q 0 q q q q 0 q q e 0 9 6 7 e - - K 8..X<X}.}.4X<XXX4XV.F d ; 5 6 u u e i e 6 u e 0 $ u y 0 y u u 0 $ $ $ $ $ B $ $ $ $ | B $ $ $ $ 0 0 $ y y y y $ 9 7 n ! ) ] ' ` _ _ ] ' ] ] [ 3.3.[ 3.3.,.3.1.1.1.1.3.1.1.1.1.1.3.3.,.' ,.,.1.,.' ,.1.1.:.` 1.1.1.1.1.1.1.1.1.1.1.1.1.1.1.1.1.1.1.1.1.1.:.:.` ( N 7 7 8 8 q e q 7 M ( X.:.+.+.,.:.` ",
">X2X2X2X>X/.-X5XlXGXNXVXVXVXVXGXMXpX(./.:X4X>X-X4X$X_.>.i 7 8 8 6 7 6 e e e 7 0 0 0 e 0 0 0 e e e e e 0 e q 0 e e e 6 e e e 0 e e e 0 e e q 0 0 6 e e 6 e e e e 0 e q 0 e e 8 e e e e e 8 7 7 j ~ 1.1.0.1.1.1.1.3.1.3.1.3.2.3.1.1.1.3.>.1.2.1.1.3.1.1.1.3.1.` 1.] ] ` 1.1.0.] ^ n 7 7 q 8 8 q 8 8 0 e 0 e q q e e e q q 0 q q 0 q q 5 5 V 4.XX<X1X>X<X,X<X<XC.I d 5 6 0 6 6 6 6 0 9 9 9 9 9 9 q y 9 9 9 e e e q q 0 0 0 0 e 0 0 0 0 e u 0 0 0 0 u 0 0 u 6 u ; a J ` 2.1.` ` ' ,.3.3.,.,.,.1.,.1.1.1.1.1.1.1.1.3.1.1.3.3.1.1.1.,.1.1.1.1.1.3.3.1.3.1.1.1.1.1.[ ,.1.1.' ] ,.] ' 1.3.' ,.' ,.1.1.,.1.1.1._ ) J 7 5 e w e y 9 5 n T :.>.1.1.2.>.:.2.f.|.>X,X>X>X>X>X+X2XaXlXGXVXVXGXVXGXnXnXiX(.-X:X:X=X}.2X4X|.,.= = > 6 ; 6 8 7 0 q q q q q q q e q 0 q q q 0 0 6 0 e e e q q 7 0 8 0 e q 0 7 q 0 8 0 q 8 0 7 e q 8 0 0 q 7 0 0 0 8 e e e e e e u e 8 a T ` ' 1.1.3.2.3.3.3.3.3.3.2.1.1.3.2.1.3.>.1.:.1.:.` 1.:.1.1.1.1.3.1.1.[ 1.0.) ! y 5 6 0 0 0 q e q 0 e e q 0 e q 0 e q e q 7 9 9 5 e ; - K 4..X<X}.>X<X<X<X$Xz.F i ; 6 6 0 e e e 6 6 0 0 6 0 0 u $ 0 $ 0 0 ^ $ $ ^ $ $ B $ $ $ $ $ $ $ | $ 0 9 y y $ $ y y 7 7 b ~ _ [ _ ' _ ' ' [ ] ] ] [ ' 3.3.[ 1.1.1.3.,.1.1.1.1.3.,.2.1.1.1.1.1.` ,.` 1.,.` 1.1.1.] 1.] 1.] [ ] 1.] ] ] 1.1.1.1.-.1.:.1.:.:.2.:.:.` R N > 7 8 8 8 8 0 5 M R W +.:.>.+.+.@.",
":X>X>X2X>X-X-X3XlXGXVXVXVXVXAXAXnXpX(.Q.:X>X}.}.2X}._.2.1 ; e 6 9 9 9 q e 7 9 q 0 0 q 0 q 0 q 0 e 0 q 0 0 q e e q q e 0 e 0 q q 8 e q e e e 7 0 q q e 0 q e 0 6 q 0 0 e q 0 0 e 7 e 0 q e 7 8 j ^ ) 0.0.] 1.1.1.1.1.2.1.3.2.1.1.1.1.>.3.1.1.2.1.,.1.2.3.3.1.1.' ' ` ` ` 1.1.) ~ j 5 7 q q 8 8 q 7 e e 0 e q e q e q e q e q e e q b 7 5 V 3..X<X,X>X>X>X,X<Xv.I j - 8 0 0 7 9 6 0 9 9 9 9 9 9 9 9 9 e 9 0 e e e e 0 0 9 0 0 0 0 0 0 0 0 0 0 0 0 0 0 6 u e 6 ; i K ( 1.` ` W ` :.:.1.1.:.1.,.3.1.,.1.3.1.1.1.1.1.3.1.3.1.3.1.1.1.1.1.1.1.1.3.1.,.1.1.1.1.,.1.' ,.1.,.' ,.' 1.' 1.,.1.,.' 1.,.:.1.1.1.1.1.` V 7 5 q q y q 9 5 t T 1.3.,.1.:.1.,.3.d.].>X>X,X:X>X+X+X5XpXvXGXVXVXVXSXGXGXvXiX;XQ.:X:X=X>X2X}.|.>.= ; > 6 7 5 6 7 7 7 q 9 0 7 0 0 7 0 7 9 q 7 9 7 0 7 7 9 0 6 9 7 0 7 0 0 7 9 7 0 7 7 0 9 7 0 7 0 9 0 7 0 7 9 0 9 6 8 7 0 6 6 6 0 6 e 8 j T ` ` 1.1.,.[ 1.1.1.:.1.2.1.1.1.1.1.1.1.1.1.1.1.1.1.1.1.1.1.:.1.1.1.1.] _ [ ) ! e 7 e e e e e e 8 8 q e e q q e t q q q e 9 6 7 6 e - - A l..X<X}.<X<X>XXX4Xz.K d 5 7 9 6 6 6 6 0 6 0 u $ 0 $ $ u y u y 0 B $ $ $ B $ B $ $ $ b $ y u 0 9 0 0 0 0 0 7 0 7 7 5 k ~ _ q.[ _ ' ' ' [ [ 3.' [ 3.3.3.3.3.1.3.3.3.1.1.1.1.,.1.1.1.1.1.1.1.' 1.' 1.:.1.1.1.1.1.' 1.] 1.' ] 1.' 1.1.1.2.:.` 1.:.1.2.3.1.1.:.,.:.( N - : 8 7 7 8 8 5 l R W W +.+.,.,.@.",
"=X:X:X=X=X=X>XaXbXMXVXVXVXAXAXMXnXpX(./.Q.:XQ.Q.2X X_.>.i 6 e 7 6 9 5 0 0 0 8 9 0 e e e e e e q 8 7 q e q 8 q 0 0 e e q q 0 e 0 q 0 q 0 q 0 0 e e 0 e q 0 e q e e e q e e e q q 6 7 7 8 e 7 7 j ^ ;.1.1.1.] 1.1.1.1.1.1.1.:.1.1.1.1.3.1.1.,.3.1.1.1.,.1.3.3.3.3.1.] ] :.:.1.) T t 7 7 8 8 8 q 8 0 q 0 7 0 0 e e e e q q q e e e q y 5 5 U 3.|.<X<X>X>XXX,X<XC.I d - 7 q 0 0 0 0 0 0 0 0 y 9 y y y 9 9 y 9 e 9 e 9 e 0 e 0 0 0 0 0 0 0 0 0 e y u u 0 6 e e 6 5 i C ( 1.1.` ` W :.' ' :.1.' 1.1.1.1.1.3.1.3.1.,.1.1.1.,.1.1.1.3.1.3.1.,.3.1.1.1.1.' ,.' ,.' 1.1.1.' ,.1.1.` 1.,.1.1.' 1.1.:.:.1.1.1.1.:.2.( V 7 - 7 q q 9 5 # b T ` 2.>.3.:.1.,.>.d.].:X,X:X:X>X}.+X3XhXxXGXVXVXFXFXVXGXMXpX;X/.*X1X=X=X4X4X|.,.= = 8 i e e e e 8 0 0 q 9 0 9 0 0 0 0 0 0 0 0 0 0 0 0 0 0 0 0 0 0 0 0 0 0 0 0 0 0 0 0 0 0 0 0 0 0 0 0 0 9 0 0 0 7 0 0 6 6 0 6 6 6 6 6 i T ` :.` :.' 1.` 1.1.1.2.3.1.:.:.1.1.2.1.1.1.1.1.3.1.2.3.,.1.1.1.1.,.1.` ` [ / T t 7 q e e e q 8 e q e e q e e e q e e e q 0 9 0 0 e - - K 4. X<X}.>X2X>XXXXXV.F i @ 6 6 6 6 6 6 $ 6 9 0 0 y u 0 0 0 $ 0 $ $ $ B $ $ B $ B b b $ y 0 0 0 y 0 0 0 0 6 6 7 0 0 7 j ~ ] 3.[ _ _ ' [ ' 3.] 1.3.3.1.3.3.3.3.2.3.3.1.1.3.1.1.1.3.,.3.1.,.1.1.1.1.1.' 1.' ' 1.:.:.' 1.1.1.] 1.1.1.1.1.1.1.1.1.1.1.1.1.1.1.:.:.' ( N > : 8 8 7 q q 5 l ( W +.:.,.+.+.:.",
":X:X>X=X=X=X=XaXbXGXVXzXVXVXVXnXzXsX;XQ.>X>X>X}.>XXX X2.i > e 6 7 9 0 q 0 0 7 0 0 q 0 q 0 q e q e q 0 e e 0 q 0 0 e 0 q e e q 0 0 8 e 0 q e 0 e e q 0 q 0 q 0 q 7 0 0 q 0 q 0 e e q 6 0 e 7 7 j ^ 1.;.1.) 1.1.1.` 1.1.1.1.>.1.1.1.1.1.1.1.1.1.3.1.1.1.1.3.3.3.3.1.1.:.1.1.1.( ~ M 7 q 8 q q q q q e e e q e e e q q q 8 8 q q e e q 5 5 J 4.|.<X<X<X>X>X<X<XS.P d - 9 0 0 0 0 0 0 0 0 0 9 q y 9 9 y e 9 0 e 0 e e e e 0 0 0 0 0 0 0 0 0 0 0 a 0 y 6 0 u 6 6 5 i A ( :.` ` ` ` ` :.:.,.' 1.1.,.1.3.1.1.1.1.1.3.1.>.1.1.1.,.1.1.1.1.1.1.1.3.1.3.1.1.1.' 1.] ,.` ,.' 1.1.1.,.3.' 1.' 1.' ,.,.1.,.3.1.:.1.:._ J 8 8 q q q y q 5 j T ` >.>.2.:.:.2.2.d.].<X>X>X}.>X+X2XiXpXnXGXSXVXFXSXFXGXnXlX;X/.Q.>X:X=X6X4X X+.= = 8 8 8 q q q e 0 q e e 0 q q e q 0 q q q 0 0 9 e e 0 q 0 q q q 0 0 e q 0 0 e e 0 e 0 0 e q 9 0 q e 0 e 0 0 0 0 0 6 6 6 6 6 e 6 6 6 j / ) ` ` ` ' ` :.:.1.3.3.1.:.1.:.1.1.1.1.2.2.1.2.2.2.3.1.2.1.1.1.] 1.' ] ] 0.) T b e e e e e a e e q e y e e q e e q q e q 7 9 7 7 8 ; = K 4..X<X>X>X<X<XXXXXz.F d ; 6 6 6 6 6 6 6 6 6 0 0 0 y 0 0 0 y 0 0 B $ $ $ $ $ B $ $ b 0 u y $ $ u u 0 0 0 q e q q 7 7 n / ] q.[ _ [ ' [ 3.[ [ [ 3.[ 1.3.3.2.3.3.3.,.1.1.1.1.1.,.1.1.1.1.1.1.,.3.,.,.3.1.,.' 1.1.1.,.1.,.1.1.1.1.1.1.1.1.1.1.1.1.1.3.1.1.1.>.1.1.R V 8 > 7 7 7 t q 5 M R W +.:.+.:.+.,.",
"1X:X:X>X=X=X1X6XbXMXFXFXNXVXVXzXzXpXyX(.2X3X-X3X3X$X X8.1 8 u 7 9 7 0 q q 0 0 9 0 q e q 0 e e 9 0 0 e q q 0 e e q q 0 e q 0 e e q 0 e q 0 e q q 0 0 e e e q e e 0 e e q 0 e q e 0 8 e 8 6 8 7 j ^ 0.;.1.1.1.;.1.:.:.1.3.1.3.3.3.1.1.3.2.3.2.1.2.2.1.3.1.3.3.2.3.1.` 1.` ] _ ( T M 8 8 8 8 8 8 q 8 e e e q e q q q 8 q e q 8 7 8 8 7 5 * H <.|.<X<X>X<X<X<X<XV.P j O 9 0 e 0 0 0 0 0 0 9 y q 9 y e e 9 y 9 e q e e 9 e e 0 0 6 0 0 0 0 0 9 a a a 0 e 6 6 6 6 6 k K R 1.` W ` ` ` ' ,.1.' :.1.1.1.1.1.1.,.,.1.1.1.3.1.3.1.1.1.3.1.1.3.1.,.1.1.3.,.1.,.,.3.3.,.3.,.,.,.,.,.,.,.3.,.,.,.3.3.,.>.>.:.2.1.1.:.` J l 8 t 8 7 q 8 8 h R ` >.<.2.2.<.<.3.j.].,X>X>X>X>X}.2X3XpXxXGXSXVXCXVXGXFXnXjXyX/./.-X/.2X3X4X X@.= = > 7 8 e e e q e e e e e q e e q e e 0 e e q q 0 q e e 9 0 e 0 9 0 q q 9 0 0 q q q q e q 0 q q 0 e q q 0 0 0 0 0 e 6 a e e 6 6 6 7 j R :.] 1.;.` 1.1.;.1.3.2.1.) :.1.1.:.1.:.1.:.1.2.3.3.3.2.3.1.:.] ' ` ` ] ] [ ( T j 8 e e 8 a e a e t t t t e t 8 7 e e r 8 ; 6 ; ; > = * K g.{.<XXX}.4X<XXX<Xz.F i - 6 6 6 9 6 6 6 6 0 0 0 $ u $ u $ $ 0 u $ $ B $ B $ $ $ b $ 0 y y u y 0 y a e 0 8 8 e q 7 7 j ! [ q.[ ' ' { [ 3.3.3.3.3.1.1.>.3.3.1.3.3.3.3.1.,.3.1.1.1.3.1.3.1.1.1.3.2.1.1.1.1.1.1.1.1.1.1.1.1.1.3.1.,.1.1.1.1.1.>.1.1.3.>.1.,.3.3.:.Y H d r > > > 8 8 : h I W +.+.@.+.@.+.",
"=X:X1X*X*X*X=X;XbXMXFXFXzXFXVXAXzXlXjXiXiXsXpXpXfXdX%Xe.1 ; u 7 6 9 6 0 q 9 0 9 0 q q e e e 9 e e 0 0 q e 0 0 q e 0 0 q e 0 0 q q e e 0 q e e 0 q e e 0 q e q 0 q q e e e 0 q 0 q e 6 e 8 8 8 a V A A U A U C U U U ( 1.3.2.3.3.,.1.1.3.1.1.1.1.,.1.2.3.3.3.1.1.1.' 3.3.3.1.' ` J N V N V N V V N m V N V V N m H N H T ` ` ` W ' :.R W 4.C.XX,X<X>X<X,X<X<XA.I d * 9 0 0 0 0 q 0 0 0 y 9 e y q y 9 y 9 0 e 0 q 9 e e e 0 0 9 0 0 0 q 7 6 a m V H N N N v m N K R ` 1.1.` ` ` 1.1.:.:.:.' 1.1.3.1.3.1.3.1.1.1.3.3.1.3.1.1.1.1.3.1.1.1.3.1.3.1.1.' ,.,.1.,.1.1.1.,.,.' 1.,.,.,.1.1.1.1.:.1.:.:.1.:.>.,.,.,.:.` ` ` W :.:.) R ,.s.x.V.A.C.C.c.V.V.n.{.,X>X{.>X}.}.+X3XpXnXGXCXVXCXSXAXGXGXkXpXpXdXiXfXdXhXdX#X%.< = ; 7 6 6 0 0 q q q q e 0 q q 0 q e q e 0 0 q e e 0 q q 0 e e q q 0 q e 0 q e e 0 e e e 0 0 e q 0 e 0 0 e 0 0 0 6 e 6 e 6 u e e 6 e i V V U A K U K V U T ) 1.1.` :.1.:.:.1.1.1.1.1.3.>.3.3.2.3.3.3.3.3.] ' ] ] [ ] ( ! V V V V H C V H J V V V V M N N M H Y ` X.` X.W +.X.I <.C.XX>X}.<X<X<X}.XXB.C d ; 5 0 6 6 6 6 6 6 6 0 u $ 0 u $ u 0 $ u $ $ B B $ $ y $ $ b $ y 0 $ u 0 b n V V V V V V H H J ) _ [ [ [ _ [ { 3.3.3.3.3.3.1.1.3.3.3.3.3.3.1.1.1.1.1.1.1.1.1.1.1.1.1.:.1.1.1.1.1.1.1.1.,.1.3.1.1.1.,.3.1.1.3.3.3.1.1.1.1.3.1.:.1.3.3.,.+.,.+.W W E W W W W $.d.l.z.x.j.z.x.j.",
"=X1X*X*X=X*X=X6XbXMXzXFXFXFXSXFXAXVXzXzXxXnXnXnXAXvXeX9.1 6 6 0 9 6 9 0 q 8 9 0 0 q q 0 e 9 e e e q e q e q e e e q e e e q e q q 0 e q q 0 q e q 0 q q q 0 e q e 0 q 0 q 0 e q e 0 0 0 6 e e e u u a e a i a i a k U 2.3.3.3.3.,.3.3.1.1.,.3.1.2.1.1.3.3.3.1.' ` :.3.3.3.3.3.3._ / _ _ ] _ _ ) ] ] ] _ ( ] _ ] ' 1.,.V..X.X.XXXXX X.X XXXXX,X,X>X<X<X>X<X<XV.I t - 7 0 0 0 0 0 0 e 0 e 9 y 9 e y e e 9 9 e e q q e q q 0 0 0 7 0 0 0 0 6 a m ^ 1.:.:.:.:.( R ` ' ,.1.1.,.1.,.' ' 1.' 1.1.3.1.1.1.1.1.3.1.3.1.1.1.1.1.1.1.,.1.1.,.1.1.1.1.1.' 1.1.:.1.' ' ' :.` ` ` 1.` ` ` ` ,.' ' :.` 1.1.:.:.` 1.:.,.<.l.G.F.|.|..XXX.X].|.{..X,X.XXX.X,X>X>X}.,X}.{.>X>X}.>X+X3XpXvXGXSXSXVXSXFXHXSXzXcXcXnXnXnXvXnXvXeX7.< - ; 5 6 7 0 9 0 0 0 0 7 0 7 7 0 6 6 6 q q e 0 e q 0 e 0 q q 0 0 q e q 0 e q q 0 8 q 0 q e q 0 e 7 e q e 0 0 0 0 0 6 6 u 6 6 6 e 6 i u 8 8 i e i 8 8 8 a j T :.` ' 1.` 1.' :.1.1.1.1.1.1.2.3.2.3.2.3.2.3.3.] ] ] ] [ ] ] ) ) _ ) ) ( _ ( ] ( ( ` ` ( :.:.,.1.l. X XXX.X.X.X XXX{.XX}.<X}.>X2X4X}.XXl.F d @ 6 6 6 0 6 6 6 6 6 6 $ u 0 0 0 0 0 0 y B $ $ $ B B $ b $ y $ b 0 0 y b b n ) _ _ _ _ ] _ _ ] ] ] [ _ [ [ [ p.3.3.3.3.3.3.3.2.3.2.3.3.3.3.1.3.1.3.1.,.1.1.,.1.3.1.1.1.1.3.3.1.,.1.1.1.1.1.1.1.3.1.1.1.3.1.1.1.>.1.2.2.1.2.1.2.3.,.' >.a.j.|.].].].{..X{..X.X{..X{..X.X{..X{.",
"1X*X1X*X1X*X1X6XhXMXFXzXFXFXSXCXVXAXNXVXAXVXAXSXSXnXfXL.< ; 6 0 9 6 0 0 e 0 0 7 0 0 e 0 e e e 0 q e 0 0 e 0 q q e 0 q q 0 0 q e e e 0 q e q 0 q e q e 0 e q e 0 q q e 0 q e e q 0 0 e 0 e u 6 e 6 6 6 6 6 6 8 i u a A 1.2.3.3.3.[ ,.3.1.1.1.1.3.3.1.2.3.3.3.3.1.` 1.1.3.2.3.3.3.' _ ' ] ] [ ] [ ] ] ] ] ] ] ] ' 1.,.,.S.XX,XXX,X<X,X>XXX,X>X>X>X>X<X>X<X<X<XV.I d - 5 0 9 0 0 0 0 9 e 9 q y q q 9 e q 9 0 y q e q e 0 0 0 0 0 0 9 0 e 0 7 a M ( :.W W W :.W ` ` W ' ` ,.,.' ,.1.,.:.:.1.1.3.3.] ,.[ 1.] 3.] 3.3.[ 3.[ [ 3.] 3.[ 3.3.,.3.3.1.1.1.1.,.] 1.,.` :.1.:.,.1.' 1.,.` ` ` 1.` :.:.:.:.:.:.:.:.,.d.c.|.XX<X<X<X<XXX]..X{.{.,X>X>X<X<X>X,X>X>X}.>X}.>X>X}.+X2XaXnXHXCXVXCXSXVXVXHXAXkXZXAXAXZXcXAXcXeX9.< < < 6 6 0 0 0 7 0 0 0 0 8 0 8 0 e 8 e 0 q 0 q e e e q e e 0 q e e 0 e 0 e 0 q 0 0 q e 0 q 0 q e 0 q 0 e 0 0 0 e 6 e 6 e 6 6 6 e 8 6 6 6 e 8 6 6 e 8 7 a n U ` 1.1.' 1.' 1.1.1.1.1.1.1.1.1.1.3.3.2.3.2.3.1.] ] ] ] ] ] ] ] ] ] ] ' ` ` ` ` W ` :.` +.,.>.,.#.c..X}.}.$X}.}.}.XX}.}.>X<X}.<X<X}.XXXXz.K i ; 0 0 0 6 6 6 6 0 9 0 u y 0 0 0 $ 0 $ u $ $ B $ $ $ y $ $ b y b u 9 0 u b n ( _ _ [ _ [ [ _ [ _ ] [ _ ] [ [ [ [ 3.3.,.1.1.1.1.2.1.3.2.3.,.1.1.3.1.:.1.3.1.1.1.3.1.1.1.1.1.:.1.1.1.1.1.3.1.,.1.1.1.3.:.2.1.3.1.1.1.1.2.3.1.1.3.1.3.,.p.a.c..X}.}.}.}.}.{.>X>X>X>X>X<X>X<X}.$X",
"=X1X*X1X*X*X=X6XhXMXMXFXVXCXCXCXSXNXAXVXAXAXAXSXSXAXxXL.< 1 u 0 6 9 7 0 0 7 0 0 q e q e e 9 e e 0 e q e 0 e 0 0 0 0 0 0 7 0 0 0 0 0 0 0 0 0 0 0 0 0 0 0 0 0 0 0 0 0 0 0 0 0 6 0 0 0 6 0 6 6 6 6 6 ; 6 6 5 ; 6 5 e u A 1.3.3.3.[ 3.[ 1.3.3.3.>.3.1.3.3.3.2.3.] ' 1.1.1.2.3.3.3.3.[ [ ] 3.[ [ [ 1.[ 1.1.1.3.3.3.[ 3.>.3.A.,X<X,X,X,X<X,X,X,X>X>X,X1X<X>X<X<X<XV.P d - 9 9 0 0 0 q 0 0 0 y y 9 9 y y 9 9 y 0 9 0 0 0 0 0 0 0 0 0 0 0 0 u 6 5 a V W ,.' ` W ` ` :.:.` ` ` ` 1.1.,.1.' ,.` ,.3.' 3.,.3.,.3.,.,.3.,.[ 3.3.,.1.3.,.3.,.,.1.,.3.,.3.,.1.' ,.,.,.,.1.,.,.1.,.1.,.,.1.,.1.:.' ,.:.:.:.1.:.1.:.+.,.<.V.,X<X<X<X<X1X<X>X,X{.:X,X,X<X<X<X<X>X>X>X>X,X>X}.>X+X/.3XiXzXGXCXCXSXVXSXAXSXZXzXZXZXAXAXAXAXnXeX9.@ = 6 6 9 0 7 0 0 q 8 0 q q 7 0 8 8 0 0 7 e e q 0 q 6 e 6 e q e 0 q q e q q 0 e e e q q 0 e e q 0 e e q q q 0 0 0 0 6 6 6 e e 6 6 6 6 6 6 6 5 6 5 6 5 5 e k T :.1.1.,.1.,.1.1.3.3.,.1.1.1.1.1.1.3.3.3.3.3.3.3.1.[ ] ] ] ] ] 1.[ ] 1.] 1.1.1.1.:.:.' 1.,.,.,.<.Z.XXXX<X4X>X}.<X}.}.<X<X>X4X>X<X}.XX$Xl.F d - 7 6 6 0 6 6 6 0 0 0 $ 0 0 0 0 u 0 0 y B $ $ $ $ B $ $ b $ b $ $ 6 6 6 b V ) [ [ [ [ [ [ [ [ ] _ [ [ [ [ [ [ q.2.3.1.1.1.,.1.3.1.1.3.3.1.3.1.1.3.2.1.3.1.,.1.1.1.1.1.:.,.2.1.,.1.,.1.1.1.1.,.3.1.1.1.3.1.1.3.2.1.,.1.1.,.1.1.1.[ ,.,.a.n.<X<X>X:X:X>X>X>X<X<X<X>X<X>X4X<X>X",
"1X=X:X:X:X=X-X6XbXMXVXFXCXFXDXSXSXSXAXVXAXAXSXSXSXZXxXr.p @ s $ 6 $ u 0 0 0 0 q e e q 0 0 e 0 0 0 0 y 0 e 0 e 9 7 0 0 e 0 0 0 0 0 0 0 0 0 0 0 0 0 0 e 0 0 0 0 0 0 e 0 0 0 0 0 0 0 0 0 0 0 0 0 7 6 6 $ 6 $ u 6 6 u a U 1.:.] 1.3.3.3.2.3.3.3.3.2.3.2.3.3.1.1.1.` ' 1.3.3.3.[ 3.3.3.3.1.[ [ 3.3.[ 1.3.3.[ 3.3.[ 3.' 1.,.x.,X,X,X,X>X1X,X1X>X<X1X>X<X<X<X>X<X<XA.I j - 0 q e 0 0 9 9 0 y 0 9 y 9 y e 9 0 0 q 0 0 0 0 0 0 0 0 0 0 6 e 0 e 9 6 a N ( ,.:.` Q _ ' :.' ` ` ` ' 1.,.,.,.` ' :.` ,.' 3.3.' 3.1.1.,.1.1.1.3.] 1.1.3.1.,.1.1.3.,.1.,.1.,.3.,.,.,.,.1.,.,.1.:.,.1.1.:.1.:.:.:.:.:.:.:.:.:.:.:.:.1.@.a.V. X4X<X+X}.1X>X}.}.W.{.:X>X>X>X>X>X>X<X>X>X>X>X>X>X+X/.@XiXnXGXSXCXNXVXVXSXAXVXNXAXVXVXVXSXAXAXeXr.< < e 0 0 0 7 7 8 8 0 0 0 7 0 0 7 0 0 q 0 e 7 e 0 8 q e 7 0 q e 0 e 0 q q e 0 0 q 0 0 q e e 0 q q e 0 e 0 q e 0 0 0 e 6 6 0 6 e 6 6 6 6 6 6 6 6 6 6 6 5 u n T 1.1.3.1.3.2.q.3.q.3.3.3.1.1.1.1.1.1.,.1.3.3.3.] 3.] ] [ ] [ ] [ [ [ q.[ [ 1.1.1.:.` 1.1.1.,.2.,.v.}.<X}.$X4X}.}.}.4X}.<X4X<X}.<XXX<XXXx.F d @ 6 6 6 6 6 6 6 0 0 0 0 u 0 u 0 0 $ u b u 0 0 0 0 6 6 0 u 0 6 6 6 6 6 6 b V ) ] 1.[ [ ] ] [ ] [ ] ' ] ' [ 3.' 3.,.1.' 1.1.,.1.1.1.1.1.1.1.1.1.1.:.:.1.1.1.1.1.:.1.:.1.1.1.:.1.:.1.:.1.:.1.1.1.1.1.1.1.1.1.1.1.:.2.2.2.3.1.1.3.,.3.' p.a.v.<X<X>X>X>X=X>X>X>X>X>X>X>X>X2X2X>X",
"=X1X=X*X:X=X=X6XbXMXVXVXCXCXDXSXSXSXAXSXZXAXSXZXAXnXxXr.s @ s u u u 0 6 0 0 q q 0 q e e y 0 e e e 0 0 0 e e 0 0 0 0 0 0 0 q 0 0 0 7 0 0 0 0 0 0 0 0 0 0 0 e 0 0 0 0 0 0 0 0 q 0 e 0 0 0 e u 0 0 0 7 6 6 6 a a u e a A 1.] ` ] ,.[ 3.[ 1.2.3.3.3.3.3.1.1.1.1.:.1.1.3.,.3.,.,.3.3.3.3.[ [ 1.[ [ [ [ [ 1.[ 3.[ ] 3.` ' ,.x.,X:X,X>X>X:X>X:X1X,X:X>X<X>X<X<X<X<XC.P d + 7 e e 9 0 y y 0 9 9 e 0 9 0 0 0 q 0 0 0 0 0 0 0 0 0 0 0 0 0 0 u u 0 6 a N ) ,.W ` Q ` ` ,.W W ` W ' 1.' 1.,.,.:.' ,.1.[ ' 1.1.1.' ' ' ' ' 1.' ,.' ] ' ' [ 1.1.' ,.1.' 1.1.' ` :.' 1.` 1.:.:.:.1.:.:.:.:.:.:.:.1.:.1.:.:.:.1.:.:.:.,.<.c.XXXX}.}.}.2X>X:X*X{.:X:X>X>X>X>X>X<X<X>X>X>X>X>X>X}./.2XpXxXVXCXSXNXZXSXAXSXSXNXVXVXSXSXVXAXnXeX7.< ; u e 0 0 6 7 8 7 7 6 7 0 7 0 0 7 0 e 7 e 0 0 7 8 6 q 0 e 6 q 8 q e e 0 e q e e q e 0 e q 0 e 0 e q q 0 e 6 e q q 0 e e e 6 0 6 6 e 6 6 6 e u e u 5 5 8 k T 1.1.3.1.1.3.3.3.3.3.1.3.1.3.1.' 1.1.1.1.3.3.3.1.] [ [ [ ] [ [ [ [ [ ] [ [ [ 1.] 1.1.1.1.' >.3.a.Z.XX}.<X>X>X$X<X}.4X}.2X}.}.4X<X4X$XXXz.v i ; 6 0 0 6 6 6 6 u $ 0 0 0 0 0 0 0 0 u $ 6 0 6 u 6 0 0 0 0 0 6 6 6 6 6 6 a V ) 1.1.0.1.[ 3.] [ ] ] ] ` ] [ 3.1.1.1.1.,.1.1.' 1.' 1.,.1.1.1.:.:.1.1.1.1.:.1.1.1.2.1.1.:.:.1.1.:.:.:.:.:.:.:.:.1.:.1.1.1.:.1.1.1.1.1.3.:.1.3.1.3.[ [ ' ,.a.n.2X4X>XQ.>X}.>XQ.>X>X>X}.2X>X>X=X>X",
"=X:X=X>X=X=X>X3XhXMXVXVXCXDXSXDXSXCXNXAXAXAXAXSXSXnXxXr.s s $ $ u $ 6 6 7 0 0 q q 0 0 e e e y 0 e 0 e a u y 0 e 0 0 0 0 0 0 0 0 0 0 e 0 0 0 0 0 0 q 0 0 6 0 0 0 0 0 0 0 e 0 0 0 6 0 0 0 0 0 0 0 0 0 6 0 6 u e 0 u b A 1.] ] ' ' [ [ [ 1.[ 3.1.3.3.3.1.1.' 1.:.1.1.1.3.1.3.,.3.,.,.[ [ 3.[ [ [ [ 1.[ [ 1.,.] 3.1.' :.:.x.,X:X1X,X>X1X>X>X:X>X,X>X,X1X>X<X<X<Xv.P r - 9 9 y 9 9 0 9 0 y 0 9 y 9 0 y 9 0 0 0 0 e 0 0 0 0 0 0 0 0 9 0 0 e 0 7 a V ( ' ' ' Q ` ' ' ` Q ` W ` :.' ,.,.,.:.` ,.' ' ' ' ' ' ' ' ' ] ' ' ' ' ' ' ' ' ' ' ' ' ' ` ` :.` ` ` ` ` ` ` ` ` ` :.:.` :.:.:.1.:.:.:.1.:.:.:.:.:.1.:.,.,.a.c.<XXX$X}.}.2X2X=X>X=XQ.:X>X}.}.>X>X>X>X>X>X>X>X>X2X+X/.3XiXnXAXCXCXCXVXBXCXVXBXAXVXVXVXVXVXAXnXtX7.@ @ a a a e 7 8 5 6 9 5 6 6 6 7 7 7 0 8 0 7 e 8 e q 8 8 7 8 e 6 e q 0 q 0 0 0 8 q q 0 q e q e q 0 q q 0 e e q 0 q q e e 6 0 0 6 e e 6 e 6 6 u e u 6 6 5 e j ( 3.q.3.1.] 1.] 1.[ 1.1.1.1.] 1.1.1.1.1.1.3.,.3.1.1.[ [ ] ] [ ] [ ] [ ] ] ] 1.] 1.1.1.' 1.1.,.4.,.c.>X<X}.4X}.>X>X$X}.4X4X<X>X}.2X}.XX$XV.K i 5 6 6 6 6 6 6 $ 6 6 0 0 0 0 $ 0 y u y 0 0 0 0 0 u 6 u u 0 u 6 u u 8 6 8 b V ) 0.1.0.0.] ] 3.,.] ] ] ` ] ] ] 3.1.' 1.:.' ,.,.,.' :.1.1.' 1.1.:.1.1.1.1.:.1.1.1.1.-.1.1.2.1.1.1.:.1.:.1.1.:.:.2.:.1.:.:.1.:.1.1.1.3.2.3.3.1.1.1.' ' ' #.a.k.<X2X>X>X=X}.=X>X>X>X>X2X>X>X>X>X2X",
"1X=X>X=X1X=X2X3XmXGXFXSXCXCXSXSXSXAXAXZXAXAXAXAXAXAXtXr.s @ s $ u @ $ 5 6 7 9 0 e e e 0 0 u 0 0 0 a 0 e 0 e 0 u 0 0 0 0 0 e 0 e 0 0 0 0 0 0 0 0 0 0 0 0 0 e e 0 0 0 q 0 0 0 0 0 0 0 e 0 0 0 0 6 u 6 6 6 u 0 a 6 a a ~ 1.1.3.1.[ 3.3.3.3.3.3.1.3.3.3.1.1.1.1.1.1.1.1.,.3.3.,.3.,.3.3.3.3.] 3.3.[ [ [ 3.3.3.3.[ ' :.' :.j.:X:X:X>X:X1X:X:X:X>X>X>X>X>X<X>X<X,XV.I r - 9 e e 9 0 9 y 0 9 0 9 0 y 9 9 0 0 e 0 0 0 0 0 0 0 0 0 6 0 7 0 0 e 0 5 a N ( ,.W W ` ' W ,.' ` ` ` ' :.,.,.1.' ,.` ,.,.' 3.' 1.1.,.1.3.1.[ 1.1.1.,.1.1.1.' 3.1.1.1.1.,.,.1.1.1.1.1.' ,.,.:.:.:.:.:.:.:.:.,.:.:.:.:.:.1.:.>.1.,.:.,.,.<.c. X}.Q./.Q.2X-X2X=X>X:X}.:X,X>X}.2X>X>X>X>X>X>X>X>X}.+X3XpXlXAXCXCXNXNXAXNXSXAXVXZXVXVXVXAXAXnXeX7.; @ 5 6 e 6 5 - 5 5 5 5 5 9 6 7 0 0 7 0 0 0 6 7 0 e 6 0 8 7 6 e q 8 0 e e q e q 0 e e q 0 0 e e e 0 e e q 0 0 e e 0 e q e 0 7 6 u 6 6 e u 6 e 6 6 e 6 ; 8 n / q.3.2.[ 1.[ 1.[ 1.3.3.1.3.3.1.1.,.3.3.3.1.1.3.3.] ] ] [ ] ] [ ] [ ] ] ] ] [ ] 1.1.' :.:.1.1.3.<.V.XX>X}.}.>X}.>X>X>X}.}.$X}.4X}.4XXXXXz.F d @ 6 0 6 6 6 0 u 6 9 0 u 0 u u y $ 0 0 0 0 u 6 u 6 0 6 6 6 6 6 7 6 6 8 6 a V ( 1.1.[ 1.] 1.] ] 3.] ] ' 1.3.,.1.' 1.1.,.,.3.3.3.3.,.3.,.2.:.:.1.2.2.1.1.2.1.2.1.2.1.2.2.1.1.>.1.:.1.>.:.2.2.1.2.:.2.1.1.1.2.2.1.1.:.1.1.1.3.3.[ 3.' ' <.y.n.2X2X-XQ.-XQ.2XQ.>X+X>X}.>X>X/.>X2X",
"-X=X=X>X-XQ.>X3XbXGXFXVXCXSXSXSXSXSXAXzXnXAXAXAXAXnXfXr.@ @ @ @ $ @ ; @ 5 7 7 0 q e e 0 e 0 0 a 0 0 0 0 0 0 0 e 0 e 0 u 0 u e 0 e 0 0 0 0 0 a 6 0 e 0 6 0 0 0 0 0 e 0 0 0 0 e 0 u 0 0 e 0 0 e u 0 6 6 6 6 0 e u a b U 1.1.1.1.3.3.3.3.3.1.2.3.3.3.1.3.1.1.:.:.:.1.1.3.1.,.,.1.3.3.3.[ 3.3.] [ 3.3.3.3.3.1.3.3.1.' ' ' v.,X:X,X,X1X>X>X1X:X>X>X,X>X>X<X<X<X<XV.I r - 5 q e y 9 y 9 e y 9 0 9 y 0 e 9 0 0 0 e 0 0 0 0 0 0 e e e 0 a 0 u 0 9 a N ` ' Q ' W W ' :.' W ` ` ` 1.1.1.,.,.1.[ ,.1.' ' 3.,.,.3.3.[ 3.3.[ 3.,.3.3.>.3.3.,.3.1.3.3.3.1.3.3.1.1.>.1.:.1.,.' 2.,.:.:.:.:.:.:.1.:.>.:.:.:.:.1.:.:.:.@.<.k.}.$X[.Q.Q.+X-X6X=X=X:X>X}.}.:X>X>X>X>X>X>X>X>X>X>X+X/.3XiXnXAXBXCXBXBXAXNXAXVXAXAXVXVXAXVXAXvXeX9.< @ - 7 0 - ; - 5 5 5 $ 5 5 5 7 0 7 6 0 7 7 0 8 0 6 7 6 7 6 7 0 e 6 e q q 0 q 0 e 0 q 0 q e 0 0 q e 6 0 e q q e 0 0 q e e 6 6 e u 6 u e 6 6 u e 6 u 5 5 e k / 3.2.3.1.] 3.3.3.3.3.1.2.q.2.1.1.1.1.3.1.1.1.] 1.] [ [ ] [ [ ] [ ] [ 1.[ [ [ ' 1.1.1.] ,.,.,.p.,.v.}.}.<X}.>X}.>X$X}.$X}.4X}.2X}.<X<XXXz.K i ; 6 6 6 6 6 6 u 6 0 0 0 u $ $ 0 u 0 0 $ u 0 0 0 u 6 u e u 8 6 7 6 6 5 7 j V ( 1.0.] [ 1.1.] 1.] 1.] ] ] ] ,.1.,.,.1.,.3.3.p.3.2.3.2.3.2.3.2.3.2.1.1.2.1.1.2.0.1.2.1.2.1.2.2.2.2.2.2.2.1.2.:.:.2.2.:.1.1.1.1.1.1.1.1.1.1.,.[ [ ,.[ ' <.a.P.2X2X2X-X/./.}.$X+X>X+X-X}.>X=X>X>X",
"1X=X>X=X>XQ.2XiXbXGXVXFXCXSXDXSXAXZXkXkXlXnXnXcXnXnXeXL.} } } | x m C C B n q 7 e e e 0 0 a 0 0 0 b 0 0 0 0 0 0 0 0 e 0 0 0 0 0 0 0 e 0 0 0 0 0 0 0 e u e 0 0 0 0 0 0 e e 0 0 u e 0 0 0 0 0 e 0 6 e u 6 6 6 a 0 a a V ( ( ( ` _ _ ` ( ` _ ( ` ( ( ` ( ` 1.:.1.1.>.3.,.1.1.,.,.,.,.3.' 3.' 3.3.[ [ 3.3.1.1.1.1.1.` ' ' x..X:X1X:X:X>X:X:X>X>X,X1X>X<X>X<X<X<XA.P l & 9 q e 9 9 0 9 0 0 9 9 y 9 0 y 0 0 0 0 0 0 0 7 0 0 u e y b n n n n n n m V ` ,.,.' ' ,.,.,.:.` ` ` ' :.[ ,.,.` 1.,.,.W ( R R R _ _ R W ( ( W ( _ _ R ( _ _ ( _ ( W _ ( W W ( W ` ` ` :.` ` ` ` ( ` ` -.:.:.:.:.:.1.:.2.:.:.:.,.2.:.,.g.P.5X$X@X@X@X@X3X6X6X=X>X>X2X>X>X>X>X>X>X>X2X>X>X2X:X+X/.+XpXxXSXSXVXBXZXBXAXNXAXNXzXAXzXVXzXnXvXeX9.x x C V A C m N z a 7 - 5 9 5 7 6 e 0 7 6 7 0 7 8 e e e e e 8 8 0 e q e 0 e e q q 0 e e q e q e q q e q q e 0 e q e q q 0 e 6 e 6 6 e 6 6 6 e 6 e 6 e 7 e k U ( ( ( ( _ ( ( ( ) _ ` ;.] ) 1.` ` ' 1.1.1.1.1.] 3.] ] [ ] [ [ 1.] ] [ [ ] 1.1.1.' 1.1.3.3.3.3.d.C.XX>X>X>X$X2X>X>X4X>X>X4X}.}.}.}.$XXXV.F d 5 7 6 9 6 6 6 6 6 6 0 0 y b u 0 y 0 u u 0 0 0 6 6 8 8 a a j a k p j j d M U ) 1.1.1.1.1.] 1.1.1.] :.1.:.] 1.1.1.' 1.' ` Q _ _ ' ` ` _ _ _ ( ) ) -.) ) -.) ;.;.-.;.-.-.;.:.( -.( ` ( ( -.-.( ( -.-.:.-.1.:.2.:.1.1.1.:.1.3.] 3.[ [ ,.#.h.R.3X2X;X-X;X3X2X2X2X2X2X>X2X>X2X2X}.",
">X>X=X>X>XQ.2X5XlXGXFXVXSXSXSXAXAXcXjXpXpXpXpXpXfXhX%X_.>.5.5.5.@.2.2.2.( C e 5 q e e 0 0 e b 0 u 0 0 a a 0 0 0 e 0 0 0 0 0 0 0 u 0 0 0 0 0 0 0 0 e 0 0 0 0 e 0 0 0 0 0 0 0 0 e 0 0 0 0 0 e 0 6 0 u u 6 6 u 0 6 u a n C V H J J U J J U U U U U U K U U R ) ;.1.3.,.1.1.1.1.1.3.1.,.3.3.3.[ 3.3.1.3.1.1.3.,.1.' :.' ,.x.:X:X:X>X:X1X:X,X:X1X>X>X<X>X1X>X<X<XA.P t - 9 q y 9 9 9 0 9 y 9 9 0 0 9 y 0 0 0 0 0 0 0 0 0 0 e y N B V A U A V V V T ' ,.,.,.,.,.,.' ,.` W ` ` ' ,.,.3.,.1.R T J J J H H K K V K J H U J K K V K J H H C H K J J J N J J K U U U U U T Y T ) :.:.:.:.:.:.:.1.:.:.:.:.:.:.,.>.>.h.[.dXgXfXfXpXfXsXbX3X1X=X-X:X>X>X>X>X>X}.>X>X>X>X>X>X+X+X3XiXnXAXSXCXBXCXSXAXAXkXzXjXpXpXjXsXsXhX%XP.X.@.>.2.2.,.>.:.R C e - 5 7 6 6 0 e 7 0 7 0 0 6 8 e 7 6 e 8 e 7 0 e 0 q 0 q 0 e 0 q 0 e e 0 0 q e e 0 e 0 q e 0 q e 0 0 7 6 6 6 6 e 6 e e e 6 e u e 6 5 u e m U J J U U U U K U U U Y U Y U U Y ( ` 1.1.:.1.] 1.] [ ] ] 0.[ [ 0.[ ] [ ] 1.] 1.1.` 1.1.,.3.3.p.C.>X>X$X}.>X}.4X}.}.4X}.}.}.}.4X4XXXXXl.F i @ 0 6 6 6 6 6 6 6 0 0 0 0 0 0 0 y u y 0 0 0 u 6 6 6 e j M N C V V V V N U ( ` 1.0.] 1.[ 1.[ 1.] 1.1.1.] 1.,.1.] ' _ T K J J J J J J J J U K U J U U U U U A A A A U A A A C U U C U A U C U U ^ -.;.2.1.1.1.:.1.:.2.1.1.3.3.[ [ [ ' <.h.E.dXgXaXyXaXiXiXiX5X4X2X}.2X>X2X>X2X",
"-X=X2X=X2XQ.-XaXlXGXCXVXCXSXAXAXnXjXwX(.OX2X2X(.+X%X%X$X_.`._.L.].|. X XN.:.j 5 7 e a 0 0 0 0 0 0 y 0 0 e e 0 0 0 0 0 0 e 0 0 0 e 0 0 0 0 e 0 0 0 0 0 0 0 0 0 0 u e 0 0 0 0 0 0 0 0 0 0 0 0 0 0 0 6 6 6 6 0 u 6 7 6 e a e j e d 8 j e e 8 j 8 e e j e e a C -.1.1.3.,.1.1.' 1.1.,.3.3.3.1.1.3.,.1.1.1.3.1.1.1.1.] :.,.f.,X:X:X1X>X1X:X>X:X:X,X>X>X<X>X<X<X<XA.I d - 7 q e 0 0 y 0 y 9 0 9 y 0 y 9 0 e 9 0 0 0 0 0 0 e e N ~ ] ] ) ) ] ) ] ) ` ] ,.,.' ,.' ,.,.` ' ` W ` 1.,.' >.1.1.H j r 8 8 r 8 8 8 e i 8 e i 8 8 i e e i 8 u i 8 8 8 r 8 r 8 t r j r d 8 r 7 t H R 1.:.:.:.:.:.:.:.:.:.:.:.:.2.1.:.$.z.oXvXnXnXAXnXMXMXMXaX3X2X}.>X>X>X2X}.>X>X>X>X>X>X>X>X+X/.3XpXnXSXCXBXBXBXAXAXAXkXwXqX(.3X3X@X@X@X$X+X).]. X].C.).|.|.8.R i + 5 6 7 0 7 0 7 e 0 0 7 e q e 6 q 0 7 6 e q q 0 e e q e q 0 e q q 0 q e e 6 e q q 0 e 0 q e q 0 e e e 0 e 6 6 6 6 u 6 6 6 6 6 6 6 6 e a a e a e a i e e e e a a a b a a a j V ` 1.1.1.] ' 1.[ 0.1.] ] 0.] [ 1.] 1.] ] 1.:.1.1.' 2.3.3.,.c.XX}.}.4X>X$X}.4X}.}.<X}.2X}.4X}.XX4Xz.F p ; 6 0 0 6 6 6 6 6 $ 0 u 0 0 y u $ 0 0 0 0 u 6 6 6 6 u N ( -.-.` 1.` ( ( ( ) 1.1.] 1.1.1.1.1.1.1.] 1.:.1.1.] 1.' ( M r t r w r r r r w q t e j e e a e a a y b b a a b u a a a u a i a i a a a n ^ ^ 1.2.:.:.2.1.:.1.1.' ] [ ' [ [ ' <.k.(.vXmXvXlXlXzXlXvXhX3X2X2X2X}.>X>X2X",
">X=XQ.2X>X/.+XiXxXHXSXCXCXCXAXnXnXpXiX+X-X>X2X>X}.$X4X$X<X$X<X$X$X<X<X4XS.1.z * 6 e e 0 e u 0 a e 0 0 u y e 0 0 0 0 0 0 e 0 e 0 0 0 0 0 0 0 0 u 0 0 0 e 0 0 e u e 0 e u 0 0 0 0 e 0 0 e 6 0 0 0 6 6 6 u 6 0 0 6 6 6 6 6 u 6 6 6 8 7 7 6 6 6 6 6 6 5 6 6 6 k -.1.2.3.,.3.1.1.1.:.' 1.1.:.2.3.3.1.1.1.1.3.1.1.>.1.:.` ,.x.,X:X,X,X>X:X:X:X>X:X>X>X>X>X<X>X<X<Xv.P d - 9 q q 9 9 y 0 y 9 y 9 0 0 9 0 0 0 9 e 0 0 e 0 0 e e V ] [ q.[ ] ] ] [ [ ] ' ' ' ' ' ,.,.' ' ' Q ` ` ' ' 1.:.1.:.V r 7 5 ; ; > 5 ; 5 5 ; 5 5 @ 6 5 ; 5 5 ; 5 5 6 ; 6 ; 5 6 ; 7 > 5 7 7 7 5 - 8 N / 3.2.,.,.1.:.:.:.,.:.:.:.:.:.:.,.%.H.^.nXAXSXSXSXSXAXGXbX3X2X=X2X>X>X}.>X>X>X>X>X>X}.>X2X+X/.3XiXlXSXCXBXCXBXAXAXnXpX7X/./.}.+XQ.[.:X}.}.}.>X2X4X}.}.}.}.B.( j O - 6 7 8 8 6 6 e e e 7 6 8 6 e 6 8 q e 7 7 0 q e 0 7 0 e e e q q 0 e q q 0 0 q q e 0 0 q e q 0 e 0 0 6 e 6 6 e 6 e 6 e 6 e 0 6 6 6 6 6 6 6 5 e 6 6 6 6 $ 6 6 6 u u 6 6 6 > M ;.1.;.] ] 1.1.] ] 1.1.1.1.] 1.] 1.] 1.:.1.1.1.1.1.1.,.3.a.S.XX}.2X}.$X$X>X}.<X}.4X}.4X}.>X}.XXXXB.F f ; 6 6 6 6 6 6 6 6 6 0 0 u y 0 0 0 b $ u u u y u 6 6 8 K 1.3.2.3.3.3.1.' ' 1.1.] 1.1.1.1.1.1.] 1.] 1.1.:.1.1.1.' _ l : : 7 7 7 7 7 7 7 7 7 7 7 9 9 0 9 6 9 0 0 9 0 $ 0 9 6 6 0 $ 6 $ 6 6 6 6 9 b ~ ) 0.;.;.:.1.;.2.:.1.1.[ _ [ [ ' ,.$.T.;XmXzXMXzXzXVXAXGXsX3X2X}.2X>X$X>X}.",
">X-X>X+X-XQ.2XiXvXHXSXCXSXSXAXAXnXpXiX3X>X4X>X4X<X2X2X4X2X<X>X>X<X>X4X4X].2.j - 7 e e 0 e 0 0 e b e 0 0 0 e 0 0 e 0 0 0 0 0 0 0 0 e 0 0 0 e 0 e e u 0 0 0 0 0 0 0 0 0 0 0 0 e 0 0 0 0 0 u e 0 0 6 6 $ $ $ 6 0 6 u 6 6 6 6 6 6 6 6 6 u 6 6 u 6 6 6 6 6 6 u k ^ 1.2.3.3.3.1.1.1.1.,.:.1.1.3.1.1.1.3.3.1.3.1.3.3.1.] :.' x.:X:X,X>X1X:X1X>X:X>X:X1X<X<X>X<X<X<XC.P r - 9 q 9 e 0 9 0 9 9 0 y 0 0 9 0 9 0 0 0 0 0 0 0 e e e V ( [ [ [ ] ] ] [ ] ' ' ' ' ' ' ' ' ,.' ` ` ` ` ' ,.,.1.1.1.M 8 e 5 8 6 e 5 u ; u 6 6 u 6 6 u 6 6 u u ; 6 6 ; 6 6 7 8 8 8 8 8 e 7 7 5 5 r N ` 3.3.3.,.1.:.:.,.:.:.:.:.:.:.:.,.>.H.^.cXZXNXBXBXNXNXGXlX;X2X-X}.>X>X>X>X>X>X>X>X>X>X>X>X}./.3XpXnXSXCXDXCXBXSXAXnXwXqX+X}.}.}.}.}.}.}.}.}.>X2X}.>X>X2X4XB.X.j * 5 8 5 6 8 8 7 6 8 0 7 e 6 8 q 7 8 0 7 0 e e 0 e q e e 0 q 0 0 e e 0 0 e e 0 e 0 e q e 0 q e 0 q e e 6 u 6 e u 6 6 e u 6 6 6 6 0 u 6 u $ 5 5 u 0 u 6 6 6 u 6 u 0 6 0 u u 8 n ) 1.1.1.1.` ` 1.1.] 1.1.1.1.1.0.] ] 1.' 1.` 1.1.' 1.,.3.a.c.XX}.>X}.<X}.2X2X}.}.}.>X}.$X>X}.4XXXz.F i @ 6 0 0 6 6 6 6 6 0 6 0 u $ 0 u $ u 0 y $ 0 0 0 6 6 e V :.' 3.3.3.2.3.1.' 1.3.1.1.] 1.] 1.] 1.1.1.1.] 1.1.' 1.` _ t 7 7 7 7 7 7 7 7 7 7 7 9 7 9 9 9 9 0 $ 0 $ 0 y $ 0 0 $ 9 6 6 6 6 6 0 6 $ $ b A ;.2.;.:.:.2.:.1.:.1.1.[ ' [ ' [ ' @.H.7XMXMXFXzXNXNXVXAXsX3X+X}.}.>X>X$X<X",
"2X-X=X=X+XQ.+XiXvXAXCXBXSXSXAXnXnXfXiX+X>X4X>X>X1X2X<X>X$X<X2X<X1X>X<X4XZ.>.j - 6 e e y 0 e e e 0 0 0 a a e 0 0 u 0 e 6 6 6 u 6 0 0 0 0 0 e 0 0 e 0 0 0 0 e 0 0 0 0 0 0 0 0 0 0 0 e 0 0 0 0 0 0 $ u 6 $ $ u 6 6 6 6 0 0 6 u 0 0 u 0 6 0 u 6 0 6 u e 6 8 8 k ) :.3.3.>.,.:.1.:.1.1.1.1.1.1.,.1.1.1.1.1.>.3.1.1.3.:.` 1.c.:X:X,X:X>X>X1X:X1X>X,X>X>X<X<X<X<X<XS.P t - 7 9 0 y e y y 9 y 9 9 y 9 y y 0 0 e e 9 0 0 q e e e V ) _ 3.[ [ [ [ [ [ ] ' ' ' ,.' ' ' ' ' ` W ` ' 1.,.,.1.1.;.N i 8 7 7 6 8 6 6 6 6 6 6 6 6 1 6 6 6 6 u 6 6 u u 5 6 8 8 6 8 8 8 8 8 8 8 : t N ( q.3.3.:.:.:.:.:.,.:.,.:.1.:.:.>.5.H.OXnXAXZXBXCXVXVXGXlXaX2X-X/.>X4X}.>X2X2X2X>X4X>X2X>X+X+X2XsXzXSXDXCXBXSXAXAXnXjX@X+X+X}.}.}.}.Q.}.}.Q.}.}.}.>X>X>X4Xc.R j * 7 5 8 6 e 7 e 7 e e 8 0 7 8 e 0 0 q 8 8 8 q e q 0 0 q e q q e 0 q q e 0 q q 0 q q 0 e e q e q 0 7 0 e 6 e 6 6 6 6 6 6 e 6 6 u 6 6 6 $ $ u 6 6 u 6 0 0 6 6 6 0 6 6 u u 6 6 m -.1.1.] 1.` 1.1.1.1.1.1.[ 1.1.] 0.1.1.1.1.1.1.' 1.1.,.4.,.C.[.}.4X2X}.}.>X>X}.2X}.4X4X}.2X$X<XXXc.G i 5 6 0 7 6 6 6 6 6 6 0 u y 0 0 0 0 0 0 0 0 0 0 6 6 6 7 C ) :.3.3.p.3.3.' 1.1.1.] ] 1.1.1.1.1.1.1.] 1.] :.1.1.1.] _ t : 7 & w 7 7 7 q 7 7 7 0 9 0 9 0 9 0 y $ y y 9 0 $ 0 0 0 6 6 6 6 6 $ 6 6 $ b ~ ;.1.1.2.-.:.-.1.1.:.' ] [ ] [ [ ' 6.K.8XMXzXVXFXNXVXCXAXsX3X2X}.>X}.+X2X}.",
"=X>X}.2X}./.$XiXnXSXCXCXCXCXVXzXnXpX;X/.>X1X1X>X>X4X>X4X>X>X<X>X<X<X<X4XS.2.j - 6 e 0 e 0 e e u 0 0 0 e 0 e 0 0 e 6 6 6 0 e e 0 0 0 0 e 0 0 0 0 6 0 0 0 0 0 0 0 0 0 0 0 e 0 0 e 0 0 0 0 0 0 0 6 6 6 5 6 6 $ 6 u 0 u e u 0 a u 0 0 6 u 6 0 6 0 u e 6 6 8 8 k ( 1.3.3.3.3.1.:.1.' 1.1.1.,.1.1.1.3.3.1.1.3.2.1.1.1.` :.:.j.,X:X>X1X1X:X>X:X:X>X>X>X1X>X<X<X<X<Xj.I d - 7 9 9 0 9 9 0 0 9 0 9 0 0 9 9 0 9 e e 0 e e e e e 8 M ( ] 3.[ 0.[ 0.[ 1.[ 3.' ' ' ,.,.,.,.` ` ` _ ` ` ,.,.1.1.1.N 8 8 8 6 6 5 6 6 6 6 6 u ; 6 6 6 u 6 ; 6 6 6 6 6 6 6 e 5 6 7 e 8 8 t 8 8 7 t H ` q.3.>.,.,.:.>.:.:.:.:.:.:.:.:.:.@.H.0XcXnXVXBXCXCXFXGXlX3X2X+X>X>X$X>X>X}.}.}.>X}.}.>X>X+X/.3XaXxXSXSXCXBXSXZXAXAXpXqX/.}.}.}.}.}.}.>X}.}.}.}.>X>X2X<X<XB.R j O 5 8 5 8 7 8 8 6 e 6 e q 8 7 6 q 8 0 7 0 0 e 0 q e e q 0 0 0 e e q 0 e e q e e e 0 q q e 0 q 0 e e 6 6 6 0 6 e e u e 6 6 e 6 0 6 6 u 6 $ $ 6 6 6 6 0 u 6 u u 0 u u 6 0 6 6 m ;.1.;.1.] ] 1.] 1.] 1.1.] 1.1.] 1.] 1.1.' :.:.1.1.[ >.3.<.c.XX}.>X>X$X$X}.4X2X<X}.}.}.<X}.<XXXXXz.v d - 7 6 0 6 6 6 6 6 0 6 0 0 0 0 0 0 0 0 0 u 0 6 6 6 6 6 V ) :.3.3.3.3.,.,.1.1.,.1.1.1.1.] 1.[ 1.] 1.1.1.1.' 1.1.] _ t : - w # 7 w 7 7 q q 9 7 9 9 9 0 0 9 0 0 y $ y 0 0 0 6 0 6 6 6 6 6 u u 6 9 b A ^ 0.2.1.-.1.2.:.:.` 1.] [ [ ' ' 1.$.i.(.MXFXVXVXVXNXVXGXhX5X$X/.Q.}.>X}.2X",
"2X>X}.2X2XQ.+XiXvXAXSXSXSXSXAXAXnXpX3X+X>X>X1X>X>X>X4X<X>X<X1X>X>X>X<X1XS.>.j - 6 e e u u e e e q 0 0 0 0 e u 6 6 6 e e 6 e 6 e 6 0 0 0 0 0 e 0 0 0 0 0 0 0 0 0 0 0 0 0 0 0 6 0 u 0 0 0 0 u 0 e 6 6 u 6 6 $ 6 u 6 $ 6 6 6 u e a u 6 0 0 0 6 u 0 e 0 e u 6 M ^ 0.2.3.,.1.:.:.1.:.1.1.1.:.1.1.1.1.1.1.1.>.,.1.:.,.` ` ,.j.{.>X>X>X1X>X>X>X:X>X>X>X,X1X:X>X<X<XV.L t & 7 w e 0 9 e 0 e e 0 0 0 0 0 0 0 q 0 0 q q 0 8 q q 8 N ( ] 3.[ ] [ ] 3.[ 1.' ` 1.' 1.[ [ ,.' ` ` ` ` ] [ 1.1.1.1.B e e 5 8 7 6 6 6 6 6 u 6 6 6 u 6 6 ; 6 6 u 6 6 6 6 6 6 7 6 8 6 e e e 7 8 7 r N / 3.3.3.:.:.:.:.:.:.:.:.,.1.:.1.:.6.H.0XnXAXAXNXVXCXHXGXvXiX3X2X>X>X<X}.>X>X}.<X}.}.>X>X+X}./.3XaXnXSXCXCXCXBXAXAXnXpXqX+X>X<X>X>X}.:X>X>X>X}.{.>X1X1X4XXXc.R g * ; 8 7 8 e 8 e e 8 7 6 0 0 0 6 0 7 0 6 0 0 6 e e 0 q e q e q q e 7 8 0 q 0 e q q 0 e q e 0 e 0 q e 6 6 6 6 6 6 e 6 6 e 6 u 0 6 6 u 6 6 5 6 6 u 6 6 0 u 0 0 6 u 6 0 6 u u 8 k ;.1.1.1.` 1.:.] 1.,.1.1.] 1.' 1.1.1.1.' 1.:.1.1.1.:.>.2.,.c.XX$X$X4X}.$X2X}.}.>X>X}.2X$X>X4X}. Xz.K i - 6 6 6 9 7 6 6 6 6 6 u u 6 6 u 0 0 0 0 6 u 0 6 6 e e V ` :.:.1.:.:.1.:.,.1.3.1.1.1.1.1.1.1.] 1.1.' 1.1.1.1.1.1./ j : 7 7 7 7 7 7 7 q 7 7 9 9 q 0 0 0 0 0 0 0 $ y y 0 0 0 6 6 6 6 6 6 6 0 0 $ b ~ ;.0.;.-.1.2.1.:.1.1.' ' ' ] ' ' 1.@.K.8XzXAXAXNXNXVXAXAXfX3X$X}.}.}.$X<X}.",
"2X2X+X}.+X+X+XdXvXGXSXAXGXSXGXnXMXsX3X+X>X2X>X=X>X>X1X>X<X>X>X>X>X1X<X4XS.,.f * ; 6 6 7 5 e 8 e e 0 u a e 6 6 0 6 e 6 u u 0 6 6 e 0 0 u 0 0 0 0 0 0 0 e 0 0 0 e 0 e 0 0 0 0 e u e 0 0 e 0 e 0 0 0 0 e 0 0 0 6 6 0 6 6 $ 6 0 0 0 0 6 a e 0 0 e e e e e 6 6 n -.1.3.3.,.1.:.:.:.:.:.:.,.:.,.:.,.' :.,.:.1.:.:.>.' ' ' <.c.{.:X>X>X>X>X=X>X-X>X}.2X>X2X+X+X$X$Xc.L r & 5 7 7 7 7 0 7 5 7 7 7 9 7 7 0 7 7 7 0 8 8 8 8 8 e 8 V ( ] 3.0.] ] [ ] ] ] [ ,.' ' ] ,.[ ] ' ' ' ' ' 3.3.2.1.1.;.N e e 7 6 6 5 ; u 6 6 ; 6 6 6 6 6 ; u 6 6 6 1 6 6 6 6 6 6 7 7 6 6 7 7 8 7 7 t N / q.3.2.1.1.:.:.:.:.:.+.+.:.+.:.+.&.H.^.nXnXAXAXAXAXGXMXbXgX2X2X2X$X$X<X<X$X$X}.4X<X$X<X}.2X$X2XgXvXGXAXAXAXAXnXnXnXpX3X+X>X>X>X<X>X>X>X2X<X>X}.>X<X>X4X4Xc.R d * - ; ; 7 5 6 > e e 5 8 7 0 0 7 0 7 7 0 7 0 0 q q 0 0 q 0 e e 0 e 0 e 0 q e 0 0 e e 6 e e q q 0 e 6 e e 6 e u e 6 6 6 e 6 6 6 e 0 6 6 6 6 6 6 6 6 6 6 a e u 6 u u 6 6 6 6 6 m :.;.1.;.] ` ] ` ` ` 1.1.1.1.,.1.] 1.1.:.` ` :.:.:.:.:.,.a.c.XXQ.+X[.+X+X}.$X+X$X+X$X}.}.+X$X$XXXz.F 1 O ; 6 5 - 5 ; 6 6 5 ; 6 5 6 5 6 0 6 6 6 6 6 6 6 5 7 8 C -.1.:.:.:.1.:.:.3.,.3.,.1.' ' ' [ 1.1.1.1.1.1.1.' 1.1.` ( j 7 : & w w 7 7 9 7 9 7 0 0 7 9 0 9 0 y 0 0 0 y $ 0 0 6 6 6 0 0 0 6 6 6 9 9 b A ;.0.0.:.2.:.1.1.:.1.,.' ' ` ' ' +.&.K.7XnXAXAXAXAXVXSXGXvX3X+X+X}.}.}.}.}.",
"4X$X2X4X4X$X4XdXhXGXGXnXGXAXGXMXMXpX3X/.>X>X>X>X>X2X>X>X>X<X>X<X>X<X<X4XC.@.2 . * ; = - ; ; ; 6 6 6 0 a a e e e e e e 6 e 6 u e 0 6 0 0 0 0 0 0 0 e 0 0 e 0 0 0 0 e 0 e 0 e 0 0 0 0 0 0 0 0 0 0 0 0 0 0 u 0 0 0 6 0 6 6 0 6 0 0 0 0 e 0 0 0 0 0 u 0 6 e 6 k ^ 1.2.3.>.,.:.:.` :.,.:.` ` W W ` W W ` W W +.` W ` Q ,.,.c.Q.Q.-X>X-X=X=X-X-XQ./.Q././.+X/.+XXXj.G , & 7 7 - - - - - - - - - + 5 - - - - - - 5 8 5 7 5 8 8 J ] ] 3.[ [ [ ] [ ' ] ' ' ' ' ' ] ' ' ] 1.3.3.3.3.3.1.1.1.1.m 8 6 6 7 6 6 6 6 6 6 6 6 6 6 6 6 6 6 6 6 6 6 6 6 6 6 5 6 e 6 5 8 7 e 7 7 5 t J ( 3.3.3.3.3.:.2.,.:.+.:.o.:.+.W o.@.h.^.xXnXGXAXGXGXGXGXmXgX6X4X2X<X4X$X4X4X4X4X4X$X4X4X4X4X+X5X6XmXGXGXMXMXMXvXvXhXaX3X2X>X>X>X>X<X1X<X<X1X>X{.>X>X2X<X4Xx.o.2 . & * * * * * - 8 8 7 6 0 6 7 0 7 0 0 7 0 0 e q e e e e q q q e 0 q e q q 0 q e q e 0 e 0 q q e e 6 6 6 e 6 e 6 u e 6 u e 6 6 6 e 6 6 6 6 6 6 0 6 6 e u 6 6 e 6 6 6 u 6 6 > m ;.1.1.1.] ] ` ` ` :.+.:.` W ' ` ` W ` W +.W :.W W :.:.:.@.x.+X/./.~.Q.+X+X[.}.Q./.}.oX~.}.}.oX$Xh.x =   O ; + * - - * + - + ; - - - - - ; 5 @ ; 5 5 5 ; 7 7 N ( :.1.1.:.:.:.:.1.,.1.1.1.1.1.3.1.] 1.1.1.] 1.` :.] 1.1._ l : 7 w 7 7 7 w q 7 7 9 9 8 0 0 9 0 9 $ $ y 0 0 0 0 0 0 $ 6 0 0 0 6 0 6 6 9 b ~ ;.2.2.1.2.2.2.>.,.,.` #.` W W W o.$.K.qXvXMXGXAXHXSXAXGXvXiX$X$X4X4X}.XXXX",
"[.{.W.{.[.[.[.$XhXvXnXcXnXnXvXvXlXpX;X-X=X>X>X>X>X>X1X>X1X>X>X>X>X>X<X<XD.a.F f z z z v z v z i e 6 6 a 6 6 6 6 u 6 e 6 e e 6 6 e 6 6 0 6 a 6 0 0 u e 0 0 0 0 0 0 u 0 0 0 0 0 0 e 0 0 0 0 e 0 0 0 0 0 0 0 0 0 0 0 0 0 0 6 0 e 0 0 0 0 u e 0 0 0 e 0 0 6 6 m -.1.3.,.:.,.:.:.:.:.3.d.<.d.<.a.d.<.d.<.d.a.d.,.d.p.d.s.j.].2X3X3X3X-X6X3X6X3X3X3X3X3X3X@X@X@X5XE.#.F t M H M m z M M z z m M M M M M M j j r j j j t j j l U 1.1.1.1.[ [ q.3.] 3.[ 3.] 3.[ 3.] ] ' _ _ / ( ` 1.( ( ( ( M 8 7 6 6 6 6 6 6 6 6 6 6 6 e 5 u 6 e u u 6 6 u 6 u 6 u 6 6 6 e 8 8 7 e e > 8 M J ) ` ( R R R R W :.2.<.<.,.<.2.<.6.T.OXfXvXxXzXnXvXMXmXsX5X}.R.[.|.{.|.|.[.|.|..X[.|.|.|.[.].}.5XgXmXvXvXlXsXsXhXhXiX-X2X>X>X>X>X>X>X>X1X>X>X}.>X>X>X1X4X].a.F f g z z g z z k j a 7 6 7 0 0 7 7 0 7 0 7 0 8 0 0 q q 0 e 0 0 q 0 e 0 q e e q 0 0 e q q 0 e 0 e e e e 6 u 6 6 6 6 e e 6 6 e u e 6 6 6 6 0 0 6 6 6 6 6 e 0 e e u 6 u 6 e 6 6 m ;.1.;.1.1.` ) ` :.1.2.a.4.4.,.>.3.p.p.<.,.d.,.2.<.<.<.a.g.E.5X@X@X@X3X@X@X3X@X@X@X3X@X3X3X3X%X%XK.O.c f k z z z k z z v z k v k z z z m m n k a k j a a k k K :.:.,.:.,.:.1.1.1.1.1.3.' 3.1.[ 3.] ` ( ( T T R T R ( T U j 7 7 7 7 w 7 5 5 q q 8 0 0 9 0 0 0 0 y 0 0 0 0 0 0 $ 0 0 6 0 $ 0 6 6 6 6 $ b B ^ -.^ ( R ) :.( _ ,.d.,.p.,.a.a.<.&.K.qXvXnXnXcXAXnXcXnXfX%X[.[.[.].|.].].",
"x.k.k.x.k.h.k.R.%XhXpXpXpXpXqXpXiXyX3X-X:X>X=X>X>X=X>X1X1X>X>X>X>X>X2X<XXXS.l.<.l.B.l.B.z.N.2.m a 5 6 e 6 6 6 0 6 0 6 0 e e 6 6 6 6 6 0 6 e 0 e 0 0 0 0 0 0 0 a 0 0 0 0 0 e 0 0 0 e 0 0 e 0 0 0 0 0 0 0 0 0 e 0 0 0 u e 0 0 0 0 0 0 0 0 0 e 0 0 e 9 e e 0 n -.1.3.3.3.,.:.:.,.<.l.S.F.F.A.A.F.S.A.S.F.S.A.S.A.S.A.S.].4XgXsXgXaXaXaXbXaXhXsXhXsXhXsXhXfXfXhX5X[.z.4.m.m.M.N.N.e.N.N.e.N.N.e.m.N.N.4.1.( Y K U K U T T Y W ' ` ` ,.,.[ 3.3.[ 3.[ 3.3.[ 3.0.[ [ _ J H M H V V m N N m a e e 7 6 6 6 6 6 0 6 6 6 6 6 6 u 0 e 6 6 8 e u e u 6 6 6 6 q 0 0 8 0 7 5 5 7 j n V H M M z H H D 2.V.C.C.Z.S.c.C.R.~.@XdXfXyXyXiXyXyXiX@XE.k.u.j.z.j.l.l.l.z.x.l.j.z.j.l.g.u.k.E.2XaXiXyXyX;XyX3X3X-X-X=X:X>X>X>X>X1X>X>X>X:X}.:X>X4X>X>X{.S.g.<.l.l.8.l.l.l.2.m a 6 6 0 0 9 9 6 6 7 0 7 7 0 q 0 e 0 q q e e q e 0 q q e e 0 q e e q 0 0 q e e e 0 0 7 0 u e 6 6 0 6 6 u e 6 u e 6 6 6 8 6 6 6 6 6 6 6 e e 6 u u e 6 u e 8 m -.1.1.1.1.` :.' 3.d.V.Z.Z.A.A.A.A.A.A.A.A.S.C.C.C.C.Z.|..X4XhXhXhXhXhXhXhXhXhXhXhXhXhXhXhXhXhXhX5X_.z.9.e.l.8.N.l.8.N.N.8.N.N.e.N.N.e.4.1.-.^ R -.Y Y U ^ Y ( ` +.2.:.1.>.1.3.1.1.,.3.1.3.3.] 3.] ` U H l z M z N z m M d 6 7 0 7 7 0 7 0 8 e e q e 0 0 9 0 a 0 0 u 0 0 e 0 0 0 0 0 0 0 0 0 0 0 7 9 0 b m V M M k m m N K >.V.Z.A.c.v.c.c.R.~.(.pXpXwXpXwXwXrXdX#XI.k.k.k.l.l.l.l.",
"6.<.<.>.>.$.<.h.[.5X@X@X%X(.@X3X@X3X2X-X>X>X>X>X>X1X2X>X>X>X>X>X1X>X<X<XXX}.].].|.[.|. X|. XB.K i 5 6 u 0 6 6 6 6 0 e u 0 u e e a 6 e u 0 0 0 u 0 0 e 0 0 0 0 6 0 0 0 0 0 0 e u 0 0 0 0 0 0 0 0 0 e 0 0 0 0 0 0 0 0 0 e 0 0 e 0 0 0 u e 0 0 0 0 0 0 0 0 7 m ^ 1.4.>.,.,.:.:.,.<.Z.G.|.XX.X.XG..X.X{.G..X.X.X.X{.D.|.XXdXmXbXmXbXmXbXmXmXxXvXvXnXvXnXnXcXvXvXdX%X[.].F.F.|.|.|.|.|.|.|.|.|. X|.|.|.Z.V.4.` R ( ` ( ` 1.` ` ` :.` ' ,.' 3.' ,.3.] [ 3.[ [ [ [ 3.( H t 8 t k n t e t b e 7 7 0 6 6 6 6 6 6 6 6 6 0 6 0 6 6 u 6 u e 6 6 6 e u e 6 e e 7 8 8 8 7 7 9 0 e e a t t 8 e r d d ,.F.|.|..X{.|.|.{.}.3X6X3X-X-X;X(.-X+X}.k.a.+.<.<.>.>.<.4.<.2.<.>.4.2.<.<.#.y.k.E.3X(.(.(.;X;X;X-X-X=X=X=X>X=X>X>X>X1X>X1X:X:X>X>X2X>X1X>X{.].].].].].].].|.l.K e 9 7 7 7 5 6 6 0 0 7 0 0 e e q q e e 0 q e 0 q 0 e 0 q 0 e q q 0 q e e q 0 q 0 e 0 6 0 6 6 6 0 u e 6 e 6 6 e 6 e 6 e u e 6 e 0 6 6 e 6 6 6 e 6 0 e 6 8 8 m ;.1.1.;.1.] :.` 3.f.S.G.|..X.X|..X.XD..X.X].{..X|.{.{..X4XdXhXvXvXvXxXvXnXvXvXvXvXnXvXvXvXvXvXmXdX$X[.[.|.|.|.|.|.|.|.|.|._.|._.|.|. X_.N.2.-.:.:.-.2.-.-.:.1.:.:.,.:.1.>.>.3.1.,.1.1.' 3.3.' 3.3./ M r 8 a d j j j j j e 6 6 6 6 0 7 0 7 0 0 0 0 9 0 0 0 0 0 0 0 e 0 0 0 0 0 0 0 0 0 0 0 e 0 0 0 9 6 y e a e a a a i d j 4.|.|.|.{.{.{.{.}.+X@X3X3X@X(.qXqXqXeX~.h.&.@.<.<.<.<.<.",
"+.X.+.+.+.R +.8.P.[.+X/././.+X+X2X-X=X2X>X>X>X>X2X>X>X>X2X>X>X>X>X>X4X1X2X<X<X4X<X4X4X4X4X4X].L i 6 6 5 6 6 6 6 6 6 7 6 6 0 0 0 e 6 e e e 6 6 0 0 0 0 0 0 0 0 0 0 0 0 0 0 0 e 0 0 0 0 0 0 u 0 0 0 0 0 e u 0 0 0 e 0 0 0 e 0 0 0 e 0 0 0 0 0 0 0 0 0 q e 7 M ^ 1.2.,.,.,.:.:.,.d.G.,X,X,X1X,X<X,X<X<X>X>X,X,X<X>X}.}.2XhXmXFXMXMXzXMXzXzXAXAXAXAXAXAXAXAXnXnXxXaXiX$X4X4X<X4X<X4X<X4X$X<X4X<X<X<X<XXX|.l.,.,.,.,.:.2.,.2.,.,.,.,.' ` ' ' ' ' ' ] ' ] ' ' [ [ [ ( N e 5 7 6 6 6 5 7 0 7 9 6 6 6 6 6 6 0 $ 6 6 6 $ 6 6 0 u 6 e 6 e e 6 e 6 e 6 6 e 6 e e 6 0 7 7 6 9 5 5 5 7 5 # 5 5 : 8 4..X,X<X4X<X<X<X<X>X1X5X>X=X=X=X=XQ.=Xn.s.#.R W W -.:.R :.` R :.( :.( :.W I Q g.R.}./.Q.Q.-X-X=X=X=X=X*X=X*X:X:X:X:X1X1X>X>XQ.>X>X>X1X>X1X4X<X<X<X<X<X>X<X<XZ.K e 5 6 8 7 5 7 7 7 7 0 7 0 8 0 8 0 q e e 0 q q e e e q e 0 e 0 q 0 e e 0 0 q 0 q e 0 6 6 6 e a 6 6 e u 6 6 6 0 u 0 6 6 e 6 u 6 6 0 6 u 0 6 6 6 e e e e i 6 k ;.1.1.2.` 1.` ` <.x..X1X1X<X1X1X,X1X1X<X1X<X4X4X4X4X>X4X5XgXvXvXnXnXAXAXAXAXAXAXAXAXAXAXAXAXnXmXhX5X4X$X$X4XXX<X<XXX$X$X<X<X$X4XXX4XXX XC.8.,.:.2.>.>.1.2.1.>.>.>.:.:.:.:.:.:.,.:.>.3.3.1.' 3.1.] T M 8 - 7 8 e 8 e e 6 6 6 6 6 6 6 0 0 0 u q 0 0 0 0 0 0 0 0 e 0 0 0 0 0 e 0 0 0 0 0 0 0 0 0 0 0 0 e e q 0 9 $ 9 7 5 ; d m.XX<X<X4X4X<X2X$X+X+X+X/././.OX+X%X$XP.g.O.W o.+.:.@.W ",
":.2.-.>.:.X.,.l.S.XX}.}.}.}.}.>X>XQ.>X:X=X>X=X>X=X>X>X=X=X>X>X>X>X>X>X}.>X}.}.>X>X}.}.}.}.}.C.L j 5 @ 5 7 6 6 6 6 6 6 6 6 6 6 6 6 e e 6 6 e u e 0 e 0 0 0 0 0 0 0 u 0 0 0 0 0 0 0 0 e 0 0 0 0 0 u 0 0 0 0 0 0 0 0 0 0 0 0 0 0 0 0 0 0 0 0 0 e 0 0 q 0 e 0 M -.1.3.,.,.1.:.,.a.d.G.XX<X>X,X>X,X>X,X>X,X,X,X1X:X>X}.}.3XsXMXFXFXVXVXVXFXFXSXSXBXDXSXCXZXAXAXnXxXpX@X/.}.}.<X<X}.<X<X}.<X<X>X<X<X<X>XXXC.d.+.+.@.:.:.,.,.<.,.,.,.,.,.,.` ` ' ] ] ' ] ] ] ] [ [ [ ( H e 7 7 6 9 0 0 0 0 0 6 6 6 7 0 6 6 6 6 6 u 6 6 6 6 0 6 e u 6 u e u u 6 6 e 6 e 6 e q 0 7 q 0 0 9 6 9 6 9 7 0 9 8 7 r 2..XXX,X>X>X>X<X>X>X>X1X:X&X&X1X:X>X>XS.j.,.R ` ] 1.:.1.1.1.:.:.1.:.:.:.` Q #.g.S.4X}.Q./.=X=X-X=X=X*X*X*X*X*X:X>X>X2X>X>X:X}.>X>X1X2X2X>X>X2X>X2X>X4X1X2X>X].F e 9 6 0 0 6 7 0 7 0 6 6 q q q 0 e q 0 q 0 e 0 0 q 0 0 e q q q 0 0 0 q q e e e e 0 6 0 0 0 6 6 6 6 6 6 e 6 6 e 6 6 u e 6 6 e 6 e 6 0 6 6 6 e u 6 u i u e 6 m 0.1.2.:.:.1.` Q <.f.G.<X,X>X>X,X>X:X:X>X,X>X>X>X>X>X=X:X3XaXvXzXAXAXVXAXAXCXAXAXSXAXVXVXAXAXMXnXhX5X3X4X4X<X>X<X<X<X<X>X4X<X4X4X}.4X<X.Xc.<.+.@.2.:.,.,.>.,.,.,.>.,.,.>.:.:.1.:.:.' ,.1.' 3.' 3.] / M t 7 7 6 e u 0 u a 6 6 6 6 6 6 u 6 0 6 0 e 0 0 0 0 0 0 0 0 0 e 0 0 0 0 0 0 0 u 0 0 0 0 e e e 9 e e y 0 9 9 0 9 6 8 a 4. X,X4X=X>X>X=X>XQ.=X2X}.=X2X2X+X%X%X[.g.,.W +.1.' ' 1.",
":.2.>.2.-.X.1.l.].}.}.}.}.Q.}.Q.}.Q.:X}.Q.:X=X:X>X=X>XQ.>X:X>X}.>X>X:X}.}.}.Q.:X}.}.}.}.}.[.].Y j 5 5 5 6 6 6 6 6 6 6 6 6 6 6 6 6 e 0 6 0 0 0 6 0 0 0 0 0 0 0 0 0 0 0 0 0 0 0 0 0 0 0 0 0 u 0 0 e 0 0 0 0 0 0 0 0 0 0 0 0 0 0 u 0 0 0 0 0 0 0 0 0 0 0 0 q n ) 1.2.3.,.1.:.+.a.d..X<X,X,X:X>X:X>X:X:X:X>X>X:X>X}.Q.:X-XsXMXVXGXVXVXFXCXSXSXSXSXBXZXSXZXAXAXnXcXiX(.~.Q.Q.}.>X>X>X}.}.}.>X}.<X<X>X>X.Xc.d.+.,.,.,.+.:.>.,.,.p.,.,.,.` ' ' ' ] ] ] ' ] ] ] _ 3.[ ) J b 7 0 0 0 0 0 0 0 0 0 6 6 6 6 6 6 0 6 6 6 0 u 6 0 6 u 6 0 e 6 6 e 6 e 0 6 e 6 e e 8 8 8 8 0 7 6 6 6 9 7 0 0 e 7 8 d 2.|.XX,X<XXX>X}.,X:X:X1X:X*X*X:X:X:X1XS.j.#.W :.1.1.1.1.1.1.1.1.1.:.1.:.:.W <.j.{.4X2X}.+X=X=X=X=X=X=X*X*X:X=X:X=X>X1X>X>X:XQ.:X1X>X1X>X4X1X2X>X1X>X1X>X>X<XS.K e 7 0 0 7 0 0 7 0 e 7 6 8 0 0 q e 0 q e e e 0 q 0 q q e q 9 0 0 0 e q 9 e 0 e 0 0 0 0 6 u 6 0 0 0 6 6 0 6 7 0 0 6 0 0 6 0 6 e 6 0 0 6 0 0 0 0 0 0 6 u e e B :.1.;.1.1.,.1.W $.g.].<X,X,X:X:X:X:X:X:X:X=X:X}.}.2XQ.}.-XsXmXMXzXGXSXCXAXCXVXSXVXVXSXCXVXAXnXmXhX5X$X+X>X4X<X<X<X4X2X<X<X<X<X<X4X<X4X{.z.<.+.+.>.,.+.+.:.` >.,.' :.:.-.>.:.:.:.:.,.:.' ` 1.' 3.3./ N j 8 6 6 e u e u e 6 u 6 6 6 6 0 e 6 6 0 0 0 0 0 0 0 0 0 0 e 0 0 0 0 0 u a 0 0 0 0 e e u e y e y 0 y y 9 0 y 9 0 6 a 4. X}.>X}.=X=X=XQ.>X=X+X>XQ.2X4X4X$X4X|.j.,.,.,.,.,.:.1.",
"1.2.2.2.>.` >.l.].>X}.}.}.}.Q.:X=XQ.Q.=X=X=X}.Q.=X:X:XQ.=X>X2X}.>XQ.Q.}.}.>X>X}.>X}.}.}.}.}.S.L a 5 6 u 6 6 6 6 6 6 6 6 6 6 6 6 6 6 7 0 6 0 0 0 0 0 0 0 0 0 0 0 0 0 0 0 0 0 0 0 u e 0 0 0 0 0 0 0 0 0 0 0 0 0 0 0 0 0 0 0 0 0 e 0 0 0 0 0 0 0 0 0 0 0 0 q M ^ 1.3.,.,.,.:.,.3.j.|.<X,X>X>X:X>X:X>X,X>X>X>X>X:X:X:X>X-XsXMXVXVXVXVXFXCXSXDXSXSXBXSXZXSXZXZXnXjXwX(.Q.}.}.$X}.4X<X<X<X>X4X<X<X<X,X>XXXS.l.,.+.+.,.:.+.` ,.>.,.' ' ` :.` ' ' ` ' ' ' ' ' ' [ ] [ ) J t q 0 6 6 0 0 0 0 6 $ 9 6 6 6 6 6 6 6 6 6 6 $ 6 6 0 6 e 6 e u 6 u 6 u 6 0 6 6 6 6 6 7 6 e 8 q 6 7 6 6 8 e q e 7 7 d ,.|.XX,X,X>X>X}.>XQ.:X>X*X&X&X:X*X:X>Xn.s.,.` :.,.1.:.:.1.:.1.1.3.1.1.1.:.W ,.V.G.4X2X}.}.=X=X>X=X=X=X=X:X*X*X>X>X>X>X1X>X>X:X>X>X1X2X>X>X>X>X>X>X2X>X2X>X>X).K a 6 7 e 0 7 0 6 0 e e e 0 e e q 0 e q 0 q q q e q e 0 e 0 0 0 0 0 9 e e 0 0 0 9 0 0 0 0 6 u 0 6 0 e 0 6 a 0 0 0 0 0 0 u 0 0 6 0 0 e u u 6 0 0 u u u 0 e 8 M ;.1.1.1.1.1.1._ ,.j.].<X,X,X:X>X:X:X*X:X=X}.:X}.}.}.Q.=X3XaXnXVXAXVXVXVXSXVXCXVXVXSXVXAXCXAXAXvXhX3X2X$X2X1X4X4X>X>X4X}.2X$X4X4X}.4X<X.Xc.2.+.+.,.>.:.-.+.:.+.` :.:.:.:.:.:.:.:.` 1.` ' 1.1.' 3.3.' N d 5 e 6 6 6 6 e 6 0 6 6 6 u u 6 u 0 0 e 0 0 0 e 0 0 e 0 0 0 0 0 0 0 0 e 0 0 0 0 0 0 e e u y y e y y $ 9 9 0 y 0 e d e.XXXX}.:X=X:X>X:X=X>X}.=X>X}.4X$X$XXX_.g.,.,.,.,.,.,.1.",
":.2.>.2.2.-.:.l.Z.}.}.$X}.}.>X>X}.>X=X>X:X>X=X}.=X}.>X>X>X>X=X>X>XQ.:X>X>X}.>X}.}.}.>X}.}.}.Z.L j - 5 0 6 5 5 5 6 6 6 6 6 u 6 6 6 6 6 u 0 0 0 0 0 0 0 0 $ 9 0 9 0 9 9 0 0 9 6 0 y 9 9 0 9 9 0 0 9 9 0 0 0 9 0 0 0 9 0 0 0 9 9 0 0 0 0 9 0 0 9 9 0 9 9 7 7 n ( 1.3.3.,.,.:.:.<.j.|.<X,X>X>X{.:X>X.X>X>X{.}.>X:X:X:X>X-XaXMXVXVXVXVXSXCXSXCXSXBXBXDXZXZXAXAXnXlXiX(./.}.+X>X>X>X<X<X<X>X<X2X<X>X>X,X.XS.l.$.+.W ,.:.W ` :.:.,.,.` ` ` ` ' ` ] ' ` ] ] ] ] ] ] ] / V t q 0 9 9 $ 0 6 0 6 9 0 6 6 6 6 6 6 6 6 6 6 6 6 0 6 0 u 6 u 6 u 6 8 6 6 u a 6 6 6 6 e 7 6 7 e 0 7 9 6 8 q q q 7 8 r >.|.XX,XXX,X}.>XXX:X:X:X:X&X&X:X:X>X1XS.d.,.W ,.1.:.1.2.2.1.1.>.3.1.1.1.1.Q ,.V.|.<X<X}.<X-X=X2X>X:X>X>X>X>X>X>X>X1X:X=X>X:XQ.:X>X>X>X>X>X>X>X>X>X>X>X>X>X}.S.K i 7 7 q 8 8 e q e e e 7 q e 0 e 0 e 0 e q 0 e 0 9 9 0 0 0 9 9 9 9 9 9 7 0 9 9 9 9 7 6 6 6 9 6 6 6 0 7 6 0 0 0 0 6 7 0 6 7 6 6 9 0 7 6 6 6 6 6 6 6 0 6 6 6 n 1.1.:.1.1.,.1.` <.j.|.<X>X:X>X>X:X:X:X=X:X=X}.}.}.}.Q.>X/.sXnXVXVXVXSXCXVXVXCXSXVXVXSXVXAXVXnXvXgX5X+X2X2X4X>X1X>X>X>X4X$X<X<X}.}.<XXX.XV.<.o.+.,.>.>.+.:.:.:.:.X.:.:.:.-.:.:.:.1.:.:.' 1.` ' 3.q.1.M a - 6 u 0 b a u u 0 6 6 6 u 6 0 6 e e u e u 0 0 e 0 0 0 e u 0 0 0 e 0 0 0 0 e 0 0 0 0 e e e e y 0 y 0 y y 0 y 0 8 d 8. XXX}.>X}.:XQ.Q.:X:X:X>X>X>X}.4XXXXXZ.d.<.<.,.,.>.1.,.",
"1.>.1.1.:.R :.l.|.XXXX}.4X}.4X2X2X<X4X<X2X>X4X2X4X>X>X2X>X>X>X>X>X>X>X>X>X>X>X>X>X+X$X}.<X>Xc.L e O * - @ + - ; 5 6 6 6 6 $ 6 6 6 6 6 6 0 0 0 6 6 9 6 6 0 6 5 5 5 @ 5 5 $ 6 5 5 5 5 $ 5 6 $ 5 $ 6 5 $ 5 6 $ 5 $ $ 5 $ 5 $ 5 5 6 @ 5 $ 5 6 $ ; 5 5 5 5 - 5 j ( 1.4.>.,.,.:.#.<.s..X<X,X>X>X>X>X>X>X>X>X>X}.>X>X:X>X>X=XaXzXVXVXVXVXVXCXSXSXSXAXAXAXZXAXAXAXGXvXiX(./.Q.}.}.>X>X>X<X}.>X>X>X}.>X>X>X.Xv.g.#.W W ,.:.W W W +.1.,.,.1.1.1.1.1.] ] 1.] ] ] ] ] ] ] / M b q q 6 6 0 0 $ 6 6 0 6 6 6 6 6 u 6 6 6 6 6 6 6 6 6 u 6 e e 6 e 6 e u 6 6 6 6 e 6 6 e e e 6 e 7 0 0 7 e e e 8 7 7 d ,.|.XXXX<X>XXX>X>X>X>X,X,X,X:X,X<X<X1XG.x.<.W 1.1.1.1.1.1.1.1.:.1.1.1.1.` T ` V.|.4XXX}.$X1X4X1X<X1X1X<X1X1X<X<X>X1X>X>X=X}.:X>X:XQ.}.Q.}.}.}.Q.}.}.:X}.}.}.n.F 8 ; ; 8 5 7 ; 8 e 7 e 0 8 0 e e q e q 0 0 e q 0 9 6 6 9 7 5 5 5 - 5 9 5 ; 5 5 5 - 5 $ 5 5 5 $ ; 5 $ 5 5 @ @ ; 5 5 @ 5 5 ; 5 ; 5 @ 5 5 $ 5 5 $ 6 ; 5 ; ; ; k 2.2.:.:.:.:.:.W p.j.].<X>X>X>X>X:X:X:X:X:X:X>X}.}.}.}.=X-XsXnXAXVXSXVXVXSXVXCXVXVXVXAXAXAXAXnXvXhXdX2X+X>X2X>X>X>X>X>X}.}.}.}.XX}.}.}.{.j.<.@.+.@.:.+.+.:.+.:.:.:.:.:.:.2.:.:.:.1.1.1.1.' ,.1.3.2.` M j 5 6 a u u a a a 0 u 6 6 6 6 6 6 0 0 0 0 0 0 0 0 0 0 0 0 0 e 0 0 0 0 0 0 0 0 0 0 0 0 0 0 9 0 0 0 9 9 9 9 9 $ 9 8 d 4..X.X>X:X:X=X>X:X>X}.>XXX<X}.}.XXXX4X|.l.2.,.,.,.,.,.3.",
"3.3.,.3.1.' 3.N.|. X X X X X X X.X.X X.XXX.XXX.XXX.XXX<X<X>X>X>X>X>X}.>X>X>X>X}.>X}.}.$X>X}.n.I f = > 8 , > i 8 8 u 6 6 6 0 0 6 6 6 6 6 0 e 0 0 0 6 8 8 e e i i i i i i i 8 8 i i i d 8 8 d 8 i i i i a i i 8 u i i e i i i i 8 i i u d i i d i 8 a d 8 r z ( [ <.,.,.' #.W <.f.G.<X,X<X<X>X>X>X>XXX>X>X>X>X>X,X=X=X-XaXzXNXBXFXCXSXFXVXVXzXnXnXnXnXnXnXMXMXhXdX-X-X>X>X>X>X>X<X>X>X>X<X<X<X<X<X>X{.v.g.#.#.#.<.$.$.:.,.+.W ` :.1.:.1.1.] 1.1.:.1.` 1.1.] 1.) ( V a 0 7 6 6 6 0 u 0 6 6 0 u 0 6 6 u 7 6 6 6 6 6 6 6 e u 6 e e 6 e 6 u e 6 6 6 u 6 u q 6 e 8 6 q 0 0 7 0 e e 8 q 5 7 d 2.|..X<X}.XXXX>X<XXXXX.X.X.X.X.XXXXXXXG.m.,.W 1.3.1.3.3.2.1.2.3.1.1.1.3.1.` ,.V.F.XX.X.X.X.XXXXXXXXXXX.XXX,XXX.XXX,X}.:X>X>X>X>X>X:X}.}.}.:X}.Q.}.:X}.=X}.}.c.L g r 8 j d d i 8 i 8 e 8 8 0 9 q 0 q e q e 0 0 0 7 5 e 8 e 8 8 i 8 i 8 i 8 8 > 8 7 8 i 8 e i 8 8 i 8 i 8 i 8 i 8 i i 8 e 8 8 i 8 e > i 8 i i i i i i i i i N 1.1.,.' ,.,.,.<.a.j.].<X>X>X>X>X>X:X:X:X>X:X>X:X}.}.Q.>X(.pXnXAXSXCXSXVXCXVXAXAXAXAXMXGXnXnXmXvXhX6X4X}.2X>X>X>X>X}.}.}.}.}.}.}.}.}.}.].c.8.+.$.>.<.$.,.#.:.:.:.-.) :.;.-.:.1.:.` ) ` 1.) ` ) 1.1.( m a 5 6 6 0 0 u e a 0 6 6 6 6 6 0 6 e 6 e 0 e 0 0 e 0 u e 0 0 0 0 0 0 0 e 0 0 0 0 0 0 0 0 e 0 e e 9 0 9 9 0 9 0 7 8 d 4.|..X>X>X:XQ.=X}.}.,XXX.X.X XXX X.XXXZ.d.,.W 1.' ,.3.,.",
",.,.' ,.,.3.4.N.Z.|.|._.F.|._.|._._.|._.Z.].Z.].).].{.}.}.}.>X>X>X>X>X>X>X>X>X<X>X}.}.>X>X}.].o.F h h D z v F z h i 6 6 6 6 6 6 6 6 6 e 7 u 6 0 6 0 8 u i k z z v N z F z z v N z z z z D z v N z z z v v z D C z v v C z v z v z C z z v z z m D z z z z K W >.<.,.<.>.,.#.a.j..X<X,X>X>XXX>X.X>XXX>X.XXX,X>X,X=X=X-XsXFXFXFXBXCXVXAXVXnXMXzXmXmXvXvXmXvXhXhX5X3X>X>X1X>X2X>X<X<X<X<X<X<X<X<X<X<X}.n.j.y.a.y.a.a.a.a.d.,.T T R ( ) ) ( ) ^ ( ) ^ ) ) -.) ) ) ^ V b 7 0 6 9 6 6 0 9 0 9 6 $ 6 6 6 6 0 6 6 6 6 6 6 6 e 6 6 u 6 u 8 u 6 e 6 e 6 e 6 e e e 6 7 0 7 0 7 e 0 e e e q 7 7 d ,.|.XXXXXXXX>X<XXX4X.XC._.Z.|.|.|.|.F.V.m.,.W 1.1.1.1.1.1.,.2.2.1.3.1.3.1.,.3.N.Z.|.F.C._.).Z.].S.F.S.S.D.D.S.D.S.D.{.}.<X<X<X>X>XQ.}.:X>X}.>X>X:X}.}.}.}.}.].o.F h S D z z z z k d e 0 7 0 7 q e 0 q 0 e q e q 0 e e e d k z z F F N z z z z h z h z h z z h z z z z z h z k z h h z z z h z z z z z z m k z k v z z z z L >.>.,.,.p.,.a.a.a.j.n.,X:X}.,X>X:X:X:X:X=XQ.>X>X}.}.Q./.-XsXAXAXBXBXVXCXAXCXAXAXnXnXnXvXnXMXvXhXgX5X@X$X}.}.}.>X{.}.}.}.}.}.}.}.}.}.}.{.n.j.$.$.a.a.<.<.<.>.:.( ( ( ( ( ( ( ( ( ( ( ( ( ( ( ( ( ( ~ M a 7 6 6 0 0 0 0 0 6 6 6 6 u 6 u 6 0 0 0 0 0 0 0 0 0 0 0 0 0 0 e 0 0 0 0 0 6 0 0 e u 0 0 0 0 e 9 y 0 0 y 0 9 9 5 8 j 4.|.,X>X:X=X:X}.{..X|.G.].|.|.F.|.F.F.V.d.,.` ' ' ' ,.[ ",
"3.,.' [ [ 3.,.1.( Y Y L A L U Y L L K K K L K L K L o.g..X}.<X1X>X>X>X>X>X>X2X}.>X$X>X}.>X>X[.v.l.l.l.g.g.l.V.l.>.C 5 6 6 6 0 6 0 6 6 6 0 6 6 6 u 6 u a U 2.8.l.l.d.l.l.l.l.l.l.l.l.l.l.l.l.l.l.g.l.l.l.l.l.l.l.l.l.l.l.l.l.g.l.l.l.l.l.l.l.l.l.l.l.m.l.d.x.V.V.A.A.A.A.S.V.n.D.,X<X<X,X,X>X>X>X,X,X,X}.>X}.>X>X:X1X-XuXzXFXFXBXBXCXVXzXzXlXsX;X5XiXiXiXiXiX3X3X3X>X>X>X>X:X>X>X>X<X<X>X<X<X<X<X,X<X{.n.n.n.S.v.S.S.D.F.>.H M n z l M z M M m z M M k M M M M M e e 0 7 6 0 0 0 0 0 0 6 0 6 6 6 6 6 6 6 6 6 6 6 6 6 6 6 u e 6 8 6 e 6 6 e u 8 6 6 6 6 e e e 8 8 e 7 6 7 e e e q 7 7 r >.|.XX,X<XXX}.XXXX].l.L F Y Y Y ^ Y J T ` ` ' 3.3.2.3.3.1.1.3.1.3.1.3.1.,.,.3.' R Y L K G F F K G P P L P P P K P E E j.4X<X1X>X:X:X>X>X}.>X>XQ.}.:X}.:X}.}.{.).V.a.d.l.l.l.V.4.:.M # 7 0 0 0 0 0 e q q q q q e 0 e e j K e.N.l.l.N.N.N.N.l.l.N.4.l.8.d.N.8.l.d.d.l.d.l.l.m.l.l.l.l.d.l.d.l.l.d.l.l.l.l.4.8.N.g.l.N.l.l.N.V.Z.S.Z.Z.Z.S.S.v.S.{.{.}.>X>X,X>X:X>X:X}.>X>X}.>X}.:X}.>X3XpXnXSXVXVXCXSXSXAXVXzXjXfXiXiXiXaXaXdXdX@X$X+X>X4X>X>X>X}.>X}.}.}.}.}.}.}.<X}.XXR.c.c.).S.).D.F.B.:.z n j n n n n n l n k n n k k M k M n a e 7 0 0 0 e e 0 u 6 u 6 6 6 6 u u 6 e 0 0 0 0 0 0 0 0 0 0 e 0 0 0 u e 0 0 0 0 u 0 0 0 0 0 0 e 9 0 9 0 9 9 y 0 5 8 g 4..X.X,X:X:X:X}.{.D.a.F P I T L L P Y T W ` ` ,.,.3.,.[ ",
"3.[ [ 3.3.3.1.T j 7 7 i u 1 u 6 6 1 > < 8 > > > > 1 h +.].$X4X<X<X2X2X<X<X2X>X>X}.}.>X}.}.>X}.>XXXXX XXX,XXX$X XZ.L ; 6 7 6 7 6 6 6 e 6 6 0 0 6 9 6 i j R Z. X XXX X X XXXXX XXXXXXXXX XXX.X XXXXX X XXX X.X XXX X X XXX XXXXX X XXX XXX XXX XXX XXX.XXXXXXXXXXXXX,X.XXXXX,X,X,X,X1X<X,X>X>XXX,X>X>X>X>X,X>X.X>X:X=X-XsXzXFXFXBXDXCXVXVXlXsX;X-X-X/.-X+X2X-X2X=X=X>X>X=X>X1X>X>X>X>X<X>X<X}.}.<X>X>X,X>X,X>X,X.X.X,XXXXX,.z d 7 8 8 5 8 8 7 8 8 8 e 8 6 6 7 8 8 e e 0 7 0 0 6 0 0 0 0 6 6 6 6 0 6 6 0 6 0 6 6 0 6 6 8 u e 6 e u 6 u e u 6 e 6 6 0 e 6 0 e 6 6 e 0 e e e q e e e 7 > r >.|.XX,XXX<XXX}..X).+.1 1 i i i u > : l P ` ' 3.3.3.2.2.3.2.3.2.3.1.1.] 3.3.` T h 7 > > > 1 > = > > > , > > , , > 2 S $.<X<X>X>X:X}.>X}.>X}.>X>X}.}.:XQ.}.>XXX<XXX.X X XXX X<X XN.K o 5 0 9 0 0 0 0 0 0 0 0 0 0 0 7 e j `  XXXXXXX$XXXXXXXXXXXXX.X X.XXX X XXX X X.X X X.X.XXX X X X X XXX X.XXX X X.XXX X XXX X X XXX XXX.XXXXXXXXX.XXXXX.X{.{.>X>X>X>X:X}.>X:X:X>X2X>X>X>X}.>X}.2X3XpXAXBXAXBXCXSXSXGXzXjXuX@X/./.-X-X-X2X2X+X}.}.>X4X>X<X,X<X<X}.4X}.4X4X<X<X}.<X4X}.{.{..X{..X<XXX.X1.d e 7 7 8 5 5 5 8 5 7 5 7 7 7 6 6 e e 6 8 0 e u 0 u a u u 0 0 6 0 6 0 6 e 0 0 0 0 0 e 0 0 0 e 0 0 0 u 0 6 e 0 0 0 e 0 0 e 0 0 0 0 0 e 0 y $ 9 0 0 e q 5 7 g 4..X>X,X:X>X>X>X.Xc.W = = 2 8 > 8 > > l T ` ,.,.,.3.3.3.",
"3.3.' ] 3.m.] T k 6 6 6 6 u 6 6 6 6 6 6 8 ; 6 6 > 1 h o.|.<X4X<X>X4X4X5X4X>X>X}.>X}.}.>X>X>X}.<X>X>X}.<XXX}.<X.Xx.L - 7 8 5 5 7 e e 8 8 0 6 0 6 6 6 i k X.Z. X<X}.}.XX<X}.<X<X>X,X}.<XXX>X<X<X<X<XXX$X<X}.}.XX}.XX}.}.}.XXXX4X}.<X}.<X}.}.<X<X<X<X,X<X<XXX<X>X,X>X,X>X,X,X<X,X,X,X1X<X>XXX>X>XXX}.{.>X>X}.:X,X=X=X:X-XbXzXFXFXFXBXCXCXzXzXuX;X=X2X=X=X>X>X-X>X=X>X>X:X1X,X>X>X>X>X>X>X,X>X>X,X,X,X<XXX>X>X>X>X,X,X>X<X,X<.g e 7 7 7 5 7 6 7 8 ; 5 5 8 8 6 5 8 8 q e e e e 6 0 6 0 0 0 7 6 6 0 6 6 6 e 6 6 e e 6 6 0 6 u 6 e u 6 u e u 6 6 e e 6 0 6 e 6 0 0 8 0 0 0 0 0 e e e e 5 8 2 2.|.XXXX>X}.XXXXXX|.:.; ; u u a u 0 5 l H R ' 3.3.1.1.1.2.1.q.q.2.3.1.1.1.3.` K j 5 7 7 8 e 7 8 8 8 8 > 8 8 > 6 ; 1 h $.}.<X<X>X>X>X>X}.>X}.>X>X}.:X>X}.}.}.<X<XXX XXXXXXXXX4X Xl.C O 7 0 0 9 7 6 9 6 9 0 0 7 7 9 6 6 j @.XXXX.X}.<XXXXXXX<X<XXX XXX$X<XXX$XXXXXXXXXXXXXXXXXXXXXXXXXXXXXXXXXXXXXXXXXXXXXXXXXXXXXXXXXXXXXXXXX,XXX,X<XXXXX,X>X.XXX,X>X>X>XXX,X>X,X>X}.>X2X>X>X1X2X2X2X3XpXzXAXVXVXCXFXGXVXlXpX(.2X/.2X>X=X1X2X}.+X>X}.>X>X4X<X1X<X1X>X4X>X}.>X<X>X}.<X<X}.XXXX>X}.<X4X<X].:.j e : 5 6 5 5 5 5 5 5 5 6 5 7 7 e e e e e 0 0 e u 0 6 a 0 0 0 0 0 6 e 0 6 0 0 0 0 0 0 e 0 e 0 0 0 0 0 0 0 0 0 e 0 0 0 0 0 u 0 0 0 0 0 0 0 9 9 0 0 0 9 6 8 h <.|.XX>X>X}.}.>X.XC.E = - 8 i > > > 8 l T _ 3.,.3.3.3.,.",
"3.' ' 3.3.3.' T j 5 6 0 6 6 6 u u 6 6 6 6 6 6 6 6 i g @. X$X4X4X<X4X<X<X4X<X>X>X}.>X>X>X>X>X>X>X>X>X>X>X<X<X4X{.c.K ; 5 8 8 7 e e e 8 6 6 6 6 6 6 5 6 d R _.XX4X}.>X2X<X4X>X>X1X<X<X>X4X2X>X>X>X<X>X>X>X:X>X2X>X<X2X>X>X>X>X>X<X2X>X<X>X2X>X>X>X<X>X>X<X>X1X>X>X,X<X<X<X>X>X1X,X1X<X<X>X,X}.,X.X}.:X.X,X{.}.{.*X*X*X-XaXlXFXFXFXCXCXFXzXlXyX-X=X:X:X:X:X:X>X>X:X>X>X:X:X>X>X>X>X>X>X<X<X>X>X<X>X<X<X>X>X<X>X>X<X<X<X<X<X<.l 8 7 8 8 8 5 7 8 8 6 6 ; 6 6 6 6 6 e e e u e e 6 6 e 6 6 6 e 0 6 0 6 e 6 6 6 6 6 6 6 6 6 6 e e u e 6 6 6 e 6 6 u 6 6 e u 0 0 0 0 0 0 0 0 0 0 0 e e 0 7 7 d ,.|.XXXXXX}.<XXX.X_.:.> 5 e e 0 y u 7 j U _ ' 3.3.1.1.1.1.2.3.3.1.1.1.1.1.3.` U j 5 0 0 0 8 e e e 0 q 8 8 8 8 7 5 , h #..X<X}.}.>X>X}.>X}.>X}.=X>X}.>X}.}.}.}.<X}.XX}.,X}.XX<X{.l.K * 9 0 0 7 9 9 6 9 7 7 0 0 0 7 7 8 g +.XXXXXX>X<X<X}.>X<X4X}.>X}.<X<X<X<X<X<X>X<X<X}.<X}.}.<X<X<X}.<X}.<X}.}.4X}.<X<X<X<X<X<X}.}.4X<X>X<X,X,X>X<X<X>X>X{.,X>X>X,X>X,X>X}.>X>X>X2X$X>X}.>X<X>X>X2X3XfXnXAXVXVXCXVXFXMXlXyX/.Q.*X:X:X1X1X:X>X:X=X}.>X1X4X<X<X>X>X>X4X>X<X2X}.4X4X>X<X<X>X>X>X<X>X4X4X{.$.d 8 5 8 7 6 9 5 7 7 5 9 8 6 0 7 8 e e e e 0 0 a e 0 0 e 0 0 0 0 0 0 0 0 0 0 0 0 0 0 0 0 0 0 0 0 0 0 0 0 0 0 0 0 e 0 0 0 0 e e 0 e 0 0 0 9 6 $ 0 y 0 9 9 8 f d..XXX:X>X:X>X2XXXC.R : : 7 6 8 6 8 8 h T ' 3.3.,.[ 3.[ ",
"1.1.] ] 3.3.1.T j 5 $ 0 0 u 6 0 6 0 0 0 6 6 0 0 7 i k +.XX4X4X4X$X}.>X>X}.}.}.>X>X>X>X2X>X>X>X>X=X>X>X>X>X>X<X>Xn.L = 7 8 i e a u 8 8 6 6 6 6 5 5 6 6 1 I Z.XX<X>X>X>X>X>X>X>X=X2X>X>X2X=X1X>X>X>X=X}.:XQ.:XQ.>X>X}.=X>X=X>X>X>X>X=X=X>X>X>X>X=X>X>X>X:X>X>X>X>X:X:X,X,X1X:X,X>X,X<X<X<X{.}.{.{.W.{.{.{.{.{.*X*X*X=X-XyXzXFXVXFXBXNXVXNXlXyX-X:X:X:X:X:X1X:X>X>X>X:X:X>X>X,X>X,X>X>X>X>X>X<X>X,X>X>X>X,X>X>X>X>X<X1X<X<Xd.z t 7 e t a e u 8 e 5 ; 6 6 8 i 6 e 6 6 6 e 6 e 6 6 6 u e u e 6 0 6 0 e 6 6 6 6 u e 6 6 6 6 u 6 6 e 6 e 6 u e e u u e 0 0 0 0 0 0 0 0 0 0 0 0 a e e 0 5 > r >.|.XX>X}.<X}.XX.XF.2.; 5 e u y u 0 0 n T ` 3.3.3.] 1.] 1.1.0.q.1.1.1.] 1.2._ U j 9 9 9 y e e e e q 0 0 9 8 7 9 7 8 h $.XXXX<X}.<X>X>X}.>X}.>X}.>X>X>X>X>X}.<X<X>X>XXX<XXXXX4X{.C.K - 0 e 0 0 0 9 0 0 0 0 9 9 q 0 6 e h +.XX<XXX>X>X>X>X>X>X>X>X}.<X>X1X>X<X<X>X<X>X>X<X<X>X>X}.>X<X<X<X>X}.>X<X<X<X}.<X<X<X>X<X<X<X>X>X>X<X>X}.>X>X>X>X>X>X,X>X>X>X>X>XXX}.>X>X}.}.+X+X}.{.:X}.}.$X@XfXAXVXVXVXVXVXzXzXlXyX-XW.*X=X*X&X&X=X:X:X>X=X:X>X>X1X<X>X<X<X>X>X>X}.<X<X>X<X>X>X>X>X>X>X>X<X1XXX,.j 8 5 8 0 6 7 7 7 6 9 5 7 7 0 0 7 e e e 0 0 e e e e 0 0 0 0 0 0 0 0 0 0 0 0 6 a 0 e 0 0 e 0 0 0 6 0 0 0 0 e 0 0 0 0 0 e 0 0 0 0 e 0 0 0 9 $ 0 0 0 0 6 $ e k d. XXX}.>X}.}.<XXXC.R = ; 8 u 8 8 8 7 M T ' ,.3.3.' ,.,.",
"[ ] ' 1.' 2.1.T j 6 0 0 0 $ 0 u 0 0 6 6 0 0 6 0 6 e f +. XXX}.4X>X}.}.>X}.}.>X4X>X>X>X>X}.>X>X>X>X>X:X>X>X2X6X}.S.L - 7 8 e 8 e 8 e 8 e 6 6 6 6 5 6 i d R |.XX4X>X:X2X>X>X2X>X>X>X>X:X1X>X=X1X=X2X>X>XQ.}.=X>X}.:X=X:XQ.>XQ.>X>X>X=X>X>X>X:X>X=X>X=X:X>X:X:X:X,X:X>X:X>X:X:X>X,X,X1X<X>X>X}.:X:X{.:X{.}.}.:X*X=X*X=X-XsXkXVXVXVXBXFXVXzXlXpX/.{.:X:X:X:X>X:X>X>X:X1X>X,X<X>X>X>X,X,X>X>X<X<X,X>X,X>X<X<X>X1X>X>X1X1X<X<Xa.z u 5 8 8 e 8 8 8 6 6 6 5 6 i e 6 6 6 e 6 e 6 u 6 e 6 e 6 6 0 6 6 6 u u 6 e 6 e e e u 6 e 6 e 8 u 6 u e u 6 e 6 6 6 e 6 e 0 0 0 q 0 0 0 0 0 0 0 0 e q 7 > r 2.|.XXXX}.XX>X>XXXF.:.- 5 6 0 a y 0 0 j U W 3.3.3.1.1.1.1.1.1.1.1.1.3.3.3.1._ K j 6 9 0 9 e e e e 0 0 7 0 7 0 6 5 > D #.XX<XXX}.}.}.>X>X>X>X>X>X>X>X}.>X}.<X>X<X<X}.>X}.<X<X4X{.V.K - 9 0 e q q 0 0 0 e 0 0 0 e e 0 i g o.XXXX>X<X2X>X>X>X<X1X>X}.>X>X>X<X>X<X<X>X<X<X}.>X<X>X<X>X>X>X>X>X>X<X>X>X>X>X>X,X>X>X}.>X<X>X<X}.>X<X>X>X>X>X,XXX}.:X>X>X>X>X,X>X>X}.>X}.}.+X}.}.}.}.>XQ.2X3XfXnXAXFXVXFXzXFXzXsXyX-XQ.=X:X1X=X*X=X:X=X:X}.>X>X>X>X>X<X>X>X<X}.>X<X>X}.>X>X>X>X>X>X2X>X>X4X>X>X>.g 8 5 8 7 9 0 0 0 7 6 6 6 0 0 7 0 0 q e e 0 q 0 0 0 0 0 0 e 0 0 e 0 0 0 0 u 0 0 0 0 0 0 0 0 u e a 0 0 0 0 0 0 0 0 0 0 0 0 e 0 0 0 y 0 e 0 0 9 0 y 0 0 6 i j l..XXX>X:X}.>X>XXXC.R = ; 8 e e 8 8 8 k T ` 3.3.3.3.[ 3.",
"1.] ] 1.3.q.] T n 5 6 0 0 0 y 0 $ u 0 0 0 0 0 $ 6 i f W  XXXXX4X4X}.}.}.}.}.<X4X>X>X>X>X>X>X>X=X>X>X=X=X>X1X1X>XS.L : 5 8 e e j 8 8 0 7 0 7 0 0 0 7 e d I |.}.4X<X>X>X>X=X>X>X1X1X=X1X>X=X1X>X1X1X>X>XQ.Q.:X>X:X}.:XQ.=X>X=X>X=X>XQ.=X>X=X:X=X>X:X>X=X:X=X:X>X>X:X1X,X:X>X,X:X>X,X1X<X<X,X>X>X,X>X>X>X>X>X<X<X>X=X-X;XsXzXFXVXVXFXNXVXzXlXyX-X*X:X{.:X:X,X1X,X1X,X>X>X:X>X,X>X:X>X,X>X:X>X>X,X>X<X<X>X1X>X1X,X>X1X1X1X,X4.z q 5 5 7 7 7 7 5 5 6 8 6 6 e 8 5 6 6 6 u 6 e 6 e 6 e 6 6 u e 6 6 6 e 6 6 e 6 6 6 6 u u e 6 u 6 e 6 e 6 e 8 6 6 6 u 6 6 0 0 0 0 e 0 0 0 e 0 0 0 0 e 0 5 5 2 >.|.XX>X>X>X{.XXXXF.2.> 5 0 0 y u 0 6 n U _ 1.2.3.1.1.1.1.1.1.1.1.1.q.2.q.3._ U j 7 9 9 0 0 0 0 0 e 0 0 0 9 7 6 7 > z >.XXXX}.}.}.>X>X>X1X>X>X2X<X>X>X>X>X2X<X>X<X}.}.4X}.<X4X.XC.K O 5 9 q 9 e e 0 q e q 0 0 q 8 e 8 g o.XXXX>X>X>X>X>X>X4X>X>X:X>X,X<X>X<X1X<X>X>X<X>X<X>X>X>X>X>X>X<X>X}.>X>X>X>X>X>X>X>X>X>X>X>X>X>X>X>X>X>X>X>X>X>X>X{.>X>X>X>X>X>X>X>XXX>X}.}.$X+X}.}.}.>X+X2X3XxXMXSXAXSXGXVXzXMXlXyX/.Q.Q.=X=X:X*X:X=X>X*X:X>X>X>X>X1X>X>X>X1X>X>X>X>X>X>X>X>X>X>X}.>X>X>X<X>XXX$.r e 8 8 0 7 7 0 0 7 7 6 0 6 q 9 0 9 e e e e 0 e 0 e 0 0 0 0 0 0 0 e 0 0 e 0 0 u 0 0 0 0 0 0 0 0 e 0 0 0 e 0 0 0 0 e 0 0 0 0 0 0 0 0 e e e 0 0 0 0 y 0 0 i k l..X}.}.>X}.>X4XXXC.W = - 8 i 6 8 8 > M T ` ,.3.3.,.,.1.",
"3.3.] ] 1.q.] T k 5 6 9 u $ u $ 0 y 0 0 0 9 0 u e 8 f @.XXXX<X<X4X4X4X<X<X}.>X<X>X>X2X:X=X>X>X>X>X=X1X:X>X>X<X}.j.G - - - 5 7 : 5 * - * + # + + @ + ; > L ).XX4X>X>X>X2X2X>X>X=X:X>X=X>X>X=X=X1X6X1X>X>X>X>X>X2X>X>X1X>X>X>X>X>X>X>X>X>X>X2X2X>X>X>X1X>X>X>X>X>X>X1X<X>X>X1X,X1X<X<X<X1X1X4X4X,X<X<X<X<X<X<X<X1X>X3X3XsXzXzXVXAXFXFXVXAXzXsX3X:X:X,X,X,X,X,X>X<X:X>X1X:X:X1X,X>X>X:X>X1X>X>X>X>X>X>X<X>X>X>X1X>X>X>X}.}.<.j 7 & @ $ 5 - 5 5 5 6 e 6 8 u 8 6 e 6 6 e 6 e 6 u 6 6 e 6 e 6 e 6 e u 6 e e u 6 e 6 e 6 e 6 e u 6 e u 6 u e u e u e e 6 e 0 e 0 0 0 e 6 6 7 5 $ $ # - * * = :.|.XXXX>X>X>X>X.XF.:.; ; 0 y y y 0 6 k Y ` :.3.2.2.1.0.1.1.q.0.1.1.1.3.3.3.Q K j 9 9 y 9 y 9 y e q 0 9 7 6 6 7 5 r F <.XX4X4X<X>X>X4X>X<X2X>X>X1X<X>X>X>X>X>X>X4X<X}.}.<X,X<X{.V.K X - 5 5 5 # 9 5 - 9 $ 5 9 7 - 5 = , I XX<XXX>X>X>X>X2X>X4X>X=X>X>X<X<X>X>X>X>X,X,X>X<X>X>XXX,X<X,X,X>X<X>X<X,X,X>XXX>X,X,X>X,X,X,X>XXX,X>X,X>X,X,X>X>X:X:X>X>X>X>X,XXX,X>XXX}.$X+X4X2X}.4X4X$X4X3XhXMXGXAXGXVXAXnXnXlXpX3X2X$X1X1X1X>X:X:X>X>X>X=X>X>X>X>X>X>X>X>X}.>X>X>X>X2X>X}.>X>X>X>X>X2X4X4XXX+.8 - * - - & + 5 5 5 6 7 7 q e 0 0 e e q e 9 e 9 0 0 0 0 0 0 u 0 0 0 0 0 0 0 0 e 0 0 0 e 0 0 0 e 0 0 0 0 0 0 u e 0 0 0 0 0 0 e 0 0 0 0 6 0 9 @ $ 6 6 9 @ - 1 2..X}.<X>X}.}.>XXXZ.R : ; e 8 e 5 8 8 z T ` 3.1.3.3.3.:.",
"3.3.] 1.3.3.] T n 6 0 0 0 0 $ y $ 0 $ 9 0 0 9 0 6 u k -. X X X X XXXXX XXX}.<X4X>X>X>X>X>X>X>X=X>X>X=X:X>X>X1XW.k.I > > > > r > : - : : > = 5 ; ; ; > 3 I ].}.<X}.}.>X>X=X1X>X1X=X>X=X1X1X>X=X>X1X4X}.}.}.XX>X}.}.}.XXXX}.}.}.}.>X}.XX}.XX}.>X>XXX>X>X>X<X>X>XXX>X,X,XXXXX,X,X.X,XXX,X,X.XXXXX.XXXXXXX,X,XXX>X>X>X2X2XdXsXvXvXnXkXlXnXvXhXdX1X{..X,X{..X,X,X,X>X1X,X>X:X:X>X:X1X:X1X>X,X,X>X>X>X>X>X<X>X>X>X>X>X>X>X}.}.y.F > = 8 8 > 8 i i 8 i 8 i e i 6 ; 6 6 6 6 e u 8 6 e 6 e 6 6 6 u 6 6 6 6 6 e 6 e u e 6 6 6 e u e u e 6 u e 6 6 e 6 6 0 u 0 0 0 6 e e 6 e e 8 u 8 > > : = = , #.].XX>X}.>X:X}.XXF.:.; 5 0 u 0 u 0 9 b A ( ] 1.1.1.0.1.;.1.1.0.2.1.[ 3.3.3.` J j 9 9 9 0 e 9 e e e 0 0 0 9 6 5 5 8 z ,..X X.X.X X.X.X]..X<X>X>X<X2X>X>X>X>X<X>X}.}.>X<X}.>X>X].c.G = > 8 > 8 8 > > 8 8 > 7 > > 8 > > 2 o.XX<X}.>X2X>X>X>X1X>X}.}.>X>X<X>X>X,X<X>XXXXX.X.X.XXX.X.XXX.X.XXXXX.XXX.X.XXXXX XXXXXXXXXXXXXXXXXXX.XXXXXXXXX>X{.{..X{..X]..X.X|.].|.]..XXX X$XXX.X}.<X}.$X+XdXvXvXcXnXnXcXvXfXaX5X+XXX}.>X,X,X,X,X:X1X:X:X:X>X>X>X>X1X>X1X>X>X>X>X>X}.>X>X>X2X<X>X>X>X>X1X>X}.$.2 > : > = : > 8 ; 6 5 5 0 e e 9 9 0 0 0 9 e e 0 0 0 0 0 0 0 0 0 0 0 e 0 0 0 0 0 e 0 0 0 0 0 0 u 0 0 e 0 0 0 0 0 0 0 e 0 0 0 0 0 0 6 6 e e e ; i u i 8 > 1 f <. X X}.>X>X}.<XXXC.R - ; 8 e 8 7 6 8 M Y ( ) :.` 1.` ` ",
"[ ] ] ] q.q.] ~ n 6 0 $ 0 0 u u u y u 0 9 0 0 0 7 u j Y e.B.N.N.C.B.B.z.C.].}.4X>X2X>X>X>X=X:X>X>X>X>X>X>X>X>X}.n.y.G P G P L I P G G L L L L X.o.I I o.u.].XX<X>X}.>X>X>X>X>X=X1X>X>X>X=X>X1X>X}.{.R.S.S.].].].].S.].D.].].S.S.].].].].S.].].S.].S.D.S.].S.F.D.D.S.D.F.F.D.A.c.V.x.V.V.M.l.m.d.m.V.S.|.|.F.S.D.S.{.[.oX3X3XiXqX(.7X3X%X$X$XXX].D.F.A.D.v.v.n.,X,X>X,X>X>X,X>X:X:X,X>X>X>X>X>X>X>X>X<X>X1X1X>X>X>X}.:XXXx.o.E L I I I I I K z i e e a e 8 6 6 6 e 6 6 6 6 e u 6 6 u e 6 e 6 e 6 u e 6 6 6 e 6 6 6 e 6 6 6 6 e 6 8 6 e u 6 e u 0 e 0 0 0 u 0 6 6 a N Y X.L L P L P G E g.].}.}.>X>X}.}.{.Z.2.> 5 0 0 y u $ 0 a B A ~ ^ ^ ^ ^ ^ Y ^ 1.1.1.1.1.1.3.[ ` U l 9 6 9 0 9 y e e q 0 9 0 6 6 6 7 8 z R 4.N.N.N.l.B.l.a.c.].>X<X4X<X>X<X>X>X>X>X<X<X<X<X<X>X[.{.S.$.P P Y I L L I I L I R L L L I I I I g.XXXX}.>X>X>X:X>X>X2X:X}.>X>X>X<X>X>XXX|.D.S.S.S.S.|.S.F.F.F.D.S.D.F.S.F.S.S.G.S.S.F.S.F.S.F.S.S.F.F.S.F.F.S.].].].S.x.l.d.d.l.d.l.l.x.l.C.].|.|.S.G.].].].|. XeX%X%XeX@XeX%X%X#X[.|.].D.G.G.D.D.n.&X,X>X>X1X>X>X>X>X>X>X<X>X>X>X>X>X>X>X>X>X>X}.>X2X>X>X}.}.}.g.o.I I L I P P L F z 6 7 0 e e 9 0 7 0 e 9 e e 0 0 0 e 0 0 0 6 0 0 0 0 0 0 0 e 0 0 0 u 0 e 0 0 0 e 0 0 0 0 0 e 0 0 0 0 u 0 e 0 0 6 e 5 u C K R Y I I R I o.+.C.XX<X<X>X}.>X>XXXC.R = ; 8 u e 8 > 8 j N U T U T T U U ",
"0.] ] 0.[ q.] / b $ u b $ b $ b $ 0 $ 0 0 0 0 0 0 6 6 n T Y Y Y Y R Y K >.c.}.4X<X>X>X=X>X>X2X>X>X>X>X>X>X>X1X}.[.v.u.d.g.l.g.g.g.l.j.g.j.l.z.j.z.x.x.x.P..X}.4X>X:X>X2X>X1X=X>X=X>X>X>X1X>X>X}.n.c.g.l.l.l.l.l.l.l.l.l.l.l.l.l.l.l.l.l.l.l.l.l.j.l.d.l.l.l.l.l.d.x.f.l.m.d.d.,.Q I T P P U K U T +.a.l.l.d.l.l.d.j.l.x.P.I.).c.P.L.L.P.).V.c.V.j.d.d.d.d.d.c.|.,X>X1X:X:X:X>X,X>X,X>X:X>X>X<X<X,X1X,X>X>X1X>X>X>X>X>X<XW.x.j.l.x.l.z.l.j.<.X.d 6 u e e 8 6 e 6 6 6 6 6 6 e 6 e 6 6 u e 6 6 a 6 6 6 e u 6 6 6 u 6 6 e 6 6 6 u 0 6 6 u e 6 e e 6 0 0 0 0 e 0 7 5 p Y 4.B.c.l.l.l.j.j.j.].{.}.}.>X>X>X>XXX_.:.5 5 0 y 0 0 y $ b b m m B B m m B m A ) ;.1.1.] ] 1.2.` J j 9 $ 9 y e y e e e e 0 q 9 6 9 5 e d m Y T Y Y T Y P K $.k.}.<X<X<X>X<X}.<X}.XX<X<X<X}.<X<X}.}.}.n.g.l.l.j.j.l.l.x.z.l.l.j.l.l.l.l.g.j.c.4X<X}.<X>X>X>X>X>X2X>X>X>X>X,X<X>X>X{.S.l.l.d.l.l.N.l.d.l.l.l.l.N.N.l.N.N.l.l.l.N.l.l.N.l.N.l.l.N.l.l.N.l.j.x.g.x.l.<.I K P P P P I P T >.d.N.V.x.d.f.d.d.d.c.)._.L._.I.).).L.C.z.l.d.N.f.M.f.f.f.v.{.,X>X>X>X>X>X>X1X>X>X>X>X>X>X>X>X>X>X>X>X}.>X>X>X>X{.}.}.].j.j.j.g.j.j.x.x.$.L 8 5 0 e e 0 9 9 7 0 9 e e e 0 0 0 0 e 0 0 a 0 0 0 e 0 e 0 0 0 0 0 0 0 0 0 e 6 u 0 0 e 0 0 0 0 0 0 0 e 0 0 e u 6 6 k ^ 2.z.c.g.h.l.c.c.k. X<X<X}.}.>X}.4XXXC.W = - e e 8 6 6 i a k j M k k j j j ",
"[ ] ] ] 0.q.] ~ B $ y $ $ y $ $ u y u 0 $ u $ 0 u 6 @ 5 - - - - ; ; - * z &..X6X2X>X>X>X=X=X}.>X>X>X2X=X>X2X2X>X>X<X>X>X}.XX}.,X}.}.4XXX<X4X4X4X<X4X$XXX<X}.}.}.>X>X>X>X=X>X1X>X1X>X1X=X>X>X>XW.j.$.+.+.o.:.+.@.+.+.+.@.+.+.+.+.+.>.+.+.@.+.+.+.+.+.:.:.:.+.W +.:.W :.` ` ,.W P , * * * - - * - > N I W +.+.W #.#.+.:.$.>.>.@.@.>.+.,.+.,.@.@.:.,.W ' ` W Q d.D.{.,X,X>X,X>X1X:X,X>X>X1X>X>X>X,X>X>X>X>X>X>X>X>X>X>X>X6X4X<XXX<XXX<X<XXXXX|.<.j > e 8 8 8 6 6 6 u e 6 e 6 u 6 6 e 6 e 6 u 6 6 6 e e 6 6 6 e 6 e 6 e u e u 0 6 6 e u 6 6 8 u u 6 0 0 0 0 0 0 6 + b -.Z.4X4X4X4XXX>XXXXX}.<X<X1X2X>X>X4XXX|.-.> 5 0 u y b u 0 y 9 6 9 6 0 e u 6 a M ^ 1.1.] ] ] 1.1.( U j 9 9 0 0 e 0 0 e e 9 e 9 9 6 9 6 7 ; > ; - + * * - - = S a.{.4X4X4X>X>X}.}.>X>X>X>X>X<X2X>X4X4X4X4XXX4X<X4X<X<XXX<XXX<XXX,X<X<X4X<X}.<X4X4X<X>X4X2X4X1X2X4X<X2X>X>X>X,X>X>X<X].g.2.#.+.:.+.:.:.>.:.:.1.>.:.:.+.:.:.:.:.+.1.:.:.:.+.:.1.:.:.:.1.,.:.:.,.#.#.R H , * - : * - * & , K R ' ' ` +.` W ` W @.>.>.>.@.@.5.>.>.>.,.+._ ` Q ' ' ' t.s.D.:X>X:X,X:X>X>X>X>X>X>X>X>X>X>X}.2X>X>X>X2X>X>X>X}.W.}.<X}.<X4X<XXX4X4X4X<XC.,.d 5 0 e e 9 9 6 7 0 e 9 0 e 0 q 0 0 0 0 0 0 0 0 0 0 0 0 0 0 0 0 0 0 0 0 0 0 0 e 0 0 0 0 0 0 e 0 0 0 u 0 0 0 e 7 5 k w.|.4X4X4XXX$X4X$X4X4X<X<X<X>X>X>X>XXXZ.R ; ; e e 8 u > 6 8 5 > ; 5 5 ; - - ",
"] 0.] 1.1.q.] ~ B $ $ $ B $ b $ 0 u 0 0 y u u 0 6 6 5 5 5 5 5 ; 5 ; + X h <.{.4X<X>XQ.>X>X>X>X>X>X>X>X>X>X2X>X2X2X<X4XXX<X}.>X}.}.<X}.<X}.$X$XXX4X$X}.<X}.$X2X<X>X>X=X>X>X>X=X>X1X=X1X>X=X>X>X{.g.<.o.+.X.+.,.+.+.X.+.+.+.+.+.X.:.+.+.+.+.+.:.+.+.:.+.:.:.+.+.` +.' W :.` ` R P , & & & & - + @ > z P ` +.W :.#.$.:.+.,.,.>.,.@.>.+.:.+.:.,.` ,.,.,.` W #.#.d.S.{.,X,X:X:X1X:X>X>X,X<X<X>X>X>X>X:X1X>X1X1X>X1X:X>X:X1X4X4X}.>X,X4X<X<X<X4X Xd.d 8 a u e e 8 e 8 e 6 u e e 6 e 6 e 6 0 6 0 6 e 6 6 u e 6 8 u e 6 e 6 e 6 0 6 u 6 6 e e e 6 6 u 0 e 0 0 0 u 0 5 @ k 1.Z.4X4X4X4X<X<X<X<X<X>X>X>X>X>X>X>XXX|.:.6 5 u $ $ b u y u 0 0 9 0 0 u u 6 u n ^ 1.1.] ` ) ] 1.` U n 9 9 9 0 0 0 0 e e 0 e 0 0 7 5 7 5 6 5 5 5 - - 5 ; - * D g.R.<X<X>X}.>X>X}.}.>X>X}.<X}.}.<X<X<X<X<X<X<X<X<X4X<X<X<X<X<X4X<X4X<XXX<X<X<X<X<X<X>X2X>X>X>X>X1X>X>X>X>X>X,X>X>X,X].l.,.+.` W +.:.>.-.:.:.:.+.+.:.-.>.:.:.:.:.-.:.:.:.:.` ` :.:.` :.:.:.+.#.#.$.W F r : - - - - : * r H R 1.:.` Q W ` +.W ,.$.@.,.>.@.2.>.2.>.:.W ` W ' ' ' Q ' s.D..X>X>X>X>X>X:X>X>X>X>X>X>X>X>X>X>X>X}.>X>X>X>X>X>X>X>X4X>X<X<X<X}.<X6X1X4X].,.d 5 0 q 0 6 9 9 9 9 e e e 0 0 0 e 0 0 e 0 0 0 e 0 0 0 e 0 0 6 0 0 0 0 e 0 0 0 0 0 0 0 e 0 e 0 0 u e 0 0 0 0 0 0 ; k 4.|.6X4X4X4XXXXXXXXX4X4X}.<X>X}.}.<XXXV.R - > 8 e 8 e 6 8 ; 8 7 5 5 8 > 5 ; ",
"[ [ [ [ 1.q.] ~ B B $ B $ $ $ b 0 0 u $ 0 $ 0 0 6 e e u e u u e u e 5 O v 8.{.4X2X>X>X>X=X>X>X>X>X>X>X>X>X>X>X>X}.4X4X4X}.}.{.[.[.{.}.[.{.XX}.}.}.}.$X$X}.<X}.4X>X2X>X>X>X>X1X>X>X>X=X=X1X:X>X{.c.<.,.+.+.>.,.>.:.-.>.2.:.>.-.>.:.>.:.>.,.,.:.,.+.:.:.+.:.:.:.:.:.,.:.,.1.1._ U r : : - 5 5 5 - 8 H I :.:.+.,.,.,.,.1.>.:.:.2.,.1.` ' ,.>.>.,.,.,.,.,.1.,.' d.G.,X,X>X>X,X:X>X,X,X>X>X,X>X,X>X>X>X:X>X>X>X>X>X>X}.}.>X>X<X}.>X>X<X<XXX<X4X].<.d 7 e e a 6 i e e 6 e 6 6 6 6 e u 6 e u 6 e 6 6 0 6 e 6 6 6 6 e 6 u 6 6 e u 6 0 6 6 u 6 u 6 6 6 6 6 0 0 0 0 0 7 - n 1._.4X$X}.}.}.}.>X}.>X}.>X>X}.>X:X}.XXZ.>.; 6 y y y u 0 0 y 0 u u b 0 a 0 a a m ;.1.1.1.) ] 1.1.` U n $ 0 0 y y 0 y 0 e 9 e 9 9 0 7 6 6 5 6 6 7 7 6 7 e 8 * F g.].<X>X}.>X}.}.}.>X}.}.>X}.>X>X}.}.>X}.}.XXXX>XXXXXXXXXXX}.XXXXXXXX<X}.>XXX}.}.>X}.>X>X>X}.>XQ.}.>X>X>X>X>X>X>X<X,X{.l.>.:.:.-.( :.:.:.:.:.1.1.:.:.:.:.:.:.-.:.:.:.:.:.:.` :.:.` 1.` :.' :.,.#.,.:.K j : > 8 > 7 : 8 r U _ 2.,.,.,.,.,.,.,.<.,.>.3.2.2.>.1.:.:.1.1.' 1.' ' ' p.' s.D.,X1X1X:X>X<X1X>X>X1X>X>X>X>X>X>X>X>X>X<X>X2X>X>X>X>X4X>X>X:X}.{.}.}.4X6X<Xn.,.r 5 q 0 0 9 6 6 6 0 0 9 e e 0 0 0 0 0 0 0 0 0 6 0 0 0 u 0 e 0 a 0 0 0 0 0 0 0 0 e 0 0 u 0 0 0 e 0 0 0 e 0 0 0 7 @ k 2. X4X4XXXXX}. X.X}.4X4X4X}.}.>X}.4X}.C.W - ; 8 a 8 8 i 8 i i u i a i e i 8 ",
"q.[ ] 1.1.q.1.~ n 6 0 0 u y $ $ $ 0 $ u $ u 0 0 0 0 0 u 0 u e 7 7 0 $ + z <.{.4X4X}.>X>X>X>X}.>X>X>X=X2X>X>X2X2X=X>X2X}.}.}.E.}.}.}.}.}.}.}.4X}.$X}.$X}.$X}.2X4X2X>X>X>X>X>X1X>X1X>X1X=X:X1X>X}.j.<.>.:.>.>.:.>.:.>.:.2.:.:.>.:.>.:.2.:.:.2.:.:.:.:.:.>.:.:.:.:.` :.,.' 0.] ( T j : 7 7 7 9 6 9 8 H R ` +.` ,.,.,.,.:.:.,.3.[ [ ` _ 1.1.3.>.3.3.' 1.1.` ,.W s.S..X,X,X>X<X,X,X>X,X,X>X>X>X>X>X>X>X>X>X>X<X<X>X>X,X>X>X1X1X1X}.{.<X>X}.<X<XR.>.r - e e j e a 8 e 6 6 e 6 6 6 e 6 e 6 6 e 6 e 6 6 6 6 6 u 6 e 6 e u 6 6 e 0 0 0 6 0 0 0 0 6 u 0 0 0 0 0 0 0 0 6 + p 1._.$X<XXX}.<X1X>X>X>X>X>X>X>X=X>X>XXX|.:.; 5 0 u y 0 y $ 0 b u 0 0 u 0 u u a k -.0.1.1.1.1.1.3.` U j 9 9 0 0 y 0 e u 0 0 0 0 0 0 0 0 7 q 8 7 6 e e e 8 8 O H g.].<X>X>X>X>X}.XX>X}.>X>X}.>X}.}.}.}.}.}.>X<X<X<X<X<X<X<X<X<X<X<X<X1X>X>X>X2X<X>X>X>X>X>X>X}.>X>X>X>X>X>X>X>X>X>X<X.Xx.3.,.1.` ;.1.2.2.1.1.1.1.1.1.1.3.:.1.1.1.:.1.1.1.' 1.] ] ' ] 1.1.] 1.,.#.<.W U d ; 8 6 6 7 8 > r J ( 3.3.1.1.] 3.,.3.3.,.3.3.2.3.3.2.1.1.1.1.] ] ' ' [ ,.' s.D.{.,X>X:X1X>X>X>X>X,X>X>X>X<X}.>X>X>X:X}.>X>X}.>X>X>X>X>X>X>X}.:X{.<X4X1X1Xn.#.t 7 q e e q 9 6 9 0 0 0 e 0 0 0 0 0 0 0 0 u u e e 0 0 0 0 e 0 0 e 0 0 0 u e 0 0 0 e 0 0 0 e e 0 0 0 6 0 0 0 0 5 - k 2._.4X4X}.4X$X{.XX}.}.4X}.}.XX>X>X>XXXZ.R ; ; 8 e 8 8 8 8 8 i 8 6 i 6 i 6 5 ",
"[ [ ] 1.1.q.1.~ n 7 $ 6 $ u u u u y $ y 0 0 0 0 u 0 0 y 0 u 0 0 6 9 $ + v >.].4X}.4X>X2X2X>X>X>X>X>X>X>X1X>X>X>X}.>X2X}.}.}.:X>X>X2X>X4X2X4X2X4X>X2X4X<X>X>X>X}.>X>X}.>X>X=X=X>X=X>X>X>X>X>X>X:Xc.<.:.@.+.,.2.:.:.-.:.>.>.2.:.:.:.1.,.:.-.:.:.:.:.:.:.` :.:.1.:.,.:.1.1.] 0.] ~ j 7 7 7 7 0 6 9 r H R :.:.:.,.,.:.:.:.:.,.3.3.] ' ` ` ` 1.1.3.,.1.1.,.:.,.W a.S.].<X,X<X,X>X>X:X>X>X,X>X>X>X,X<X>X>X<X>X>X>X>X<X>X>X>X>X4X<X>X}.<XXX}.XX<XS.<., 5 e a e e a e 8 7 e u e e 6 e 6 e 6 6 6 0 6 u e e 6 e e 0 6 6 0 6 e 0 u 0 b 0 u 0 u 0 0 6 6 0 0 u e 6 0 a 6 6 @ k -.C.4X4X4X<X2X>X1X2X>X>X2X>X1X>X2X>XXX].:.; ; 0 0 0 b b u y u 0 0 0 0 0 0 6 0 b ;.2.1.1.1.2.q.2.) U j 6 9 0 0 0 e e 0 e 0 e 0 0 7 7 8 0 0 q 0 q e e e e 7 * z g.].4X>X>X}.>X}.}.>X>X>X}.>X>X>X>X}.<X>X}.<X>X2X2X4X>X>X>X<X>X<X<X<X>X>X>X>X>X>X>X>X>X>X=X>X>X>X>X>X>X:X:X:X,X>X>X>X|.l.4.>.:.( 1.1.1.1.2.1.0.3.1.1.3.3.2.1.1.1.1.1.1.' 1.] ' 1.1.,.1.' ' :.` #.,.W U t ; 5 5 6 7 7 7 t J ` q.3.1.[ ] 3.3.2.3.3.3.3.3.2.3.1.1.1.1.' ] ' ] [ ' ,.#.s.D.{.,X>X>X:X>X>X>X>X>X>X>X>X>X>X>X>X>X>X:X}.:X}.:X>X>X>XQ.:X>X}.:X}.,X<X<X<Xn.<.r 5 q q q 0 7 9 9 6 0 0 q q e 0 0 e 0 0 0 0 0 0 0 0 0 0 u 0 0 u 0 0 0 0 6 e e 0 0 u e 0 6 0 e 6 0 6 7 0 0 0 6 5 + k >.].4X>X}.<X}.}.}.$X}.}.<X}.2X}.}.<XXXV.W - - e e a 8 8 i e 6 8 6 8 6 6 5 ; ",
"q.3.1.1.1.0.] U M 6 u 0 $ 0 $ 0 $ y u 0 u 0 0 u 0 e u y 0 0 u 0 0 $ $ + z 8.|.4X4X}.>X>X>X>X>X>X>X>X>X>X2X<X2X>X}.>X>X}.}.}.}.}.}.>X2X4X2X<X2X4X<X2X$X>X}.$X}.<X>X>X>X>X>X1X>X>X=X1X=X1X1X=X>X{.l.8.:.:.:.:.>.2.-.:.2.:.>.1.:.:.:.1.:.:.:.:.2.;.:.) ` :.1.1.1.;.1.` ` 1.] ] ] ~ l 8 8 8 7 0 9 6 8 H R ' :.W ` ,.,.3.>.3.3.,.3.3.3.[ 1.1.,.,.,.' ,.:.:.` ' +.4.S..X1X<X>X>X,X>X>X,X,X1X>X<X>X<X}.>X>X>X1X>X>X>X>X1X>X1X>X2X>X>X}.:X,X{.>X>XS.<.r 5 q e e e e 8 e 7 0 e 8 0 e 6 e 0 7 e 6 0 e 0 6 0 0 6 6 e 0 0 6 6 0 e 6 b $ 0 0 0 6 u u 0 6 0 a 0 6 u e 6 6 5 - k >.Z.$X4X4X2X>X2X>X4X2X4X2X>X2X>X2X1X>X].+.> ; u y y u y y y y 0 0 0 0 0 u 6 u n ^ 1.1.1.1.1.q.1.` U n 6 0 0 0 a 0 a 0 e e 0 0 0 0 0 9 e q e 0 7 0 e e e 6 O D g.].4X<X>X}.}.>X>X>X}.XX>X>XXX>X>X>X>X>X>X>X>X>X>X>X>X>X>X>X>X,X}.>X>X>X>X>X>X>X>X:X>X>X:X=X:X:X>X=X>XQ.:X>X>X,X>X>X|.x.4.:.:.-.1.2.1.1.1.2.q.2.q.2.2.2.2.2.1.1.1.1.1.,.,.,.1.1.' :.1.1.:.W :.#.3.:.U j > 5 6 7 7 8 ; 8 J ( 3.q.] 1.] 1.3.3.3.3.3.p.3.3.1.] ` ] ' 3.' ] ] ' [ ,.' s.D.{.>X:X>X>X1X1X1X1X:X1X>X>X>X>X>X>X:X>X:X}.:X:X}.:X}.}.Q.}.}.>X}.Q.*X{.,X1Xv.#.g 7 7 0 7 0 9 6 0 q 9 0 q 0 0 0 0 0 e 0 0 0 0 0 0 0 0 0 e 0 0 0 0 0 e 0 0 0 0 0 0 0 6 0 0 0 0 6 7 6 6 6 6 6 e ; O j 2.].4X>X}.4X}.}.}.>X<X}.}.}.>X>X}.<XXXC.X.- ; i e e e e 6 6 e 8 6 6 e 6 6 5 ",
"3.1.[ 0.1.1.) U m e 6 6 9 0 u 0 b u $ 0 $ 0 0 0 a u a 0 y 0 0 $ 0 0 $ + v 8.|.4X}.4X}.}.>X}.>X>X>X>X>X>X>X>X>X>X}.}.2X>XQ.}.}.}.2X>X2X>X<X2X<X>X>X<X2X}.4X}.<X}.>X>X>X2X>X>X>X>X=X:X>X=X>X>X>X{.c.<.,.+.X.:.2.>.>.:.2.:.:.:.:.1.1.:.2.:.) :.` 1.:.1.:.) ) 1.1.1.1.1.1.1.0.] ) ( M 8 8 8 0 0 0 6 8 V R 1.:.` ,.,.,.,.2.3.3.3.2.3.3.>.1.,.,.:.:.:.:.:.,.#.@.,.d.D..X4X,X<X,X>X<X<X>X>X<X<X>X<X>X<X<X>X>X>X>X>X>X>X}.>X>X>X>X>X:X:X:X>X}.>X}.W.a.d 5 8 e e e i e e 0 8 8 8 7 8 8 e e 8 8 e 0 q u 0 0 e 0 0 u 0 e 0 0 0 0 0 u $ 0 0 0 u $ 0 0 6 0 u e 6 e 6 6 u 6 + a 2.C.4X$X>X>X4X<X2X>X1X2X>X2X>X2X>X>X>X|.:.= ; $ y y b $ u 0 u 0 0 0 0 0 0 0 0 m -.1.1.1.1.1.1.1.( U k 6 6 u 0 u 0 6 6 6 0 6 0 0 0 0 0 0 0 e q e q 0 e 6 7 O D g.{.4X<X>X>X}.}.}.}.}.>X}.}.XX>X<X>X>X2X>X}.>X4X4X>X>X>X>X>X>X>X>X>X>X>X>X:X:X>X>X:X:X{.>X>X}.>X>X:X>X:X>X>X>X>X>X,X].x.4.:.:.-.1.1.0.0.0.0.2.q.q.q.q.q.3.q.1.:.1.1.1.:.' ' ,.` :.:.` ' ` :.#.,.>.:.Y k 5 8 7 0 7 8 ; 8 J ) q.1.1.1.[ 0.3.3.3.3.3.3.3.] ] ' ' ' ] ] ] ] ] [ 3.,.#.s.D.{.,X>X:X>X>X>X>X1X>X>X>X>X>X>X>X>X>X:X:X:X:X:X,X:X:X:X:X}.>X=X>X:X:X*X,X<Xb.<.r 7 9 9 7 0 9 7 0 7 7 0 0 0 7 0 0 0 0 0 0 0 0 e 0 0 0 0 0 0 0 0 0 0 0 0 0 0 0 0 0 e 0 6 6 6 6 6 0 0 0 6 0 6 6 5 O g 2.].4X2X}.>X2X}.}.>X}.}.$X>X4X}.4X$X XC.R ; 5 8 e e 6 u a 6 u e e 6 6 6 6 5 ",
"3.3.2.q.q.3.) U M u 5 5 6 u a a b 0 9 $ u 0 u y u y 0 u 0 0 0 0 $ y $ $ A 8. X4X$XXX}.XXXX<XXX}.>X>X}.>X>X4X2X>X}.2X<XXX}.}.}.XX}.XX<X<X<X<X<X4XXX4X<XXX<XXX>X,X}.<X,X<X<X<X>X>X1X>X>X>X<X,X>X.Xl.4.,.@.` :.,.,.:.:.:.>.1.:.1.:.1.1.1.:.( 1.1.1.1.;.1.1.1.0.1.1.1.;.1.0.1.0.;.( M q e e 0 0 0 9 8 K R ,.' ' ,.,.,.3.2.3.3.3.>.3.1.2.>.,.' ' ' 1.1.,.[ 3.,.>.m.F.,X<X,XXX<X<X1X<X<X<X<X<X<X>X,X<X}.4X2X$X2XQ.+X}.Q./.2X2X>XQ.:X>X>X>X>X>X>X{.l.g - - > : 7 > 7 8 7 7 6 6 0 7 e 6 7 6 0 e 0 0 0 e 0 0 0 0 0 u 0 0 0 u 0 0 0 0 0 u 0 0 0 0 0 0 0 6 6 ; > ; 1 ; ; O i X.C.$X}.2X4X>X>X4X2X<X4X4X}.4XXX<X4XXX|.>.; ; $ b y $ $ b $ b u 0 0 0 0 0 6 a B ^ 1.` 1.1.1.1.1.) K j 5 5 6 a e 6 6 5 7 6 6 9 0 0 q 0 q q e q e q 0 6 7 9 O K l..X4X4XXXXX}.XXXX>X}.}.}.}.>X>X>X<X>X<X>X}.4X4X<X4X<X<X>X,X<X>X<X>X<X>X>X<X<X<X>X,X>X>X>X,X>X>X>X>X,X>X,X>X,X,X,X,X|.x.4.:.:.:.1.0.1.1.q.2.q.0.q.0.0.2.0.1.) ) ] ] 3.[ 1.3.1.[ 3.3.] 1.:.1.1.1.3.` U n 6 7 9 7 7 7 7 8 J _ 0.] ] ] 1.1.3.1.3.3.3.[ 3.[ ' ' ' ` ' ] 1.1.1.1.1.3.,.s.D.,X<X,X>X,X,X{.>X,X<X<X>X>X>X>X>X>X>X>X-X>X2X=XQ.2XQ.-XQ.2X}.=X:X}.>X{.>X<Xb.a.g : - ; ; 5 : 5 - - 5 6 7 0 0 7 0 0 0 0 0 0 6 0 0 0 e 0 0 0 0 0 0 0 0 0 0 0 0 0 0 6 0 6 6 6 6 6 e u 6 > 7 > ; ; % 3 >.R.1X>X}.2X>XQ.}.4X}.XX<XXX$X}.4X<X XZ.^ 5 5 e e 0 u 0 6 e e 0 6 6 0 6 6 5 ",
"3.3.3.0.2.q.] ( Y M n M m N B V B b b 0 0 u y u u 0 0 u 0 9 u $ $ y y $ k ^ 2.g.8.4.8.a.l.4.g.{.>X>X>X>X>X>X>X}.}.{.n.S.C.S.S.v.S.S.S.S.S.S.S.S.Z.S.S.C.Z.F.Z.S.Z.S.V.S.S.S.S.S.v.D.S.v.v.D.S.V.l.4.,.:.+.:.,.:.:.:.,.:.:.1.:.1.1.1.1.( Y U U U A U U U A A ~ U A ~ U ~ ! A ! V n 8 e q 0 0 0 6 e J ( ,.1.` ,.' ' ,.,.3.3.3.1.1.,.,.:.:.` R U T U U U U U T ( 3.w.m.4.d.4.d.d.j.x.{.4X,X<X,X>X>X>X$X3X5XaXiXiXpXiXiXiX5X3X2X>X>X>X>X>X>X<X.Xv.o.I I R R R R R Y m i 5 7 0 0 6 7 6 e 7 e 7 0 0 0 a 0 0 0 0 0 e 0 0 e 0 u 0 0 0 0 0 u 0 0 0 $ u b L X.X.X.X.R X.G +.z.].$X4X4X2X<X4X>XXXR.h.g.8.l.g.l.l.a.1.U ; 5 y y y y b $ b 0 y 0 0 u u 0 0 u n ) 1.1.1.1.1.1.1.1./ J k m N N N B n M a e 7 0 7 e e e e 0 e 0 q 0 e e 7 7 5 z R <.l.4.a.a.4.l.d.j.].}.}.>X>X}.>X}.}.{.S.c.S.].S.n.c.S.S.S.S.S.S.S.S.S.S.v.S.v.S.A.A.S.V.S.A.S.c.S.S.V.c.S.S.C.S.S.V.m.2.:.:.) 1.1.1.0.3.q.2.1.1.1.0.1.1.1.( ~ U T T T T J U T J J T J K U K T T U N a 0 7 6 6 0 8 5 8 J ) q.0.0.] ) 1.1.3.3.1.[ [ ] ' ] ' ] _ / U U U J T T U T I ,.,.d.d.d.a.a.y.g.j.].>X<X,X>X>X>X>X2X3XiXaXiXaXiXiXiXiX5X2X-X}.}.>X>X}.>X<X{.v.o.I R I I Y Y ( Y j 6 5 9 q 0 0 0 0 0 0 0 0 u 0 0 0 0 0 0 0 0 0 0 0 0 0 0 0 0 e 0 0 6 e e 6 7 a z R X.X.R X.W I P o.g.{.6X>X2X>X>X}.}.}.c.h.l.8.l.8.8.8.e.0.U @ 5 u e e e 0 u 0 u e e 6 e 6 6 6 ",
"1.1.1.1.3.0.1.1._ T R ~ ( ^ ^ ^ ^ B b u b u y 0 0 0 0 0 $ $ u y u u 0 $ u a m m C C z N m F I ].>X>X>X<X}.}.}.}.{.C.a.d.a.d.a.d.4.a.d.a.d.d.3.d.d.d.4.d.d.d.4.d.d.d.3.f.d.d.a.p.a.d.a.d.a.a.d.a.d.3.,.:.:.1.,.,.:.:.:.1.1.:.1.1.1.1.1.( U k e a b a a a b a n j b n a n b b b n e e e 0 q 0 0 6 8 H W ,.:.` ' ,.` ` ,.,.,.[ ,.` 1.:.:.:.R J l n t n n n t n M N V J N N M M z F W S.<X<X<X,X>X>X}.2XiXfXvXvXnXnXnXnXvXvX5X2X1X>X>X1X>X<X<X<X,X{.D.S.].|.].].|.l.X.j * 9 0 q 8 e 8 8 7 e 0 0 0 0 6 0 0 0 0 0 0 0 0 0 e 0 u 0 0 0 u 0 u 0 6 6 a Y B.].]._._.].R.P.].}.$X4X$X4X<X2X<X<X{.6.I S z v C C N C N k 5 5 y y y b $ b y u 0 y 0 0 0 6 6 u m -.1.;.1.1.1.0.1.1.1.:.( -.^ ) ^ ^ ^ Y N b a 0 0 0 0 q e q 8 0 q e e e 0 0 5 d z z z N z z z F K o.S.>X>X>X}.>X>X<X}.R.j.>.<.<.,.d.<.<.a.<.p.p.3.a.a.a.,.p.<.p.p.a.p.a.a.,.a.3.p.a.,.a.a.d.3.a.4.p.p.4.>.:.:.) ] 1.1.0.0.2.1.0.1.0.1.1.;.) ~ U n j n t t n t b n b y j e j n a a b a u 6 6 0 7 0 7 9 e V ) 0.[ 1.;.] [ 1.[ ] [ ] ' ] ] [ [ _ _ H l d 8 e d e j l t h l M H H K H S P $.D.,X>X>X>X>X:X>X2XaXsXvXMXvXnXMXMXlXsXiX3X}.Q.}.>X}.>X<X{.{.n.n.].S.S.S.S. Xl.K i - 0 e 0 0 0 0 0 0 0 0 e 0 0 0 0 0 e 0 0 0 0 0 u 0 0 0 0 0 6 0 0 0 0 6 6 a Y B.|.].].].S.R.].n.R.}.3X=X=X>X>X}.}. X$.G C C C C C A C A b 5 5 u e e a 0 0 6 e e 6 0 6 0 6 @ ",
"3.1.1.1.[ [ 1.1.` ) ] 1.1.] 1.) ) A n b 0 $ u 0 0 0 $ 0 0 0 9 $ 0 y 0 $ 6 0 e a a e a u i 8 D C.>X2X>X}.>X<X<X}.].j.<.,.,.,.,.,.,.,.,.,.1.>.3.3.3.3.3.,.,.3.3.3.3.3.2.3.' 3.,.3.3.,.3.,.,.3.' ,.,.,.,.W W ` :.` ` ` W 1.1.1.:.:.1.1.1.^ V a 0 0 0 0 e e 0 0 0 e e q e e 0 y e e q e e e 0 0 0 7 8 H / 3.' ` ,.' ` W ,.,.3.>.,.' 1.1.1.:.( J t q 8 q q w q t e e 8 e t e e e 8 g F x.,XXX>X>X,XXX}.+XiXlXnXAXAXAXAXAXzXxXaX3X2X>X>X<X<X>X>X>X,X{.{.{.{.}.>XXX,XC.W g O 9 9 8 q e e e e 0 0 0 0 0 0 0 0 0 e 0 0 0 0 0 0 0 0 0 u 0 0 0 0 0 0 6 n Y _.[.}.}.$XXX}.}.[.}.}.>X$X>X2X4X}.$X.X$.z > 7 a i a a a a e 6 7 $ b $ $ b $ 0 0 u u $ 0 0 0 0 a B ^ 1.1.;.1.1.1.1.1.1.1.1.1.1.1.1.1.1.^ C a e 7 e q e q 0 0 e q 0 e q 6 e e 8 e j 8 8 u d 8 8 8 j K C.>X}.}.>X>X>X>X}.].g.,.:.3.>.>.,.2.3.3.2.>.,.3.3.,.3.,.2.,.,.2.3.,.3.,.,.,.3.3.,.3.3.,.,.3.,.3.,.3.,.` ` ` ] ] 1.1.3.3.0.1.1.1.1.0.0.1./ J e q 8 q e q e e e e e y e e e e e e e 0 6 9 6 0 9 7 7 e V ) 1.0.1.1.] 1.1.1.] ] ] ] ' ' 3.[ _ U H r 7 8 7 8 7 8 8 8 8 8 8 d t t r 8 h P c.>X<X>X>X>X>X>X3XiXzXAXAXzXVXzXVXGXMXsX/.>X2X>X}.<X}.>X>X>X}.[.{.{.{.}.XXXXC.L j - 0 0 0 0 0 0 0 0 7 0 0 0 0 0 6 0 0 6 0 0 0 7 0 0 0 0 7 0 0 6 6 e u 6 5 k R |.4X}.}.E.[.}.}.[.Q.>X4X2X>X2X2X}.}.{.o.f i i a a a a a a 0 $ 5 5 6 6 6 0 0 a 6 e 0 6 0 7 6 6 ",
"1.1.1.` :.` ) 1.] 1.q.3.1.0.0.1.;.~ n u 0 0 u 0 $ 0 $ 0 0 $ $ 0 $ 0 0 0 6 $ 5 $ 5 @ 5 ; - ; f c.}.<X>X<X>X<X<X}.W.a.W ' ' ,.,.W ' W W ` W ` ` ' ' ' ] ] ] ] ] ] ] ' ] ] ` ` ` ` ` ` ` ' ` W ' ` W ` ' W W ` ' ` :.` :.-.` :.1.1.) ] 1.^ m u 6 6 $ 6 $ 6 5 6 5 6 6 6 7 7 9 7 0 0 7 0 0 0 0 9 0 0 e N W 3.' ' ' 1.` ` 3.3.1.:.:.:.:.2.2.:.R J a q q q q q 9 9 9 5 5 7 q q 5 5 - r D d.XX,X{.,X}.,X[.+XdXlXnXAXZXAXAXVXVXxXaX3X<X2X>X>X<X<X<X,X>X>X<X>X<X<X<X<X4X].X.j o 9 e e e e e e e e 6 0 0 e 6 0 0 6 e 0 e 6 0 0 0 0 0 0 u 0 0 0 u 0 6 6 b Y _.4X4X4X4X4X$X4X4X$X}.$X2X<X2X>X}.<X X@.3 * X - 5 5 ; 5 7 6 7 0 9 0 0 0 0 y 0 u 0 u 0 0 0 0 6 u m ) 1.1.;.1.1.1.1.1.1.2.q.q.1.1.1.1.0.;.A a e 8 q e 0 q e e e 0 0 q e e e e e 8 8 - + - ; - - - > z c.}.>X:X}.>X>X<X[.].a.+.-.+.:.>.` :.:.:.+.` :.+.` :.:.W ,.` 1.` :.:.W ,.:.W ,.` :.` :.` ,.` ,.` 1.' :.:.` ) ] ) 1.1.1.1.2.q.[ 1.1.0.0.1.^ V 0 9 9 9 5 9 9 9 9 $ 9 0 9 9 $ 0 0 9 0 0 6 6 6 9 6 6 5 8 U ( 1.0.;.] ) ] 1.] ] ] ] ] ' ] [ 1.' T M 8 - 5 5 > 5 5 7 7 5 5 - 7 7 7 : & , G x.XX>X>X,X>X>X=X3XpXzXnXAXAXVXAXAXMXMXsX-X2X>X>X}.>X>X}.<X<X4X>X<X<X<X}.4X4XZ.R g - 7 0 0 0 0 0 6 0 0 6 0 0 6 9 0 6 0 $ 0 6 0 6 9 0 6 0 0 6 6 0 6 e a 5 5 k X. X<X4X4X}.}.}.2X4X}.2X1X2X=X2X>X>X$X XI 1 = 5 5 5 5 $ 6 $ 5 $ $ 6 9 $ 7 0 0 a 0 0 e 6 6 6 6 5 ",
"1.1.1.) ) ) :.` ] ] 1.q.1.1.1.0.1.A n a u u y a b 0 u 0 $ 0 0 0 u 0 0 0 9 6 6 6 6 6 5 5 7 5 z l.{.>X$X}.>X>X4X}.n.a.#.:.:.,.' ,.,.,.,.:.,.1.1.' 1.1.1.1.1.[ 1.1.1.3.1.1.,.1.,.1.:.1.1.' ,.,.:.1.,.:.,.` ` :.,.` ` ` 1.1.1.` 1.) 1.1.1.~ N i $ $ 6 6 6 6 6 6 6 7 6 0 0 6 0 0 9 y 0 0 0 0 0 u 0 $ 8 H / 3.' ' ,.' ` ,.3.,.:.:.` :.` :.:.:.R H e q 9 9 0 q 0 9 9 0 0 e e q 5 7 : d K M.XXXX>X>X{.XX}.+XpXcXAXAXAXSXAXAXAXxXfX2X2X>X>X,X<X<X<X>X,X}.,X<X>X<X<X<X4XS.o.g O 7 e e e e 8 e e e e a a e a a e a a 0 a a a 0 a e u a e a u y u 0 0 u b X._.$X4X$X$X}.}.$X}.2X4X}.}.2X<X2X<X$XXXo.f ; - 5 5 6 6 e 0 0 9 0 0 y y u u 0 0 y 0 0 0 0 0 0 6 u M ) 1.;.1.1.1.1.1.:.1.1.3.2.1.1.1.1.1.1.V j e 8 8 0 e q 0 q e q e q 7 0 e 8 e 7 8 ; 5 7 6 5 ; 5 7 F C.>X}.>X>X>X>X>X{.n.8.,.-.:.:.-.:.:.:.1.1.:.` 1.,.` ' :.` ,.' ' :.` :.' ' ` ` ,.' ,.` 1.` ,.1.' ' ' ` :.` ` ` ] :.1.1.1.3.0.1.0.1.0.2.0.^ B e 7 0 0 9 9 9 6 y $ y 9 0 0 0 9 0 0 0 $ 9 0 9 6 6 6 5 8 U ( 0.1.1.] ] 1.] 1.] ] ] ] ' ] 1.' ' T H 8 5 7 7 e 7 7 7 7 8 8 7 7 8 q 7 : g P S.<X,X>X:X,X:X>X/.pXxXAXAXAXzXAXzXVXMXaX2X2X>X2X>X>X}.2X$X>X<X<X<X2X<X<X<XXXC.L j - 0 0 0 0 0 0 0 0 0 9 0 0 0 0 0 0 0 0 0 0 0 0 0 0 0 0 9 0 0 6 6 e a 6 6 k X.|.<X<X4X}.}.$X}.}.>X2X4X2X>X2X2X>X}..XI > > 7 7 6 6 6 6 0 6 6 0 6 7 6 0 6 e 0 u 6 e 6 e 6 6 7 ",
"1.1.1.1.1.1.1.1.1.] 0.1.1.1.1.1.0.V n a 0 u u e 0 u 0 $ u 0 $ u 0 u 0 0 0 6 0 0 6 6 6 6 6 6 f l.{.$X>X}.>X4X4X>XR.s.W ,.,.,.1.` ' 1.,.1.,.1.,.3.1.1.1.3.1.1.[ 3.1.1.1.1.1.1.1.3.,.,.,.,.,.,.,.1.,.,.,.` :.' ,.1.1.` 1.1.1.1.] 1.1.1.;.^ N a 6 6 6 0 6 6 6 6 6 e 7 0 q e 0 0 e e e 9 0 0 0 0 0 6 e J / 3.1.` 3.,.' :.>.3.:.` -.` -.:.,.:.R J t q e 9 q 9 9 q 0 9 0 e e e q q 7 d K x.XXXX{.}.{.>X}.@XdXkXAXAXSXSXAXVXAXnXfX2X>X}.>X>X>X<X<X>X>X>X>X<X<X1X4X<X4X].o.g - 7 e e e e i e e e e a a e 0 e a e e a e e u e a u e a u e a e y a 0 6 n L Z.<X}.}.[.+X}.$X2X}.>X$X$X2X4X2X4XXXXX+.f > ; 6 6 6 6 6 0 0 6 0 u y 0 y y u y u y u 0 u 0 0 0 u n ^ 1.1.1.1.1.1.1.;.] :.3.3.] ] 1.0.0.0.V a e e 0 0 q 0 0 e 0 q 8 0 8 0 8 q e e 7 6 5 7 7 6 7 7 i K c.>X}.>X}.>X>X<X}.n.g.+.2.2.:.-.:.:.1.,.3.>.,.' 1.1.1.' ,.,.1.,.,.,.,.1.' 1.' 1.,.:.,.' ,.[ 1.1.1.3.' 1.` ` ) ` 1.1.1.2.2.1.1.2.0.0.2.1.Y B a 0 y y y 9 0 9 y y y $ 0 $ y 0 0 9 0 0 0 0 $ 0 6 6 $ u J ( 1.0.] ] ] ] 1.1.] ] [ [ ] ] [ 3.3.T M r 7 8 8 8 8 5 8 r t 8 8 8 8 8 7 : g P v.<X>X,X:X:X>X>X-XpXzXGXAXzXVXAXGXVXmXsX(.>X}.2X>X+X}.>X>X>X2X>X<X<X<X<X<X4Xc.I g - 9 0 0 6 0 0 9 0 6 9 6 0 0 0 6 0 0 0 6 9 9 6 6 0 0 9 0 0 9 6 6 6 6 6 6 m X.|.$X4X}.}.}.}.}.}.}.2X4X=XQ.2X>X}.XX XI 1 8 6 6 0 0 0 0 0 0 0 0 0 0 0 0 0 e e e e 6 6 6 e 6 6 ",
"1.1.-.1.1.1.1.1.1.1.] 1.] [ 1.0.0.A b 0 0 0 0 0 0 0 u 0 0 0 0 0 0 y u 0 0 u 0 0 6 6 6 6 6 6 z l.{.<X$X}.}.}.4X}.].g.Q ` :.,.1.,.:.,.,.1.,.,.1.,.1.1.1.3.1.1.0.1.0.1.3.1.1.3.1.3.3.,.1.,.[ ,.' 1.,.[ ,.` ` 1.' ,.:.:.1.1.1.1.1.1.;.1.1.^ N 6 5 6 6 6 6 6 6 6 6 e 0 7 0 q q q e e e e 0 0 0 0 0 9 8 H R 1.] ' ' 3.` ,.:.1.R :.:.+.X.:.1.1.T H e 0 9 q 0 q 9 0 9 0 e e e q t 8 : d H x.XX>X.X>X>X}.XX@XdXlXnXZXAXAXVXAXVXnXpX2X>X>X>X>X>X>X>X>X>X,X>X>X<X<X<X<X<XR.+.z - e a 8 0 6 e e e e e 0 e 6 e e e e 0 6 e e e e 0 0 u 0 0 u 0 u 0 0 6 u k Y Z.[.[.>X}.}.}.}.}.+X}.>X<X}.>X>X<X<X.Xo.f ; 6 5 6 6 6 6 0 9 $ $ 0 y $ 0 $ y $ y 0 0 $ y 0 0 0 a m -.1.1.1.;.1.1.1.1.1.;.[ 1.1.1.1.2.1.;.V k e q q 8 q e q q 0 e q 0 8 q e 8 e e 0 6 7 6 e 6 6 8 e F C.>X>X>X}.>X>X>X{.].g.:.-.:.2.:.>.:.,.3.,.,.,.,.,.' ,.1.,.' ' ,.[ [ ' ,.1.,.1.,.' ,.3.' 3.3.,.' ,.] 1.1.` ) ] 1.:.:.1.0.0.3.0.1.;.2.0.1.~ m a 9 9 9 9 y 0 0 u $ y y 0 0 0 0 0 0 0 0 0 0 0 6 6 6 5 6 J ) 0.1.] ] ) ] ] ] ] ] ] [ [ 1.3.3.3._ H 8 - 8 8 e 8 8 8 8 e 8 7 8 r 8 8 : r F v.4X<X,X:X:X:X>X3XiXlXMXnXVXnXAXVXzXMXaX2X2X>X}.>X}.2X}.>X>X>X<X>X>X<X2X<X<Xc.I d O 9 5 6 6 5 9 6 6 6 6 $ 0 6 6 $ 6 6 0 6 6 6 6 $ 0 6 6 6 0 $ 6 7 e u 6 ; k +.[.4X4X}.}.}.}.}.Q.}.>X6X>X}.=X>X}.}.].I > 8 u 0 0 0 0 0 0 0 0 0 0 0 0 u 0 6 e u e e e 6 6 6 $ ",
"1.1.) :.] 1.1.1.] ] :.] 1.` 1.1.1.V b 0 u $ u u 0 u 0 0 0 0 0 6 0 u 0 0 u e 0 y 0 6 6 6 6 ; z z.[.}.4X}.}.>X4X}.R.s.#.,.,.,.' ` :.1.,.,.,.,.1.3.1.1.1.3.3.1.1.3.1.1.3.1.1.3.,.,.1.1.,.3.' 3.1.,.3.,.' ' ` 1.1.` ' ` 1.1.1.1.1.1.1.1.0.~ N e 6 6 6 6 6 6 6 6 0 e 0 0 0 8 e e e e e e 0 0 6 0 0 u e H ( 3.] ` 1.,.,.,.3.1.` +.` ( :.:.2.:.R V e 7 e q 0 q 9 0 7 6 9 7 9 7 7 9 o 8 D l..X>X>X,X,X:X}.3XfXcXAXAXAXSXSXAXZXzXpX2X>X}.,X,X:X>X>X>X>X>X>X>X>X<X>X<X4Xn.o.g * 7 7 7 5 5 5 5 5 5 5 5 5 5 5 5 5 5 5 5 5 5 6 7 6 5 5 6 ; 5 5 6 5 5 @ 5 a L C.}.}.}.}.}.$X}.}.}.2X$X>X$X<X2X4XXXXXX.f 1 5 6 6 6 0 0 0 9 $ 9 0 0 y 0 y 0 0 0 0 0 $ b $ y 6 u m ) 1.1.;.1.1.1.1.1.1.1.1.1.1.1.1.0.1.;.A a e 8 8 e e q e e q 0 8 0 8 q 8 e 7 e 0 7 8 e 8 8 8 8 e K C.>X}.}.>X>X>X<X[.n.8.+.2.;.:.:.1.,.3.,.,.3.3.3.,.3.,.,.3.,.3.3.3.3.3.,.3.,.,.,.3.3.3.,.3.3.3.3.3.3.1.1.' ` ] 1.:.1.1.1.1.1.0.;.;.2.0.2.^ m b 0 9 y 9 9 0 y y 0 $ y 0 y y $ 0 0 0 0 $ u 0 6 6 6 5 8 J ( 0.1.1.) ] ] 1.) ] ] 1.1.1.] 1.3.3.R H 8 5 8 8 8 8 5 7 7 7 - & 5 7 8 7 * , S v.<X>X,X:X:X:X>X/.iXlXAXAXzXAXAXGXzXzXaX3X>X>X}.>X2X>X2X>X>X>X>X>X>X<X1X4X<XV.L d O 5 7 5 5 5 5 5 $ 5 5 5 6 5 5 6 5 5 $ $ 5 5 5 5 9 6 5 $ 5 5 6 6 6 6 ; - j R ].<XXX}.}.}.}.}.}.}.>X5X>X}.>X}.}.}. XL 2 8 u 0 0 0 e 0 0 a 6 0 0 0 0 6 e e e e e e 6 6 6 6 6 ",
"1.] ` ) ` 1.1.1.1.] 1.] ` ] 1.1.1.V a 7 6 6 0 0 0 0 0 $ 0 0 0 0 0 0 0 u 0 0 0 u 0 6 6 6 6 6 k g.{.4X}.}.$X>X4X:Xb.d.W ' 1.3.1.1.,.,.,.:.1.,.3.3.1.1.1.1.0.1.0.[ 3.1.3.1.1.,.1.3.,.,.1.,.,.1.,.' ' 1.1.' ` ' ' 1.' ' 1.1.1.0.;.0.1.0.;.~ V e 6 6 6 6 6 6 6 6 6 e 7 0 q 0 9 e 9 e e e 0 0 0 0 0 $ r H R 3.' ' ' 1.,.3.,.1.` :.-.:.` :.:.-.( H t q 9 9 9 7 0 7 9 9 9 9 5 6 5 - X > h d.XX.X.X{.}.{.>X+XpXnXAXAXSXSXAXAXAXnXfX2X2X>X>X>X}.:X>X}.,X>X,X>X<X>X<X<X4XS.#.g O 9 5 5 ; 5 - - 5 - - 5 ; $ ; - 5 @ - 5 @ 5 5 @ 5 @ 5 @ @ 5 5 @ 5 @ @ @ a L ).$X}.$X2X}.>X+X2X>X}.}.}.>X$X4X<X$X.X+.f i 6 6 0 0 0 0 0 0 $ 0 0 y u y u 0 0 b 0 u b u 0 0 9 a M ^ 1.;.:.1.1.1.1.1.1.1.1.1.1.1.2.1.1.) B a 8 8 0 6 q 0 0 q q e 0 7 8 0 e e e e 6 6 8 8 8 e e i i F C.>X>X>X}.>X}.4X}.S.l.:.:.:.:.1.3.>.3.2.3.3.3.3.p.,.3.3.3.3.3.3.p.[ 3.3.3.3.3.3.[ p.3.3.[ p.3.3.3.3.1.1.] ` ] ' :.] 1.1.] ] 1.;.0.1.0.0.~ m 0 9 0 0 0 y 0 9 $ y b $ 0 $ y y $ 0 9 0 0 9 0 6 6 6 8 e ! ) 0.1.] ] ) ` 1.1.] ] 1.1.] ] ` ' [ T H i 5 6 8 8 8 5 7 : 7 - - - - 8 : & , S j.<X>X,X>X>X:X:X2XpXlXAXnXVXVXAXVXVXmXaX-X>X=X>X}.>X>X>X>X>X>X1X>X<X>X>X<X<XC.I d O 5 7 5 $ 5 5 - 5 5 5 $ @ 6 5 $ 5 5 5 5 5 5 $ 5 @ 5 5 5 $ 5 5 5 ; 5 ; - j L ).}.}.[.}.}.}.}.}.}.1X<X2X}.}.}.}..X XL 1 8 6 0 0 0 u 0 0 0 0 0 0 0 e u 6 e u e u e 6 e 6 6 5 ",
"1.1.:.1.] 1.1.3.1.1.1.1.] ) ;.1.1.U j 6 7 6 0 u 0 0 u 0 0 u 0 e 0 e 0 u u 0 0 0 0 6 6 6 6 6 k l.{.<X}.}.}.4X<X}.W.s.+.' ,.,.` 1.1.' ' ,.,.3.3.3.1.1.3.1.[ 1.3.3.1.[ 1.3.[ 1.' 3.' ,.' ,.,.[ ' ' 1.' ' ' ' ' 1.' ' ` 1.1.1.] ] ] 1.;.;.~ m e 6 6 6 6 6 6 6 0 7 e 0 7 8 0 e e e e e e 9 e 0 0 9 6 8 N _ 1.1.' ' ,.' 1.,.` W _ ( W -.( -.:.T V e 9 9 0 q 7 7 e a a a n a n j j r h P V.XX.X{.>X}.XX>X@XaXcXAXnXzXAXAXAXzXnXaX+X>X}.}.>X>X}.,X:X>X>X>X>X>X<X<X<X<Xn.#.F 8 j M k j n j k j z k j k k j k k k j k k j k k k k k k k k k k k k k p C X.[.4X$X2X4X2X2X6X2X2X[.].].{.].{.|.|._.I f > 7 6 6 6 0 0 b 9 $ y 0 0 0 0 y $ u e 0 u 0 $ u u y y n -.1.] 1.1.1.1.1.1.1.1.1.1.1.1.1.1.0.;.B 8 e 8 q e q e e q 0 e e 8 e e e 8 e 5 e 6 e e 8 8 8 8 i K c.}.}.>X>X}.>X<X}.n.a.:.1.:.1.2.1.:.3.3.3.3.3.3.3.3.[ p.3.3.p.3.3.3.p.[ 3.3.3.3.3.3.[ 3.,.3.3.3.3.3.1.1.] ( ` 1.1.` ) ) ( ) ^ ) ;.;.;.;.A a e 9 y 9 y 0 0 y y 0 0 9 0 $ $ y 0 0 0 0 0 0 0 0 6 6 6 a V ( 1.0.) ] ` ` ] ] ] 1.) ] ] ( ( ( ` J l 8 6 6 6 7 6 > 7 8 j j t l j z l r h I v.,X>X>X}.:X:X>X-XaXlXnXMXnXVXMXMXzXmXaX2X>X>X>X>X>X>X}.>X>X>X<X>X1X>X<X<X1X].#.z r j M n k j n n j M k k n k n M k k n k M n k k j k j k n k M k j a i d K <. X4X4X4X$X2X4X5X2XQ.E.R.R.E.E.b.R.].C.L > > e e 0 0 0 0 0 0 0 0 0 0 e 0 e e u e 6 e 6 6 e $ 6 ",
"1.1.1.1.1.3.1.2.3.1.1.1.] ] 1.1.1.V j 6 6 0 0 0 a 0 u 0 6 e u u 0 u 0 0 0 0 u u 0 0 6 6 6 6 z l.{.4X$X}.>X>X4X}.].d.W ,.' ,.,.1.,.,.1.' ] ,.3.3.2.1.3.1.q.1.1.0.1.0.3.[ 3.3.1.,.1.3.[ 1.1.' 3.3.' 1.' ` ' [ ' 1.] ' ( / ( / / / ~ ~ ~ V b 0 6 6 9 6 6 0 6 6 0 0 e e q q 9 0 0 0 y e 0 0 0 0 0 9 8 V ( 3.] ' [ 1.' 1.' T U U U U Y U ^ U U M e 0 7 7 8 0 8 e n U Y R R R W R T W >.S.,XXXXX}.>X}.}.2X5XfXsXlXxXjXxXxXfXhXdX2X>X>X,X}.>X>X>X>X,X,X>X>X>X,X<X<X}.].u.o.K W ` X.W X.R W R R R R R R R R R R +.R R R R X.R R R X.R X.X.X.R X.X.R X.7.%XdXaXpXiXaXfXhX5X~.z.6.8.l.l.l.l.l.4.K 8 > 9 5 7 6 0 0 9 0 $ 9 y $ b y y u 0 0 0 0 0 0 0 $ 0 u B ^ 1.:.;.;.1.1.1.1.1.1.1.1.1.1.1.1.;.;.m e 8 8 0 7 0 8 0 0 e q e e 5 7 e e e 6 7 6 e e 8 8 8 8 e v C.}.>X:X+X>X}.<X{.).g.:.:.;.:.:.1.1.,.3.,.3.,.3.3.3.3.3.3.' [ ,.3.' 3.3.3.[ ,.[ ,.3.3.' [ 3.3.3.3.] 1.1.] ] ' 1.` ` ( ( U T ~ U A ^ Y ~ m a 0 y 9 0 9 9 y $ $ y 9 y y u b $ 0 0 0 0 0 0 9 0 6 6 q e V ) 1.[ 1._ ` ) ` ] ` T ^ / ~ ~ U T J V j 8 7 7 e 8 8 5 8 j K Y R W +.R W P E t.n.>X,X>X=X:X:X=X2X5XgXvXbXsXvXbXbXmXbX6X-X>X>X=X>X>X>X>X>X>X>X>X>X>X>X>X<X4X{.g.o.K L R R R R +.R X.X.R R X.R R X.R X.R R W R R R R R R R R R R R X.I I L @.c.5XfXiX3XiX3XdXgX3XE.k.&.<.<.<.<.8.4.4.v 6 8 6 0 0 0 0 0 e 0 0 e 0 0 6 e 0 e e e e 6 6 6 u 6 6 ",
"1.1.1.1.0.1.2.2.3.2.3.3.' ' ] 1.1.V a 8 6 6 u e e 6 u 6 u e e 6 u e u e 6 u e 0 6 6 6 6 6 6 k z.XX$X<X}.}.}.4X}.S.s.#.' 3.1.1.' ` ,.,.3.' ' 1.3.1.1.1.1.3.1.3.1.3.1.3.[ 1.3.[ 1.1.3.,.3.[ ,.1.' ' 1.' ' ' ,.] [ [ ) J t t t l t a n t e e e e 7 0 0 0 0 6 e e 8 7 0 q 0 0 0 e e e e 0 0 0 0 0 6 a H / 3.[ _ 3.3.[ ] ] J n t e t e t t t e 8 8 q 8 e 7 8 ; ; M 2.B.|.].S.].|.Z.].].}.}.XX>XXX}.<X>X}.+X3X3X3X@X3X@X3X@X3X$X2X>X}.>X}.>X>X}.>X>X>X>X>X<X>X<X}.<XXX{.S._.S.|.].S.S.|.S.|.S.].Z.].].].].S.].Z.].].Z.].S.].].].].].].|.].[.].].].[.@XfXnXzXzXnXnXMXMXtXr...< a m j z k z k d 8 8 8 8 0 7 0 0 0 0 $ 0 y 0 0 b 0 0 0 y 0 u 0 0 u 0 6 i m ( 1.` :.1.1.1.1.1.0.1.1.1.1.1.1.1.1.;.N 8 8 7 8 8 0 q 0 e 0 0 q 0 e 8 e e 7 7 0 7 8 e e e 8 8 a K C.>X}.}.$X>X}.<X}.].d.:.:.:.1.:.` :.1.' ` 1.3.3.,.3.1.,.[ ' 1.3.,.' ' ,.1.,.,.' ] ,.1.' ' ' [ [ ] 3.1.] 1.] [ [ 1.` ( N r j a j a j a k a e e e 9 0 0 y 9 0 y 0 y 0 y $ y b y $ y $ 0 0 0 0 6 6 7 a A ( 1.0.] ] ] ] ] ] J j j j t j t y n e 8 8 7 q 7 0 7 6 > K l.B.|.].].S.S.S.D.{.{.>X,X=X:X>X=X>X=X=X6X;X;X6X3X3X3X3X6X-X>X=X=X>X>X>X=X1X>X>X>X:X>X>X>X1X>X>X>X{.b.D.S.].].S.].].].S.S.S.].].].).].].S.).D.S.].].].C.].].S.].].]._.].S.].S.].+XfXnXvXnXnXvXnXnXiX=. .< 3 k f f f k k u 0 u e 0 0 u 0 0 e 0 e 0 0 0 0 0 0 0 0 0 0 0 0 0 6 $ 6 ",
"1.1.1.2.1.1.1.q.3.3.3.1.` ] 1.1.1.V d 6 6 6 6 6 8 8 e e e 6 e u 0 0 6 6 e 6 0 6 6 6 6 6 6 6 k g.{.$X$X}.}.4X4X>XR.g.W ,.,.' 1.' ,.' ] ,.3.,.1.3.3.1.3.1.3.1.3.0.0.3.3.1.[ 3.3.' ' 3.] [ ] [ ' 3.1.' 1.] ' _ ' [ ] _ M - 7 7 q q 0 7 7 8 e q 0 0 7 q q 0 0 e q 0 0 e 0 e 0 0 0 e 0 0 0 u 0 e 0 9 8 H ` 3.3.' [ [ [ ] _ J q q 9 7 7 8 0 7 8 8 8 q e e 8 8 > - z N. X4X<X2X>X,X<X>X4X<X<X<X>X>X>X<X}.>X>X$X}.2X>X$X2X}.>X2X>X<X<X>XXX>X<X>X<X>X}.<X}.<X>X>X<X<X}.<X}.>X<X}.XXXXXX}.}.<XXX}.}.>X}.<X>X<X>X<X>X>X>X>X>X2X>X<X4X}.>X2X2X1X4X>X3X4X5XaXnXVXSXSXVXAXAXAXZXU.| @ $ 0 y 9 8 q q e 8 q 8 e 0 0 0 0 0 9 $ 9 0 0 0 0 y 0 0 u 0 6 0 u 0 6 6 a m ( 1.` ] ` 1.1.1.3.3.1.1.1.;.1.1.;.1.) N t r 8 8 q 8 q 7 e q e e q q 0 e e e e 8 8 8 e 8 8 8 8 8 F Z.$X}.>X}.>X<X<X{.].l.+.:.:.` ` :.1.1.,.,.,.,.,.' ,.,.' 1.,.,.' ,.1.,.1.' 3.1.3.,.1.1.1.1.1.3.3.3.1.1.] [ [ 1.[ [ ` ( z > 7 8 6 7 e 7 6 7 7 0 9 9 y 0 9 0 0 9 0 0 0 y y 0 $ b b $ b 0 0 0 0 u 6 7 a U ) q.1.] [ ] [ ] ) H 8 7 7 9 q q q q q q 7 0 7 0 0 7 6 > K Z. X4X<X<X>X<X>X>X<X<X1X:X>X:X>X1X:X>X>X>X=X:X=X=X=X:X=X=X=X>X1X:X>X=X>X>X:X>X>X>X>X>X1X>X:X>X>X>X>X>X>X,X:X}.>X}.>X}.>X1X>X}.}.>X>X}.>X>X>X>X>X:X>X>X>X>X>X}.}.}.>X>X>X<X<X<X2X5XnXAXAXAXSXAXSXAXrX=.c . < 6 6 0 6 6 6 e u 6 6 0 0 e 0 0 0 0 0 0 0 0 e 0 0 0 u 0 0 u u $ 0 6 6 ",
"0.1.1.1.1.1.1.3.3.1.3.1.1.:.] 1.1.V e 8 6 8 6 8 8 u e u u 6 u 6 0 e 6 e e u u e 0 6 6 7 6 6 k g.{.4X}.}.>X2X4X}.].s.W ' [ ' 3.' ' ] ' [ ] ,.,.,.3.1.1.3.1.1.1.1.[ [ 3.[ 3.' [ ,.[ [ 3.[ ,.[ [ ' ' ' ' _ [ ' ' ] _ _ l - 7 7 7 8 9 8 8 8 7 0 0 0 0 0 q 0 q q e e q 0 0 0 0 0 e 0 0 0 0 0 0 0 0 0 e H ( 3.[ ] [ 3.[ ] ] J 8 q q 9 q 9 7 7 8 8 8 8 8 8 e 8 7 = z V.|.<X4X>X>X<X>X>X>X<X<X<X>X>X>X}.<X}.>X>X>X}.>X>X}.<X>X>X>X<X>X>X>X>X>X>X}.<X>X<X>X2X}.>X}.}.<XXX<XXX<X>X>X>X<X>X>X}.>X>X<X>X>X>X>X}.>X>X>X>X>X>X>X>X>X=X}.>X=X>X>X=X>X-X=X>X-XiXnXVXSXCXCXSXSXSXtXr.x @ y y y 9 e e e e e e e e e e e e 0 0 $ $ 0 0 0 0 0 0 0 u 0 0 e 6 6 6 6 u k ( :.:.` ' 1.1.3.2.1.1.1.1.] 1.1.;.1.) H t 8 8 q 7 8 q q e 0 q e q e 0 e e 0 7 7 0 8 8 e 8 8 8 e K c.}.}.}.}.>X2X<X{.c.a.:.:.` :.` :.' ` ,.1.1.,.3.3.,.1.,.,.,.,.,.1.,.,.[ 1.,.,.3.,.' 1.1.1.1.3.3.1.1.0.[ 1.0.[ 3.,.W R z 7 7 5 e 7 6 6 0 e 8 e 9 0 9 9 y 0 0 0 0 y 0 y $ $ b $ y b $ $ u 0 u e 0 6 a ~ _ q.q.1.1.3.3.] ] N 7 7 7 9 9 q q 9 q 0 7 7 0 0 7 7 > > K C.XX4X>X2X>X>X>X>X<X>X>X>X>X>X>X>X:X=X1X:X:X=X1X1X:X1X1X*X1X=X>X1X=X>X:X>X=X=X>X>X>X*X:X>X>X:X>X>X=X>X=X=X1X>X>X>X=X>X>X>X=X>X>X>X>X=X>X>X>X>X>X=X>X>X=X>X=X>X>X}.>X>X>X>X2X>X2XiXnXSXSXSXSXSXSXHXrX=.c @ $ 0 0 6 6 6 u 0 0 e 0 0 0 0 e 0 0 0 u 0 0 0 0 0 0 0 u u 0 0 0 0 0 u 6 ",
"1.1.0.1.1.q.1.1.1.1.3.1.` 1.] 1.1.V j 7 6 6 6 6 e e e 6 6 e e 6 0 u e u 6 6 e 6 6 6 6 u 6 6 f z.{.$X>X}.}.<X<X}.W.s.` 1.' 1.' ' [ ,.3.,.,.,.3.1.3.,.1.1.1.3.3.1.1.3.3.[ [ 3.] ' ,.[ ] 3.[ 3.,.[ [ ' ] ' _ ] _ ] _ _ l 5 : 7 q 8 q q q 8 0 0 7 0 0 e e e e 0 0 q e q 0 0 0 0 e e a e 0 0 0 0 e 0 e H / 3.[ ] [ [ ] ] ] V 8 q 0 7 7 0 q 8 5 8 e q 8 8 8 e > - z l..X<X>X>X>X>X>X4X>X4X>X}.<X>X>X<X}.<X<X>X>X<X>X>X<X2X>X<X<X>X}.<X>X>X<X>X>X>X>X>X>X<X>X<X<X>X}.<X}.<X<X>X4X>X<X>X>X>X<X>X>X>X>X>X>X>X>X>X>X>X>X}.>X>X1X1X>X>X:X>X>X>X:X}.=X-X2XaXlXSXCXCXCXSXAXHXtXr.} o $ y y y e e e e e e e e e y e e 0 0 9 6 0 0 0 0 0 0 0 0 0 u 6 e u 6 6 u M ) :.1.] ' 1.1.3.0.1.1.1.1.1.1.1.1.1.1.J e 8 8 8 8 8 8 6 q e e 0 0 e q e e q q 0 7 8 e j 8 e 8 d K V.}.$X}.}.4X<X<X[.].l.:.` :.,.` ` ' ' :.' ,.3.,.,.3.3.,.1.1.1.1.,.3.1.,.,.,.1.,.,.,.1.1.1.1.,.] 1.3.[ 1.[ [ 1.] ' ` R M 8 8 8 8 e 6 7 8 6 q e e e e e 0 9 0 0 y 0 0 b $ b $ y $ $ b $ b 0 0 e 6 e a A ) q.q.[ [ [ 3.] ] N 8 6 0 0 9 e q 9 9 9 9 0 7 0 7 6 8 > F Z..X4X1X>X>X>X>X<X>X<X>X=X1X>X=X=X:X:X:X=X:X:X:X=X:X*X*X:X:X:X>X:X=X:X:X=X1X:X>X>X>X>X>X:X=X:X>X:X>X>X=X>X:X:X>X>X=X>X:X>X>X>X>X=X>X>X>X>X:X=X>X>X>X>X>X>X>X>X>X1X>X>X>X>X1X2X$XdXnXAXSXSXSXSXSXHX9X=.x X 9 9 0 0 6 6 6 0 0 0 0 0 e 0 0 0 0 6 0 0 0 0 0 0 u 0 0 0 0 0 0 0 0 $ $ ",
"1.3.2.0.0.3.1.3.1.3.1.1.` 1.1.1.1.H a 7 ; 6 6 6 8 6 e 6 6 e 6 e 6 e 6 e 6 6 e 6 6 6 6 6 6 6 z l.{.$X}.}.}.}.4X}.b.l.Q ' ' 1.,.' ,.' ' ,.3.1.,.3.3.1.1.1.3.1.1.1.1.3.,.] 1.' ] ,.[ 3.[ [ 3.[ [ [ [ [ [ [ [ _ ' [ _ _ M 7 7 8 0 e q q q 8 0 q q e e 0 q q 0 q 0 e e e 0 0 0 0 0 e u 0 0 e 0 0 0 6 q V ( q.3._ 3.3.[ [ ] V q 0 6 9 9 7 0 7 7 q 8 8 8 e i i 8 * z V.{.4X>X2X>X4X>X>X>X1X>X>X}.>X>X<X>X<X>X>X<X>X}.>X>X>X>X}.>X>X<X>X<X>X>X>X>X>X}.>X>X>X}.>X}.>XXX<X}.<X}.<X}.>X>X}.<X>X<X<X>X>X>X>X>X>X>X>X>X>X>X>X>X>X1X:X>X:X=X:X>X>X>X=XQ.>X3XaXnXVXSXVXCXSXSXSXtXU.Z O 9 y e e e e e e e e e e e e e e e 9 9 5 u y 0 0 e 0 u 0 0 u e 0 6 6 6 a M ( 1.` :.` 1.1.1.q.2.1.;.1.1.1.1.;.1.;.V t e 8 8 8 q 8 q q 0 q q e q e e e 7 0 0 0 7 e e 8 8 8 e K _.}.}.}.}.4X<X4X{.S.a.:.:.' ` ` ' ,.' 1.,.,.,.,.,.,.1.,.' ,.,.' ,.,.1.' ,.1.,.,.,.] 1.` 1.1.1.] 1.[ [ 1.] ] [ 1.1.` R M 6 6 8 8 8 7 0 0 7 0 e e 9 e e e 9 y 0 y y 0 0 0 y 0 b B $ $ 0 0 0 0 0 0 0 k V ) 1.[ ] _ ] 3.] ( z 8 6 6 6 9 9 0 9 y 9 0 0 9 0 9 6 5 = K C..X4X>X>X>X>X>X>X>X>X>X>X:X:X:X=X:X1X:X1X*X:X:X:X:X:X:X:X:X:X=X>X=X1X=X>X:X>X:X:X:X1X=X:X1X=X:X>X>X>X=X>X>X>X=X>X>X>X>X=X=X>X=X2X>X>X:X>X>X:X:X1X>X=X>X=X>X=X>X=X>X>X4X2X2X4X2XiXvXSXSXSXSXSXSXHXrX=.c @ $ 0 0 $ u 0 $ u 0 0 0 e u 0 e 0 0 0 0 0 0 0 0 0 0 0 u y 0 6 6 0 u 0 $ ",
"q.2.3.1.3.2.0.1.1.1.1.3.1.` 1.1.1.H j 7 6 6 6 6 e u u e e u 6 u e u 6 u u e u 6 6 6 6 6 6 6 f l.{.4X<X}.<X4X4X}.].g.W ' ,.' ' ' ' 1.' 1.' 3.1.,.3.3.1.3.1.1.3.3.3.3.] 1.' ,.' [ 3.[ [ 3.[ [ [ [ [ [ [ [ [ [ [ [ _ ) M q 7 q q e e 0 q 0 9 8 q 0 q e e 0 e e q q 0 q 0 0 0 0 0 e 0 0 0 9 0 0 0 9 8 J / 3.[ ] [ [ 0.[ ] V q 7 9 9 7 9 0 7 8 7 7 8 e e 8 8 > - v l.|.4X>X>X}.}.}.4X<X<X}.4X4X>X<X<X>X>X<X<X>X<X}.4X<X<X<X>X<X<X}.<X>X}.<X4X<X<X>X<X<X4X<X>X<X<X<X}.<X}.<X<X>X<X>X<X>X>X}.}.>X>X1X:X1X:X>X>X>X>X>X>X>X>X>X=X>X>X:X>X>X1X>X=X=X=X3XiXvXFXVXFXSXSXAXGXrXU.} X 9 y y e e e j e e 0 e e e e e 0 e 0 $ 5 e 9 0 a 0 0 0 0 0 0 0 6 u 6 6 i M ( 1.` ` 1.1.1.3.3.q.] 1.1.1.1.1.1.1.;.H e 8 7 q 7 8 8 e q e q q 0 0 e e e 8 0 8 7 0 e a e e 8 8 K C.}.>X}.}.}.}.<X{.].l.:.` ' ` ' ` ` ` ,.:.' ,.3.1.,.1.,.,.,.,.1.,.,.,.1.,.1.3.1.' 1.] 1.` ] ] ] ] ] ] ] ] ] ] [ 1.` R z > 6 6 6 6 6 7 0 0 0 e 9 e e e 9 0 0 0 0 0 0 0 y y u $ $ $ B 0 u u 0 0 7 0 a ~ ) 0.0.] ] 1.3.1.` N 5 6 6 6 0 0 9 e 9 9 0 0 7 7 8 7 7 > K Z..X4X4X>X}.>X>X>X<X>X>X>X,X1X:X>X:X*X:X1X:X:X:X1X=X1X=X1X:X:X1X:X:X:X:X:X:X:X:X:X:X:X:X:X,X>X1X:X>X1X:X:X>X>X>X>X=X>X=X>X>X>X>X>X=X2XQ.>X=X>X=X=X=X>X>X:X:X:X>X>X>X>X>X1X2X4X2XiXnXAXSXSXSXSXSXSXrX=.} O $ 0 0 9 y 0 0 0 0 0 6 e 6 6 0 6 0 0 0 0 0 0 u 0 0 0 $ y u u 6 6 0 6 u ",
"1.1.1.1.1.q.3.3.1.1.1.1.` 1.` 1.1.V i 8 5 6 8 1 6 6 e e u 6 e 6 u 6 8 6 6 e e 6 6 6 6 6 6 6 k z.{.$X<X}.}.<X<X}.R.s.W ' ' ` ' ' ' 1.,.' 1.' ,.3.3.3.1.3.1.1.1.1.' 3.' ` ' 1.3.3.[ 3.3.3.3.[ [ 3.[ [ [ [ [ [ ] [ [ ) M 7 7 7 e 0 0 q e 8 e 0 e 0 e 6 q 0 q e e 0 q e e 0 0 0 0 0 7 6 6 6 7 0 7 7 e J / 1.1.[ 3.3.[ ] 1.J q e 9 6 0 q 8 8 8 5 7 6 8 > 8 8 = = z c.{.4X>X>X>X>X<X>X<X<X<XXX}.<X<X}.}.4XXXXX<XXX<X}.4XXX<XXX}.}.XX<X}.<X<XXXXX<X}.<X<XXXXX<X}.<XXX<X}.<X}.4X<X<X4X<X<X>X>X>X>X>X>X>X>X>X>X>X>X<X>X>X>X>X>X>X=X>X>X>X2X>X>X=X-XQ.-XiXmXVXVXVXVXGXGXGXwXJ.z . 9 9 9 7 7 7 8 7 7 7 8 8 e 8 8 7 0 6 $ 9 0 e u e a 0 0 0 6 6 6 6 6 6 5 u k ^ 1.` ' 1.1.1.2.q.1.1.1.1.;.1.1.1.1.;.V t 8 7 8 8 8 q 8 8 q 0 e e q q e 8 8 8 8 8 0 e e 8 e e i K C.}.$X>X}.4X<X<X[.S.a.:.' ` ' ` ' ,.,.:.' ,.] ' ,.1.' ,.' ,.3.1.,.,.' 1.1.,.,.[ 1.1.1.1.1.1.] 1.[ ] ] [ 0.] 1.[ ,.+._ m 6 6 6 0 0 7 7 0 9 0 9 0 0 e 0 e 0 e 0 0 0 y 0 $ u $ B y $ B 0 0 0 6 6 6 7 a ~ ) 0.3.1.3.1.q.1.( m 6 6 9 6 9 9 e 9 0 7 7 7 5 7 7 7 5 = D C.XX4X4X:X>X}.>X1X>X>X1X>X>X>X>X,X1X:X>X:X:X:X1X1X>X:X:X>X,X>X,X1X:X,X:X,X>X1X>X1X>X1X>X>X>X>X>X,X>X>X>X>X>X>X>X>X>X>X>X>X>X>X>X>X>X>X>X>X>X>X>X1X:X>X>X:X*X=X>X-X>X>X2X2X2X2X3XiXnXAXAXSXAXAXAXGXrX=.4 . # 9 7 $ 0 7 6 6 5 7 6 6 5 5 6 6 6 6 9 0 0 e e 0 0 6 0 0 0 6 6 6 6 6 6 ",
"0.1.q.1.1.1.1.1.1.1.1.1.:.` 1.1.1.H d 6 6 6 6 6 i 6 e u 6 8 e u 6 e e u 6 u 6 e 6 6 6 6 6 6 k g.{.4X$X}.}.>X>X}.b.a.#.' W W W ' ` W ` ' ,.3.,.1.>.1.1.1.1.,.1.1.[ ,.1.' ' ' ' 1.p.3.3.3.3.3.3.3.[ [ [ [ [ [ ] [ ] _ V 0 7 7 q q 0 e e 6 q q e q q 0 e e q 0 q 0 q 0 q e 0 0 0 7 9 5 9 6 5 6 8 5 8 U ) [ 0.[ [ q.0.[ ] V q 8 7 0 0 q e e 5 - - - * - * * * * z l.].4X>X>X}.XX}.4X4X4X4X4X<XXXXX<XXXXX4XXX<X<XXX<XXX<XXX<XXX4X4XXX<XXX<XXX<XXX4XXXXX<X<XXX4XXX<X}.<XXX<XXX<X4X<X4X>X{.>X>X:X>X>X:X>X>X,X>X>X>X>X>X>X>X:X:X=X=X=X=X-X2X/./.Q.Q.-X;XmXMXGXGXMXGXMXGXwXh.f   o 9 - - + * - * * - * - - - - - 6 5 $ 6 0 e y e 0 9 0 6 6 ; 6 5 ; 5 5 6 k ( 1.` ` ' 1.1.2.1.1.1.1.;.0.1.0.1.1.;.N t r 8 8 q q 8 q e e e q 0 0 e e 8 0 8 0 8 e e 8 e 8 e 8 K C.<X}.}.}.}.>X<X{.n.a.+.W W W W Q W ` ,.1.,.,.1.1.' 1.1.1.:.1.' 1.` 1.' 1.,.3.2.,.1.1.1.1.1.1.1.3.0.0.0.] 0.3.3.3.,.:.N 6 7 6 7 0 0 0 0 6 6 e 0 0 9 0 9 0 0 y 0 y $ 0 y y y $ $ $ $ 6 $ $ 5 5 5 5 e ~ ] 1.q.3.0.1.1.1.( m 6 6 0 $ 0 9 e 0 7 9 + @ 5 - @ - * * S C.{.1X<X}.}.}.>X<X4X<X1X<X<X>X1X<X<X1X>X1X1X<X>X,X>X1X1X,X1X<X1X>X1X<X<X1X<X1X>X,X>X1X>X1X,X1X>X1X>X>X<X1X<X<X1X<X>X>X1X>X=X1X2X=X1X>X=X>X>X>X=X=X>X:X*X:XQ.}.>XQ.-X/.}.-X>X+X+XiXvXAXAXGXGXGXGXGXpX=.4   + 9 5 @ $ - @ + - - + + - + - ; 5 6 6 0 0 0 e u 0 u 6 6 $ 6 ; 6 6 5 5 ",
"3.1.q.1.1.0.2.1.3.1.1.1.1.' 1.1.1.V r 7 5 e 6 6 i u e e e 6 u 6 u 6 i 6 e u e 6 6 6 6 6 6 6 k h.{.<X>X}.}.4X>X}.].j.a.,.,.p.,.,.,.p.,.,.,.3.,.,.3.1.1.3.1.1.1.,.3.3.,.' ' ` Q ( _ _ _ R W _ T _ ) ) _ _ _ _ ! _ ! ! M q q 8 8 q q 0 e e q e e 7 0 q e 0 0 q e e e 0 0 q 9 8 q e t b y t b e n e n J / ) ( ( ( ) _ ( ( N 7 9 0 6 q e e 7 a a k k k j g g k f I j.].4X2X>X}.}.}.<X4X>X{.{.].{.|.]..X].].{.].].{.].{.{.].].{.|.].{.].{.].{.|.].{.].{.].{.].{.].{.].].].{.{.{.[.{.>X{.{.}.>X>X>X>X>X>X>X>X>X>X>X>X>X>X>X:X>X>X=X6X3X3X6X3X3X-X-X-X3XbXmXbXzXmXmXbXmXyXT.G > l M l j k j k k j k k j k M k M k a 5 6 0 0 e e u 7 e a a a a a a a a b m ` 1.` ` :.1.1.3.q.3.1.1.1.1.1.1.1.0.;.V i 8 8 8 8 8 8 0 8 0 e q 0 0 e e 8 6 e 8 7 e e a e e e a K C.}.}.<X}.4X}.4XXX].x.<.,.,.p.p.p.d.d.3.3.,.:.1.:.:.1.,.:.1.:.1.` :.1.' 1.,.3.' ) R _ ( ( ( ) ( ` ) ( ` ( ) ` ( _ R R M 8 6 6 6 0 6 0 0 9 0 0 0 0 0 0 0 0 0 0 0 y $ $ 0 0 0 $ y b y y b b 0 e a d j T ( ) ( ( ( ` ) T T n 8 6 6 6 0 e 0 0 e a M l n z j j h f I C..X4X>X}.}.}.>X<X<X}.{.{.{.{.{.{.{.{.{.{.D.{.{.{.{.{.{.{.{.{.{.{.D.{.{.{.{.D.{.{.{.{.{.{.{.{.{.{.{.{.W.{.{.{.{.{.W.{.>X>X1X1X>X2X1X-X>X>X=X1X=X1X=X>X:X:X*X>X6X3X3X3X1X3X3X3X2X5XlXnXnXnXzXnXnXvXwXH.G > t n l j M M M M M k k M k k M M n a 6 6 7 0 u 0 u e 0 a a a a a a j i ",
"3.1.1.1.1.1.3.3.3.1.3.1.] 1.` 1.1.H j 5 6 6 8 ; 6 6 u 6 6 e e 6 e 6 u 6 6 6 6 6 0 6 6 6 6 6 k g.[.4X<X}.}.}.<X>X}.].c.A.C.V.S.c.V.V.x.3.,.3.3.3.3.3.1.3.1.3.1.3.3.3.3.[ ,.( T J z M N H H K H J ! ! V ! J J B J M M b t q q e e e q q 0 q 0 e q e 0 e q e e 0 q 0 0 0 7 0 0 e n V V V V V J J J V V V ~ J J J V V J B b 6 9 9 0 e a 0 7 M ( 2.:.>.2.>.2.>.<.g.c.{.4X>X>X>X}.}.<XXX].c.c.c.c.c.c.c.c.x.c.c.c.c.x.x.V.c.c.c.x.x.c.c.x.c.x.c.c.x.c.x.V.c.c.j.c.c.c.c.c.k.x.c.c.v.k.k.c.{.<X>X>X>X>X>X>X>X>X>X>X>X>X>X,X>X>X=X6XaXaXhXsXsXsXaXaXaXaXaXuXsXuXuXuXaXuX;XT.g.>.3.3.4.4.4.4.2.4.4.<.4.2.2.2.2.0.-.C 5 5 0 0 b y e 0 a m C A ~ Z U U Y A U :.:.' :.] 1.1.2.q.3.1.1.1.1.1.0.;.1.;.N t 8 8 7 8 q q 8 e q q e e q q e e e 7 7 0 q e e e 8 8 e F c.}.}.}.}.}.}.<X}..XS.C.V.v.V.A.F.V.V.M.p.,.` ' ' 1.` ' ` 1.' ' ,.,.1.' ,.,.' R K N N H K H H H V V V V V J H N N K H j 5 6 6 6 0 0 0 0 0 6 e 0 0 0 e 0 0 0 0 y y b u 0 0 9 $ B b B B B A A V V V V A V V H V M M V V M j 8 6 e 0 0 a 7 7 n ^ 1.2.2.2.<.2.2.<.l.].XX<X:X}.}.>X<X}.{.b.v.j.v.j.j.v.j.j.j.v.v.v.j.j.j.j.v.v.j.j.x.j.v.j.j.v.j.v.v.j.j.j.v.j.j.j.c.v.j.c.c.v.j.j.v.v.k.k.:X>X1X>X2X1X>X1X>X>X>X>X>X:X=X:X:X:X=X3X6XaXaXsXaXiXaXgXgXpXfXfXjXpXjXpXhXpX(.T.h.<.2.2.4.4.4.4.2.2.8.8.2.4.2.4.4.2.-.N 5 6 0 a e 0 u e k N C U K K Y K N ",
"q.1.0.2.1.q.0.1.1.3.1.1.` 1.1.1.1.V d 8 ; 6 6 6 8 e e e 0 u 6 6 6 e 6 6 0 u 6 6 6 6 6 6 6 6 z g.[.4X2X}.$X>X2X<X4XXX{..X.X{.{..X.X|.V.d.3.,.3.3.3.1.,.1.1.3.1.3.,.1.3.[ 1.( K l d j d j j j j j n t y t t t t e w t t 8 q e q e e 0 q 0 e e 0 0 0 e 0 q 0 q e q 9 0 0 9 9 7 q M ! ( ( ( ( ) ) ( ^ V n k n n j j n M M w 6 9 0 0 e e 7 6 V 1.B.].].D.]._.).R.R.].}.4X2X>X>X>X}.<X{.j.<.<.<.<.<.<.<.<.4.<.>.<.<.2.<.>.<.<.<.2.4.<.>.a.<.>.<.>.<.<.<.<.4.<.2.<.<.<.<.<.<.<.<.<.<.<.a.g.].XXXX>X>X>X>X>X>X>X>X>X>X>X>X>X:X:X>X3XsXmXmXnXnXvXmXbXmXsX;X;X;X;X;X;X;X;X-XT.T.v.S.Z.S.S.|.Z.F._.].F.Z.Z.|.F.|.Z.e.^ ; 5 q e e e e 0 j U ( 1.^ ;.-.^ ) ( -.1.1.1.' 1.1.1.1.1.0.1.1.1.1.0.0.1.;.;.N t 8 8 q 8 q 8 0 q e 0 0 q e 0 e 8 6 e 0 7 0 e e e e 8 a K C.}.$X}.}.4X4X<X}.<X,X{..XD.G.D.,XG.G.V.s.,.' ,.,.' ,.' 1.' :.' ` 1.` 1.1.1._ U M r j t t d j a j a a a t t j j j g j i 6 6 0 6 6 0 $ 0 0 6 9 0 0 e 0 0 0 0 y $ b $ y 9 0 0 $ y B ~ ^ ( ^ ( R ( R Y V n j e 8 t 8 a j a e e e e e e 0 9 - U 2.Z. XF.F.F.|.Z.].]..X}.>X>X}.}.>X<X{.{.j.y.a.a.s.a.<.a.,.a.p.a.a.<.p.a.p.a.p.a.a.a.s.p.a.p.<.<.p.a.a.a.a.p.a.p.a.a.a.<.<.a.<.<.a.a.y.y.g.{.>X>X>X>X>X>X=X>X>X>X=X>X:X:X=X1X1X=X3XbXlXvXvXlXvXvXvXvXsXiX3X3X3X3X3X3X3X/.E.R.S.S.S.|.]._._.|.].].|.|._.|._.|.Z.e.Y @ 5 a 0 0 0 0 6 k Y ( :.( ( R R R ",
"1.1.3.3.1.3.3.3.1.1.1.3.1.` 1.1.' V j e 6 8 6 8 e e u 6 6 e u 0 u 6 0 u 6 0 u 6 0 6 6 6 u 6 k l.{.<X}.}.}.>X}.2X4X1X<X4X4X4X4X4X4X<XS.d.>.,.3.1.1.1.1.1.1.1.1.,.,.1.3.,.1.( J t - ; 6 7 8 e 7 ; 7 7 5 7 - 5 5 5 7 7 q q e e e e q 0 e e 0 q q e q q 0 e e q 0 0 q 0 0 7 9 q n V ) 0.[ q.] [ 0.1.] V n 5 7 7 7 7 9 e q q 7 0 0 0 e 0 5 $ ~ N. X4X6X4X4X4X4X4X4X4X<X2X>X2X4X>X<X X].8.+.+.X.:.+.-.:.X.:.:.:.+.:.>.:.:.,.+.+.:.+.:.` +.:.:.:.:.:.+.:.X.:.:.+.:.>.R +.>.+.+.+.o.o.W @.,.Z.XXXX>X>X>X>X}.>X>X>X>X>X>X>X>X=X1X3XaXbXMXGXHXHXFXFXVXMXsX;X!.Q.=X=X=X=X=XQ.=X=X1X,X<X<X,X<X<X<X4X<X4X4X4XXX4X4X X|.2.8 ; e 0 e 9 0 0 n T 1.q.2.1.1.1.1.1.1.1.1.1.1.1.1.1.3.2.1.1.;.1.;.1.1.1.1.;.H j 8 8 8 8 q 7 0 8 q 0 0 e q 8 e 8 e 7 0 7 0 e a e 0 q e K C.XX>X}.<X}.}.4X4X<X<X4X<X<X<X,X<X<X,XS.s.[ ' ' ' ' ` 1.' ' ` 1.1.' ,.,.1.1.R H t - - - - ; - 5 - 5 5 5 5 9 5 5 5 8 8 e 6 6 6 0 7 0 0 6 0 0 0 e 0 0 0 0 u 0 y u $ y 0 0 0 0 y B B ) 1.1.1.1.2.:.1.( M a - 5 ; 5 5 ; 5 8 e e e e e e e 6 @ ~ B.XX4X4X4X4X4X4X4X<X<X4X>X>X>X>X>X<X}.v.y.E W W +.` W W W W W W W W W W ` W W W W ` W W W ` W W W W W W ` W W W W W W W W W +.W W ` W #.y.n.}.>X}.Q.>X=X>X=X=X:X:X>X1X=X>X>X>X-XaXMXGXGXGXHXHXGXAXnXvX@X+X/.+X/./.2X2X2X2X4X<X1X<X<X4X4X4X4X4X4X4X4X<X4X<X4X X_.-.* 6 a e 0 6 6 6 m ( :.3.>.,.,.:.:.",
"1.1.1.1.q.1.1.2.3.1.1.1.` :.] 1.1.J t 5 6 6 e 6 8 u e 6 u e 6 u 6 6 0 e a 0 0 0 6 6 6 6 7 5 z g.[.>X>X}.}.>X}.}.1X2X>X>X2X>X>X>X<X,Xv.s.p.' 1.1.1.1.1.1.1.1.3.3.1.1.1.,.1.( U a 5 5 6 6 6 6 6 6 5 7 6 6 9 5 7 9 7 0 9 9 e 9 e e e 0 q q e q e q e e q e 0 q q e q 0 e e e 7 t J ) [ q.q.q.[ q.[ ) A n 9 5 6 e e q q 0 0 0 6 0 0 0 0 5 5 A 8..X4X4X2X>X2X>X>X2X>X>X2X>X4X<X>XXXXX Xl.X.:.2.:.;.2.:.1.1.1.1.2.1.-.1.1.1.1.1.:.1.1.1.1.1.1.2.1.1.1.:.:.2.2.:.-.:.>.2.:.:.-.:.+.X.W @.>.Z.XX,X>X>X>X>X>X>X>X>X>X>X}.>X>X:X:X-XaXzXzXDXCXDXCXVXVXVXsX;X=X=X=X*X=XQ.=X=X=X=X=X:X>X:X>X>X<X<X>X}.<X<X<X<X<X<X X|.:.5 5 e 0 0 0 9 5 j Y -.2.2.2.3.3.1.2.3.1.1.1.1.1.1.1.1.0.1.1.-.2.1.0.0.0.1.;.A a 8 8 7 8 8 q 0 8 0 e q 7 0 e e e e e 0 7 7 e e e e e e K C.>X>X}.}.2X>X>X>X>X>X>X>X>X:X>X>X,X,Xv.s.' ' ' ' ' 3.' [ ,.,.1.` ,.' ,.1.1./ V t 5 7 5 7 6 6 7 6 6 7 7 6 6 e e 8 u e u 6 6 0 6 0 0 6 0 6 0 0 0 0 0 0 0 0 0 y 0 0 0 0 0 0 0 5 t H T 1.>.3.,.,.,.,.` A a 7 7 0 0 0 0 6 e a e a e e e 8 5 - U N..X<X<X4X<X4X>X<X2X<X>X2X<X>X>X>X4X.XS.a.#.W ` :.` ` :.,.` ` ` ` ` ` ` :.` ` ` ` ` ' ` ` :.` ' ' ` ` ` ` W ` ` ' :.` :.` :.W ` :.` :.#.a.n.>X>X>X}.>X>X=X2X>X=X=X:X1X:X>X=X1X-XpXnXSXSXDXSXSXSXSXAXvX3X:X>X:X:X:X=X>X>X>X=X=X>X>X>X>X>X-X>X>X>X2X>X}.4X<X}. XZ.R - ; a 0 9 6 6 6 k R ` :.:.:.#.W W ",
"1.q.3.3.1.1.2.1.1.1.1.1.1.` 1.1.1.H j 5 6 6 6 6 8 e e e 0 6 6 0 0 0 0 u u 0 u 0 6 6 e 6 6 6 h l.{.>X>X}.>X>X[.}.2X}.2X}.>XQ.}.}.>X,Xv.f.,.3.1.1.1.1.1.1.3.1.1.3.1.' ` 1.1.( A a ; 6 6 u 6 6 6 5 7 9 0 7 5 9 7 9 9 7 8 0 e q 9 e e q e 0 0 0 e 0 q 0 0 e e e 6 8 e q 6 e 0 7 t N ( q.[ [ [ [ [ q.] A b 6 6 a a e a e 6 0 0 0 6 9 0 6 5 5 A 2.|.>X>X>X>X2X>X2X>X2X2X2X>X>X>X>XXXXX Xl.+.:.-.2.2.1.1.1.1.2.1.1.1.1.1.1.1.1.1.1.1.1.1.1.1.1.1.1.1.1.1.1.1.:.1.:.-.2.-.>.>.:.:.>.>.-.` ,.Z. XXX<X>X<X>X>X4X}.>X>X<X4X:X>X=X>X-XiXzXVXCXFXDXFXSXVXzXlX;X=X=X=X=X=X*X*X=X>X>X>X>X>X=X}.}.>X}.>X>X<X}.}.}.<XXXXXZ.>.> 5 e 7 9 0 9 5 a K W 2.:.1.1.3.,.,.3.1.,.3.1.3.1.3.1.1.2.1.1.1.;.1.1.;.1.;.N a 8 7 8 q 7 8 8 8 q q e e e 0 6 e 8 6 e 6 6 e e e e e t F C.>X>X}.>X}.>X>X:X>X>X:X>X:X:X,X>X<X>Xv.s.#.' ' ' ' ' 3.,.[ ' ' ' 1.1.1.1.,.( N e 7 7 e e e 6 6 6 0 0 0 0 0 e 8 e 8 8 6 6 e 0 6 6 0 6 0 0 0 0 0 0 e 6 0 0 0 0 0 y 0 0 u a 0 8 j M ( 1.2.,.,.,.>.,.` U n 6 q 0 a 0 a u e a e e e e 8 7 5 - K 4. X<X<X<X<X>X1X>X<X1X<X>X>X>X>X>X<X.XS.a.#.#.:.` ` ,.` ' 1.:.1.1.' :.:.,.` 1.1.1.` ' 1.` 1.1.' ' :.:.1.,.` ` :.` ` ` :.1.' 1.:.:.1.+.,.a.{.>X>X>X:X>X-X>X}.>X>X>X>X=X:X>X>X>X;XdXAXSXSXSXSXZXSXSXAXvX5X>X>X>X>X:X>X:X=X*X=X=X=X=X}.Q.}.Q.:X}.}.}.}.}.}.}.XX.XV.X.; 5 i 0 6 0 6 5 k R W :.+.+.,.W W ",
"1.2.3.0.1.1.1.1.1.3.1.1.1.:.] 1.1.V d 8 ; e 6 6 8 u e u u 0 0 0 u 0 0 0 0 0 0 0 6 6 6 6 e 6 z z.[.1X2X}.2X>X2X2X>X2X}.}.}.2X}.>X,X,Xv.f.3.3.3.1.1.1.1.1.1.1.1.1.1.1.] -.:.( A k 5 ; u 6 u 6 6 6 0 7 9 6 7 0 0 9 0 0 7 0 0 0 0 q e 0 q q q e q e e 0 q 0 6 6 e e 6 7 6 e e e j M / [ [ [ [ [ [ q.;.A a $ 6 u 6 u 0 0 0 0 0 0 6 6 6 0 5 5 A 2.].>X=X>X>X>X>X2X>X2X>X>X2X>X>X>XXXXX|.l.:.2.1.1.2.1.2.1.2.1.;.1.1.1.1.1.3.3.3.2.1.2.1.1.1.;.:.1.1.1.1.1.1.1.2.:.:.:.:.:.2.>.2.>.:.+.+.,.Z..XXX}.<X}.<X}.}.4X$X>X<X}.>X>X:X:X-XyXzXVXFXCXFXBXzXFXzXbX3X2X=X>X=X{.}.=X}.>X>X>X>X>X>X>X}.>X>X<X}.<X}.<X<X<X>XXX|.2.8 ; q 0 0 9 9 5 j T :.3.3.1.1.1.:.1.1.1.1.1.1.1.1.3.1.1.1.1.1.1.1.1.1.1.;.;.V d e 8 8 8 q 8 e 6 7 0 6 0 6 e 6 e e e 6 6 6 e e e e 8 e H C..X}.>X>X>X}.>X>X:X*X>X:X:X,X>X>X<X,XA.a.Q Q ' ' ' [ ' ,.,.' 1.1.1.1.3.1.1./ V y 7 8 0 6 6 6 6 6 6 6 6 0 a u e u 8 e 6 6 6 6 6 0 0 0 0 0 0 0 e 0 u 0 0 0 0 0 0 $ u a e u e 5 j M ( 3.,.,.,.,.,.:.` A k 0 0 e a 0 e 0 a e a e e 8 8 7 - 7 U 4..X<X<X>X>X<X>X<X>X>X>X>X<X>X>X>X<XXXS.a.W ,.` ,.,.,.` ` 1.,.` 3.' [ ,.' ' ,.[ ' ' [ ] 1.3.[ ' ' ,.` :.` ' ,.W +.` :.` :.+.:.:.:.:.+.$.<.D.XX,X}.Q.>X>X2X>X2X>X>X1X,X:X>X>X2X/.dXcXAXSXSXSXSXSXAXAXcX5X>X>X:X>X>X:X:X=X*X>X=X=X}.Q.:X}.>X}.}.}.}.>X}.}.}.}. XB.R 7 ; e e 6 e 0 8 k R W ,.:.+.W W W ",
"1.0.3.1.q.1.q.1.1.1.1.1.` ) 1.1.1.H a 8 5 6 6 6 6 e e 6 0 0 0 u 0 0 0 u y 9 0 9 6 6 6 8 5 5 h l.}.<X4X}.>X2X2X4X2X$X2X+X+X>X}.>X,X,XA.f.p.] 1.1.1.1.:.1.1.:.1.,.1.1.1.] :.^ A a 6 6 6 6 5 6 $ u 0 0 0 9 0 0 7 0 0 7 q 0 9 0 e e q 0 e 0 8 0 0 e 0 8 8 7 e 6 6 e e 8 e 7 6 5 r M _ q.[ [ [ [ [ [ 1.A n 5 6 0 a 6 0 0 0 0 0 0 0 0 0 6 5 5 C 2.|.1X>X2X>X$X>X}.>X>X<X2X>X}.<X}.XXXX|.d.>.:.1.2.;.2.1.2.1.1.2.` 1.1.1.1.0.3.q.q.3.3.1.1.1.1.1.1.] 0.1.:.:.:.:.:.2.:.2.:.:.:.:.-.-.:.,.>.Z.XXXX<X}.<X<X<XXX}.<X}.}.4X>X>X>X=X=XiXzXMXFXCXCXCXCXVXMXzXaX2X>X=X}.:X}.}.>X>X>X2X>X>X+X>X>X>X>X}.>X<X>X<X>X<X,X X|.,.> 7 e 0 9 7 0 7 j T X.>.1.1.1.:.,.:.1.,.1.,.2.1.1.1.1.1.1.1.1.;.;.0.0.;.1.;.V 8 7 8 7 8 8 8 e 6 0 6 e 0 6 6 e e 6 6 0 6 6 6 7 8 8 8 q D c.,X}.}.>X>X>X>X:X>X>X:X>X:X>X>X>X<X,XA.t.Q Q ' ' ' ' ' ' ' 1.' ' :.1.3.2.1.( V y 9 7 7 7 0 7 0 7 6 6 6 6 6 e e e e 6 6 e e 6 0 6 6 6 6 6 6 6 6 6 e 6 u 6 0 0 u 0 y e e 8 e 5 j z _ 3.,.,.' ,.,.,._ V n 7 0 0 0 0 a e 0 a e q 8 8 8 8 - - P l.].4X<X2X>X>X>X>X<X2X<X<X>X>X}.>X<XXXG.d.Q ' ,.,.' ` 1.:.' ' ,.,.' ,.' ,.,.3.3.,.3.3.3.1.] 3.3.3.' ,.:.:.,.,.,.' :.:.W ` ' W :.` :.:.,.d.S.XX<X>X}.>X4X2X2X$X4X2X>X>X>X1X<X2X@XfXnXZXSXDXSXSXSXZXAXvX@X>X:X1X>X:X1X>X:X:X:X>X>X:X>X>X>X>X}.>X>X>X}.}.<X}.}..XV.R - ; e 0 a e q 7 M R 1.,.+.` +.o.W ",
"1.1.1.1.0.1.q.1.3.1.1.1.' :.] 1.1.V j 8 7 6 6 6 9 u 0 0 u 0 0 y u $ 0 0 6 6 6 5 5 5 ; ; 5 ; f j.}.<X4X>X2X4X2X2X2X2X2X+X+X+X/.}.>X>Xv.s.W W ( _ ` ` ' ] ' ` ` :.1.1.1.1.;.^ A a 6 5 ; 6 6 $ 9 0 6 0 6 6 0 0 9 0 9 9 0 9 0 q q e 0 q e e q 0 0 q 0 0 e e 8 e e e 8 7 7 8 7 - r l ( [ ] ] _ [ [ 1.) ~ b 9 6 6 6 0 6 0 0 0 e u 6 a 0 6 5 - V 2.|.}.>X>X<X}.<X}.<X}.>X}.<X<X}.XXXXXX|.l.+.>.1.2.1.2.1.2.0.1.1.] ] 1.0.0.0.[ q.q.q.0.0.0.[ 0.[ ] 1.] 1.1.1.1.:.1.:.2.>.:.1.:.:.:.-.:.>.<.|.XXXX<XXX<X4XXX<XXXXX$XXXXX<X,X,X,X>XgXvXnXGXSXSXSXAXAXMXmX6X4X:X>X>X>X>X,X>X>X<X4X2X>X>X>X>X>X>X}.>X>X>X}.>X>X<X.XS.>.> - 8 8 8 7 5 - j P R 2.:.:.:.:.:.1.1.1.:.1.1.:.:.:.1.1.1.1.1.;.2.1.0.1.1.;.V t > 8 5 7 6 5 8 6 6 6 6 6 6 e 6 6 u 7 6 5 6 ; 5 ; 5 ; > g c.:X{.:X>X>X4X>X>X>X>X>X>X>X>X>X2X>X}.c.a.#.Q Q ' Q ' W ' ` ` ' ,.1.1.1.1.1.( ! y q q q 7 7 7 0 e 7 6 6 6 6 6 6 6 e 8 6 6 u 6 e 6 6 e 6 6 6 u e e e 6 e 6 e u 0 0 6 u e u 8 7 d M ( 3.,.,.,.,.' ,.W J n 7 9 e e 0 e a e e e e 8 t 7 7 - : K d.|.<X<X<X<X<X<X<X4XXX<X<XXX<XXX,X<X|.F.a.' :.,.' ` ` ` 1.` ` 1.1.,.,.,.3.3.3.3.[ q.[ 0.q.3.3.3.3.3.3.3.2.3.3.,.1.' ` ` ` ` ` ,.:.:.:.,.d.S.XX,X,XXX<X4X4X4X4X4X1X4X1X1X<X<X<X%XdXnXAXAXHXSXSXHXSXAXvX5X<X>X>X,X>X,X1X>X1X>X>X:X>X>X>X>X,X>X>X>X>X}.<X}.>XXX.XV.I * - 8 8 8 8 7 - l R ,.,.,.:.:.` +.",
"1.q.1.q.3.1.1.1.3.1.,.1.1.' 1.1.1.H e 8 7 6 0 6 0 0 0 y 0 0 0 u y y b 0 6 6 ; 5 ; > > > > > h j.{.2X1X>X>X2X2X2X2X3X@X(.+X(./.2X>X>Xv.g.,.+.:.:.:.:.>.3.1.` ( ` ] :.) :.) ( A k 6 ; 6 e 6 6 0 0 a 0 9 9 9 0 7 9 0 q 0 7 0 9 e q e q 0 q q e e q q 7 8 6 6 e 7 e 8 8 8 8 7 7 t M _ [ [ ] [ [ [ 1.] A b 6 $ 6 0 u 0 0 6 6 q 6 7 e e 7 - 5 H 2.|.XXXX>X>XXXXX}.XXXXXXXX}.XX<XXXXX.X|.4.:.:.2.1.2.1.0.1.q.1.) ) ) ] 1.1.] ] [ 0.] ] ] ] [ ] 0.] ] ] ] 1.] ] ] :.` :.1.:.:.:.-.` X.>.2.d.F. XXXXX<XXXXXXXXX4XXX<X<X$X<X<X1X,X<X5XhXvXnXnXAXnXnXnXmXhX5X<X}.}.{.,X.X>X}.<X4X4X<X}.}.>X>X>X>X<X<X>X2X<X<X>X$X.XC.+., = > 7 8 8 > 8 l P ( :.:.:.:.:.1.:.:.1.1.1.:.1.1.1.1.1.1.1.1.1.;.1.;.1.;.1.V d 8 8 8 e 8 8 8 6 6 6 6 6 0 6 a e 6 8 8 > > ; > > > 8 8 S x.{.:X>X>X1X2X>X>X4X2X3X3X-X-X3X2X$X4Xk.g.#.Q Q Q Q Q ' ,.,.,.:.1.' 1.1.3.1._ J n q e 8 8 8 8 e e 7 6 6 0 7 e e u e 6 6 e 6 6 e u 6 6 e u e 6 6 u 6 6 u u 6 6 6 6 e e e e 8 > a M R ,.:.,.' ' ,.,._ V j 7 9 0 e y u e e e e e 8 8 7 7 - : K l.|.<X,X<X<X<X<X,X,X<X<X<X<XXXXX<X,XXXF.d.#.' ' ' ` ' 1.,.' ` ` 1.1.3.3.3.3.1.1.0.[ q.[ 0.3.0.1.3.3.1.1.3.3.1.1.1.` ` :.` ` ` ' :.:.,.<.d.S.|.XXXX.X}.<X<X,X4X$X<X<X,X,X<X,X<X4XdXnXAXGXMXAXAXnXnXnXhX+X}.,X:X,X:X:X,X>X,X,X>X>X>X,X>X>X>X>XXXXX}.>X}.}.}.>X.XC.W : = 8 , r 8 7 : g T +.,.,.+.+.:.W ",
"0.2.1.1.3.1.2.3.1.1.1.1.` :.] 1.1.V j 7 6 0 6 6 0 e 0 u 0 0 $ u 0 b b $ 6 u a d f 3 , d 2 d S k.}.1X2X>X2X2X2X2X@X3X3X@X(.7X@XOX@X+XR.j.$.<.3.d.<.4.d.d.2.:.+.` ) :.1.) ` ( U M i i a u u e 0 u a e 7 9 7 0 0 9 7 7 0 9 0 0 0 0 e 0 q q 0 e 0 0 e 8 7 0 e 8 e e 8 d 8 e 8 r j H ( [ [ [ ] [ [ 0.) U a 6 6 6 6 6 0 e 6 u e e 0 6 8 8 8 7 U 2.F..X.X.X.X.X.X.X.X.X.X.X{..X.XXX.X.X|.d.+.2.0.1.2.1.1.2.0.] / ( ( ) ) ) ) ) _ ) ] ) ] ) ] ] ) _ ) _ ) ) ` _ ) ) ( _ :.:.:.>.+.R R :.,.a.Z..X XXX XXXXXXXXXXXXX XXXXXXX,X,X,XXX4XdXhXfXxXcXxXxXvXhXgX4X{.].{..X,X.X{..X<X<X1X<X>X2X}.}.>X>X<X<X}.<X}.}.>X<X.XS.+.g , r d d j r d H T X.1.2.:.1.:.:.1.1.1.:.:.1.:.:.1.1.1.1.1.1.1.;.1.1.1.;.;.N d 8 8 8 8 8 e 8 e u e u 0 0 6 6 0 6 8 i 1 i d f d g j g G v.{.{.:X>X>X>X=X-X2X3X6X3X3X3X@XiX%X5XP.h.y.Q t.t.#.a.,.<.,.:.1.' 1.1.3.1.1._ / N t j j e e 8 t e 7 7 6 0 e e e e e e e 6 6 6 e 6 e 6 e 6 6 e e 6 6 e 6 e 6 0 0 e u u 8 a e 8 j M ( 1.,.' ,.,.+.,.( V j 5 5 0 y e e e q y e r w t 8 7 > > K 4.|.XXXXXXXXXXXXXXXXXXXXXXXXXX.XXXXX.XG.d.' 1.' ,.' ' 3.3.' R R ` ` ` ' ` 1.] 1.] ] ) ] ] ] ] ] ] ] ] ] ] ] ` ( ( ` ` ` ` ` ` ` ' ,.,.<.a.V.|.|..X]..XXXXXXX.XXX,X,X,XG.,XXXXXXX5XvXvXvXcXxXvXcXxXxXdX$XW.&XW.{.:X:X{.{.:X,X:X*X:X>X>X>X>X>X>X>X>X>X>X>X<X}.{.C.@., d g f d r d d D L W ,.@.` :.+.+.",
"3.2.1.1.q.1.1.1.1.3.1.3.1.) 1.1.1.H i e 7 0 6 6 0 a 0 y u $ 0 0 $ y 0 $ a Y 1.l.8.8.<.a.a.a.j.R.}.>X>X}.}.>X$X2X3XdXhXsXpXfXfXhXhXgX2X[.c.S.S.Z.C.S.Z.V.l.:.:.:.1.1.1.1.1.;.^ ^ U U U U A U ~ A n e 0 7 9 0 0 7 0 0 9 0 0 7 0 q q 0 e 0 e q q e q 0 0 7 5 i A A T U J T U U T T ` _ ] ] ] [ [ [ 1.A b 5 6 0 0 0 6 a a m U U A A U U J J ` 2.d.f.j.l.j.l.l.l.j.l.j.l.j.d.l.l.l.j.j.>.:.>.2.;.1.1.1.1.( ~ M n N m V B N N ! J B B M V M N M V M V M M N N M M M J R -.1.>.,.1.:.-.,.>.d.l.V.B.V.V.l.c.V.j.V.c.V.l.V.V.V.j.l.k.P.K.L.I.I.I.I.I.I.P.x.j.j.f.x.j.j.j.v.n.{.<X>X}.>X>X>X4X}.>X>X>X>X>X>X<X>X}..XV.a.<.4.d.d.4.4.4.,.>.:.:.:.:.:.1.1.:.:.1.1.1.:.2.1.1.1.;.1.1.;.1.1.1.0.1.1.1.H e 8 8 8 8 8 8 8 e e e 6 a 6 a a 0 ; k X.2.4.>.<.4.<.l.a.s.{.,X>X>X>X>X>X>X2X6X6XhXpXsXfXaXhXhXhX4XE.k.v.v.v.D.S.V.V.d.:.:.1.1.` ,.1.3.] ) U J J / U ! U U H j 0 6 e 6 6 i 8 e 6 u 6 e 6 6 e u 6 6 6 e 6 u u e 6 u 8 6 b A ~ A U C U C H H Y ` ,.:.,.:.,.:.:.` V a 7 9 q e e e q y m ~ J U U U J U K :.4.l.x.l.d.x.x.l.x.l.x.j.N.x.N.x.l.V.l.d.,.1.1.' ` ' ' ' _ T H M z M V V N M M M N N M N N N N N m m M N m N N M M M N T R 1.` ,.:.` ` W ,.d.V.x.l.g.l.l.l.j.j.d.f.f.f.M.f.x.x.j.)._.I.`.I.K.I.K.I.I.P.h.j.j.u.g.y.j.s.j.b.{.:X>X:X,X.X>X>X>X>X>X<X>X<X>X<X}.}.].c.<.<.4.<.<.4.d.d.2.:.:.+.:.@.:.:.+.",
"3.3.3.1.1.1.1.1.1.1.1.1.1.] ] 1.1.H a 7 7 e 0 6 0 0 u 0 0 0 0 0 u y $ $ m 2._. XXX X XXX XXXXXXX}.>X>X}.}.}.2X2X3XhXlXvXvXnXnXnXmXmXgX4X}..X.XXXXXXX|.G.V.d.3.1.1.1.;.1.0.1.1.-.-.;.1.1.) ;.;.^ m a 7 9 q 0 0 0 9 7 9 0 9 0 e 0 0 q e 8 0 e e q e e 7 6 5 j / ) ] ] 1.) ] ` ) ) ] ] ] ] ] ] 0.[ ) ~ b 9 7 0 e 6 u e a A ;.;.1.0.;.;.;.1.1.2.>.<.#.$.,.$.$.,.#.#.$.,.#.$.#.$.$.,.,.#.:.:.1.1.1.1.1.;.U n 8 e t a e a e e e e t e e e t e 8 t 8 8 8 t 8 t 8 8 r j U ( 2.:.2.:.:.:.+.:.,.,.2.<.<.,.,.>.<.#.<.,.>.>.>.>.,.p.' $.>.%.5.5.%.%.%.%.@.>.$.$.Q #.#.,.,.#.s.j.D.>X:X>X>X>X>X>X>X>X<X}.4X>X<X>X<X<X>XXX.X.XXXXX<X X|. XZ.N.,.:.:.1.1.:.1.1.1.:.-.1.1.1.1.1.;.1.1.1.1.;.0.1.0.0.;.;.V d 8 8 8 8 8 8 8 e u e e e a 0 a 0 + K N.|. X X X.X XXX.X.X.X>X,X:X:X>X>X2X4X6XsXvXvXlXxXvXvXmXmXdX$X}..XXXXXXXXX X|.V.,.,.,.1.,.1.1.] ] ` ( ( _ [ 0.[ ] ) / n a 6 6 e e 6 6 6 6 6 e u u e 6 6 e 6 6 u 6 u e u u 6 8 u m ) ;.;.;.^ ) ) ( ( ( ] 1.1.Q ,.,.' :.W V j 9 6 q 0 e e e n V ] [ ] ] ] 1.) :.:.>.,.,.$.>.,.$.,.@.,.$.,.,.+.$.,.>.,.,.,.,.1.' ' ` ` ` ` ` H j 8 8 d r i 8 8 i e q q 8 e e e 8 e r e e a t n t e e 8 l U _ ,.,.,.,.` W W W ,.p.,.,.#.#.#.,.#.#.#.' ' Q Q { Q #.#.>.6.%.%.%.%.%.%.%.%.$.$.#.#.#.t.#.#.#.y.v.{.>X1X>X>X>X>X>X>X>X>X>X<X}.<X>X}.}.XX X.X.X X.X.X.X.X.XZ.3.,.:.:.+.:.,.+.",
"1.0.q.1.q.2.q.1.3.1.1.1.' :.1.1.1.H j 5 7 6 6 6 0 0 0 0 0 0 0 0 y u y $ C 4._.XX$XXX<X}.>X,XXX}.}.>X>X}.>X2X$X3X5XfXnXzXzXzXnXnXMXmXhX@X}.XX,X,X,X,X,X.XS.3.,.:.1.:.1.1.1.1.1.;.-.1.1.1.0.1.0.) V e 6 6 9 0 0 7 0 0 0 9 7 q e q e q e 0 q q 0 0 7 0 0 7 8 j ( ] 1.1.1.1.] ] ' ` ] ] 1.] [ ] [ 0.1.A b 6 6 6 0 0 e a a U ;.1.;.1.1.1.1.1.1.2.[ ' ` ' W ` ,.+.Q ,.Q :.` Q ` ' W ` ` ' ` :.:.` :.;.1.) U n 5 5 q e e e e 6 q e e 8 0 e 8 8 8 8 8 8 8 q 7 q e q 7 t U ) 2.2.1.>.:.>.1.:.@.:.:.+.:.,.:.1.,.:.1.' ' 1.' ' ' ' ] 1.,.,.>.>.>.>.>.>.>.,.,.` Q Q Q Q Q Q p.j.S.,X>X>X>X>X<X>X>X<X>X>X}.>X}.<X>X<X<X<X<X,X,X<X4X<X,X<XG.l.>.+.:.1.:.1.1.:.1.1.1.1.1.:.:.1.1.1.1.1.1.:.;.2.;.1.1.;.V e 8 7 > 8 8 8 8 6 e 5 6 6 6 6 0 6 ; K l.|.XXXXXXXXXXXXXXXX}.,X>X:X:X:X:X=X2XgXhXnXAXnXzXAXnXMXMXhX@X}.,X,X<XXX4XXXXXZ.,.W ,.' ] 1.3.3.] ] [ [ 3.3.q.3.1.' ( M a 6 e 6 e 0 e 6 6 e 6 0 e 6 6 e 6 e 6 e e e 6 6 e 6 8 e m ) 1.1.1.) ] ] 1.' ] 1.1.1.,.,.,.+.:._ V a 9 7 e e e 9 e b ~ 0.0.0.[ 1.:.1.1.1.>.,.>.,.,.,.+.,.,.1.` :.,.1.' 1.' ,.1.,.1.' ' ] ` ` ' ' ` V j > ; 6 7 7 > 8 7 5 q 8 8 8 6 6 8 7 8 q e e e e t e e 6 j T ( 2.,.,.,.,.:.` W :.,.>.1.+.+.W ,.W ' ` Q ' ' ' Q Q ' ' :.>.@.+.>.O.@...@.@.+.o.#.Q o.#.Q o.#.y.n.D.1X:X>X>X>X>X>X1X}.>X>X>X>X>X>X<X<X}.<X}.XXXXXXXXXXXXXXS.<.:.+.+.:.>.+.,.",
"1.1.1.1.1.1.3.2.1.1.1.1.1.` ) 1.1.V a 7 6 0 6 6 0 0 0 u 0 u 0 0 y y y $ C <.|.$X<X<X>X>X<X>X>X>X>X>X>X>X>X-X/.+X3XlXnXAXkXAXNXAXAXnXfXqX+X}.,X<X<X<X,XXXS.<.,.:.;.1.1.;.1.1.1.1.) 1.1.1.1.1.1.) m a 9 6 0 9 0 0 9 0 0 7 0 e 0 q e 0 q 0 e e q e q 0 e 6 8 M ) ] 3.3.3.[ 3.] ] ' ] ] ] [ ] [ [ 0.1.A a 5 6 u u e e e a U ;.1.1.;.;.1.1.1.1.1.3.' ' ' ' ' ' ' ' ' ' ' ' ' ' ` ' ' ' ' ` ` ` 1.] :.1.( J n 6 6 6 6 e e 9 0 0 q e 0 0 e e q e e e 8 e 8 q q e 7 7 e U ) 4.>.1.:.:.>.:.:.1.1.1.1.1.:.1.1.1.] ' 1.[ [ [ [ ' [ [ ] ] [ 1.1.1.1.1.1.1.1.,.' ` ` ` ' ` Q 3.f.D.>X:X>X>X>X>X}.4X}.4X>X>X>X<X>X>X<X<X<X<X<X>X,X<X<X<X1X].x.>.W +.1.1.:.1.:.:.1.1.:.1.:.1.1.1.1.1.1.1.1.1.1.;.0.1.;.N d 8 8 6 7 8 8 8 e e 6 6 6 0 q e 6 ; K z..X4X4X4X$X<X<X>X}.<X>X>X:X:X:X:X}.2XgXvXGXSXSXAXZXAXAXMXfXdX$X>X>X4X4X4X<X,XF.,.,.1.1.3.1.3.3.3.3.1.3.3.q.3.1.] ] ( M i 8 e 6 0 6 8 u e 6 6 6 u 6 u e 6 u e u 6 6 e 6 6 6 e i m ] 1.0.1.1.[ 1.1.1.1.1.1.,.` ,.' ` ,.( H t 7 9 9 e e 0 e b ! 1.[ [ 3.3.1.:.1.>.3.2.>.1.1.:.1.1.:.:.:.1.1.1.1.] 1.1.1.1.' 1.1.' ` ` ` ,.' H j - ; 5 8 7 8 6 5 6 6 6 8 7 6 9 7 0 0 0 0 y e y e y 0 0 n T ` :.:.:.,.,.:.` :.:.:.3.:.' ` ` ` ' ' ' _ ' _ ' [ _ _ ' 1.` :.:.:.:.:.:.:.:.:.:.:.:.' :.:.:.W a.S.D.1X>X1X:X>X>X>X>X>X>X>X}.>X>X>X>X<X<X<X>X$X<X<X<X<X<X>XS.a.:.+.( ` @.>.:.",
"0.1.q.1.3.1.1.1.1.3.1.1.` :.1.1.1.V j 6 6 6 0 0 0 a e e 0 y u y u u 0 $ C <.|.4X4X<X$X>X>X>X>X>X>X>X>X>X>X}.}.$XiXfXAXAXVXNXZXAXAXnXjX@XQ.,X,X,X<X,X,X.XS.<.+.` 1.;.1.1.2.1.1.] :.1.1.1.;.] 1.] V a 5 9 0 0 7 0 7 q 0 7 0 q 0 e q 0 e e q 0 q 0 8 8 8 e 8 n ( ] [ [ 3.[ ] ] ] ] ] ] [ [ ] [ 1.3.;.U b 9 6 0 6 6 8 8 u A 1.-.1.:.1.1.;.1.1.3.3.3.3.[ ,.[ 1.,.3.,.[ ,.3.3.' ,.,.1.1.' ' ,.1.1.1.1.1.] ~ n 7 7 0 e 6 e 0 7 0 9 0 0 0 e e y e e a e e e e e q 0 7 b U ` 2.1.X.-.2.:.1.:.3.>.:.3.2.:.3.3.3.3.3.1.3.0.[ [ [ [ [ ] 0.q.1.2.0.1.1.1.1.[ [ [ ' [ ' ' ' ' 3.x.D.<X1X>X>X>X>X>X>X>X}.>X<X>X<X>X<X>X>X>XXXXXXX>X,X>X<X4X].l.,.W :.1.1.:.1.:.2.1.1.:.1.:.2.1.1.1.1.1.1.;.;.1.1.1.1.;.V d 8 i 8 e 8 8 e e e u 0 a e u a 6 ; K z..X4X}.}.}.}.}.}.}.>X>X>X,X,X:X>XQ.2XiXvXGXSXSXAXAXAXAXnXxX%X+X{.>X<X$X$XXX,XZ.,.,.` 1.' 1.1.3.[ [ 3.3.3.3.3.1.' ] ( M e 6 8 e 6 0 7 6 e 6 e 6 q 6 6 7 6 6 7 6 6 e u e 6 e e i V 1.1.1.3.q.0.1.1.1.[ 1.1.:.,.W ` #.' W N n 9 7 q e e 0 e b ! q.1.0.1.3.1.:.2.1.1.3.:.,.1.1.:.1.:.1.1.1.1.1.1.1.] 1.' 1.1.3.] _ _ ` ` 1.` H j - ; 8 e u 8 5 6 6 6 0 7 0 0 0 0 0 7 0 0 0 0 e 0 0 0 7 a ^ -.:.:.:.,.,.,.,.:.1.>.3.>.[ 1.:.' ' ' ] [ [ { [ [ { { ' ' 1.1.1.1.1.1.1.:.1.1.1.1.1.1.,.1.,.' d.A.{.1X:X>X>X>X1X>X>X>X>X>X>X>X>X>X>X2X>X>X<X>X<X<X<X<X<X,XS.,.@.W W +.:.:.+.",
"2.3.3.2.3.0.3.1.3.3.3.,.1.' ` 1.:.V t 7 7 7 0 6 0 0 e e a 0 u y b 0 $ $ M 2.].4XXX<X>X>X>X>X>X>X}.2X>X>X2X+X}.+X3XxXGXSXVXAXAXAXAXnXjX3X+X}.>X>X<X1X<X,XG.4.,.:.1.1.1.1.1.2.3.[ ] 1.' ' 1.) 1.) V e 7 7 q q q 7 0 q e 7 q e q e q e e 8 q q e 7 e q q e 8 l ( ] 3.[ [ ' 3.' ] 3.' ] [ ] ] 3.[ 1.] ~ b 9 6 6 6 6 6 6 e C 1.1.;.1.] ;.1.1.1.1.1.1.] 1.] 1.,.' ,.' ' 1.,.' ,.1.' 1.1.' ` 1.1.' 1.1.1.) T n 7 9 7 0 0 y 0 9 e b 0 0 e e e e 0 0 0 0 0 e q e e e 5 a A ;.2.>.2.:.-.2.2.1.1.:.1.2.3.2.3.1.0.3.3.3.q.1.1.3.[ q.] [ q.] ] q.[ q.3.3.3.3.[ [ ' [ ' ' ` ` 3.M.D.<X1X>X>X>X>X>X>X>X>X<X>X>X>X}.>X>X,X>XXX>X>X,X>X,X>X<X].s.,.+.:.1.:.1.1.1.:.1.1.1.:.:.1.1.1.1.1.1.1.1.1.1.0.;.1.;.V t 8 8 8 8 e 8 e e e a u e e e a 0 - K c. X4X4X}.4X}.}.>X}.>X>X:X:X:X*X:XQ.>XgXvXGXFXSXAXZXAXAXnXxXiX+X>X>X>X4X$X<XXXZ.' ' 1.1.1.1.1.,.[ ,.' 3.3.3.3.3.[ ] ( M e 8 8 e e e e e e e 7 6 e e q e 6 6 e 7 6 e 6 6 6 6 q t V 1.1.1.0.1.1.1.1.1.1.1.' ,.+.:.,.` :.( J b 7 7 8 q q 7 q a ~ 0.1.[ 0.1.1.1.1.2.2.2.1.1.2.1.1.1.1.1.0.1.] 1.1.1.1.] 1.1.1.1.1.] _ ] ' 3.` H j 5 5 u e a e 8 8 6 e 6 6 e 0 0 0 0 0 0 0 0 0 0 0 0 9 5 a ^ :.1.:.+.1.,.3.2.1.3.,.3.3.3.,.,.[ ' ' 3.[ [ ' { [ [ [ [ ' 3.,.[ ,.3.3.3.1.,.] 3.3.,.3.3.3.,.,.a.V.D.<X1X>X1X,X>X:X1X>X>X>X>X1X>X>X>X1X<X>X>X<X4X>X<X<X<X<XC.a.+.W :.+.:.:.:.",
"1.3.3.3.1.3.1.3.3.3.1.1.1.` 1.1.1.V j 7 9 7 6 6 7 0 0 0 0 0 0 9 0 0 y $ v <.|.<X4X}.}.>X>X>X>X>X>X>X>X>X>X}.}.+X5XlXHXSXSXVXSXAXAXnXjXiX+X}.<X<X<X<X,X,XD.,.,.:.,.3.1.1.1.3.2.3.1.3.1.1.] 1.1.) V t 7 9 0 e 8 q q q 0 7 8 q q e e q q q 8 0 q 0 q 8 8 q 7 M ( ) [ [ ] ] ] ] 3.[ 1.[ ] [ 1.[ [ q.) A k 5 ; 6 6 6 ; 6 e A 1.1.1.) ] 1.1.1.1.1.1.1.] ' 1.' ` 1.' 1.1.' ` :.' ' 1.' ' ' ` 1.` 1.1.1.1.) ~ n 5 9 6 0 0 0 a u y b y a u 0 0 0 0 0 0 0 0 0 0 0 q 6 7 a A -.2.:.>.:.1.;.:.1.2.1.1.3.1.1.3.1.1.1.3.1.1.[ [ [ 1.[ q.[ [ [ [ [ [ [ [ [ 3.[ [ [ _ ' ' ` ' Q p.f.D.<X>X<X>X,X>X>X>X<X>X,X>X>X>X<X>X>X<X<X,X>X<X>X>X<X<X<XS.d.$.W :.:.1.:.:.1.:.1.:.1.1.1.:.1.1.1.1.1.1.] :.;.;.1.1.;.H e 8 8 8 8 8 8 8 e e e 0 6 e 0 0 6 O K l.}.4X4X4X}.4X>X}.XX>X>X>X,X:X*X{.W.2XiXlXGXVXVXAXAXAXAXnXxX@X+X,X>X>X$X$X4X XF.,.' ' 1.:.' 1.3.,.' ' ] [ [ 3.1.[ ] / n q 7 q e a e 8 e e e 6 e 6 7 8 8 8 8 6 0 e e e e 8 e 8 t M ] 1.1.] 1.[ 1.] ] ] 1.1.1.' :.' :.,._ N t 7 7 8 8 e 8 e e U 0.0.0.[ 1.2.1.1.1.1.3.2.1.1.1.1.1.1.1.1.1.] 0.1.1.0.] 1.1.1.1.1.0.] ] [ 2.` H k 7 8 j j 8 8 e u 6 e 6 6 a 0 0 e 0 e e 0 0 0 0 0 y 6 5 b ^ -.1.:.:.:.3.d.3.1.3.2.3.2.>.1.:.,.3.1.[ [ 3.[ 3.3.[ ,.[ 3.[ [ 3.[ [ ' ' ] 1.3.' ,.3.[ ,.,.' ' d.S.{.1X,X>X<X>X>X>X>X<X<X>X>X>X>X<X>X>X>X>X<X>X>X<X<X>X<X<XS.<.:.+.W +.:.$.:.",
"1.2.3.2.2.3.1.2.3.3.,.,.` ` ` :.1.M 7 - - - & - @ 5 5 5 5 6 6 $ 7 0 9 O k <.].<X<X}.<X}.>X>X>X:X}.>X}.>X}.>X/.+XiXlXSXSXCXSXAXSXAXnXkXqX+X}.>X>X>X>XXX.XC.<.#.` 3.,.1.1.:.1.1.1.3.1.3.1.] 1.1.) N t 7 q 8 8 8 q 8 q 7 7 8 8 q 8 8 8 8 q 8 8 e 8 8 q q 7 5 j ( ] ] ] ' ] ' ] ' ] [ ] [ [ [ [ 1.q.;.U a 9 5 8 6 5 6 6 6 A 0.1.1.;.0.] 1.1.1.1.1.1.1.1.1.1.1.1.3.3.1.1.1.1.1.1.1.1.1.1.,.3.1.1.1.1.1.) ~ n 6 6 0 0 b 0 b 0 e b 0 9 0 0 0 0 0 0 0 6 0 0 0 0 0 7 0 b A ;.e.w.:.2.2.2.2.2.2.q.0.2.1.1.q.1.0.1.q.3.3.3.[ q.0.[ [ [ q.q.[ q.q.[ [ q.[ [ [ ' _ [ ' ' ' ` 3.M.D.<X1X,X,X>X,X,X,X,X>X,X>X>X>X<X<X>X<X,X>X<X<X<X<X>X<X<XD.d.,.W :.:.:.:.,.,.:.,.1.1.:.:.1.:.>.,.,.:.:.:.1.2.1.1.1.;.H r : : = - : - ; 5 ; ; ; 5 5 5 $ O . z l.{.4X4X4X}.$X}.}.}.}.2X:X:X*X*X=XQ.2X3XsXnXVXNXZXAXAXnXAXfX@X/.}.:X>X$X$X$X XS.<.' ,.' ' ,.,.[ ,.` ' 1.' 1.] ' ] [ _ n e 8 9 9 5 5 5 e q q 0 q e e e 8 8 8 e e 8 q q 9 e 8 8 8 M ) 1.0.] 1.] ] ] ] ] 1.1.` 1.` +.` ' ( H t 7 7 8 8 8 7 e j U 1.1.0.0.[ q.1.1.0.1.2.0.1.1.1.1.0.0.1.] 0.1.0.1.0.1.0.0.1.1.0.q.1.1.3.2.3.1.U M 6 8 a i 8 8 i 6 6 0 6 0 0 0 0 0 0 0 0 6 0 9 0 9 0 9 5 b ( 1.1.:.:.` >.2.3.>.3.2.2.3.3.1.1.3.3.1.3.3.3.3.3.3.[ ,.[ [ { [ [ [ 3.{ ,.' 3.[ ' ,.[ 3.,.3.,.' p.A.{.<X,X>X<X<X>X1X>X>X>X>X>X<X>X>X>X>X>X>X4X<X1X<X<X,X>XXXC.<.,.W W +.:.+.,.",
"3.4.,.,.,.<.,.3.,.,.>.,.:.#.,.:.:.D d = = : : : : > ; > ; > > 8 > 8 7 = z >.].<X}.<X}.>X>X>X+X2X/.(.(./.(.@X!.(.pXxXGXCXAXCXCXAXGXAXkXiX7X@X+X+X@X+X+X+XP.<.$.' >.>.,.,.1.,.3.' ' 3.3.1.] ) 1.) V j q 8 e e t 8 e j e e q e t 8 e t 8 t 8 t e e 8 t 8 8 8 M ( ` ' ` ` ] ] ' ] [ ] 3.] 3.1.1.1.1.` U j 7 8 i 8 u u 8 i C ) ) ] ) ) ] ] _ ) 1.1.1.1.` 1.' ] ' ' [ ` 1.:.` 1.` :.' ] ` ` ] ) ] ] ;.1.) ~ m 5 7 e 0 0 0 9 a 0 e 0 0 6 9 0 0 0 7 0 0 0 6 7 0 0 9 0 b ~ ;.2.0.2.1.1.1.1.1.0.1.2.1.1.1.1.1.1.1.[ 3.1.q.q.[ [ [ q.[ [ [ [ [ [ [ 3.[ q.[ [ ] _ [ [ ' ' ` p.M.G.,X,X,X.XXXXX,X.XXXXXXX.X.XXX.XXXXX,X>X,X<X1X>X,X>X1X<XS.j.y.W @.,.,.$.,.,.2.>.$.,.,.,.,.$.,.,.,.<.:.,.,.,.:.>.,.2.K g > > > > > > > > ; > > > > > 8 ; O v g.[.4X4X>X$X}.}.}.$X2X(.2X(.-X-X/./.;XiXlXAXNXVXVXkXZXAXAXxXwX7X(.(.(.@X@X+X$XS.$.#.$.,.,.<.,.,.,.' ` ' 1.' ' ` ' _ ( M t q q q 7 8 8 8 t q 8 e e e 8 t e t e e t e e y u r 8 t N ) ] [ 1.] ] ] ] ] ] ' 1.' ' ' ` ,.' _ J n 7 8 r e d 8 e j U 1.] [ 0.) ] 1.) ] 1.1.1.;.1.;.;.;.) ] ) ] ) ) ] ) ) 1.) 1.1.1.1.1.1.0.3.3.;.U M e 8 u 6 6 6 6 6 6 6 6 6 6 0 0 7 6 0 0 0 7 $ 0 9 0 0 9 n ^ ^ 1.1.-.' ] 1.1.1.1.1.:.,.2.1.1.1.1.1.1.d.3.3.3.3.3.3.3.3.,.[ [ p.[ 3.' 3.[ 3.3.3.3.[ [ ' ,.' d.A..X,X,X,X>X,X.X,X>X.X>X,X,X>X,XXX>XXX>X}.>X<X>X,X>X>X>X,XS.a.$.+.:.#.@.,.$.",
"d.s.d.s.d.s.s.a.d.s.s.a.s.s.f.f.s.o.P S S S D F F F F F F F F F F F F F E #.S.<X<X}.}.>X>X>X$X(.7X;X;XyX7XyXyXuXjXkXNXVXSXVXVXFXAXnXzXkXpXuXuXuXiXqXdX%XoXh.h.l.s.d.d.l.d.d.d.[ 1.,.3.,.1.) 1.) J N M M M M m m m m M M M n n n M n n n M n n M n n n n n V / ` ` ` ] [ ] ] ' ] 3.3.[ ' 1.1.1.' ( U N M k k M M k m N J ~ / / / ~ / ~ / / T / / T T R T / T T R R R T T T T T T T T R T / / / / ~ ~ V n 6 7 0 a e e a 0 0 0 0 0 0 9 0 0 0 0 0 0 0 0 e 0 0 0 9 a V ~ ) ^ ^ ^ ^ ^ ( ^ ( ( ( R ( R R ( ( _ ] 1.1.1.0.[ [ q.[ q.q.[ q.[ [ q.[ 3.[ 3.[ ] ' ] ' 3.' Q 3.M.Z.G.S.F.G.G.F.G.G.F.G.F.|.G.F.G.G.].{.{.>X<X1X>X,X1X>X<X{.v.g.a.a.a.a.a.s.s.a.a.s.s.a.s.g.a.s.a.a.a.a.a.a.a.<.l.d.a.W P F F F G F F F F F F F F F F F F F o.g.].4X4X4X>X}.}.}.2XiXyXyXyXuXyXyXuXuXjXlXzXVXVXVXVXAXAXAXkXjXwXuX7X8X7X7XwX%X[.j.h.a.g.s.g.s.j.d.p.,.' ' ' ' ' ] ] ) J M y M M n j n M M b M M n M M M M n M M M M M M M M M M J ] [ 1.[ [ [ [ ] ] ] ] 3.3.,.,.1.' ' ` Y N l l M l M j M V U / ^ ) ~ / ~ / / ^ ^ ^ ^ ^ ^ Y ^ / ( / ^ ^ / / ~ ( ^ ^ ( / ( ~ ( ( / ( ^ ^ ^ A m 6 8 u e 6 6 6 6 6 6 6 6 6 0 6 6 6 0 6 0 6 0 $ 0 0 e a n V ! ^ ( ( ( ( ( ( ( ( ( ( ( ( ( R _ ( ` ` [ q.3.3.3.3.3.3.3.3.3.{ [ 3.3.3.p.[ 3.3.[ 3.3.3.3.,.' ,.N.F.G.G.S.G.G.G.D.G.F.D.|.].].].D.].{.].}.>X<X<X<X>X{.>X>XS.j.d.a.g.s.s.a.p.",
"v.n.n.A.n.n.n.v.v.n.v.n.n.n.S.D.n.j.a.y.y.y.y.y.y.y.a.a.y.y.y.a.a.g.a.y.a.j..X<XXX<X>X>X>X}.3XiXuX9XjXjXjXrXkXjXkXzXzXVXVXVXVXVXVXVXzXzXkXrXkXkXkXkXxXfX@XE.R.C.A.D.S.S.S.V.m.[ ` 3.,.3.] ` 1.` / ~ / ~ ~ / / ^ / T ~ ~ ~ / ~ T T T ~ ~ T ~ U T T ~ T ~ ~ / ] 1._ ' [ [ 3.[ [ 3.3.3.3.3.,.3.1.1.( ( R Y U U U Y U U T J n M M V N M N N M M H M M M M M M M M z M M M M z M M M M M M M M M M N m n k a 5 7 e 0 e e 0 0 u 0 0 $ 0 6 0 0 0 0 0 0 0 0 0 0 0 0 e e n B B B B B V V B V N N C N m M M M M J / ] 1.[ [ [ 0.[ [ [ [ [ [ [ [ [ [ q.q.[ [ 3.] ' 3.[ ' ` ,.p.m.M.V.m.M.M.N.N.N.N.N.l.N.x.l.x.x.j.c.D.,X<X1X1X1X>X,X>X{.b.v.v.v.v.v.b.v.n.b.n.v.v.n.k.n.v.n.v.v.v.v.v.v.v.n.n.n.v.j.s.a.a.y.<.a.g.$.g.g.&.8.a.g.&.&.g.$.g.k.{.4X4X>X2X4X}.2X@XpXkXkXkXkXkXkXkXkXzXNXVXVXVXAXVXAXVXAXNXNXkXkXkXrXtXkXpXhX3XT.T.k.v.b.v.b.S.v.f.>._ :.1.] ' [ 3.] / ! ! ! ~ ~ ! ~ ! ! ! ~ ! / ! ~ ! ~ T ~ ! ~ ~ ! ~ ! ~ ~ ~ / ] [ q.0.[ [ [ ] 1.1.] 3.3.3.3.,.3.1.1._ T U T T T T T T T U M V B B N V m V B V N B B B B m m m m V M m N m m N N m m m m m M m n V V B M k 6 6 6 8 8 6 6 6 6 6 6 6 6 0 6 e 6 6 0 7 6 0 0 6 0 e a b n m m V V V B B B V N m N N N H N M K Y ` 3.3.3.3.3.3.3.,.,.[ 3.,.3.3.[ 3.3.[ 3.[ 3.3.3.[ ' ' ,.<.m.M.N.M.V.x.l.N.N.x.N.x.x.x.x.x.x.l.j.n.].,X<X<X,X>X>X>X>X{.{.D.n.n.n.n.v.c.",
"<X>X<X<X<X<X<X<X,X<X<X<X<X<X<X,X<X<X,X,X,X<X,X<X>X>X,X<X>X>X>X<X<X,X,X,X>X,X<X<X<X}.>X}.>X>X3XhXMXVXzXGXGXzXVXVXnXVXAXVXSXVXVXFXAXAXAXVXVXAXVXAXAXAXnXvXhX@X+X}.,X,X,XXXXX|.Z.d.,.,.3.3.1.1.1.1.1.q.0.q.1.0.1.1.1.0.1.0.1.1.0.q.1.0.0.2.1.0.1.0.1.0.1.0.1.0.2.3.3.3.p.3.3.3.3.3.3.3.3.3.3.3.3.3.2.1.2.1.1.1.1.2.2.1.) N q 7 5 5 7 7 7 7 7 7 7 7 7 7 > : 7 : 7 7 7 : 7 : 7 : 8 : 7 : 7 > 7 7 7 7 7 7 7 6 7 e e e e 0 0 b 0 0 0 0 0 0 0 0 0 0 0 0 0 e 0 0 e 0 e e e e y e y e e e e q e 8 6 6 - - 5 7 8 M T ] 1.q.0.[ [ 0.q.[ [ [ [ q.[ [ [ 1.3.[ [ 3.] 3.,.' ' ,.' ,.[ 3.,.,.,.,.:.` [ ' +.:.:.:.' :.Q #.y.v.>X<X:X1X1X>X>X,X:X,X:X,X>X>X>X<X<X<X<X>X<X<X<X,X1X>X,X1X<X,X1X>X1X,X<X<X,X,X<X<X>X,X>XXXXX<X4XXX}.XXXX$X$XXX}.XX$X<X}.4X4X4X4X>X4X4X4XiXvXVXFXzXFXVXVXFXVXFXGXSXFXHXAXSXCXSXSXAXVXCXVXAXAXAXAXnXMXhX5X2X}.>X>X,X,X<XG.V.,.W 1.1.3.,.3.3.[ 3.q.[ 0.[ [ 0.1.] 3.] q.[ ] q.0.[ 0.[ [ 0.] 0.0.0.0.0.1.1.0.q.[ 3.3.q.[ q.3.3.3.q.3.3.3.3.3.3.1.1.1.1.1.3.q.2.1.1.1.` H w 8 8 q q 7 0 7 0 0 7 6 7 7 7 8 8 7 0 7 8 7 8 7 > 9 7 7 7 7 7 7 > 7 8 7 0 7 5 6 5 ; 6 6 6 6 6 6 6 0 0 6 e 6 e 6 6 6 0 6 0 0 6 9 0 e 6 e e q e q e e q q q 8 8 5 8 7 7 7 : > 8 V ( 1.1.3.[ 1.1.3.3.3.[ 3.[ ' 3.[ 3.3.3.3.3.[ 3.' 3.[ ,.` ` ` 1.,.,.#.` ,.+.:.:.+.#.:.o.#.+.+.o.#.s.S.>X<X<X<X<X<X>X>X,X>X,X,X,X>XXX>X,X",
"<X<X<X,X<X<X<X>X<X1X,X<X<X<X<X1X<X<X1X<X<X<X<X<X<X<X<X<X,X<X<X<X<X<X<X<X<X<X<X<X<X>X}.<X}.$X;XlXnXMXVXMXVXVXzXVXFXVXSXSXVXVXVXNXSXVXVXAXVXVXVXVXAXAXMXMXvX5X+X<X,X<X<X<X,X.XA.d.,.,.,.3.1.] 1.1.3.3.1.1.1.3.1.:.1.2.2.3.1.0.2.2.1.1.1.q.1.1.1.1.q.2.2.1.1.1.1.1.3.3.[ 3.3.3.3.3.3.3.3.1.3.3.3.3.,.1.1.2.2.1.2.1.2.1.] H 7 7 7 5 7 7 7 7 7 7 7 8 7 7 7 7 8 : 7 : 7 7 > 7 7 : 7 7 : 7 7 7 7 7 7 7 8 5 7 0 0 0 a e e 0 0 e 0 0 6 0 0 0 0 0 0 0 6 0 0 0 0 0 0 0 0 0 0 0 q e e e 7 e 0 0 e e 6 5 ; 5 5 7 8 n J [ [ [ [ [ [ [ [ [ [ ] [ [ [ [ [ 3.[ ] 3.] [ ' ' 1.' ' ,.' ,.' :.Q ` ` W :.' ' ` ` ` ] :.` Q #.y.v.,X,X,X1X:X>X1X:X>X,X>X>X>X,X>X>X<X,X>X>X<X,X<X>X>X>X<X>X,X<X<X>X>X>X>X<X<X<X<X,X<X,X<X,XXX4X}.XX}.4X}.4XXX4X}.4X}.2X}.4X4X2X4X>X2X>X>X3XmXVXzXFXVXVXFXVXFXVXFXSXVXVXSXVXCXVXCXVXCXNXAXCXBXAXAXnXmXhXiX2X1X>X>X1X:X<X{.v.,.W :.3.3.3.3.3.3.3.3.q.3.q.3.3.q.3.q.3.q.0.q.] 1.q.3.q.[ q.q.3.3.1.3.3.3.3.3.3.3.3.3.3.3.3.3.3.3.3.3.3.3.3.3.3.2.1.3.1.1.>.d.3.2.2.2.] N 7 q q q q 0 0 9 9 0 9 6 0 0 0 0 7 7 0 7 7 8 7 8 7 7 9 8 7 8 8 7 7 7 7 6 7 6 6 6 6 8 6 5 6 6 6 6 e 6 6 6 0 0 6 u e 0 0 0 0 0 0 0 0 e e e e e q 0 7 6 7 q 8 7 5 8 7 7 5 7 7 7 r M ( 1.3.1.1.' 1.3.[ ,.3.3.3.3.1.3.3.[ 3.[ 3.3.3.3.3.[ 3.,.:.,.' ,.' ` ,.:.,.:.+.:.@.+.,.,.#.,.$.#.a.c.XX,X<X<X<X<X1X<X,X<X<X<X<X<X,X<X>X",
"<X>X>X,X,X>X>X1X:X>X>X,X>X>X>X,X>X>X,X>X>X>X>X>X>X<X>X>X>X>X,X>X>X>X>X>X>X<X<X<X>X>X>X>X>X=X3XhXVXGXVXzXzXVXVXVXVXVXVXVXVXNXFXNXVXVXVXVXVXVXVXVXzXzXzXzXhX@X%X>X<X<X<X<X<X.XF.s.W ,.3.,.3.3.1.,.,.1.1.1.1.' 1.1.:.1.2.1.1.1.1.:.1.1.1.:.1.:.:.:.1.1.1.:.:.:.:.1.3.[ ' [ ' ' [ ' [ 3.3.,.1.,.3.3.1.1.1.1.1.1.1.2.2.-.:.m 8 8 q q q 8 q q t q e 8 8 8 8 e 8 8 8 8 8 8 8 8 e e e 8 e 8 8 8 8 8 8 8 e 8 7 0 0 e e a 0 0 0 a 0 0 9 0 0 0 0 0 0 0 0 0 0 0 0 0 e 0 0 0 0 0 e e 0 q 0 q 0 0 0 e 0 6 5 6 u e 8 M ~ [ 0.[ 1.] [ ] [ ] [ [ [ [ [ [ [ [ [ [ ] [ ' ' ' ] ' Q ' Q ' ' ` ` ' ' ' ' 1.' 1.] ] 1.1.1.:.:.t.v.,X1X:X:X1X1X1X>X>X1X:X1X>X>X:X:X*X>X,X,X}.:X}.}.:X}.:X:X:X:X:X:X:X:X:X:X:X:X:X:X:X:X}.}.}.}.}.}.}.}.}.}.}.}.}.}.}.}.}.4X4X1X}.}.>X}./.;XxXVXFXVXVXFXVXFXzXFXVXVXVXVXVXVXCXVXCXVXVXCXCXVXVXCXFXMXmXhX3X;X-X>X>X1X=X1XD.V.,.W Q ,.3.3.3.p.3.3.3.3.3.3.3.3.3.3.3.3.3.,.[ 1.1.1.1.1.' 1.1.1.1.1.1.1.1.,.1.1.,.1.1.1.[ ,.[ 3.,.' 1.1.1.' 1.,.,.1.` :.:.:.3.3.,.2.,.` N 5 q q y 9 e y y 0 0 9 0 0 0 u y 0 0 0 0 0 e 8 8 8 8 8 e e 8 8 8 8 e e 8 e e 8 i 6 8 8 6 u 8 6 6 6 u 6 6 6 6 u 6 e 6 e 6 a 6 0 0 0 a 0 0 0 0 7 0 8 e 8 6 0 7 0 6 6 8 8 7 e 8 i m T 1.1.1.1.' 1.1.1.1.1.[ ,.[ 1.1.1.1.,.1.3.1.3.1.3.3.3.,.,.,.1.3.>.1.:.:.>.2.,.,.,.,.,.,.,.,.#.$.a.V.,X,X<X<X<X>X1X1X>X1X>X>X>X>X>X1X>X",
">X,X:X>X>X>X>X:X>X>X1X:X>X>X>X>X>X1X:X>X>X>X>X>X>X>X>X>X>X>X>X>X>X>X>X>X>X>X>X>X>X>X{.}.}.:X3XlXzXzXzXVXVXzXVXVXzXVXFXkXVXVXNXFXVXVXNXVXVXVXVXVXVXVXzXMXlX@X+X>X>X>X<X>X<X|.F.3.W ,.,.3.3.,.' 3.1.1.,.3.,.1.:.1.1.1.1.1.:.:.2.1.1.2.1.1.,.1.:.1.1.:.:.2.,.1.1.1.3.[ 3.3.3.3.3.,.3.' 3.3.,.3.2.,.,.,.2.>.2.1.>.:.>.:.1.H e t q q q q q q e q e e e e e e e e e e 8 8 e q e e e 8 e 8 8 8 8 8 8 8 8 8 7 0 0 b e 0 0 y 0 0 0 0 0 6 0 e 0 0 0 0 e 0 0 0 0 0 0 0 0 0 0 q 0 q q e e q 0 0 e e 6 6 6 6 8 e d M ~ [ [ [ ] [ ] ] ] ] ] ] [ [ ) [ [ ) ) [ ' ] ' ] ` ' ' ` Q ' ' Q Q ` ` ` ' ' ` ] ] ] ] ] ' ] ' ,.y.v.,X:X:X:X,X>X:X>X1X:X>X>X,X*X:X>X>X>X:X:X:X:X:X>X=X:X:X*X>X:X:X:X:X>X:X:X>X:X:X>X>X:X>X>X,X>X}.}.+X>X}.}.$X}.>X}.}.}.}.4X2X1X2X>X>X+X}.3XlXFXFXGXFXFXFXFXFXFXVXVXVXVXNXCXNXVXCXNXVXVXVXVXVXVXVXMXMXbX3X-X=X-X=X>X=X1X{.D.p.W ,.3.3.,.3.3.,.3.3.3.3.>.3.>.3.[ 1.,.1.1.1.1.1.1.,.:.` 1.` 1.:.:.1.` ,.` ' ' ' 1.` 1.' ,.1.[ :.` ' 1.` 1.' ,.' 1.` +.:.:.,.1.:.>.,.` N 9 9 q 9 y 9 9 0 9 0 y 0 y y y 0 0 9 0 0 0 e e 5 8 6 8 7 e 6 8 8 6 6 6 8 e 5 e 6 6 6 6 6 ; e 6 6 e e e 6 e e e 6 6 0 0 6 6 6 5 6 6 6 7 6 e 0 0 e 0 0 7 9 7 6 7 0 7 e 5 6 5 7 8 m Y 1.0.1.1.1.' 1.' 1.1.1.1.1.1.1.1.1.3.1.1.1.1.,.1.3.,.1.1.' ' ' ] :.:.:.:.:.,.:.+.:.@.,.+.,.` $.s.S.<X<X<X<X>X<X>X<X>X>X>X>X1X>X>X>X1X",
">X>X1X>X>X>X>X>X>X>X>X>X>X>X>X:X>X>X>X>X1X>X>X>X>X>X>X>X>X>X>X>X>X>X:X1X,X>X<X,X>X>X}.>X>X}.3XsXFXzXVXFXVXVXzXVX9XFXVXkXNXNXNXNXNXNXVXNXVXNXNXVXVXVXMXMXfX(.+X}.,X,X}.}.<X.XA.d.' :.,.,.,.1.1.,.1.1.,.1.1.1.1.1.:.:.:.:.1.2.1.:.1.:.:.2.1.1.1.1.1.1.1.1.1.1.1.1.1.] ,.3.3.,.3.,.3.3.3.3.,.3.,.1.2.3.2.2.1.2.>.1.:.,.] J t q q q q y e e q q e e e e e 7 e e e 8 e q e 8 7 0 6 e e e e q e e e e q 0 0 0 e e 0 0 0 0 0 0 0 0 u $ 0 0 u e 0 0 0 0 0 0 e 0 u 0 e 0 0 0 e 0 0 0 0 0 0 0 e 0 0 7 6 6 e e e M J [ [ ] ] ] ] ] ] ] ] ] ) [ ) ) [ [ [ [ ] ] ' _ ` ' ` ' ` ` Q ` ` ` ' ` _ ' ' [ ` ] ] ] ] ] ` 1.s.v.<X,X:X:X:X:X1X1X1X:X>X:X>X>X=X:X:X>X>X>X>X=X>X:X:X:X>X>X:X:X>X>X*X:X>X*X*X:X:X:X:X>X:X>X}.:X>X}.>X+X}.}.>X>X2X}.+X=X}.2X4X2X2X>X>X}.-X;XlXVXFXFXFXFXFXFXFXFXFXFXVXFXVXVXCXVXVXVXVXCXNXCXVXVXVXMXmXhX-X/.-X=X1X=X:X1X:XA.,.Q ,.,.3.3.3.3.3.,.3.3.3.3.3.3.2.,.3.3.' 1.] ,.' ' 1.' :.' :.` ` :.` :.' :.:.` :.' ,.' :.` ' ` 1.:.:.` :.` :.` :.:.:.` +.:.1.+.:.:.' ( N 7 q 9 9 y 9 9 0 y u $ 0 0 0 $ 0 0 0 7 0 7 7 6 6 6 6 6 7 6 6 6 6 8 7 6 6 6 6 6 5 6 6 6 6 6 6 6 6 e 6 6 e 6 6 6 e 6 6 6 6 6 6 9 6 $ 5 6 7 0 6 7 6 9 7 7 0 6 0 7 7 0 5 6 8 5 8 i M T 1.1.1.1.` 1.1.1.1.` ' 1.,.] 1.1.[ 1.1.1.,.] 1.1.] 1.` ` ` :.' ' ` :.) :.` :.W ` +.` W :.+.W $.d.S.>X<X<X<X>X<X>X1X1X:X1X>X1X<X<X>X:X",
">X>X>X>X>X>X,X>X:X>X>X>X>X>X>X1X>X>X>X>X>X:X>X>X,X>X:X1X>X>X1X:X>X>X>X>X>X>X>X<X<X,X>X>X:X/.3XlXzXzXzXzXVXVXzXNXFXNXNXFXNXVXFXNXFXBXNXVXVXVXNXVXzXVXzXMXfX(./.}.:X}.}.>X<X.XS.d.,.' ` ' ] ] [ ] :.' ' 1.1.:.:.:.:.2.:.:.2.:.-.:.:.:.2.:.:.:.:.:.:.:.:.:.:.:.1.` ' ' ' ' 1.' 1.[ ' [ 3.,.1.,.1.1.3.1.1.2.1.:.:.:.>.>.:.V t b q e e q e e e e e q e 7 e e 6 8 e e e e 8 e 8 e e e e e e e e 6 8 e e 0 0 0 e y u 9 0 b e 0 0 0 9 6 e 0 6 0 0 e 0 0 e u 0 0 e 0 0 0 0 0 6 0 0 0 0 0 q 0 0 e u 0 6 6 8 e e M ~ [ [ [ ] ] _ ] [ _ ] ] [ [ [ [ [ _ [ ) ] _ ' [ _ ' ` ` ' Q ` ` Q Q ' ' ' [ _ [ ] ] ] ] ] ` ' ,.a.v.,X,X1X:X1X:X:X1X1X:X1X:X>X>X>X>X:X:X:X=X:X>X:X=X>X>X=X1X:X:X>X:X>X:X:X>X>X>X>X>X>X>X>X>X>X>X>X}.>X}.2X>X2X}.}.>X>X}.>X2X4X4X2X>X}.2X>X;XlXzXzXCXVXFXFXFXzXFXVXNXVXNXNXNXNXVXNXVXVXVXBXVXVXNXVXzXMXaX/.Q.Q.=X=X=X1X1X{.x.,.Q ' ,.3.3.3.3.3.3.3.3.3.3.3.3.3.3.1.,.,.1.3.1.1.1.1.,.` 1.' :.1.` ,.` 1.` :.1.1.1.1.' ` 1.1.' 1.` ` 1.' ,.` ,.` ` ` :.` :.,.:.:.,.:.` H q y e 9 e 0 y 0 0 y y y $ y u $ 0 9 0 0 0 6 6 6 7 6 8 6 6 8 6 6 6 6 6 6 7 6 6 6 6 6 6 6 6 6 e 6 u 6 e u 6 6 e u 6 0 0 6 6 6 6 6 9 $ 6 6 7 6 6 6 6 0 6 6 6 6 6 6 0 e 6 6 6 8 8 M T 1.1.1.3.1.' ' 1.] 1.' 1.' ] ' ` ` ' ` ] ' ] ] ` ' ] ` 1.] ` ` ] ` ` :.` :.` :.:.W :.:.:.W :.#.l.S.,X<X<X<X<X>X>X>X>X>X>X>X>X<X>X>X>X",
":X:X>X>X>X>X>X>X:X1X:X>X>X>X>X>X:X>X>X>X:X>X>X>X>X>X>X>X>X:X:X1X>X>X>X>X>X>X<X>X<X>X>X,X>XQ.3XvXVXFXVXVXVXVXVXVXFXFXSXVXCXCXCXCXFXNXCXCXCXVXCXVXVXVXnXnXhX@X+X2X:X}.:X>X<X.XZ.p.' ,.' [ ' ' ' ` 1.` ` 1.:.:.:.` -.:.-.:.:.:.-.` -.:.:.:.-.:.` :.2.:.` :.' :.' ' ` ] ' ' 1.1.' ] ] 3.,.' 1.1.1.1.1.:.1.:.1.:.1.1.,.,.:.H q t e e y 9 e 9 8 0 0 e e 6 e 6 e 6 6 6 e e e 6 6 e 6 6 6 6 6 e 6 6 8 6 6 e e 0 a 0 0 b 0 b 0 0 7 0 0 0 0 0 0 0 0 0 e e 0 0 e u 0 0 0 0 e 0 0 0 0 0 0 0 0 0 0 e a 0 6 6 6 5 8 M T 1.[ [ [ [ [ [ [ _ [ [ [ [ [ [ [ [ [ [ [ [ [ [ ' [ ' ' ' ' ' ' ' ' ' ' [ [ [ [ [ [ 1.[ 1.] [ 3.s.v.:X,X:X1X:X:X:X1X1X:X>X>X>X:X=X=X>X=X:X1X>X:X>X>X>X>X:X1X:X:X=X1X=X:X>X:X=X1X=X>X>X>X>X>X>X>X>X>X}.>X}.>X}.>X>X2X>X>X>X>X2X4X>X>X>X=X2X;XlXVXVXVXSXSXFXSXCXSXFXFXVXVXSXVXCXVXCXCXAXBXVXVXVXSXAXAXmXhX/./.=X-X>X>X>X1XD.x.' I ` ,.1.,.3.,.[ 3.,.3.1.,.3.,.[ 1.3.1.' 1.1.1.:.1.' ` ] ` ' ' :.:.` ` ' ' ` 1.' 1.1.' 1.1.1.' ' 1.1.' 1.` 1.1.` ` :.:.` :.:.,.1.>.:.` N e q y 8 e 0 9 0 9 y $ $ u y 0 0 0 0 0 6 6 0 6 6 0 6 6 6 e 6 6 e 6 6 0 0 7 6 e 6 6 6 e 6 6 6 6 6 6 6 6 e 6 e e 6 e 6 e u 8 0 7 6 6 6 6 6 6 6 9 6 6 6 6 7 6 0 6 6 0 6 e 6 e 8 t m T ] 1.3.[ 1.[ 1.3.1.1.1.] 1.1.` ] 1.' 1.' 1.:.1.] ] ] ] [ 1.) 1.1.1.1.1.1.1.] 1.] 1.:.:.:.:.+.,.l.S.,X<X<X<X>X<X1X>X>X>X1X>X>X>X1X>X1X",
"<X1X>X,X,X,X>X,X>X>X1X>X>X>X>X>X:X1X>X>X>X>X>X>X>X>X>X>X>X>X>X>X>X>X>X>X>X>X<X>X>X,X:X:X:X+X3XvXMXzXMXGXGXMXGXGXzXFXGXAXGXGXGXSXFXFXGXAXGXGXGXSXGXGXMXvXhX@X4X4X:X}.}.2X<X{.c.<.E W ` #.` ` ` ` ` W +.W R :.+.:.+.:.+.:.:.` +.:.+.:.:.+.+.` ` #.:.W ,.W :.W +.` W ` W ,.:.:.#.' ' ` ' W W ` :.+.+.+.X.:.+.+.X.:.X.W R V e q y e e 9 e e q e q q e 7 q 8 8 6 e 6 6 6 6 6 u 6 e 6 6 e 6 e e u e e 6 a 0 e 0 0 e 0 0 0 0 0 0 0 6 0 0 0 e 0 0 0 u 0 0 0 0 0 0 e 0 0 0 0 0 0 0 e 0 0 0 0 0 e 0 a 6 6 6 e a M / 1.q.2.q.[ q.[ 3.q.[ q.[ 0.[ [ [ [ [ [ 3.3.3.q.3.3.3.3.,.3.3.,.[ [ 3.[ 3.[ 3.3.q.3.q.3.3.0.[ p.p.j.,X,X:X1X1X*X:X1X:X1X1X:X1X:X1X:X>X>X:X>X>X>X>X>X>X>X>X,X:X>X:X:X:X=X:X:X:X*X>X>X:X>X}.>X>X>X>X2X>X2X2X}.>X2X>X}.-X>X-X2X1X2X2X>X2X>X}.@XvXGXGXGXGXAXGXGXGXAXzXFXFXzXAXZXAXGXGXGXAXAXAXGXGXGXAXnXmXgX3X2X2X>X=X=X=X1XW.j.#.I W ` +.:.' +.+.` W ,.` +.,.+.+.` W :.:.W W W W ` W +.W :.` W W ` ` +.` ` W ` ` :.' ' ` W W :.` ' W ,.:.W ' ' +.,.,.,.W :.W W W ,.:.R N 8 q y q e 0 0 0 y 0 y 0 0 0 0 0 u 0 u 0 0 6 0 6 0 6 e 6 6 e 6 6 6 e 6 0 8 6 6 e 6 6 6 6 e u 6 e e u e 6 6 u 6 6 6 u 6 0 6 6 0 6 6 6 6 0 6 6 5 6 6 6 6 0 6 6 6 6 6 6 6 6 7 7 e m Y 1.3.3.2.2.3.3.3.1.1.1.1.1.1.1.1.1.1.1.1.1.1.1.1.1.0.1.[ 1.1.1.1.0.0.0.1.1.1.0.] 1.1.1.:.1.1.,.a.C.XX<X<X<X>X>X>X>X1X>X>X1X>X>X>X>X>X",
"v.v.S.S.D.S.D.{.:X>X:X:X:X>X>X:X:X>X>X>X>X>X:X>X>X>X:X>X>X>X>X>X>X:X:X:X,X>X>X>X>X>X>X}.}.}.+XoX+XoX`.oXoX~.OX`.!.!.!.~.^.'.'.`.!.Y.OX`.'.`.`.'.#X'.`.`. X+X$X4X1X>X>X}.>X{.S.j.a.s.s.d.f.d.a.d.d.d.l.s.l.l.g.l.s.l.d.l.d.j.l.d.l.d.l.s.l.d.l.l.a.l.d.l.d.d.j.f.d.f.d.g.l.g.f.d.s.s.d.f.d.d.f.s.g.s.d.l.s.l.l.d.g.a.d.K 8 y q e 0 e e q 0 e e 0 q e e 6 e e 6 6 e u e 6 e e 6 e 6 u 8 6 6 6 e u 0 a 6 e u y 0 a 0 0 0 0 0 0 6 6 e 0 0 0 0 0 0 0 0 e e 0 0 0 0 0 0 0 0 u 0 0 0 0 0 0 0 a a 0 0 6 5 6 6 j m ~ / / / ! / / ~ ~ ~ / ) ! ! _ / ! ) ! / T / T / T T T T T T T T T / T T / T ! / ~ / / / / U T W s.:X,X1X1X=X:X*X:X:X:X1X:X=X>X>X:X>X>X}.R.n.S.S.n.D.v.n.b.D.:X1X*X:X1X:X=X:X:X:X:X:X>X>X:X>X:X}.>X}.}.}.}.}.Q.}.}.}.>X>X2X4X>X>X2X}.>X+X+XoXY.^.~.`.`.^.`.`.`.'.`./.~.U.'.'.'.`.`.'.'.'.'.'.'.'.`.oX+X2X2X>XQ.=X=X:X>X{.n.j.a.a.g.l.s.l.s.d.l.l.d.l.l.l.d.d.l.d.l.j.d.l.d.f.d.l.l.l.d.l.l.l.l.l.l.j.f.d.f.l.f.f.d.f.f.d.j.f.f.f.f.f.d.f.f.d.f.j.l.f.d.d.l.d.l.d.a.K 8 e e e e 0 y 0 0 0 0 y y u $ u 0 0 0 u 0 0 6 u 6 6 e 6 e 6 6 e 6 6 6 6 u 6 e 6 6 6 e 6 e e e u 6 e 6 e 6 6 6 e u e e 6 0 6 6 6 6 7 6 6 0 6 6 6 6 6 0 6 0 6 6 6 0 e 6 8 6 7 a M A U ~ ~ ~ / R / / T T ~ T T T T T U T T ~ T T ^ U T T ^ ~ ~ ~ ~ ~ ! ~ ~ ~ ~ ~ ~ ~ ^ ^ T Y T T T $.V.XX<X,X<X<X1X=X1X=X1X=X=X1X>X:X>X1X",
",.p.a.f.d.f.j.S.{.>X>X:X>X:XQ.:X>X>X:X*X>X:X:X:X*X>X:X:X*X:X>X*X}.:X}.:X>X,X>X>X>X>X:X>X>X:X].<.X.X.X...X.X.....G O............. ...........-.....-...>.9. XXX4X>X>X:X}.:X,X{.{.S.{.S.{.S.S.S.S.D.b.].S.].].].].].].S.].].S.{.D.].].].].S.].D.S.].S.D.D.].S.S.D.D.D.D.D.].D.].D.{.S.{.S.{.S.D.D.].].].].S.{.].].].].Z._ t e q e e q 0 e 0 q q 0 e 0 q 8 6 e e e 6 6 6 e 6 6 6 u e 6 6 6 e 6 e e 0 0 0 u e e 0 e y 0 0 0 6 0 9 0 0 0 0 0 0 e 0 0 0 0 0 0 0 0 0 e 0 0 e e 0 0 0 0 0 0 0 6 0 0 6 $ 5 5 6 u j n n n b b n M M n M n b B n n B n n B n n n j M l l j l l l j l n l l j M l l n n n l n M t D P p.{.>X:X1X1X*X:X:X*X:X:X:X>X=X=X>X>X>X{.j.s.d.s.s.s.s.a.s.D.{.1X:X:X:X:X:X:X:X:X:X:X=X}.}.}.Q.}.}.}.}.}.}.}.}.}.Q.>XQ.>X>X4X2X2X>X>XQ.}.].&.@...............X.......o.-.5.| ..-.X...-.-.....X.....@.h.XX[.Q.W.W.=X>X>X>X:X{.n.R.{.S.R.{.].S.{.].].].].{.].S.{.D.].|.].].{.{.].].].].].].].].].].].].].].].].D.D.D.G.D.D.G.D.D.|.D.G.].D.G.].G.].D.].D.].D.].|.D.C.T 8 e e 9 0 9 0 0 e 0 u $ u y 0 0 0 0 0 0 0 0 6 0 6 e u 6 6 e 6 6 e u 6 6 e 6 6 u e u e 6 6 6 6 e 6 6 6 e u e 6 6 6 6 6 6 7 6 6 6 6 6 6 6 $ 6 6 6 6 6 6 6 e u 0 6 6 6 6 6 6 6 e a n M n k M M B M M k M n k n n z l M k M n n k M M M n n n M n m m B b B m m m m M m n m n M M z W j.<X<X<X>X>X>X1X>X>X:X>X>X>X>X1X>X>X",
"` ` ' 1.,.Q d.x.].>X:X:X>X>X>X>X>X>X>X>X>X>X:X>X>X>X>X>X>X>X,X>X>X>X>X>X>X,X>X1X,X>X>X>X=X>XC.L n e e j j e i a i a a a u a a i i a a i a a a a b a i z X.|.XX<X>X>X>X>X>X}.}.>X}.>X>X}.XX>X{.>X}.}.{.>X>X,X>X,X}.>X,X}.>X>X}.>X}.}.,X,X}.,X,X>X,X,X>X>X,X,X>X,X,X,X,X>X}.}.,X>X>X,X>X>X,X,X:X,X,X}.>X}.:X}.}.>XXX.X|.>.e 8 e e e e e e 0 e 0 q e 6 q e 6 6 6 6 e u 0 6 6 6 6 0 e u e 6 u 6 6 e 6 0 0 e 0 0 0 0 0 0 6 0 0 0 0 0 0 0 e 0 0 0 u 0 e 0 0 0 0 0 0 0 0 0 0 0 0 0 0 0 0 0 e 6 7 0 6 6 6 6 6 e 8 u e u 6 6 e u 6 a a 0 y 0 0 e 0 u e 0 u e u e e u 8 8 8 i 8 6 i 6 i e 8 e 8 8 e e e 8 8 7 8 r D <.,X,X1X1X1X:X:X:X:X:X:X:X>X>X>X>X>X1XW.a.,.,.,.,.,.,.Q a.v.D.,X:X:X>X>X>X:X>X>X>X>X:X>X>X}.>X>X}.>X}.}.}.>X}.2X}.2X>X>X>X2X1X>X>X>X}.}.P.L z k k a a a a a a a a a a a a b a a b a a u b a a a k k @. X$X4X=XQ.:X{.=X:X1X>X=X}.Q.}.{.}.{.[.}.{.}.{.{.{.{.{.XX}.XX}.XX}.XX}.}.XX}..X}.}.}.}.XX}. X}.<X}.XX,X,X,X>X:X,X,X,X,X,X:X,X,X,X,X,X,X,X,X,X,X,X.X{..X,XXXF.R > 8 e q e 0 0 u u 0 u e 0 6 a u 0 0 e a e 6 a a e e e e e 0 a 6 6 0 a e u e e e e e u e 6 e 6 6 6 e 6 6 6 6 e 6 e 6 e 6 7 6 6 6 6 6 6 6 7 e 6 6 e 0 u e 6 6 e u 6 6 e 6 8 6 e i 6 u 8 7 e a i i e 8 i e e e u 8 e 0 e e e 8 e e 8 e e 8 u 8 e 0 e 0 a 0 0 y 0 0 e 0 e e 0 q e g I d.XX<X<X<X<X>X1X>X1X=X1X=X>X>X1X=X>X",
"W Q W Q Q W ,.x.D.>XQ.{.>X:X>X>X>X>X:X:X>X>X>X>X>X>X>X>X>X>X>X>X:X1X>X1X>X>X<X>X>X>X>X>X>X}.c.F 7 X & * - O O O O @ O O O @ @ O @ @ @ O @ + + O o o * = K F.XX<X>X>X>X>X:X>X:X>X<X<X>X1X<X<X<X<X1X1X<X<X>X1X1X<X<X<X<X>X<X4X<X<X<X>X1X1X<X<X>X<X<X<X<X<X>X<X<X<X>X<X<X<X<X<X1X<X<X<X<X<X>X<X>X>X1X>X<X<X4X<X<X<X<X<X.X,.r e q e q 8 e e e e e e 0 e 6 e 0 6 e 0 6 e 6 6 0 6 a 6 6 6 6 6 e 0 6 e 0 0 a e a 0 a a 0 0 0 0 0 7 0 0 6 0 0 0 0 0 0 0 0 0 0 0 u e 0 e 0 0 e 0 0 0 0 e 0 0 0 u 0 7 6 6 6 6 6 e e 6 e 6 6 9 6 7 5 $ 5 $ 7 9 5 5 5 5 5 5 5 5 5 5 ; 5 5 ; 5 ; ; ; ; 5 5 5 ; 5 5 ; 5 5 ; 5 7 5 : : S ,.XX<X:X*X1X*X:X:X*X*X=X>X=X>X>X>X>X>XW.t.W W Q Q Q Q Q ,.x.D.>X:X>X:X>X>X:X>X>X>X>X>X>X2X>X>X>X2X>X2X>X2X>X2X>X>X>X>X>X2X2X>X2X>X2X>X>Xc.z > ; - @ ; - - + + # @ + * $ + $ + + - # @ @ $ - @ @ @ 1 I |.4X4X>X=X:X=XQ.>X>X1X>X>X>X>X>X2X>X>X>X>X<X>X>X>X>X2X>X}.<X<X>X>X4X<X4X<X<X4X4X4X4X4X4X4X4X<X4X4X<X<X<X<X<X<X1X>X<X,X,X1X,X,X<X1X<X>X1X<X<X<X>X>X}.>X<X,X|.W 8 8 q b e a e e e e 0 a u u e e a a 0 u e 0 e 6 e e u u e 6 a e a 0 0 e e e e u e e e e 6 e 6 6 e u e 6 e 6 u 0 6 u 6 0 u 0 0 0 6 0 0 0 u 0 6 0 6 0 6 6 e 6 6 6 e 6 e e e 8 6 6 6 6 5 ; 5 7 5 5 ; 5 5 ; ; 5 5 ; 5 5 ; ; 5 ; ; ; ; 5 5 5 5 5 7 6 7 6 9 9 6 6 9 9 0 9 6 7 9 5 5 8 K d.XX<X<X<X<X>X:X=X1X>X>X1X>X=X1X1X>X",
"` ' ' ,.' W p.x.D.<X:X=X:X:X>X>X>X*X>X>X>X>X}.:X>X>X>X:X>X,X>X>X>X<X>X<X>X1X>X>X1X:X>X:X>X>Xv.G g 5 : 7 7 7 > 7 7 5 6 ; 7 6 ; 6 5 6 ; 6 5 5 8 ; 7 7 8 , I ]..X>X>X>X>X:X=X>X>X>X1X>X>X>X>X1X1X>X1X>X>X>X>X>X>X>X>X>X>X>X<X>X>X>X<X<X<X<X>X>X<X}.<X>X>X,X>X>X<X>X>X,X<X>X1X>X<X4X1X>X1X>X>X,X>X,X>X>X<X1X>X>X:X>X<X<X,X,.i a q e 8 e e e e e e e e u e e 6 a e 0 e e 0 e 0 6 6 0 e e e e e e 0 0 u e u e 0 0 e 0 u 0 6 6 0 6 6 u 0 e e a 6 0 0 u e 0 u e e 0 e 0 0 u e 0 e e e e e 0 0 e e u 0 0 u 6 0 6 e e 6 e 6 6 0 6 6 u 0 0 0 0 6 6 0 0 0 0 6 6 6 7 8 8 e 6 6 6 6 6 6 6 6 5 6 e u e 6 6 7 0 8 8 5 > D ,.XX<X1X:X1X1X1X*X*X:X=X1X:X1X>X2X2X>XS.a.Q Q ' Q Q Q W p.x.D.,X:X>X>X>X>X>X>X>X>X>X>X>X>X}.>X>X>X>X>X>X>X>X>X>X}.>X>X>X>X>X>X1X=X>X-X>Xc.v 8 8 8 e e 8 8 8 8 e 8 8 e e e 9 6 8 e q 8 0 0 0 e 8 > 3 I  X}.<X2X>X=X:X:X>X2X>X>X=X>X2X>X>X>X2X>X>X>X>X2X2X2X>X}.2X>X>X2X>X>X2X>X>X>X2X>X}.}.<X}.4X}.$X<X>X<X>X<X,X,X1X>X1X:X:X1X:X1X,X>X,X,X>X,X>X1X<X<X:X>X:X1X,X.Xo.> e e 8 q a 0 0 0 u e a 0 e e e e 0 0 e e u e e 0 e e 8 e e e u 0 0 e e e e e e e e e e 0 e e 6 e 6 e e e e e 0 0 e e 6 e e e 0 e e e 6 e e e e 6 6 e e e e e e 6 e e e e 6 8 6 e 6 6 6 6 e e 8 e e 6 8 6 8 7 6 6 6 6 e 6 e 6 e 6 6 6 6 0 e 6 0 6 9 0 6 0 0 0 0 0 7 e 0 0 0 5 8 G g.XX<X<X<X>X>X>X>X>X>X>X=X>X=X>X=X>X",
"' ' ,.,.,.Q ,.f.D.<X:XW.=X>X:X>X>X>X>X>X:X>X>X>X>X>X:X>X>X>X1X<X<X>X<X>X>X>X>X<X>X:X>X>X:X}.v.P d > > 8 8 8 8 8 i e > 8 6 i u i 6 i 8 i 8 8 8 7 8 e > , E ]..X>X>X>X>X>X>X>X=X>X=X>X>X=X=X=X>X>X=X:X>X>X>X>X>X>X>X1X>X>X>X>X>X1X>X>X<X>X>X>X}.}.>X>X>X>X>X>X}.>X>X>X<X>X>X>X>X<X4X>X>X>X:X:X{.:X>X>X>X>X>X:X}.}.4X<X,X1.i e 7 q e e 8 e q e e e e e e 6 e e 6 6 a 6 e u 6 a 0 0 6 e e u e 6 0 u e e e e 0 u u 0 u e a 0 0 u 0 0 u 0 u 6 a 0 0 0 a 6 e 0 e u 6 a 6 a 0 u u e u e u e u 6 6 e u 0 u e 6 u 6 i e u 0 u e u 0 0 0 u 0 u 0 u u 0 0 u u e a u e u e u u 6 a 0 u 6 u e u e u e 0 0 u a e q 5 > z $. X>X>X:X:X*X1X=X:X>X>X=X>X2X>X2X>X>XR.s.,.,.' ' ' _ ' 3.V.D.,X:X>X>X>X>X>X>X>X>X>X>X>X>X>X>X>X>X>X>X>X2X>X>X>X>X>X>X=X>X>X2X>X>X>X>X2XC.z 8 8 t e 8 8 t e 8 e e e t 8 e e e e t e 8 0 e e e 8 r f o.{.<X>X>X>X>X>X=X>X2X2X=X2X>X-X>X2X>X>X>X>X2X2X}.>X>X>X2X>X2X>X>X-X>X>X>X2X>X>X>X}.$X}.2X$X2X}.>X>X}.1X>X>X>X:X:X:X:X,X,X,X:X>X:X,X,X:X1X1X1X:X,X>X>X:X1X<X.XW 8 t e e e 6 e 0 0 e e e u e 0 u 6 e u u 0 e e u 0 e 8 u e 0 e 0 0 u e e u e u 8 e u e 6 0 6 e u e u e e u 6 e e 0 6 e e e e u 6 0 e u e e e u e u e e e u e u e 0 u e 6 u e e u e e 0 u 6 u e e 6 e e 0 e u e 0 6 6 0 e 6 e 6 e e 0 0 0 0 e e e e 6 0 u 0 e 0 0 7 e e e 0 q 5 > K a.XX4X<X<X>X2X>X>X2X=X=X>X>X>X>X>X>X",
",.,.,.,.' W ,.j.D.:XW.:X:X:X>X>X:X:X>X>X>X>X1X:X:X:X>X,X<X<X>X,X<X>X<X>X,X>X>X>X>X>X:X:X:X}.v.L j : - : 7 8 7 7 7 8 8 > i 6 6 6 ; 6 > 8 7 8 > 7 7 7 > 2 I D.,X>X>X1X:X1X>X1X>X=X=X>X=X>X>X=X>X>X>X>X=X>X=X>X>X>X>X>X2X>X>X>X>X>X>X>X1X>X>X>X>X<X>X<X>X>X$X>X:X>X>X>X>X>X>X2X>X2X2X2X>X>X}.:XQ.:X{.:X:X>X>X=X:X:X<X>X.X+.d e 7 e e e e e 6 6 6 6 6 e 6 u 0 6 u 0 6 6 6 u 6 0 u 6 u 0 u e 6 0 6 6 e 6 u e u 6 6 u e 0 u e u 0 6 u e e 6 u 6 u u 6 6 u 6 u u u 0 e u 0 u 6 u 0 0 u e e u 0 0 u 6 u e u e e u u e 6 e u 6 e 0 u 0 0 0 u u 0 0 u 0 0 0 6 u 6 u u e e 0 u 0 u 0 u u 0 e e u 0 0 u u 0 a 6 5 ; z @..X.X*X*X:X:X:X*X=X=X=X>X2X>X>X2X>X}.W.s.p.' ' ' ' Q ' p.V.D.}.=X>X>X>X>X>X>X>X>X>X>X>X>X2X<X>X2X>X<X>X>X2X<X>X>X>X>X2X>X1X=X>X=X>X>X2Xc.D 8 8 8 8 8 8 8 7 8 8 8 8 7 8 8 8 8 8 8 8 8 8 8 8 8 8 , d E XX,X<X}.:XQ.:X=X=X1X2X2X>X>X=X>X2X>X=X-X>X>X2X=X=X>X2X=X=X2X>X=X-X>X=X2X=X>X2X}.}.>X>X2X2X>X2X>X>X2X>X>X>X:X>X:X>X:X:X:X:X:X>X>X>X>X>X1X>X>X>X=X>X>X>X>X:X{.W > e e e 6 u e 6 u 0 0 u e u 6 6 6 e 0 u 0 6 u 0 0 a 6 6 0 0 6 0 6 u 6 0 6 e 6 u e 6 0 6 u u 6 0 6 e e 0 6 0 0 6 u e 6 u e 6 6 u 0 e 6 6 u 6 0 6 0 u e 6 0 u 0 u 0 0 6 0 6 u e e u 6 0 6 0 0 0 u 6 6 u 0 6 0 u 6 0 u 6 0 6 6 6 u e 6 0 0 0 0 0 0 9 0 6 0 6 0 u 0 e 0 e e 0 0 5 > F <.XX4X<X1X2X>X>X>X>X2X1X>X>X=X1X>X>X",
",.:.:.' ,.W <.s.D.,X:X*X=X}.:X>X>X>X:X>X:X>X>X:X}.,X>X>X>X1X<X1X<X1X>X>X>X>X>X>X>X>X}.,X}.}.v.P r : : 7 ; 7 > 5 ; 5 ; 5 ; 5 ; ; ; 6 ; ; - 7 7 > ; : > , E |.>X>X>X=X:X>X=X=X>X:X>X>X>X>X>X>X=X>X>X>X>X>X>X>X>X>X>X>X>X>X>X>X>X1X1X>X<X>X<X>X>X>XXX>X}.}.>X}.2X}.<X1X2X>X<X2X4X2X>X2X4X2X}.Q.W.}.Q.}.}.:XQ.}.}.}.>X>XXX@.8 8 5 7 6 6 5 8 7 7 6 5 6 5 6 6 7 6 6 6 6 6 6 7 6 6 6 6 7 6 6 7 6 6 6 6 6 6 6 6 6 6 6 6 6 6 6 6 6 6 6 6 6 6 6 u 6 7 6 6 6 6 6 u 7 6 6 6 6 6 6 6 6 6 6 u 6 6 6 u 6 7 6 u 6 6 6 6 $ 6 6 6 6 6 6 6 6 u 0 6 0 9 9 u 0 9 0 u 6 6 6 u 5 6 6 6 6 u 7 6 6 $ 6 0 6 6 6 6 6 6 6 0 6 6 @ ; z $..X}.:X=X*X=X*X>X:X=X=X=X=X>XQ.Q.+X}.n.t.' ' ' ' ' Q Q ,.x.D.>X>X>X>X>X>X>X>X>X2X4X>X>X<X>X>X1X>X>X>X>X<X>X>X2X>X>X2X>X>X>X2X-X>X>X-X>Xv.h 7 8 7 7 7 7 7 7 7 7 7 7 7 7 7 7 7 7 7 5 7 7 7 7 7 7 > 2 E  X<X>X>X>X:X}.}.>X>X>X>X>X=X2X}.=X>X}.}.=XQ.}.>X>X=X}.>X}.=X-X}.>X=X=X}.2X}.=X>X>X>X2X>X4X2X2X}.>X2X>X}.>X=X>X=X:X>X>X>X=X1X=X>X:X=X>X>X>X1X1X>X=X:X=X>X=X{.W 8 8 8 6 7 6 7 5 6 6 6 6 7 6 6 6 6 7 6 6 7 6 5 7 6 6 6 6 6 6 6 6 6 7 6 6 5 6 6 6 5 6 6 6 6 7 6 6 5 6 5 6 6 6 6 5 6 6 6 6 7 6 5 6 6 6 6 6 7 6 6 6 6 6 5 5 6 6 7 5 5 6 6 6 6 5 6 6 5 6 6 6 6 6 6 7 5 6 5 6 6 6 7 6 6 7 6 6 6 6 6 6 5 6 6 6 6 6 6 6 6 6 6 6 6 7 6 6 7 7 7 7 7 9 - > D g.XX4X<X>X>X>X>X=X>X>X>X>X-X>X>X1X-X",
",.` W ,.` #.,.j.D.1X>X=X:X>X>X:X>X>X*X>X>X:X:X:X>X>X>X>X}.1X1X<X<X<X>X>X>X,X<X>X:X:X:X>X*X{.v.L d : - 7 7 7 7 - 5 5 ; 5 6 ; 5 5 ; 5 5 ; - : : : - : : , P ].XX>X>X>X:X>X:X:X:X}.=X>X}.}.}.}.}.>X>X=X>X=X=X:X:X:X=X:X=X>X>X>X:X>X>X>X,X:X>X>X>X}.}.}.}.}.}.}.2X2X2X4X4X>X4X>X4X2X2X4X2X2X/.}.Q.Q.:X}.W.Q.{.Q.}.}.<X>XXX,.d 7 8 6 6 e 7 5 6 5 9 $ ; 5 5 6 5 6 5 6 9 6 6 6 7 6 5 9 6 6 6 5 7 6 $ 6 6 6 5 6 $ u 6 6 $ 6 5 5 $ u u $ 6 6 $ 6 6 $ 6 6 6 5 6 $ 6 $ 6 5 6 5 $ 6 6 $ $ u 6 6 6 $ 6 5 $ 6 6 $ 5 6 u 6 $ 6 6 $ 6 5 $ 6 u $ 6 $ 6 $ $ 6 6 $ 6 $ $ 6 6 6 6 ; 6 $ 6 $ 6 6 $ u ; 6 6 u 5 $ 6 u 6 6 @ 7 v >..XXX*X=X:X=X=X*X=X=X-X-X}.>XQ.Q.>XQ.n.$.Q Q Q ' Q R W <.V.D.XX:X>X>X>X>X>X>X>X>X>X>X>X>X>X>X>X>X<X2X>X>X1X>X>X1X>X>X-X=X>X=X1X=X=X=X>Xc.g : 5 7 7 : 7 7 5 7 5 - 5 5 7 - 7 5 5 7 : 7 5 : - 7 : > 2 E  X<X4X>X>X>X:X>X=X>X>X>X>X>X}.=X}.}.>X>X>X>X}.>X}.=X>X=X>X=X}.=X=X>X>XQ.Q.>X>X>X+X>X2X2X2X2X>X}.:X>X:X=XQ.Q.:X>X>X=X>X=X>X=X>X=X=X>X=X>X=X1X=X=X=X>X}.Q.:X{.o., 8 8 5 5 5 6 ; 6 ; 6 5 5 6 5 5 6 9 6 6 6 6 9 5 9 5 6 6 6 6 6 6 6 6 6 6 9 6 6 5 6 6 5 5 9 6 6 9 5 5 6 6 6 5 6 6 6 6 6 6 5 9 5 6 6 6 6 5 6 9 $ 6 9 5 6 6 6 6 6 6 9 5 6 6 5 9 6 5 5 6 6 6 6 5 6 6 9 5 9 5 6 6 9 5 6 6 6 6 6 5 6 5 6 6 6 6 7 $ 6 9 6 5 6 6 5 9 6 6 5 5 5 5 9 5 o : F a.<X<X<X>X1X2X>X=X>X=X>X=X1X=X>X=X=X",
",.<.a.,.p.<.d.c.{.1X1X1X>X1X>X>X1X>X>X>X1X>X>X<X<X>X<X>X{.,X<X<X<X<X,X>X>X1X1X4X>X>X>X>X>XXXS.+.H j d j j t j j j a k k a k a k j j j k j j j t j j g h +.|.XX<X>X>X>X>X>X>X>X1X>X>X>X>X>X>X>X>X>X>X>X>X>X>X>X>X>X>X>X>X2X>X>X>X<X>X>X>X2X1X4X4X4X2X2X4X4X2X4X4X2X3X2X2X2X2X+X@X2X2X3X3X2X2X2X4X2X2X>X>X:X>X:X>X1X<X<X2.k k i j a n n n k b k b a k a b b b a b a b a b b b a b b b b a b b b b a b b a b b b b b b b b b b b b a b b b b b b b b b b b b b b b b b b b b b b b a b a b b b b b b b b b b b b b b b b b b b b b b b b b b b b b b b b b b b b a b b b b b a b u a b b b b a b b b a a d F 8.$X<X1X1X:X>X>X>X>X-X2X3X2X3X3X6X3X2X[.g.,.p.,.p.' ' ,.d.V.{.<X2X4X2X4X2X4X2X4X2X4X>X>X1X4X4X4X>X<X>X<X<X2X<X>X4X>X>X1X>X>X>X=X>X1X>X>XS.D j j t j j j t t j j j j j j j j j j t j t j t j j j j h #..XXX>X>X>X>X<X>X>X>X<X<X2X>X4X>X1X<X2X<X>X2X<X4X>X2X4X>X2X4X>X2X2X>X2X>X1X2X2X>X>X2X1X<X5X2X2X$X>X5X2X2X>X>X>X2X1X-X1X-X1X-X2X1X-X1X-X1X6X2X1X>X>X>X>X1X1X{.,.d t r j a a b a k a b a b b b a a a b b a b b a b a n a b a b a b b a b b a b k a b b a b b b b b k a a b a b b b b b b a b b b b a n b a b b b b n a b b a b b b b a b b a b b k b b a b b a b b k b a b b b a b b b b b a b n a b b b b b a b b b a b b a b b a b j a j n e d I l.$X4X<X>X2X>X>X1X-X>X2X=X-X1X=X=X2X",
"j.x.j.x.x.j.c.D.}.1X1X1X4X1X>X4X1X1X4X1X1X1X1X4X<X1X<XXXS.S.S.S.D.S.F.D.].XX,X<XXX.X.XXX.X.XS.<.R H J H H H U K U K U C K A U C A U K Y K U K K J P P P ,.D.|..X{..X{..X.X{.{..X}..X.X{..X{..X{..X{.}..X{..X{.{..X{.{..X{..X{..X.X{.]..X<X1X6X1X5X1X4X2X4X3X6XdXdXiXiXiXiXiXiXiXiXiXiXiXiXaXiXaX6X3X2X4X2X4X2X4X4X>X<X4.C M k m m V B B B B N B m m m B B B B B B B B B B B B B B B B m B B m B B B B B B B m B B B B B B m B B B B B B m m B B B B B Z m B B B B B B B m B B B B B B B B B B B m B B B B B B B B B m B Z m B B B B B B B m B B B B B B Z B B B B B B m B B B m B B B B B B B B B B b x L 8.4X4X1X=X1X1X=X=X3X6XdXaXdXhXdXhXhXhX3Xn.j.l.x.x.l.l.j.c.D.{.<X4X4X4X4X2X4X>X4X4X<X2X4X2X2X<X<X<XXX].n.].S.].S.n.R.].].{.}.{.{.[.{.{.{.C.X.K U A U K U K U A A K A A A A K U C U U K J U U V C K K $.]. X.X.X.X.X}..XXX.X{..XXXXX}.XXXX}.XXXX.X.X}.}.XX.XXX}.XX}..X.X>X.X>XXX>XXX>X<X>X>X2X4X4X4X2X+X3X5X5XaX5XiXaXaX3XaXaXiXaXaXaXiXaXaXaX3X6X1X-X1X1X2X6X1X1X<X<.g k a m B m B m B B B B B B m m B B m B B m B m B m B m B m B B B B m m m B B B m m B m B m B B B B m m B B B B B m B m B m m B m B B B B m B m m m B B B B m B B B B B m m B B m m B B B B m B m B m m m m m B B m m m B B B B B m B B m m m B B B B B B B B B m m m V m m n z R l.4X<X<X<X>X>X=X=X2X3X;X;X3X;X3XyX;X",
"{..X{.{.].].].{.>X>X<X1X>X1X1X1X4X4X1X4X4X4X1X4X4X<XXXS.#.W R Y T R R R ,.<.j.x.x.l.x.j.c.c.l.2.:.:.,.>.>.3.2.3.:.2.2.2.:.2.2.>.>.:.:.,.1.:.>.1.2.>.3.2.4.d.x.c.x.x.c.x.x.x.c.j.x.x.x.j.c.l.x.x.x.x.x.j.x.j.x.j.j.x.x.j.x.x.x.c.x.x.l.S.].<X4X4X>X4X4X4X2X3XgXhXvXvXvXnXvXvXnXvXnXnXnXnXvXlXlXvXvXhX6X3X3X4X1X>X4X4X<Xl.N M n n m C V B B N B B B B B B m B B B B m B B B B B B B B B B B m m Z B B B B B B m B B B B B B B B B B B B m B Z B B B B B B m B B B B B B B m B B B B B B B B B B B m Z B B B B B m B B B m B m B B B B B m B Z B B B B B B m m B B B B m B Z B B m B B B B B B B B B B b k L <.$X4X1X1X1X=X=X1X3XhXxXvXnXnXnXnXnXvXhX3X}.{.}.XX{..X.X}..X>X1X4X>X4X>X4X4X2X2X4X<X4X>X1X<X<X<XXXx.P I L R L I L F W <.l.V.c.c.c.x.x.j.l.<.1.1.1.1.1.1.1.1.1.1.1.:.2.1.1.1.1.1.;.1.1.1.1.2.1.:.2.,.2.l.l.l.x.x.j.x.x.c.c.z.c.x.x.l.x.x.l.c.x.c.j.c.l.j.c.l.x.c.j.j.c.x.x.c.j.j.j.S.{.>X<X>X>X2X4X2X2X3XhXhXsXlXnXvXMXMXnXmXMXzXvXMXmXzXmXmXmX6X6X1X2X2X1X1X6X1X<X<.z j k k B m m B B m B B B m B B m B B B m m m B B m m B B B m B B m B m m m B B B m B m B m B m B m B B B M B B B m B B m m B B B B B B m m m m m B m B B m B B B B B m m B m B B B B m B B B m B B m B B B B B B m B B m B B m m B m m B B m m B B B B m B B m B m m B m m n z Y g.<X4X<X>X>X1X>X/.3XaXlXvXvXzXzXmXlX",
"1X1X>X>X>X>X,X>X>X>X>X>X:X:X1X>X>X1X>X>X1X:X>X>X<X,XXXl.H g j j t t j l H R $.<.>.3.2.a.4.a.2.,.,.>.3.3.<.<.<.3.:.<.<.2.4.<.>.:.2.1.2.2.4.,.2.4.>.3.4.,.,.>.3.<.4.4.<.<.<.,.2.>.2.<.<.<.,.a.2.<.a.,.,.<.p.p.,.<.4.,.,.d.3.<.>.3.4.<.2.l.S.XX<X<X2X<X>X2X/.3XvXMXGXAXAXAXAXAXAXAXAXAXAXAXVXAXVXnXnXhXiX2X2X>X>X>X>X>X<X<.z k a a k b n k a b k b a b a b b b a b b b b b b b p b b b b b b b b b b b b a b b p b b b b a p m b b p b b b b b a b b a b b b b b b b b b a p m b b b b b b p b b b a b b b b b p b b b b b b m b b b b b b b b a b b b b b b b b b b b b b u b b b b p b b b u b b b m u a F <.$X<X1X:X:X1X1X=XiXsXnXnXAXZXAXAXAXAXvXdX$X4X4X2X<X>X>X>X>X>X>X>X>X>X2X1X2X1X>X>X4X>X<X4X>X2XXX.X8.g g j j a d d 8 z R >.2.4.2.4.2.<.4.>.2.:.2.2.1.2.2.2.2.2.1.1.2.1.1.2.1.2.2.2.2.2.2.1.:.2.2.1.:.,.2.<.<.<.>.>.2.<.<.2.<.4.>.<.<.2.<.2.2.<.<.<.2.2.<.<.<.4.<.,.,.<.p.<.p.,.<.t.x.].{.>X>X>X2X2X+X@XdXvXnXnXAXAXAXFXFXAXAXAXGXFXFXAXGXFXGXvXaX6X=X2X>X>X>X4X4X}.$.g e i a a a b a k a a p a b a a a a b b k b b b b b b a b a b n b b a b b b b b b a b b a b b b b b b a b a b a b b a b b b b b b a b b b b a b b b b a n b b a b a a b b b b b b b b b b b a b a b b a b a b b n b b b b b b n a b b b b a b b a b a a b b b n a a a j b a e d L l.4X4X<X>X>X>X=XQ.aXlXMXGXFXVXFXFXVX",
">X:X>X>X>X>X:X>X:X>X:X>X>X}.Q.:X:X=X=X:X}.:X:X:X>X,X.X<.2 : - & - - - - r z R ` +.:.,.:.+.` ` +.@.,.>.,.>.:.:.#.:.+.>.+.+.-.>.:.>.+.@.` :.+.+.` +.` +.X.:.+.,.,.:.+.+.:.+.:.:.+.+.:.+.` :.W +.:.W +.,.W ` ` #.` +.,.+.` +.:.+.+.,.W W d.V.{.>X}.>X>X<X+X/.3XhXnXAXAXAXAXSXSXSXSXSXFXSXVXVXVXAXAXMXsX3X/./.=XQ.}.>X>XXX>.j i ; 6 6 6 7 ; 5 5 6 $ 5 6 6 $ 6 6 6 5 $ 6 6 $ 6 $ 6 $ @ 6 6 5 6 $ 6 $ $ 6 $ u $ 6 u $ 6 $ 6 6 $ $ $ u $ $ 6 u $ $ 6 5 $ u 6 $ 6 u $ $ 6 $ 6 6 $ $ $ u $ $ u $ 6 $ 5 6 $ 6 $ u 0 u $ $ 6 $ 6 5 @ $ $ u $ $ 6 u $ $ 5 ; u $ 6 $ 6 u $ $ 6 $ 6 5 $ u $ 6 $ $ 6 6 $ u 6 7 $ $ @ < h 2.XX4X1X*X1X=X=X=X3XlXnXAXAXSXZXZXAXnXxXiX+X2X2X2X>X>X}.}.}.:X}.}.>X2X>X>X>X2X>X>X>X>X>X<X<X<XXX].$.> > ; 5 - - - = r K R >.:.:.+.+.X.:.+.:.:.:.:.:.:.:.:.1.:.2.:.2.:.:.:.>.:.1.1.-.:.1.>.1.1.:.:.>.X.R R R >.:.X.o.+.+.+.:.+.+.:.+.+.+.+.+.:.:.+.+.+.` +.W :.Q ` #.` ' ' Q ,.' o.a.v.{.,X}.}.>X}.+X@XiXvXMXHXFXHXSXVXVXVXVXVXVXVXCXVXVXVXVXvXiX1X>X=X:X=X=XQ.}.].W > 7 - ; 6 5 5 ; ; 6 6 7 5 ; 6 5 6 5 5 6 5 9 6 6 $ 9 9 6 5 6 6 5 5 6 9 6 6 9 9 9 $ 6 6 6 6 9 $ 9 6 $ 6 6 5 6 6 6 5 6 9 6 5 9 $ 6 9 5 5 9 6 6 9 6 6 5 6 $ 5 9 6 6 7 6 6 6 6 6 $ 9 9 $ 5 6 6 9 5 6 9 6 9 6 5 6 6 5 5 6 5 9 9 5 5 6 5 6 $ 9 6 6 6 6 6 6 5 6 6 5 5 6 6 7 9 7 5 9 * : z >.XX<X<X>X1X>X:X=XyXlXVXVXGXVXVXVXFX",
">X>X>X>X>X:X>X>X:X>X>X:X:X:X>X:X:X:X>X>X>X,X>X:X>XXXXXd.g : : 5 7 7 5 - d z R 1.W +.:.:.>.W :.W :.>.,.,.,.,.,.:.:.:.,.+.+.:.:.2.>.,.1.' :.>.:.+.:.+.:.( :.' ,.>.,.,.` :.+.:.+.>.>.+.:.+.:.+.:.+.W ` +.' W ' W :.` :.Q :.` +.:.:.,.+.W 4.C..X>X:X>X>X}.}.+XiXhXMXAXAXAXSXSXSXCXAXSXSXFXHXSXSXAXHXnXsX5X+X+X+X:X}.<X>X}.,.j d 5 8 e a e 5 6 7 6 7 6 6 7 6 6 6 6 5 6 5 5 6 6 6 6 6 7 6 6 6 6 6 6 6 6 6 6 6 u 0 6 6 7 6 6 6 6 6 6 7 u 0 0 6 6 6 6 6 6 6 6 6 u 6 6 5 6 6 6 6 6 7 6 6 u 6 6 6 6 6 6 6 6 7 6 7 6 6 6 6 6 6 ; 6 6 6 6 6 u 6 6 6 6 6 6 6 6 6 6 6 6 5 6 6 7 6 6 6 6 6 6 6 a $ u 0 6 6 6 0 6 6 @ ; x @.XX<X1X1X*X:X}.Q.3XkXAXAXAXZXSXSXSXZXjXqX/.>X>X}.}.Q.}.}.}.}.}.}.}.<X}.2X}.>X}.4X}.4X<X2X<X<XXX|.>.8 ; ; 5 - - - - g K ( :.:.:.+.:.:.+.:.2.:.:.:.2.:.:.1.>.1.1.:.:.2.:.2.:.2.2.:.:.2.1.,.-.1.2.:.-.:.+.:.1.:.+.+.R :.:.+.+.:.X.:.X.:.:.>.:.X.:.:.:.+.:.+.+.` W ,.W Q W ,.' #.W Q d.A.{.,XW.:X:X}.Q.+XiXvXMXGXSXHXSXVXVXVXSXVXVXCXCXSXSXSXVXlXaX-X=X:XQ.:X}.>X{.S.o.r 7 ; 5 5 6 6 ; 6 6 7 ; 6 6 5 e 6 6 5 6 5 6 7 6 6 6 6 6 5 5 6 6 5 6 6 6 7 5 7 6 6 5 7 6 7 6 7 7 6 9 6 6 6 5 6 6 6 6 7 5 5 6 7 6 6 7 6 6 7 6 7 5 6 6 6 6 6 6 6 ; 5 6 5 6 6 6 6 6 6 7 7 6 7 6 7 6 7 6 6 6 5 6 6 6 5 6 5 5 6 6 6 6 6 6 5 6 6 5 6 7 6 6 6 6 6 6 5 5 7 7 6 7 7 6 $ - z $.<X4X<X<X<X:X>XQ.yXlXAXGXVXVXVXVXVX",
":X=X1X=X>X>X*X>X>X>X>X=X>X>X>X>X>X>X>X>X>X>X>X>X>X<X,Xl.g : 7 7 e e q 5 j K R >.:.( >.:.,.:.:.:.:.2.,.:.>.3.,.>.3.>.,.,.>.:.2.>.:.:.:.>.,.,.>.:.2.:.:.>.:.' >.d.>.>.,.,.1.:.:.:.:.,.:.:.,.,.1.,.,.,.,.' ,.' ,.' ,.,.:.,.,.,.,.,.>.:.` d.C..X<X>X}.>X}.}./.5XhXnXAXSXAXAXAXSXSXSXFXSXSXSXSXSXSXHXGXhX5X2X2X2X2X>X<X<XXX<.j 8 8 8 e e e e 6 6 6 e 6 e e 0 e 6 6 u u e u e u 0 0 u u e u e 6 e u e 6 e u e u 0 0 u u 6 u 0 6 0 u u u e 0 u e e u 6 6 e u e 6 u 0 u 6 a u 6 u u 6 e u u a 6 0 u u 6 u e u u u 0 0 u e e u e 6 e u e u u u 6 e e u e 6 e u e u u 6 u u e u e 6 u 6 0 u a u u e 6 u u u u 5 1 k @.XX<X:X:X:X:X:X/.iXxXZXAXAXZXZXAXZXZXlXiX2X+X}.2X}.}.}.}.[.:X}.>X>X>X>X>X>X>X>X>X<X>X>X>X<X<XXX X,., ; 5 7 5 - - - j U -.2.2.,.1.>.:.2.,.:.1.1.1.1.:.1.:.1.1.1.:.1.2.2.1.1.:.1.2.1.1.:.2.:.2.:.2.2.:.:.:.>.2.:.:.2.:.>.-.-.:.:.2.:.2.:.:.:.2.:.:.:.:.1.,.:.:.:.' ,.' ,.' ' ,.' #.f.S.{.,X{.:X}.}.+X/.5XvXnXGXFXSXSXSXVXSXSXSXSXVXSXVXSXCXGXmXaX1X=X1X1X:X:X>X:X{.$.d i 5 8 u 8 e e e e 8 u e 6 u 8 8 e e u e 0 u 6 6 6 0 0 u e u e u u 6 0 u 6 u 0 0 u e u e 0 0 u e 0 0 u 6 e u e 6 u e u u 6 0 u 6 e u 6 u 0 e u e 6 0 0 6 e e u e e u 6 e 7 0 0 6 u e u 0 0 u 0 u 9 0 0 u e e 6 u 0 6 e u u 6 e e 6 0 0 e e u e e 6 0 6 a 0 u e e 0 0 8 e 0 5 > h ,.XX4X<X<X>X>X>X=XyXlXVXVXVXVXVXVXVX",
"1X=X:X1X=X1X>X>X}.:X>X>X>X}.:X:X>X>X:X>X>X>X>X>X>XXX,Xl.d > 7 8 e e 9 5 r M R :.-.:.:.:.:.:.:.:.( W :.1.2.:.,.>.>.,.1.>.1.:.1.2.>.1.2.2.1.>.1.1.2.:.:.:.:.2.3.3.2.:.,.,.>.:.:.:.:.2.>.:.,.:.:.:.:.,.,.' ,.' ' ,.,.` ,.:.1.:.,.,.3.:.W 4.S.XX<X>X>X,X}.}.+X@XvXnXAXAXAXSXSXAXVXSXSXSXSXCXCXCXSXSXAXsX3X/.+X}.4X}.>XXX,X2.l e 8 8 e a 0 7 0 7 6 e 8 e e e e 8 e e e e e e e u u 0 u e u e u e u e u e u e 6 a 0 e e a u e u e a 6 e e 0 u e u e u u e u e e e 0 u u e 6 a 0 0 6 u u e 6 u a 6 6 a 0 0 e e u e u 0 e u e u u e u e u 0 e a e u u e u e u e 6 a 0 u u e u e u 0 0 0 0 u y 0 u 0 u a 0 0 5 ; f +.XX,X1X:X:X=X:X/.iXlXZXZXAXZXAXZXAXZXlXqX2X2X>X2X>X}.}.}.}.}.>XXX>X>X<X2X<X}.<X>X>X>X<X<X<X<X,X|.,.> > 7 7 5 5 ; - j K ( >.2.,.>.:.:.:.:.>.1.:.1.1.:.1.2.1.1.1.1.1.1.-.2.1.1.1.1.2.1.2.1.1.2.1.;.-.-.2.:.2.2.1.2.:.2.` ( 2.:.:.:.:.:.:.:.:.-.:.:.:.:.:.1.:.` ' ` ' ,.' ,.' ' W #.s.A.{.,X:X:X>X:X+X/.5XvXMXAXSXSXSXAXSXSXVXSXSXSXSXCXCXSXVXnXaX1X:X1X>X:X{.>X:X{.+.f 8 5 8 e 8 8 u 8 e i e 6 6 i u e e u u e 0 u 6 a u 6 0 6 6 e u e 0 e 6 0 e 6 6 u e e 6 e u 0 u e 6 a e 6 6 e u e e e e e u 6 0 0 6 e u e u e u e e 6 6 u u e e 6 e u e e e e u 0 e 0 6 a 0 0 6 6 6 a 6 0 u e e e u 0 e e e 6 e u 0 a 6 e 6 6 a u 0 0 a 0 6 e e e e q e e 0 5 7 z >.<X4X<X>X>X>X:XQ.yXlXVXGXVXVXVXVXVX",
"1X>X>X>X>X:X>X:X>X>X:X:X>X:XQ.}.}.:X>X>X>X>X>X<X,X,X<Xl.d > 7 q q q 7 - d N R ,.:.2.:.1.:.:.1.:.:.` ' ,.,.3.,.3.2.:.:.1.1.>.>.:.2.1.1.>.1.1.:.2.:.2.:.2.:.:.>.2.2.2.:.>.:.:.2.>.:.:.2.,.,.,.:.,.1.1.' ,.' ,.,.` ,.,.,.' ' ,.' >.,.` W d.V.XX1X1X>XXX}.+X+X3XhXvXGXAXSXAXSXSXSXSXFXSXSXSXCXNXAXSXnXsX3X}.+X4X}.<X}.>XXX<.l e 7 7 0 e 0 0 7 0 7 8 e e e e e 8 e u e e u e e e 0 6 e e e e u e e e u 6 0 0 u 6 0 u u 6 e 0 0 u e 6 u u 0 e e u e 6 e u 0 e u u 6 0 6 0 u 0 e u a 6 e 0 u 0 6 0 u 0 0 u u e 0 u 6 0 e u e 6 e u e u 0 0 u 6 u 6 e e u e 0 u 0 6 0 0 e 6 e e u e u 0 e 0 a 0 0 0 e e u 0 6 ; k >.XX,X,X:X:X:X:XQ.eXxXnXAXAXAXZXSXAXnXcX3X2X}.2X>X>XQ.}.}.}.}.}.>X<X>X}.>X>X<X}.4X<X<X<X4X4X<XXX|.>.2 8 6 7 5 5 5 - j U ` 3.' :.:.:.-.:.:.:.1.:.:.1.1.1.1.1.1.:.2.1.1.1.1.2.1.2.:.1.1.:.1.1.1.1.:.:.:.:.1.1.:.>.1.:.1.:.:.:.:.:.:.-.:.:.:.:.:.:.>.) :.' ` ` 1.1.,.` ' ,.' ,.` ` ,.d.S.,X,X,X>X4X2X2X@XiXvXmXAXAXAXGXAXVXGXVXVXSXVXCXSXCXCXVXMXaX6X>X>X>X>X>X>X}.{.+.d 8 ; 7 8 e 8 8 e 6 6 e 6 u 6 e 8 e e e 6 e 0 e e e 6 a 0 e e e e 6 e a 6 e e 0 e e u e e e 6 e 6 0 6 e e e e e e 6 e e e e e e 0 e e 8 e 6 e e 6 e e 0 0 e 6 e e e e e u 6 6 e 0 e u 6 6 e 0 a 0 6 e 6 0 e 6 e e 0 0 6 e e e e 6 e 6 6 u e e 6 6 0 6 6 6 0 0 6 u 0 8 e e q 5 > z <.<X<X<X<X}.:X:X=XiXsXzXVXGXVXVXVXAX",
"=X=X1X>X>X>X>X>X>X:X:X>X:X:XQ.{.>X>X>X1X<X<X<X1X4X4X4Xx.d > 5 8 q e 9 5 e D R 2.2.1.1.1.1.1.:.:.1.1.1.,.:.1.>.1.1.>.,.3.:.:.1.>.1.:.:.1.1.:.:.1.:.2.:.:.,.1.2.3.3.4.>.3.2.2.3.,.2.2.,.3.2.3.,.3.3.>.3.3.3.,.3.3.>.3.3.,.,.1.' ,.,.W W d.S..X1X>X>X>X>X1X+X5XvXnXGXGXSXSXSXSXSXSXSXDXSXNXNXNXCXCXAXhX5X}.$X4X4X<XXX,X<X4.n q 7 9 7 9 0 9 9 7 6 0 q e e e e e e a 6 a 6 u 0 6 6 6 u e a 0 a a u 0 $ b $ u b 0 u 0 6 0 6 6 e e 6 e 6 e 6 u 8 e 6 e e 6 6 6 e u e 6 6 6 8 u 8 6 6 6 6 u e 6 6 6 6 u 6 u e u 6 e 6 u e 6 u 8 6 6 u 8 e 6 6 u e u e 6 u e 0 0 6 6 6 u 0 0 u e u e e e a 0 a u 6 u e e e 0 u i f +. X<X,X:X:X:X=XQ.3XxXnXAXAXAXAXAXSXAXxXiX2X2X}.2X}.}.}.}.}.}.}.>X>X>X>X<X}.<X4X4X<X4X4X4X4X4X<X X1.i > 8 6 6 $ 5 ; j H ( 1.1.1.1.1.1.1.1.:.:.1.:.1.1.:.1.:.] 1.1.1.:.1.1.:.3.1.1.3.1.3.2.1.,.1.1.:.2.1.1.1.:.2.1.:.1.1.-.1.:.:.1.:.1.:.:.:.1.;.:.1.:.] :.:.' 1.1.' 1.' ,.1.` ' ,.M.S.,X>X1X1X1X4X2X@XaXmXMXAXAXAXAXnXzXAXVXGXSXFXVXSXSXCXSXMXgX1X>X,X>X,X<X,XXX.X+.r 8 8 8 7 7 6 e 6 6 6 6 a 6 0 6 6 6 6 6 0 u 6 u 0 6 0 6 6 6 6 u 0 0 6 0 e 0 u e 0 6 6 6 6 a 6 e 0 6 0 6 e 6 6 e 6 0 6 0 0 6 0 6 a 6 u e 6 6 e 6 0 6 0 6 a e 6 e 0 e 6 u 0 0 0 0 e 6 e 6 6 6 u 0 0 0 6 0 6 e 6 6 6 e e 0 6 e 6 6 6 e 0 0 0 6 e e 6 6 6 6 e 6 6 6 e 0 8 e 0 0 7 > z 2.<X4X<X>X>X:X:X=X6XbXzXGXGXAXAXAXGX",
">X>X1X=X>X>X=X:X>X>X>X>X2X>XQ.:X>X>X{.{.{.[.{.[.}..X|.<.2 > 5 8 e q 6 - 8 z R 1.-.:.2.:.1.-.( 1.2.2.>.1.1.,.3.3.3.,.3.>.2.,.1.1.,.2.2.>.>.2.1.,.2.:.2.2.,.2.2.2.2.>.2.2.3.,.,.2.,.2.3.>.2.,.2.3.,.3.3.3.,.,.,.3.3.3.3.,.3.,.1.:.,.` ` ,.x.{.:X,X:X{.{.Q./.@XhXvXnXAXAXAXZXZXAXZXDXSXCXCXNXBXNXSXnXfX4X[.[.}.$XXXXX X.X2.n b e a y a a y e 0 7 0 e q e e 8 e 6 e 6 0 e 0 6 0 0 6 0 e 6 a 0 6 e 6 b $ y $ 0 0 6 6 6 u e u u 6 6 u 6 u e 6 6 u 6 u u 6 u e e 6 u e u e e 6 u e u e e e u e u e 8 e 6 8 6 e u 6 6 e 6 e u 6 e u e 6 u 6 6 e e 6 u 6 6 e 6 u 6 0 0 6 6 6 e u 0 u u 0 u 6 6 0 0 0 0 u u 6 6 i f +.XX<X1X,X:X:X:X}.3XdXcXnXnXZXZXcXAXcXfXiX2X>X>X>X>X}.}.:X:X}.}.>X>X>X>X>X>X}.}.}.}.{.XX{..XXX.X|.:.i 8 7 9 6 6 5 5 j V / ` ) ( ` ` ' ` ` :.:.1.:.1.:.1.:.1.:.:.1.1.1.1.1.1.2.,.2.1.1.1.1.1.2.1.1.:.1.2.:.1.1.:.:.1.1.1.1.:.1.1.:.1.:.1.1.1.:.1.1.:.1.:.] ] 1.1.1.` ` 1.,.:.` ' ' m.V.,X,X:X:XQ.}.+X/.qXvXvXnXnXnXnXnXzXzXzXVXSXSXSXSXVXFXAXnXdX<X{..XXX.XXXXX.X|.:.j e e e e e e a a u 6 6 0 u 6 u 6 u 6 6 6 6 6 6 6 6 6 6 u 6 0 e 6 6 e 6 6 6 6 e 6 e e e 6 6 6 u 6 e 6 u 6 6 e u e e 6 6 0 e 6 6 6 6 6 e 6 u 6 e u e 6 6 6 u 6 6 6 e u 6 6 6 6 6 6 e u 6 e 6 e u 6 6 e a 6 6 6 e u 6 u 6 e 6 e u e 6 6 6 u 6 u 6 6 6 e 6 u 6 e 6 8 8 0 8 q 0 5 > z <.XX4X<X1X1X:X:X-X;XsXmXzXzXAXAXVXVX",
"=X1X>X=X>X>X>X>X>X>X:X>X1X<X:X2X5X{.R.c.j.c.x.c.c.V.l.R 1 7 8 0 6 0 6 $ e z K R Y ( ^ ( ^ Y T ) 2.3.3.3.2.,.,.3.3.,.1.1.1.,.:.2.:.2.>.,.3.2.3.>.3.>.2.3.>.3.3.>.3.2.,.1.3.,.2.>.:.>.,.1.,.,.1.,.,.3.,.,.1.,.,.,.,.,.3.,.,.,.,.' :.#.:.,.,.v.n.b.n.W.b.R.R.Q.6XhXvXnXnXcXxXcXcXZXSXHXSXVXNXNXNXSXnXdX}.E.].].].].|.].Z.1.N n n N V V V V n b 9 0 9 0 7 0 e e 6 e 0 e 6 0 0 6 6 0 e 6 e 6 e 6 6 6 $ b $ y 0 6 0 0 6 e 6 0 e 6 6 u e e 6 e u 6 e 6 e 8 e u 6 6 6 6 e u 6 u e 6 e u 6 6 6 6 e u 6 u e u 6 6 e u e u e 6 e 6 e 6 6 6 e u 6 u e 6 e 6 u 0 6 u u e 6 6 6 6 6 6 6 6 6 6 6 6 6 6 6 6 6 6 6 6 6 i f @. X,X:X:X:X:X}.+X3XeXhXvXvXvXcXlXcXvXhX5X2X>X2X>X>X}.}.}.}.}.}.}.<X}.>X>X<X>X].n.c.c.c.c.C.V.B.B.:.i 6 6 6 6 7 5 8 j m T ( R T ( T T T ( :.1.1.1.1.1.1.1.1.1.1.1.1.2.2.,.2.:.1.1.1.,.1.>.1.1.1.:.:.1.-.1.:.1.:.1.1.:.:.1.:.1.1.2.1.1.1.:.1.1.:.1.:.] 1.1.1.:.' 1.:.1.1.1.1.:.:.1.:.<.A.D.n.b.v.R.R.T.oXdXfXfXfXxXfXsXpXjXzXAXAXGXAXSXSXFXHXMXdX{.c.S.D.S.D.|.G.S.1.H n n M n j n M n a 6 6 u e 6 6 6 6 6 6 6 6 6 u 6 u 6 6 6 6 6 6 e 6 6 6 0 6 e 6 6 6 u 6 e 6 6 0 6 6 6 e 6 e 6 e 6 6 6 6 u 6 0 6 6 6 e 6 e e e 6 6 6 0 6 6 e 6 6 e 6 6 6 6 0 u 6 a 6 6 6 e e 6 a 6 6 0 6 6 u e 6 6 6 6 6 6 6 6 6 6 6 0 6 6 e 6 8 6 a 6 e 6 u e 6 e 0 8 7 q 7 6 > z $.<X<X<X:X>X:X1X1X6XaXbXvXlXlXlXlXxX",
">X:X>X>X=X>X>X:X:X>X>X:X4X>X}.>X>Xv.#.G F P K F K K K z > 8 5 6 7 7 6 9 e j k M M k m z m k m R ' 3.2.3.1.3.3.2.3.2.3.3.3.3.3.>.3.,.3.1.3.,.1.1.,.:.1.,.1.1.3.,.3.,.3.,.1.,.3.[ :.1.:.,.3.,.,.] 3.' ,.3.1.1.' :.,.[ ,.1.,.` :.,.,.' :.#.<.s.j.s.s.s.s.j.g.n.$X5XdXiXdXeXiXwXwXjXnXAXAXSXCXBXNXAXnX@XI.u.h.l.l.l.l.d.d.1.T T ~ Y ^ Y ^ ( T V e 0 0 0 0 0 6 6 6 6 6 6 0 6 6 6 6 6 6 6 e 6 e 6 e 0 b $ b y 6 u 6 u u 6 u e u 6 e e 6 u 6 u e 6 8 u u 6 6 6 u 8 u e 6 6 6 e u 6 6 6 u 8 u e 6 6 6 e 6 e u e 6 6 6 8 u e u 6 6 e u e 6 e e 6 6 e u 6 6 6 0 6 6 0 u e 0 e u 0 0 6 u 0 0 6 u 0 6 e u 6 6 u 6 i h +.XX,X,X:X:X:X:X}.+X@XeXdXdXqXdXdXiX5X3X2X2X2X>X>X>X>X>X>X>X}.>X>X>X>X>X<XXXXXg.o.L P K K P K K Y m 5 ; 7 7 0 6 e 8 e t n m k k j l n l M R ) ] 1.1.1.1.1.2.:.:.1.1.1.1.3.1.:.1.3.1.2.3.3.2.1.1.1.1.1.1.:.1.1.` 1.1.` :.1.1.1.:.` ` 1.1.1.:.1.1.:.1.1.1.] :.' 1.1.:.' 1.' ' 1.:.:.:.,.a.s.a.a.a.a.u.g.k.$X@X3XiX5X3X3X3XpXpXzXAXGXVXVXVXSXSXvX%Xn.a.l.j.l.d.j.l.d.>./ ~ T T T U ~ ~ J M 6 6 a a 6 0 u 6 6 u 6 0 6 6 6 6 6 6 0 6 u 6 6 a 6 6 u 6 u 6 e 6 6 e u u 0 6 e a 6 e 6 u 6 6 6 6 a 6 6 e 6 0 u 6 e u 6 6 6 6 e e 6 0 u 6 6 e u 6 e 6 a 6 6 6 6 e 6 6 u 6 6 6 6 0 u 6 6 6 e 6 e 6 e e u 6 e e u u 6 6 a 6 6 e u 6 6 6 6 e 6 6 e 0 8 0 0 0 $ 7 v 2.<X4X<X>X:X:X:X=X-X3X3XaX6XiXiXiXiX",
"1X=X>X=X>X:X>X>X>X:X:X:X>X}.W.}.{.$.F = O - - * * - - ; 5 7 5 7 6 9 6 9 8 7 6 6 7 8 8 ; ; 6 8 C ` 1.3.1.1.,.3.1.1.3.3.3.2.3.3.,.1.1.,.1.1.:.` :.' ' ` W ` ` :.` 1.' :.,.,.:.' :.1.:.:.1.,.` 1.:.1.' ' 1.:.:.1.:.:.1.,.` 1.:.,.` ' :.,.,.:.Q o.Q #.#.#.Q #.a.D..X$X+X/.+XoX(.(.wXlXnXAXGXSXVXNXAXxX^.k.O.O.+.+.+.:.:.:.:.:.1.1.1.1.1.2.2.) U a 7 0 0 0 0 9 0 0 0 0 6 6 6 $ 0 6 $ 6 e u e a a 6 6 $ y $ $ $ B B $ e 6 6 e u e e 6 6 e e 6 6 e 6 6 6 6 u e 6 e 6 e e u 8 6 6 u 6 e u 6 u 6 e 8 6 u e u 6 u u 0 u 6 8 6 6 u e 6 6 u 6 8 e 6 u 6 u 6 6 6 u 0 0 u 6 u a 6 e a u 0 a 6 e u u e a 0 6 a u e e i j @. X<X,X:X>X:X>X-X+X+X@X@X+XQ.}.Q.+X+X}.>X>X>X>X>X>X>X>X<X<X>X>X>X>X>X>X4X}.XX$.h - * O - - + 5 - 5 $ $ 6 9 7 e 6 7 6 ; 5 5 6 5 ; 5 5 - r T ( ) ` ] ] 1.` ` :.1.:.` :.1.1.1.1.3.2.1.,.1.3.1.1.1.1.1.:.1.] 1.:.1.1.] 1.1.1.1.:.1.:.] 1.-.:.1.] ] 1.:.:.:.1.1.1.1.` 1.1.1.' 1.:.:.1.:.2.:.+.W R W W E o.y.R.[.}./.2X>X>X+X3XpXlXnXnXVXVXVXAXAXvXE.l.W o.<.,.$.#.@.>.,.:.1.1.' :.] 1.0.( C e 6 a u 0 u a u e 6 6 e u 8 u 0 6 6 u 6 6 e 6 e 6 e e e 6 u e e 6 6 6 e 6 6 6 6 6 6 e 6 6 6 e 6 6 6 e 6 e 6 e 6 u e 6 6 6 6 e 6 6 6 u e 6 6 6 6 e u 6 6 e 6 6 6 e 6 6 6 e 6 e 6 e e 6 e 6 e 6 6 6 e 6 e 6 6 6 e 6 6 e 6 6 e 6 6 6 0 6 e 6 6 6 8 7 0 q 7 $ 8 z <.<X<X,X>X,X:X:X:X=X1X-X=X=X=X=X=X/.",
">X>X>X=X=X1X:X>X}.>X>X>X>X>X}.<X,Xg.F > - 7 6 7 0 7 8 e e 6 5 8 6 6 6 9 7 0 e u u e u 6 6 5 a U ( 2.2.3.1.1.1.1.3.3.3.1.3.,.,.3.,.,.,.1.` :.:.:.` 1.:.` ' ,.:.,.1.,.,.` 1.1.1.,.' ,.' 1.:.1.:.1.1.1.,.:.' ,.' ,.:.' ,.,.' :.:.,.,.+.W ,.:.,.,.,.Q ,.' Q Q s.A.,X}.}.}.Q.}.E.@XiXlXnXGXFXVXVXNXAXxX%Xh.+.+.:.@.:.:.:.:.:.:.:.:.:.:.1.2.2.( U a 7 7 7 7 9 6 7 6 6 7 0 0 0 6 6 5 6 6 e e a a 0 a 0 $ B B $ $ $ $ $ u 6 0 u 6 6 u 6 6 u 6 e e u e u e u e 6 e u 6 u 6 8 u 6 6 e u 8 e 6 e e 6 u 6 e 6 e e 6 6 6 6 6 u 6 6 e u 8 8 e 6 u 6 u e 6 6 e 6 0 0 6 6 6 6 6 6 6 u 0 6 0 e u e 6 e e 6 u 0 6 e e 6 1 h +.XX<X1X1X:X>X:X>X+X+X+X$X[.}.}.{.{.>X>X>X}.>X>X>X>X>X>X}.}.>X}.>X>X>X>X<XXX X#.z 8 8 9 9 9 9 9 9 7 0 6 9 6 $ 6 6 6 6 6 6 6 6 6 8 6 5 7 t ~ ) ] 1.0.1.1.1.1.` 1.1.1.1.1.3.1.1.1.1.1.1.1.1.3.2.1.1.:.1.:.1.` 1.1.] 1.1.1.:.] 1.1.] 1.:.1.1.:.1.1.:.1.] 1.` 1.:.1.1.1.1.1.1.' 1.:.:.:.-.:.:.:.:.W ` W Q a.S.{.:X}.>X>X,X}.3XdXvXnXAXnXVXNXAXSXvXoXl.W ,.$.,.:.:.' ,.,.,.:.1.:.1.) 1.2.( V u $ 0 7 6 0 0 6 8 u e 6 6 6 8 0 u 6 u 0 6 u 6 6 6 6 u 6 6 6 e 6 e e 6 6 u e e 6 6 e u e 6 u e u e 6 6 6 u 6 6 6 6 6 e u e 6 u a 6 6 e 6 e e 6 6 6 e 6 0 6 e u e u 6 e 8 u 6 6 6 6 u 6 6 6 u 6 u e 6 6 6 e 6 e e 6 u 6 e u 6 6 u 0 6 e u 6 e 8 0 8 e q 0 5 > z $.<X4X<X>X:X1X:X1X:X:X=X:X:X1X:X:X:X",
"1X>X>X1X>X>X>X:X>X:X>X>X>X}.}.<X4Xj.L i 7 a 8 a 0 e e e e e 5 e 0 9 6 $ 6 a e u e a u e u 5 e K _ 2.3.1.1.1.1.1.1.,.3.,.,.,.1.1.,.1.,.1.,.1.1.1.1.:.:.1.1.:.1.1.,.1.,.1.:.1.1.:.:.:.1.,.,.1.1.1.,.,.1.1.1.1.:.1.1.,.,.:.:.,.,.` ` ,.,.+.#.` +.:.:.` #.' Q p.D.&X<X>X}.}.}.E.-X3XlXnXVXVXAXVXNXAXcX#Xk.o.+.@.+.>.+.1.1.:.:.,.,.:.,.:.>.1.( K a 7 5 8 7 7 6 6 8 7 0 7 0 7 6 6 6 6 6 6 0 e e 0 0 0 B $ B $ B $ $ B e u e 6 u e 0 6 u e 0 u u 6 6 e 8 6 6 e u e e 6 6 6 e e e 6 6 6 6 e u 6 u 6 6 u 6 u u 6 e 6 6 i e u e u 6 u e u u e 6 e 6 e u e u 0 u 6 6 6 6 6 6 6 0 0 u 0 u 0 6 6 6 u e 6 u 6 6 u 8 i f @.XX<X>X:X>X>X2X2X}.E.+X[.}.>X:X,X>X>X>X}.:X>X>X>X>X>X}.}.<X}.}.>X>X>X>X}.}.XX#.h 8 e 9 e e e 0 q e 0 0 0 9 9 $ 6 6 6 e e 8 6 8 6 7 7 5 t / 1.1.1.1.1.1.1.1.' 1.1.1.1.,.1.3.2.1.,.2.3.3.1.1.1.1.:.1.` ] 1.1.1.1.1.1.] 1.1.1.1.1.:.1.1.1.:.1.1.] 1.:.1.1.1.` 1.` 1.] :.] :.1.1.:.2.:.-.-.:.:.:.W ` ` W a.].}.}.>X>X,X,X}.2XfXvXnXAXAXAXAXVXHXvX+Xl.W o.,.,.,.` :.:.:.:.>.1.1.,.] 1.q.( V e 6 0 7 6 6 u u 6 u 6 6 u u 6 6 u 6 6 u 6 6 e 6 u 6 6 e u 6 6 6 u 6 e 6 e 6 6 u 6 e 0 6 6 6 6 e 6 e u 6 6 6 e 6 8 6 e e 6 6 6 6 u 6 6 6 e u 6 e 6 6 e 6 e 6 e 6 6 6 e 6 6 e 6 e e 6 6 e e 6 6 e 6 e u 6 u 6 e e 6 e 6 e 6 8 u 0 6 6 u 6 e 6 6 6 q 7 0 7 6 > z 2.<X<X<X>X1X1X=X1X1X:X:X1X*X1X:X:X:X",
"=X>X>X>X>X>X>X:X>X}.>X>X>X}.XX<X<Xg.L i 7 e e 8 7 6 e e e 7 5 e 0 7 6 $ 6 7 8 e 8 u e a u 8 a K ( 2.3.,.,.3.,.,.1.,.1.,.1.1.1.1.1.1.1.1.1.,.1.1.1.1.1.,.1.1.1.:.` 1.1.:.1.,.` 1.1.:.1.:.` 1.` :.:.` :.:.1.:.:.:.:.` :.:.:.` :.,.,.,.` ' :.,.` 1.:.' ' Q Q p.D.G.<X>X:X}.}.}.3XiXhXMXnXzXVXZXZXAXlX%XL.+.o.:.:.:.>.,.,.1.1.,.:.2.:.2.1.1.) U j 6 e 6 0 6 7 0 e e 0 0 0 6 6 6 6 6 0 6 6 6 6 0 6 6 $ $ $ $ B $ $ B 6 6 0 0 0 6 u 0 0 6 6 0 0 6 u 6 u 6 e u 6 6 e u u e u 6 u e u e 8 u 8 6 e 6 e e 6 e e 6 e u 6 e 6 6 e 6 e 6 6 6 e 6 e u 6 e u 6 0 6 0 0 u 6 0 6 u 0 u 0 e e e e u a e 0 u 0 u 0 6 e u i j +. X$X<X:X>X>X>X>X2X4X$X2X>X>X>X>X>X>X>X>X}.:X{.}.{.:X{.}.}.>X>X}.<X}.>X<XXX.X#.z u 7 e e e e q e e e 0 9 7 $ 6 $ 6 6 e e u 6 6 8 0 7 7 t T ) ;.1.1.0.1.1.1.1.1.3.3.2.2.1.1.1.1.1.1.1.1.1.,.2.1.1.1.1.1.1.1.1.1.1.1.1.1.1.] 1.1.1.` :.] 1.1.` :.1.1.1.1.` 1.1.1.:.1.1.1.:.1.:.1.1.:.:.:.+.:.:.' ' #.#.l..X}.2X2X<X>X,X}.+XiXlXnXMXAXVXVXVXAXvXoXl.W W ,.+.:.@.,.:.:.:.,.' 1.` ` 1.2.` K 8 0 e u 0 u 0 6 6 6 6 6 6 6 6 6 6 6 6 6 6 0 6 6 e 6 e 6 6 6 e 6 6 8 u 6 6 e u 0 6 6 6 u e e 6 6 e 6 6 e e u 6 e u 6 6 6 e e 6 6 6 0 6 0 6 e 6 u 6 6 e u 6 6 6 e 6 6 u e 6 u 6 u 6 6 e 6 u 6 e 6 6 6 e 6 e 6 u 6 6 e 6 6 6 6 6 6 0 7 8 6 6 e e e 8 6 e 6 5 7 F <.<X<X<X>X1X:X1X:X:X1X:X:X:X*X:X:X>X",
">X2X>X>X>X>XXX>X}.>X}.:X>X}.}.<X<Xg.L 8 7 a e 8 7 7 7 6 7 6 7 6 6 6 6 $ 5 6 6 6 u u e e u 6 a U ` 3.3.2.3.3.>.1.3.,.,.,.] 1.1.,.3.1.,.1.2.1.:.1.:.:.1.1.1.1.1.[ 1.1.' 1.1.:.:.:.:.1.) :.` :.:.:.:.:.:.:.` :.:.:.:.:.:.:.:.:.:.:.` :.:.:.` :.:.:.` 1.' W Q p.S.,X<X:X:X:X>X>X2X3XhXMXzXVXVXVXzXAXcX%Xz.o.:.,.2.2.,.,.,.,.>.3.:.:.-.:.1.1.) U d 7 8 8 8 > 8 8 e e 8 u e e e 6 6 6 6 6 6 6 0 0 9 0 $ B $ B $ $ $ $ $ $ $ $ B $ $ $ u 0 0 0 $ u b y 0 6 u 0 e 6 u 6 u 6 e u e u 6 0 6 6 u e 6 6 e 6 6 u e u e 6 6 u 6 6 e 6 6 6 6 0 u 6 u e 6 u 0 6 0 6 6 u u 0 0 0 u e e u u e e u 6 0 u e 6 6 u e u e 8 u h @.XX4X4X>X}.2X2X>X2X4X<X>X>X>X>X:X>X:X>X>X}.{.,X{.,X{.>X,X>X}.<X>X}.<X<X}.XX X$.z 7 7 e e e e q e 8 e 0 7 $ 9 9 6 6 6 u e e 8 6 8 7 7 q t ~ ) ) 1.1.3.0.3.1.1.1.1.1.1.:.1.1.2.1.3.1.3.1.2.3.1.3.2.1.1.1.1.;.1.1.1.1.1.1.;.1.1.1.1.1.1.:.1.1.1.:.1.1.:.1.:.:.1.1.:.1.1.1.1.1.1.1.:.:.` ` :.,.' ' ` #.#.g.{.$X4X+X$X>X,X}.3XdXvXnXnXnXAXVXVXGXvX$Xl.+.:.,.,.,.>.:.,.:.:.:.:.,.` 2.3.3.( U i e a a 6 u u 0 6 u 6 6 u 6 6 6 u 6 6 6 u 6 e e 6 u e 6 6 6 u e 6 6 6 u e e 6 6 e 6 6 6 u 6 e 6 u e 6 e 6 6 u e e 6 6 6 u e 6 6 6 6 e 6 6 u e e 6 6 u e 6 6 e 6 6 e e u 6 6 e 6 6 u e 6 6 e u 6 u 6 6 6 e 6 6 u 0 6 0 6 u 6 8 e e 8 8 6 8 8 6 8 8 5 e 7 5 8 z 2.<X4X<XXX>X>X,X>X,X>X:X:X1X:X:X:X1X",
">X>X>X>X>X>X>X>X}.>X}.}.}.}.XX4X<Xg.F = - e 8 8 6 9 6 6 6 6 6 7 0 6 6 9 6 6 u 5 5 6 6 6 $ 6 a U ) 1.3.2.3.3.3.1.1.3.3.,.1.3.1.1.2.1.1.1.1.' ` ` ( ` ` :.1.1.3.2.>.3.1.:.` 1.:.` 1.:.:.:.1.:.:.:.:.( :.:.:.:.:.` :.:.:.:.` :.:.-.:.:.:.:.:.:.:.;.:.` ' ` W p.F..X<X=X:X:X>X>X3XdXhXMXzXzXVXVXAXAXvX%Xz.R X.>.1.2.2.2.4.3.3.>.:.,.:.;.1.0.( U t 7 8 r r 8 8 8 8 a 8 8 e 8 6 6 5 5 7 0 0 0 u e 9 6 $ $ $ $ $ B $ B B $ B B $ $ B B 0 0 0 u 0 0 $ u 0 0 6 6 6 0 e 6 e e 6 6 6 6 0 u e u 6 6 8 u e u e 0 6 6 u e e 6 u e u e u e u 6 e 6 8 6 6 e 6 6 6 6 6 0 0 0 u 0 e u e 8 8 6 6 6 6 6 6 6 6 6 6 6 6 6 6 1 k +. X$X}.$X}.>X<X>X<X4X>X>X}.}.}.}.}.Q.:X:X:X:X>X{.:X}..X>X{.}.XX}.}.}.XX}.XXXX+.z > 7 e e e e e 8 e 8 0 0 6 6 $ 6 6 6 e e e e 6 e 8 7 7 e U ) ;.1.q.q.q.2.q.1.:.1.1.1.1.:.:.1.3.2.:.2.1.3.2.:.1.:.1.1.1.1.1.0.;.0.0.1.1.1.0.1.1.1.1.1.1.1.:.1.2.1.1.:.:.1.:.1.2.:.1.:.1.1.1.1.1.1.1.:.` :.,.[ ' ,.Q #.g..X}.$X+X}.}.>X}.2XdXvXnXnXVXAXzXNXAXhX#Xx.$.,.2.>.:.:.:.:.:.:.:.1.,.1.3.3.3.` H a 6 e 6 6 7 0 e 6 ; 6 6 6 ; 6 6 ; 6 6 ; 6 6 6 e 6 6 6 8 6 e e 6 e 6 e 6 6 6 6 e u 6 8 e e 6 6 6 e 6 6 6 6 e 6 6 6 u 6 6 e 6 e e e u 6 e e 6 6 6 e 6 e 6 e u 6 e u 6 6 6 e 6 6 e 6 8 6 e e 6 6 6 e e 6 u e e 6 6 6 0 7 8 8 8 8 6 8 6 8 8 6 8 8 6 8 e 8 7 5 8 z 2.<X<X<X<X>X{.,X>X>X,X>X1X:X>X=X1X*X",
">X>X>X2X>X2X>X2X2X<X<X4X<X4X<X4X<X<.F > - 8 e e 6 7 6 7 6 7 6 0 9 6 9 $ 5 6 6 6 u $ 5 6 6 $ a T :.1.1.q.2.3.1.1.1.2.3.3.3.2.2.3.1.1.1.1.1.' ` :.:.:.` 1.1.1.3.3.1.1.1.1.1.:.,.,.1.:.1.:.1.:.1.1.:.:.:.:.:.:.1.:.1.1.:.:.:.1.:.:.1.1.1.1.:.1.1.1.1.1.1.` R p.F..X<X>X=X:X>X1X3X3XhXMXnXVXAXAXAXAXnX%XB.o.W :.1.1.3.2.2.3.3.3.1.1.1.-.1.2.` U r > , : : 7 7 7 8 8 8 8 8 8 6 > 6 9 7 6 7 0 0 0 0 6 $ B $ $ $ $ $ $ $ $ $ $ $ $ y $ 0 0 0 0 0 0 0 0 6 e u 0 6 u 6 6 6 6 e 6 6 u 6 6 6 e e e u 6 6 6 u 6 u 0 e u e u e 6 6 u e e 6 u 6 e u 6 6 u 0 6 6 0 6 u 0 u u 0 e 8 6 6 5 5 7 6 5 ; 5 5 ; 6 5 5 5 5 ; 8 g +..XXX$X}.XX4X<X}.4X4X4X>X>X>X}.>X>X>X>X>X>X>X>X>X>X}.<X<X<X<X4XXX4X<X<X<X<XXX@.z i 7 8 e e 7 e e e e q e 7 9 7 6 0 0 e e e e 6 8 8 8 7 j ~ ) 0.0.q.q.q.1.1.1.1.1.1.2.3.>.1.1.1.:.3.2.1.1.1.1.:.1.1.1.1.1.1.1.0.0.1.0.0.0.1.1.1.1.:.1.:.:.1.1.:.:.1.1.:.1.1.1.:.1.1.:.1.1.1.3.;.1.1.1.1.1.2.3.[ ,.:.o.l.].XX4X2X>X>X<X<X5XgXvXnXMXnXAXAXAXGXvX#XV.` :.:.:.:.1.>.1.:.:.+.,.1.1.[ 3.1.R K 8 6 8 6 ; 5 6 6 ; 6 ; ; 5 8 5 ; 5 ; 6 6 8 e 8 e 8 6 e u 6 6 6 6 u 6 e e u e 6 6 6 e 6 6 6 e 6 e 6 e 6 u e 6 6 6 e e e 6 6 e 6 6 6 6 6 6 6 e 6 6 e e 6 6 6 e 6 e 6 e e 6 6 u e 6 u 6 6 6 6 e 6 e e 6 6 6 e 6 6 6 0 6 7 7 6 5 6 ; 6 ; 6 ; 5 ; 5 7 7 9 7 7 5 5 z <.<X<X<X>X,X>X,X,X<X2X>X:X>X=X>X*X1X",
">X2X>X1X>X4X4X<X<X<X<X<X4X<XXXXXXX<.K 7 ; e 8 7 6 6 6 7 6 6 7 7 6 6 6 6 6 6 ; 6 6 6 6 $ 6 6 a T -.1.1.1.1.1.1.1.:.1.1.2.3.3.3.3.3.1.,.1.1.1.1.1.` :.1.1.` :.3.' 1.1.:.:.:.1.1.' -.1.:.:.:.1.:.' :.:.:.:.:.:.,.' ` :.:.:.:.` 1.1.1.1.1.3.1.;.1.1.1.] 1.' ` 3.G.XX<X>X:X:X>X>X2XiXhXvXnXVXVXAXAXHXnXeXc.R -.:.2.1.3.3.3.3.3.>.,.1.1.1.1.0.` U t > : w > 7 7 8 7 8 8 8 7 8 7 5 7 7 6 6 6 6 $ 6 6 0 $ $ B $ $ B B $ $ B B $ $ B $ $ 0 0 u 0 u 0 0 0 e u 6 6 6 0 u 0 e u u e 6 e 0 u 6 u 6 u e 8 e u 6 0 6 6 6 6 6 e 6 e 6 e u 6 0 0 6 u 6 e 0 6 u 0 a u 0 0 6 0 $ $ 6 5 6 5 > 8 7 7 5 6 7 > 7 7 ; 7 7 5 > > k @. XXX$XXX}.$X}.}.<X<X<X<X4X4X1X4X>X4X1X4X4X>X<X>X>X<X<X<X<X<X<XXXXX4X<X<X<X X>.z 6 7 e 8 e e e e e 6 q q 0 7 0 6 6 e u e e e u e 8 8 q a ^ ) 1.1.q.q.0.0.1.1.1.1.3.2.3.2.1.1.3.1.1.1.,.1.2.3.:.1.1.:.1.] 1.] ] ) ] ) ) 1.) ] :.) :.-.:.` :.' ) :.` :.:.` :.) :.:.) :.] ] 1.[ 1.;.;.1.` 1.3.3.] ' ` W a. X}.2X$X>X>X<X4X5XhXvXnXMXAXMXAXGXMXvX$Xl.W :.2.:.1.1.:.:.-.:.' ' 1.` ' ' ' T H i 8 7 5 ; 6 5 8 8 8 7 6 > 6 5 6 8 8 8 7 ; 8 7 6 8 6 6 e 6 e 6 6 e 6 6 6 6 6 e 6 e u 6 6 e u 6 6 e u 6 6 e 6 8 u 6 6 6 6 e u 6 e u e 6 e u 6 6 6 u 6 6 u e 6 6 6 6 6 u e 6 e 6 6 e e 6 e u 6 6 6 6 u e 6 6 e u 0 6 7 7 7 6 6 5 > 5 5 > 7 7 5 > 5 5 5 7 9 6 8 D <.XX<XXX>X>X,X,X,X>X<X}.:X>X:X>X:X:X",
"=X=X>X>X>X4X>XW.k.y.y.g.l.g.a.g.g.L z > ; 8 8 e 6 8 7 6 8 7 0 0 9 6 9 $ 6 6 6 6 6 u e 6 6 6 u C U U Y ~ Y U U R R ( ` 1.1.1.,.1.3.1.1.3.3.3.3.3.1.1.' ` _ T T U U K K J H P J H K H K J H P K K K H K H K J K J J J J U A U J H T J J J ! J J T J J J U K :.S..X<X:X}.:X>X>X2X@XaXpXjXkXkXkXkXkXfX`.>.F K Y U T ~ Y U R 1.:.:.:.:.1.1.1.` T V M H H N N N H N V H M V N V V V V n a a 6 9 9 0 0 $ $ B B $ ^ $ $ $ $ $ B $ $ B B 0 u y 0 0 0 u y u 6 u 6 0 6 0 u 6 e 6 6 0 u 0 6 6 0 u 6 6 6 e 6 0 0 0 0 0 6 6 0 u u e 6 0 0 0 0 u e 6 0 6 u 0 u 0 u u 0 6 6 6 0 u a k M m V N N V N V V N N C V m V M K I >.C.C.S.k.c.P.v.n.R.W.}.>X>X1X>X2X4X2X2X>X2X<X>X2X2X<X<X}.{.j.$.$.<.<.<.g.<.<.I z 8 6 q e e e e e e 7 0 0 9 9 6 6 0 6 e e e u u e e 8 8 a N U J J J J U U T / / ' 1.2.3.1.1.:.1.1.3.1.1.1.1.3.2.1.1.R T T H J J ~ T J J J J T U Y U U T U U U U U J T J U U U U U H K J J U J J J J J J T T U J J H P ,.]..X$X2X<X>X<X2X5XaXfXxXvXvXkXjXkXcXdXz.:.K J T U Y U U U R :.:.:.` ` ` ` ` ( T H M N N N B N N C A C C m m m m C M k 8 8 8 8 8 6 6 8 6 6 6 6 8 6 6 u e 6 u 6 6 6 e 6 6 e 6 e 6 6 6 u 6 0 6 u e 6 u 8 6 6 e 6 6 6 6 e 6 8 6 e 6 6 e u e 6 6 e e 6 8 6 6 e 6 e 6 6 6 u 6 6 e e 6 e e u e u 8 7 6 7 5 8 a m B C C m m N C m M M V n V V V M H T >.S.n.v.v.v.v.v.b.D.}.}.2X>X>X>X=X:X",
">X1X>X1X>X1XQ.n.O.S G F K K F K K z 8 > 5 e 8 7 6 8 7 e 6 0 7 0 0 0 6 6 7 6 e e e 6 a e u 6 e n m M n M n k M N K Y ( ) 1.1.1.1.3.1.3.3.3.3.3.3.3.1.] ( T H M l j j j j t l j M j j j l l j j l j j l j j l l j l l j M j j j j j j n j n n n j n n n j z R C..X<X1X}.>X<X>X$X2X5XiXyXyX7XwX8XpX%Xz.o.d d j n z n M j U ` ` 1.` 1.:.1.3._ ( / ( / T ( ( ( ( ) ^ ( ( ( ( ( ) ^ ^ ~ m a 0 0 $ $ 0 B $ $ $ $ $ $ ^ B $ $ $ b y $ $ 0 0 u $ 0 0 u $ 0 0 6 0 u 0 0 0 6 u 0 u 0 0 0 0 u 6 0 0 6 u 6 u 0 u u 0 0 u 0 u 6 6 u 6 u $ u 0 6 6 u 0 0 0 0 0 0 e 6 0 6 6 6 u a M A ^ ( ( ( ( ( ( / ( ( ( R ( ( ( ( ` ,.2.<.g.g.g.a.g.6.a.j.n.{.>X<X>X>X>X}.<X2X>X>X<X<X>X>X>X<X{.n.o.h F F F z K F K m k e 0 e e 6 e q 0 e e 0 0 6 6 0 6 0 0 e u e e e 6 7 e 8 q j j n t M t j j M H T ` 1.1.:.1.1.:.:.1.1.3.1.,.2.2.,.1.1.R M l t M M M M M M j M M n l M l M M M M l M M M l M l M j j l n j n M t M l M t t t t g M l l D o.C.{.4X2X2X>X>X>X2X5XdXaXaXdXwXiXiXdX+X9.P d j z M M l l g T 1.` ` :.` ` ` 1.:.` T ~ ( ( ^ ^ ( ( ( ;.^ ^ ( ^ ^ ( ( ~ A j 8 8 8 6 8 8 8 8 8 6 e e u 6 e 6 6 e e u e 6 6 u 8 6 6 6 e 6 6 6 6 e 6 e 6 6 e 6 e 6 u e 6 u 6 e u 6 u e 6 8 6 6 e u 6 u 6 6 6 8 u 6 6 e 6 e e 6 8 6 u 6 6 6 6 6 6 6 0 e 8 5 u m U ^ ^ ( ^ ( ( ( ( / Y ( ^ / / / ( ( +.,.l.g.a.a.y.y.a.y.v.R.:X>X2X>X>X:X*X",
">X>X2X>X1X4X=Xv.I , d i i i i d d i 8 ; 5 e e 5 e e 6 e 8 7 7 e 7 7 0 6 9 6 6 6 e e e u 6 6 6 a a a a e i e 8 i j T :.:.:.1.1.1.3.3.3.3.3.3.3.3.3.] ] ] / M r 7 8 7 8 8 8 8 8 8 8 e 8 8 7 8 e 8 8 e 8 8 e e e 8 8 8 8 q q 8 8 8 e e e e q 8 e e e e q 8 > K V. X4X}.}.>X>X2X>X$X+X@X@X(.(.@X@X3X+X9.P = : 8 d e 8 8 8 H ` 1.3.3.` 1.3.1.` ` ` :.' 1.:.1.] 1.1.1.1.:.' 1.1.) ;.) ) m 0 9 $ 0 0 0 B $ $ $ $ $ $ $ $ $ B $ y $ b $ 0 y $ y $ 0 0 b 0 6 u 0 0 0 0 0 6 0 6 0 0 0 0 0 0 0 0 0 0 6 0 0 u 0 0 0 6 0 6 0 0 6 0 0 0 0 0 0 6 0 6 6 6 6 u u 0 0 0 u 6 u 0 $ a B ^ ;.] ] ] ] ] ] 1.] ] 1.1.] 1.] :.' ,.,.+.,.>.>.>.,.,.o.g.n.].>X>X<X>X>X>X2X>X>X>X2X>X>X>X4X<XR.j.F = 7 8 > > 7 > 5 7 5 6 6 0 q e e q e 0 0 0 0 0 6 7 0 6 0 0 e e e e e 6 e 7 8 8 8 r r 8 r 7 7 t l T 1.1.1.1.1.:.:.:.1.1.>.>.3.1.1.:.1.1.Y r r 8 t t 8 r 8 7 8 8 8 8 e 8 t q t t q 8 t e t t 8 q t t q 8 8 8 t 8 t q 8 t t t r w w r w r , L S..X4X>X}.>X}.}.2X2X3X3X3X;X2X+X3X3X[.<.H : 8 t 8 t 8 e r K ' ' ' ` ` ` ' ' :.1.` ` ` ` -.1.) 1.;.1.0.1.;.;.1.;.0.^ ^ n 8 8 5 8 8 8 6 6 8 6 e 6 6 6 6 6 6 7 6 6 6 e 6 6 6 7 u 6 6 6 6 e 6 6 6 6 6 6 6 6 6 6 6 6 6 7 6 6 6 e 6 6 6 6 6 6 6 8 7 6 6 8 6 6 6 6 6 8 6 6 6 6 u 8 6 8 6 6 6 6 6 e e 6 5 5 e A ^ 1.1.2.-.0.;.1.;.1.] ;.1.] ] [ ] ` :.,.<.#.,.#.#.#.t.O.y.b.}.4X>X=X>X:X1X",
">X>X>X>X>X4X{.k.P * 5 5 5 6 7 7 5 e 7 e 5 e 6 e 5 6 7 e e 6 6 0 0 0 0 7 6 0 e e 6 u e 6 6 6 6 6 6 6 6 6 6 6 8 8 a U :.1.:.1.:.1.3.3.3.3.3.3.[ 3.3.[ ] ] / t r - 5 5 7 9 q q 8 e q q q e q q q q q q q 7 q q q q q 7 q e e q q e 8 q q q q q q q 8 q 8 7 ; H B..X4X}.}.}.>X>X}.>X}.<X>X>X:X}.>X4X.Xd.K * : 8 7 8 8 5 7 M ` ] 3.3.1.1.] [ 1.` 1.1.3.3.1.1.1.1.1.1.1.1.1.1.1.1.0.0.) m 0 y u $ 0 0 $ $ B $ | $ $ B $ B $ $ y $ $ b $ u u y u 0 0 $ 6 0 0 0 0 6 $ u u 0 6 0 u $ 0 0 u $ u 6 0 0 0 6 $ 0 0 0 u $ 0 6 0 0 0 6 y u $ 0 u 0 0 0 0 0 9 0 u 6 6 6 6 $ $ 6 e V ( 0.1.1.1.3.1.1.1.1.1.1.1.1.1.1.1.,.:.@.@.,.,.>.,.,.>.+.<.S.{.<X<X>X>X>X>X>X>X}.>X>X>X>X>X}.<X{.l.F X 9 7 5 5 5 5 $ 5 5 7 6 0 0 0 0 0 8 9 0 0 0 0 0 0 0 0 0 0 0 e 6 6 6 0 0 7 7 7 7 8 7 7 7 7 7 r l T 1.1.1.:.:.:.1.1.>.:.2.:.1.>.:.:.1.1.U r r 7 8 7 7 8 8 7 7 7 7 8 q q q e q e e e q q 9 q e q e e q q q q q 7 q q 8 8 7 7 w q 7 : 7 : : K ]..X4X2X>X}.>X>X}.1X<X>X2X}.$X}.}.2X].,.H - : e q 7 7 8 r H :.:.+.' ' ` ' 1.1.1.1.1.:.1.:.1.1.1.1.1.1.1.1.1.0.1.1.1.) k > 8 8 > 6 8 6 8 8 6 8 6 8 8 8 8 e u 8 8 6 8 8 e 6 8 8 e 8 8 i e 6 e 8 8 8 8 6 e 8 8 8 8 8 8 e 8 6 8 6 8 8 8 6 e 8 e 6 e 6 8 6 8 8 e 6 8 6 8 8 8 6 e 6 8 e 8 8 8 8 e 6 e 5 5 a A ) 0.0.1.1.0.1.0.1.1.1.1.1.0.1.1.1.:.:.+.' +.:.` :.Q #.Q a.b.{.1X>X>X:X>X1X",
">X>X>X>X>X4X:Xc.P - 5 7 7 6 0 6 6 7 0 7 0 7 0 0 e 6 8 e 8 7 e 7 e 0 6 0 6 0 e 6 8 0 6 e 6 0 6 6 6 6 0 e 0 6 6 e d U 1.;.:.1.1.:.1.1.] 1.3.] [ 1.[ [ [ ] / n w 7 6 9 9 9 9 y y 9 0 9 y 0 0 9 9 9 q e e 9 e y 9 9 9 9 9 9 0 9 e 9 q 0 e 0 9 9 q 0 9 9 7 5 ; F B. X<X}.XX<X>X<X>X<X<X>X<X>X}.>X>X<X.Xs.K - - 8 8 7 6 6 5 N :.1.3.3.[ 3.3.3.' ' 1.1.1.1.1.3.2.1.,.1.:.1.1.1.1.1.1.0.) m 0 0 0 0 $ u b $ b b $ b B $ $ $ $ $ $ b $ $ $ y 0 0 $ 0 6 0 0 u 0 0 $ 0 0 6 0 0 0 0 $ 0 $ u u 0 0 $ u y u y 0 $ u y 0 y 0 $ 0 u 0 $ u y u y y u y u 0 6 0 u 0 u 0 0 6 6 6 $ u N ^ 2.3.3.[ 3.[ 3.1.1.1.1.1.1.1.3.3.3.,.:.:.:.,.,.>.:.:.R g.S.{.<X<X>X>X<X>X>X>X>X>X>X>X>X<X<X<X{.l.F o 9 0 0 7 0 7 7 0 7 0 0 0 0 0 0 0 0 0 e 0 0 0 0 0 7 0 0 0 e 0 0 6 e 8 6 5 8 7 8 8 7 7 7 7 7 8 l Y 1.1.:.1.1.1.3.:.:.:.:.1.2.:.>.:.:.;.Y 8 8 8 8 8 8 r 8 8 8 8 7 e e 9 e y q 9 y y 9 e e e q e q y 9 9 9 e e e q q q q e 8 q 8 7 7 7 7 > L S.XX4X=X>X}.}.>X>X>X>X>X}.>X}.>X>X>X].2.N 5 5 q q 8 8 8 r J ,.,.Q ' 1.` 1.1.1.1.' 1.' 1.1.1.1.1.1.1.1.1.1.:.1.0.1.;.^ l 8 8 > 7 8 8 8 6 6 8 8 e 6 8 8 8 6 8 6 8 8 8 6 6 8 e 6 6 8 8 8 8 8 8 e 8 8 6 8 8 6 8 8 6 8 8 6 8 8 8 6 8 6 e 8 8 6 8 6 8 8 6 8 8 8 6 8 8 8 6 6 8 6 6 8 6 8 8 6 e e 6 6 8 5 5 j V ( 1.1.1.0.1.0.1.1.q.1.1.3.3.1.3.1.,.,.,.+.` :.` +.#.Q #.y.b.:X1X>X>X>X>X>X",
">X>X>X>X2X4X}.c.P = 5 5 7 6 7 9 6 9 7 6 6 6 0 7 q 0 7 0 0 0 0 7 7 7 0 7 0 7 8 e q 8 u 6 e 6 e e 0 0 u 6 6 0 6 u i U 1.:.:.1.1.1.1.] 1.] 3.[ [ [ [ [ ] ] ~ t w 7 9 0 $ 0 0 $ 0 y 9 y $ 0 $ 0 0 y 9 e 9 9 9 9 9 e y 9 0 9 9 e 9 e 0 0 9 e q 0 9 0 0 0 0 5 - C B..X4XXX}.}.}.<X}.>X>X<X}.>X,X>X:X1X.Xg.K - : 7 8 e 7 7 e N ( 1.3.[ 3.3.3.[ 1.,.1.1.1.3.1.1.,.1.1.1.1.:.1.:.] 1.0.1.) m 7 0 0 0 y y $ y $ $ $ $ $ y $ B $ B y $ b $ b u $ 0 u 0 u 0 0 $ 0 u u 0 6 0 $ 0 0 u u y 0 0 $ 0 0 0 $ 0 $ y y u $ y $ u 0 y $ 0 0 0 y $ $ 0 9 $ 0 $ $ 0 0 6 6 6 0 u 6 6 6 ; e V ( q.3.3.1.[ 1.[ [ 3.[ 3.1.3.1.3.,.>.,.:.+.:.,.,.:.2.:.W <.S..X<XXX>X>X>X,X>XXX>X>X>X>X>X>X>X4X{.l.z o 9 9 e 0 0 0 e 0 0 0 0 0 0 6 e 0 e 0 0 0 0 0 0 0 0 0 0 0 e 6 0 6 6 e 6 e 5 7 7 8 8 7 7 7 7 r j T 1.1.2.:.,.1.3.:.,.1.2.:.:.1.1.2.:.1.U r 8 7 7 8 8 8 8 8 8 8 e q e y e 9 e 9 e 0 0 9 y q y q y 9 0 e y 9 e 9 e e 0 7 e 8 e 8 7 9 7 > > P S.XX4X>X>X}.}.}.}.>X>X>X}.}.>X>X>X<X|.2.K - 5 8 7 q q q e J ,.W ' ' ' 1.' ' 1.1.1.1.,.:.` :.1.1.] 1.1.1.1.1.1.;.1.1.-.l 7 : 8 8 7 8 7 8 8 8 6 8 6 8 6 i 8 6 8 8 6 8 e 8 8 6 8 i 8 6 6 8 8 8 e 6 6 8 8 8 8 8 e 6 8 8 6 e 6 6 8 8 6 8 6 6 i 8 6 8 6 8 8 6 e 6 i 6 8 8 8 8 8 8 8 8 6 i 8 q 8 8 8 8 8 - e U ( 0.2.1.1.2.1.1.0.1.1.1.0.3.1.' 3.,.` Q :.W ` :.:.' +.Q a.v.:X>X>X>X>X>X>X",
">X>X>X>X1X4X}.c.L - 6 7 6 6 9 7 7 0 6 9 0 7 7 0 8 7 0 7 8 e 8 e 0 e e 7 7 0 7 0 6 6 6 6 6 6 0 u 0 0 e 0 0 6 6 e a U 1.:.1.;.1.1.1.1.1.1.1.[ 1.[ [ [ 0.] / n q 7 9 6 9 0 0 9 0 $ 0 0 0 9 y y $ y 9 e 9 9 9 y e 9 9 0 y $ y 0 9 9 9 e e 9 0 9 q 0 0 0 6 5 ; z B..X4X}.}.<X4X}.<X}.,X<X>XXX>X,X>X<X.X<.K - 5 8 8 8 8 8 8 N ( ' 3.3.3.3.3.' ] 3.3.3.,.1.1.1.1.1.[ 1.1.,.1.1.1.1.1.1.;.n 0 0 b $ $ y $ u 0 0 y y $ $ $ B $ $ $ b 0 0 $ y u 0 0 0 6 6 0 0 0 $ 0 0 6 6 u 0 0 $ $ y 0 0 0 0 0 u u y 0 u 0 y 9 u y u $ u 0 u 0 0 0 u y y $ u y 0 u 0 6 0 $ u 6 $ 6 u 6 $ 0 V ( q.3.3.3.[ [ 3.[ 3.3.3.1.3.,.1.,.:.,.,.+.+.:.:.:.:.-.X.4.S..X<X<X<X>XXX>X>X>X>X>X>X>XXX>X<X4X{.l.F X 9 0 e e e e e q 0 e e u 0 0 0 0 0 0 0 0 e 0 e 0 0 0 0 0 u e 6 e 6 e e 0 7 8 8 q 8 7 7 7 7 e l T 1.1.:.>.3.1.>.:.:.1.,.1.1.:.2.2.:.:.U r > 5 5 7 7 8 7 8 7 7 0 e q e e 9 y e y 9 9 9 y e e e 9 9 0 9 y e e 9 e 0 e 0 e e e 0 7 5 7 5 > K F.XX<X>X>X}.}.}.>X>X>X>X>X>X>X>X<X<X.X2.N - 5 8 q q q q 8 J ' ,.' ' :.` ' 1.' :.1.1.:.,.' ,.1.1.1.1.1.1.] 1.1.1.1.1.^ l 7 , 8 8 7 8 > ; 8 6 8 8 8 e 8 6 6 8 8 6 6 6 8 8 6 7 e 6 6 6 8 6 e 8 8 e 8 u 7 6 8 e 7 8 i 6 8 8 6 8 8 8 8 e 8 6 6 8 8 8 u 7 6 8 6 6 6 8 8 8 e 6 u 7 6 6 8 6 6 8 8 8 8 6 8 ; j J ) q.1.1.3.1.1.2.1.3.1.1.1.1.3.] ,.' :.Q :.:.` :.W ,.W #.j.b.:X<X>X>X>X:X>X",
">X>X2X>X>X4XW.c.K - 5 7 6 6 7 6 6 7 6 7 6 0 7 0 0 8 q 8 q 6 7 0 0 7 0 7 8 e 8 e 6 e e 6 e u 6 e 0 0 0 0 u 6 6 u a U 1.2.:.1.1.1.1.] 1.] 3.[ [ q.[ [ [ [ / n e 7 9 6 0 $ y 0 0 0 y $ 0 y $ 0 0 0 0 9 0 y 9 0 9 9 9 9 9 y 9 9 9 0 9 9 9 9 9 0 9 0 0 0 0 5 - K B..X<XXXXXXX}.<XXX<XXX>X>X>X}.>X>X<X.Xd.K - - 8 8 8 8 8 t H ( 1.1.1.[ 3.3.] [ 3.3.,.3.,.3.3.3.,.,.1.,.:.:.:.] ] 1.1.;.B 0 0 $ y u $ y 0 0 0 y $ B $ $ $ $ B 0 0 0 0 b $ $ 0 0 0 6 6 $ 0 6 0 u 0 u 6 0 0 6 0 0 y u $ 0 0 0 6 y $ 0 $ $ u 0 $ y $ 0 y 0 0 6 0 0 $ $ u 0 y u $ 0 0 6 6 0 0 6 6 6 6 5 5 a V ( 1.1.] [ ] [ [ 3.[ 3.3.1.1.3.,.1.1.:.:.:.:.:.2.:.:.:.W l.S..X<X,X>X>X>X>X>X>X>X>X>X>X>X<X<X<X{.l.v o 5 e q e e e e e 6 0 0 e e 0 0 0 u 0 0 0 0 6 u 0 0 0 0 0 0 0 0 6 6 e e 7 8 5 8 q 7 9 7 7 7 q k T 1.1.1.1.,.3.>.:.2.:.2.>.>.:.1.2.1.:.U r 7 5 7 8 e 7 8 6 e 0 e e e e 0 9 e 9 9 y 0 0 9 y 9 y 9 y 9 0 0 9 y 9 e q q 0 e 0 0 7 6 6 5 8 > K F.XX4X>X}.{.}.}.>X<X}.}.}.}.<X>X2X<X|.<.H - 5 q q q e q 8 J ,.W ' ` ` ,.' 1.:.,.` ' :.:.1.` :.1.] ] 1.1.1.1.1.1.1.1.] l 7 7 : > 7 8 8 8 8 6 8 8 8 7 e 6 6 8 6 8 6 6 i 8 8 8 8 8 6 8 8 6 8 8 8 8 6 8 8 6 8 8 e 8 6 6 6 i 8 8 6 8 8 7 e 6 8 8 6 6 8 8 8 8 8 8 6 8 8 8 8 8 8 8 8 8 8 6 6 8 8 8 8 7 5 - e J ( 2.2.3.2.1.3.3.1.3.3.3.3.3.3.,.' ,.,.:.,.W ` ` :.Q #.E y.v.*X1X>X>X>X1X>X",
">X>X>X>X>X4X}.c.L - 7 8 6 6 6 6 7 0 6 9 6 6 0 7 8 7 0 0 q 0 0 8 e e e 7 e 7 6 6 0 e 6 0 e 6 0 0 0 0 0 0 u 0 6 6 a U 1.-.1.1.1.1.1.1.] ] 1.[ [ [ [ [ ] ] ! b q 8 9 0 9 0 0 0 y 0 y y 0 0 y $ y 0 y $ 0 9 0 0 9 y 9 0 0 0 y $ 0 9 9 0 y $ 9 9 0 0 0 9 0 5 5 m B.|.,XXX.XXXXXXXXXXXXX>X>X>X}.>X:X1X.Xd.K * - 8 8 8 e e a V ( ) ] ` [ ] 1.] 1.1.1.3.,.,.3.3.,.3.,.,.,.:.:.` ' 1.1.1.1.M 8 e y 9 y 0 e 0 0 e e e 0 q $ B y $ y y 8 0 $ 9 0 0 e 8 8 e u e 8 8 8 6 8 e 6 6 i e 0 0 0 0 e 6 6 e e e 6 6 8 0 0 0 $ 0 0 0 6 6 0 e 0 6 0 0 0 0 0 0 e e e e 0 6 6 u e 6 6 ; e N ^ 1.1.[ ] 1.1.] 1.] ] 3.1.1.1.1.1.1.1.1.` ' :.1.1.;.;.-.a.S..X<X<X>X>X>X>XXX,X>X,X<X>X>X>X<X4X{.l.F O 9 e q e 0 8 0 8 7 0 0 0 0 e 0 0 0 0 0 0 0 0 0 0 0 0 e e 0 0 0 e 6 e q 0 7 7 0 q 8 7 7 7 7 7 M T 1.1.2.1.1.:.1.:.1.2.:.1.1.2.1.2.:.:.U a 6 9 6 e 8 e e e e e e 0 y 0 0 e 0 0 9 y 0 0 0 9 9 9 0 y 0 0 9 9 y y 0 0 0 0 q e e 8 6 5 7 8 > L F.XX<XXXXX.XXX.X}.<X}.>X}.>X<X>X2X<X].3.N - 5 e q 0 q e e J 3.` ` ` 1.:.:.` 1.1.1.:.,.,.:.,.1.1.1.1.:.1.:.1.1.1.1.] ) j 8 > 8 7 > 8 8 8 8 8 8 8 8 r 8 8 8 8 8 8 8 8 8 8 8 e 8 8 8 8 8 8 8 8 8 8 8 8 8 8 8 8 8 8 8 8 8 6 8 8 8 8 8 r 8 8 8 8 8 8 8 8 8 8 8 8 8 e 8 8 8 8 8 8 8 8 8 8 8 8 8 8 8 8 8 5 t J ( 2.3.3.3.1.3.1.1.3.,.3.3.3.' ,.[ 1.` :.` ` ` :.:.:.+.+.s.n.:X,X>X>X,X>X>X",
">X>X>X>X>X4X}.c.K = 5 5 9 9 7 7 0 7 6 7 7 6 0 0 0 8 q 8 7 7 8 8 7 6 e 0 e 6 e e 0 6 6 0 0 0 0 0 0 e 0 0 0 0 6 6 b A 1.:.1.-.1.1.1.1.` ) ) ] ] ] ] ] ] [ ~ y 8 9 6 9 0 0 y $ $ y 0 $ 0 0 0 0 0 9 9 y 0 0 0 9 9 0 y $ 9 0 0 0 9 9 0 0 9 y 9 0 0 9 0 0 0 9 5 V B._..X|. X X X.XXX XXX<X,X<X>X>X>X1X.Xd.K - 5 8 e q e e j m T ( ) ( ] ] ` ( ' ,.1.1.1.1.,.1.1.3.1.,.,.,.1.' 1.' 1.1.1.N r e b b a e e a a e a e e e B $ y $ 0 9 e e b 0 e e 8 8 8 1 e e > 8 8 e 8 > i 8 8 8 u 0 e e e u u e e u e u e u e u u a u 0 e u u e u e e u 0 u a 0 8 u u 8 0 e e e e q 8 > a A ^ ] [ 1.1.[ ' ] ] ] 1.] 1.1.:.1.:.1.1.:.( ` -.1.1.1.:.X.2.).XX<X,X>X>X>X>X>X>X>X>X<X>X>X>X,X<X{.l.v O 9 e 9 7 0 0 7 0 6 0 0 0 0 0 0 0 0 0 0 0 e 0 0 0 0 0 0 0 0 0 0 0 0 6 q 0 0 7 0 q 8 0 7 7 5 t j ~ 1.1.1.:.:.:.` :.:.) :.2.;.-.1.;.-.-.Y j 7 5 6 e e u e e 0 e 0 0 0 0 0 9 y 0 y 0 0 y 9 y 0 0 y 9 0 y 0 0 0 9 e 0 0 0 e e e 7 7 6 5 8 > K B.|.XX|.|.|..X.X.XXX}.<X<X>X2X>X1X4X.X,.N 5 5 e q 0 q e t V _ ) ` ` ( ( ( ( 1.1.:.` :.` 1.' 1.1.' ' :.' 1.1.` 1.1.:.` l , 8 r r r r 8 i 8 8 d 8 8 8 r r r r 8 8 i r 8 8 r r 8 8 i 8 r r 8 r 8 i 8 8 d r 8 r 8 r 8 r i 8 i d 8 8 8 8 r r 8 d 8 r 8 d 8 i 8 8 d r 8 r 8 r 8 d 8 8 i r 8 8 r 8 8 r 8 7 t J ( 2.3.>.:.1.>.1.,.1.3.,.1.3.] 1.' 1.1.` W ) ' :.` ` :.o.s.R.*X>X>X>X>X>X>X",
">X>X4X>X<X4X}.c.L - 6 6 9 5 6 0 6 7 0 6 7 7 7 0 8 0 7 8 0 e q 0 e 6 7 6 e 7 0 0 6 0 a 0 u e 0 e 0 0 u 0 0 6 6 u p U 1.1.:.1.1.1.1.1._ / T J T J ! ~ ! ~ N q 9 0 0 0 0 9 0 0 0 0 y $ 0 $ y 0 y y 0 0 0 0 9 0 0 0 y 0 0 0 y $ y y 0 0 9 0 0 0 0 0 0 0 6 8 5 j -.1.q.4.2.<.4.<.d.l.|.XX>X>X>X>X>X1X.Xd.K - ; 8 e 7 0 e e n V U U U J U U J T ( ] 1.1.1.3.,.1.,.1.3.1.' 1.1.` :.,.1.:.Y N V V V V V m N N N N m m m ! B B B m m m m N M m z M m z M z z z z z M z z z m m m m m m N B B B C N C B B N B B C B B V B B B B B N N B N B B B B B m B B N N N m m m m n V U ) 1.1.1.] ] ] 1.] 1.] :.' 1.1.;.1.1.:.( J J U T T T A C :.V..X<X<X<X}.<X>X>X>X>X>X}.<X}.>X>X<X{.l.K * 9 e 6 7 0 7 0 6 q 7 0 0 0 0 0 0 6 0 0 0 0 0 0 0 0 0 0 0 0 0 e 0 0 0 0 0 0 7 0 e 0 8 0 7 7 q M T 1.1.1.1.1.:.:.1.R T Y K U U K Y Y U m i 6 6 6 0 0 e e 0 e 0 0 0 0 0 y 0 y 0 0 y 0 0 0 0 0 y 0 y 0 0 0 0 0 0 0 0 0 0 e e e e 7 5 5 8 8 M -.>.<.2.>.a.<.>.g.c.{.4X>X<X>X>X4X<X.X4.H 5 5 e e q e e e m A U U K K H C K Y R :.,.,.,.,.` 1.,.1.1.:.:.,.1.1.1.1.` ) U M M M l H z M M M D M M N M m N M M m z m M m H M M M m M D M m N m M N m z M M N M m M H M M M M M M M N M m N M M M M H M N M M M M M N M M N M M M M z M m H M m M M M M N T ` 3.2.,.:.1.1.,.,.,.1.,.3.' ,.,.[ ' ` T K U U C K Y K K #.v.{.>X>X1X>X,X>X",
"}.>X>X>X>X<X}.c.K - 5 7 5 6 6 7 6 6 7 6 9 0 7 0 8 0 0 e 0 7 7 0 6 7 e e 0 7 e 7 0 0 0 0 6 0 0 0 0 0 e 0 0 6 6 u a A 1.1.-.1.1.;.1.1.( J j 8 r 8 y y q e q 9 q 0 0 9 0 0 y $ y 0 0 0 y y $ 0 9 u y $ y $ y 0 0 0 y $ 0 0 0 y u $ $ y 0 0 0 9 y 0 0 0 0 e e 8 8 i i i d j g , h I x.XXXX>X:X,X>X<X.Xd.K - - 8 8 e 7 7 8 e a k j d j j t 8 j M ` 3.>.1.,.1.,.' ,.,.' ,.3.,.,.1.1.1.1.1.) ] :.;.1.;.1.;.1.) 1.1.] ] 0.;.) 0.1.;.1.] ;.] :.1.-.:.:.-.` ` :.1.:.` ` ` :.:.-.:.:.:.-.2.;.1.;.;.;.;.1.;.;.1.;.;.1.;.1.;.2.;.-.;.0.1.;.;.1.;.1.-.;.;.1.1.;.-.:.1.1.] 1.] :.1.1.1.] ] 1.] 1.] 1.] 1.1.1.1.1.:.1.' ( V t r e e a e e 8 K l.|.XXXX<X<X,X>X,X>X>X>X>X<X,X>X<X4X{.l.F + 7 0 q 0 0 7 0 6 e 0 0 0 e 0 0 0 a 0 0 e 0 0 e 0 0 e u e u 6 0 0 0 q 9 7 0 0 7 e 7 7 7 8 7 8 n Y 1.2.1.:.>.1.:.1.T z d i k u 8 6 u e e 5 6 6 6 0 6 7 6 0 a 0 0 0 0 0 0 0 0 0 0 0 0 y 0 0 0 0 0 0 0 y 0 0 y 0 0 0 0 0 e e e 6 6 5 6 5 5 e d 8 > 2 d d d 2 S E n.4X<X4X>X1X<X1X|.>.V - 7 e q e e e q e e t r 8 8 8 7 8 j C _ 1.' ` ' ,.,.` ' :.` ' ,.` 1.:.1.` ` ' ' ' ` ` _ ) ` ` ) ` ' ) ` ` ] ` ` ` ) ' ` ` ` ` ` ] ) ` ] ` ` ) _ ` ` ` ` ` ' ) ` ` ` ` ` ) ` 1.) ` ' ) ` ` ] ` ' ) ` ` ` ) ` ` ` ` 1.) ` :.) ] ' ) ` 1.` ` ` ` ` ` ` ` ' ` ( ` ,.3.3.:.1.,.1.,.1.[ ,.1.,.,.1.[ ,.' ( H 8 r r 7 8 8 r > G g.D.1X>X>X:X>X>X",
">X>X2X>X>X4X}.c.L - 7 7 6 7 0 6 7 7 0 6 7 0 7 6 0 7 0 0 8 0 8 8 e 8 6 8 q e 8 7 0 0 0 0 0 0 0 0 0 0 0 0 u 6 6 e a U 1.:.-.:.1.;.1.0.^ N a 7 7 8 7 7 7 7 0 7 7 0 0 9 0 0 0 9 0 y 0 y $ 0 0 0 0 $ 0 $ y 0 y 0 y y 9 $ y 0 0 0 $ 0 y y 0 0 0 $ y 0 0 y $ y 0 q 6 8 e 8 > 8 6 ; 3 F j.<X<X<X>X>X>X<X.Xd.K - - 8 8 8 5 7 6 6 a a a e 5 8 8 8 d M ` 1.1.1.,.,.1.' ' 1.3.1.,.1.1.,.,.1.1.1.1.1.1.1.1.1.1.1.1.1.1.1.1.1.1.1.1.1.1.1.1.1.1.1.1.1.1.:.1.:.1.:.:.:.,.:.,.:.:.:.:.:.1.:.:.2.1.1.1.2.2.:.:.;.2.1.1.;.1.2.1.1.1.1.;.1.1.2.1.:.2.1.0.;.1.1.2.0.1.1.1.1.1.1.1.1.1.1.1.3.[ ] 3.] ] 1.3.1.1.,.1.1.1.1.1.1.( J t 8 e e e e 7 - K l.|.<X<X<X>X>X>X,X>X>X>X>X>X,X<X<X<X{.l.F - 6 0 0 6 e 7 e 7 0 0 0 0 0 e 0 0 0 e 0 0 u 0 0 0 0 0 0 0 e 0 0 0 0 0 0 0 7 6 6 e 6 7 0 7 7 e n T 1.1.1.,.,.1.>.1.U j i 8 a u 5 6 u 0 0 5 $ 6 0 6 $ 0 0 e b 9 $ 0 0 0 0 y 0 y 0 y 0 y 0 0 y y y y 0 y 0 0 0 0 0 0 0 0 0 0 q e 8 7 7 5 5 5 6 ; ; > 1 i > = 2 I v.4X<X<X4X>X1X4X|.3.H 5 5 e e e e 0 7 0 0 8 e 8 > > - 7 j H ) 1.' :.' :.' ' 1.` 1.` ,.,.' 1.,.` 1.:.1.1.] ' ` ] ] 1.] ] ] 1.] ] ] ] ] ' ] ] ] 1.] ' ] ' 1.] ] 1.' ] ] ] ] ] ] ] ] ] ] 1.' ] ] ` 1.1.] ' ] ] ` 1.] ] ] ' ] ] ] ] ] ] ] ] 1.] ] ] ] ' ] ] ] ] ` ] 1.:.) 1.' ' 1.1.] :.1.2.' ,.1.,.,.,.' ,.] 3.,.,.3.1.' ' ( H 8 8 r > 7 7 > * F g.{.>X<X>X,X>X>X",
"}.>X>X>X<X4X}.c.P - 7 7 6 9 7 0 9 6 9 7 0 7 0 0 7 0 q 8 0 7 0 8 0 7 0 7 e 6 e 0 0 0 0 0 0 e 0 0 0 0 0 y 0 u 6 e b U 1.2.1.:.:.1.2.1.U M 8 5 5 6 7 6 6 5 6 9 9 0 0 9 9 0 0 0 y $ 0 y y 0 y $ 0 0 0 y 0 0 $ 0 $ u 0 y 0 0 0 0 y y 0 $ 0 0 y y 0 0 0 0 0 0 0 0 e e e 7 8 8 5 ; r F x.XXXX<X}.:X>X<X.Xd.K - - e 8 e 8 7 5 6 e 0 5 6 5 5 5 5 r z ( 1.1.1.,.' ' 3.,.[ ' ' ,.1.' ,.1.,.1.1.1.1.1.1.1.1.1.1.1.1.1.1.1.1.1.1.1.1.1.1.1.1.1.:.1.,.:.,.,.,.,.:.,.,.,.,.:.,.1.1.1.:.,.:.:.:.>.1.1.1.2.,.1.2.1.2.1.>.1.1.1.2.2.2.2.2.:.:.2.2.2.1.1.1.2.1.1.1.1.3.1.1.1.1.3.1.1.3.] 3.3.3.[ 3.[ [ [ 3.[ 1.3.1.1.1.1.1.] J 8 8 8 y e q 9 - N 8. X<X<X<X>X>X>X<X>X}.>X>X>X>X<X<X4X{.l.K - 7 q 0 7 e 6 e 6 e q 0 u 0 0 0 0 0 0 u e 0 0 0 0 e 0 0 0 0 0 0 e 0 0 0 0 e 6 e 0 0 6 7 0 7 e k T 1.1.1.,.:.:.:.1.K k > i i 5 $ 5 6 $ 0 $ 6 9 0 0 0 0 0 0 y 9 6 0 0 0 0 $ 0 0 0 0 0 0 0 0 0 9 u 0 0 0 0 0 y y 0 0 0 0 0 8 e e 5 6 6 6 6 6 7 5 5 8 8 8 7 - f G k.XX<X<X>X2X<X<X{.>.V - 5 e e e e 0 9 7 0 q e 8 7 5 ; ; j H ` ' 1.' :.` 1.:.1.:.' ` ,.:.,.` :.1.` ` ` ' ` ] :.' ' ` ] ` ] ] ' ' ] 1.] ] ] ' ] ' ] ] ] ] ] ] ] ] ] ] ] 1.' ] ] 1.' ' ] ] ] ] ] ] ] ] ' ] ] ] ] ] ] ] ] 1.] ' ] ] ] ] ' ' ] ] ` 1.] 1.] ] ] ] ] ] ' ] 1.] 1.] ] ` 1.` 1.3.,.,.' ,.:.,.1.,.' ' ' ' ' ' ' ' ( H r 8 8 e 5 5 ; * F g.{.<X>X>X>X>X>X",
"}.>X>X>X<X4X{.c.P - 6 6 0 7 0 7 9 7 6 6 7 0 7 e e 6 6 e e 8 7 e e e 7 8 7 e 6 e 7 0 0 0 0 0 0 0 0 0 0 u 0 u 8 u a U 1.1.:.` -.1.1.1.R m i 5 8 7 6 9 9 9 6 9 9 0 7 9 0 0 $ 0 0 0 0 $ 9 y 0 0 0 y 0 y 0 $ 9 0 y u u $ 0 9 $ y 0 0 y 0 y $ 0 $ 9 y 0 0 0 0 9 0 0 0 e e 6 0 7 5 d K B.<X<X>X}.>X>X>X{.d.H - 5 6 6 9 6 6 6 6 0 6 6 6 6 7 6 6 j N ` 1.1.' [ 3.,.' 3.,.1.3.1.1.1.1.1.:.,.,.' ' 1.] 1.3.' 1.' ,.3.1.,.1.3.1.1.1.1.1.1.' 1.:.:.:.,.` :.,.,.#.:.,.` ,.#.,.,.,.:.:.:.,.:.,.,.:.:.:.:.,.:.:.:.:.:.:.>.,.:.:.:.:.:.:.:.:.:.1.:.1.2.1.:.1.;.1.` ,.1.' 1.3.] 1.1.1.3.] ] 3.[ ] 1.] 3.] 3.] 1.' 1.] 1.1.( H 8 7 8 q q y 9 $ C d.|.4X<X,X>X>X>X>X>X<X<X>X>X>X>X<X<X{.l.F @ 7 e q 0 e 7 e e e 0 0 e 0 0 0 0 0 0 e 0 0 0 0 0 0 0 a 0 u 0 0 0 0 0 0 0 7 6 0 e 6 0 6 0 7 a n U 1.1.:.,.` :.:.1.K j 8 6 u 0 5 6 6 9 $ 6 6 0 0 0 0 0 0 0 u 0 0 0 y 0 y y 0 y 0 0 0 y 9 0 0 y $ 0 0 $ y 0 0 0 0 0 0 0 0 0 e e 0 6 9 6 9 e 5 7 7 q e e e - d I c.<X<X<X<X>X1X<X|.<.H - 5 e y e e 0 9 9 6 8 e 8 6 5 ; - j K ( ' ' ` ' ' ' ' ' 1.' ' 1.` ` ,.,.1.:.1.` ` ' ] ] ' [ ] ' 1.] ] [ 3.] ` ] ] ' ] ] ] [ ] 1.[ ] ] ] ] ] ] ] ] ] ' ] ' [ ] ] ' ] ] [ ] ' ] [ [ ] ' ] ' ] ' ] ] ' ' ] ] ' ] 3.' ] ' ] ' ] ' ] ' 1.] 1.] 1.1.` ] ] 1.] :.] [ ,.3.,.,.:.1.1.' ' ,.,.' ,.,.' ' ' ` ( H : 7 u 7 5 5 5 : H j.{.>X>X>X:X>X>X",
">X>X4X>X<X4X}.c.K O 9 6 7 7 0 0 6 0 7 0 0 7 0 0 7 7 8 e 6 e 6 0 7 0 0 e 6 0 7 e 0 e 6 0 0 0 e 0 0 0 0 0 0 0 e e k A 1.-.` ) :.1.1.1.T M 8 8 7 7 6 6 6 9 6 6 0 0 0 0 0 0 b 0 0 0 0 0 y u y 0 y $ y $ y b 0 y 0 $ y 0 0 y 0 y 0 y 0 0 0 y 0 0 y u y 0 y 0 y 0 0 y e e e e 0 6 j K c.XX,XXX:X>X:X>X|.4.U 5 7 e 0 0 9 9 6 6 0 6 6 9 7 6 5 6 j V ( 1.1.1.1.] ] 3.3.3.3.1.1.' ' ,.1.1.1.,.1.1.,.,.1.1.1.1.1.:.1.1.] ,.' 1.' 1.,.1.,.1.1.1.,.1.:.,.,.W ' ' +.Q Q :.` ' :.:.,.:.' +.,.` ,.:.:.:.,.:.:.:.:.:.:.:.:.:.:.:.:.:.:.:.:.:.:.:.:.:.:.:.1.:.:.2.1.:.1.:.1.2.3.1.1.3.] ] 1.' 1.[ ] 3.] [ ] ] 1.1.1.1.] ] ) V 7 7 q t y 9 0 $ C a.].<X<X>X>X>XXX>X>X>X>X>XXX>X>X,X4X|.l.K - 7 e e 7 e 0 0 8 6 6 0 0 0 0 0 0 e 0 0 0 0 0 e 0 0 0 6 0 0 0 0 0 0 0 8 0 0 6 6 e e 6 6 7 7 a n U :.:.2.` ,.` :.:.K j e 6 a u $ $ 6 u $ 0 0 0 0 a 0 0 0 0 y 0 $ 0 0 0 0 0 y y u $ y y u 0 y 0 b $ y y 0 0 y 0 0 0 0 0 9 e e 6 7 6 6 6 7 6 e 8 8 e e a q - g P c.<X<X<X<X>X4X<X|.3.H - 5 q e e e 9 6 9 6 6 8 e ; 5 5 5 k J ` 1.' ] ' 1.] ' :.` 1.,.' ,.1.1.' 1.:.' ` ' ' ] ] 1.] 1.[ ] ] [ ] ' ] ] ] [ 1.1.] ] ] ' ] ] ' 1.' [ ' 3.' ] ] ] 1.] [ 1.] ] [ ,.] ] ] ] ' 1.[ ] ] 1.] 1.[ ] [ ] ] ] 1.[ ] [ ] 1.] ] ] [ ] ] [ ] ' ' 1.] 1.1.' ` 1.] 1.3.3.3.' ' :.` ' ,.' ' ' ,.' ' 3.' ' ` ( N - > e 7 ; e 5 & F j.W.,X>X>X>X>X>X",
"}.>X>X>X4X4X}.c.L - 6 9 6 7 8 7 0 7 8 q 6 8 8 7 0 e 7 0 e 7 e 7 e 0 0 7 e 6 e 0 0 0 0 0 0 0 0 0 0 0 0 0 0 6 6 u j A ;.` ` :.` :.1.1.U M 6 5 5 6 6 6 9 9 6 0 9 $ 0 0 0 0 y 0 0 0 y $ b $ y y y 0 0 0 0 y 0 0 0 y y 0 0 y $ u y $ 0 0 $ y 0 0 y $ 0 0 0 0 y 0 0 0 y e 0 y 0 9 k K B.XX<X>X}.:X>X>X|.d.U 9 6 y y y u 0 $ 9 0 0 9 0 6 6 9 6 j V ) 1.1.1.3.[ 3.,.3.3.' 3.1.` ' 1.:.1.,.1.1.,.] ' 1.1.' 1.1.1.,.1.' :.1.' 1.1.1.' 1.' ' ,.:.,.,.:.:.` W ,.,.:.,.:.,.:.:.#.` ,.:.,.:.,.,.:.1.:.:.:.:.1.:.:.:.:.:.:.:.:.:.:.:.:.:.:.:.:.:.:.1.>.:.:.2.` 1.:.,.1.1.,.1.:.] ] ' 1.] [ 1.] [ [ ] [ 3.] 1.1.1.1.1.1.` J 8 7 q e e e 0 - N 8..X4X<X>X>X}.>X{.>X>X>X>X>X>X}.<X4X{.l.F - 9 q 0 8 q 6 7 7 e e 0 0 0 0 0 0 0 e 0 0 0 0 0 0 0 0 0 0 0 6 0 0 0 6 0 7 0 6 6 6 6 7 6 8 8 e j T 1.1.:.` ` ,.1.1.Y z 8 6 u 6 6 $ y 0 0 0 0 0 y 0 0 0 b b y $ 0 $ 0 y 0 0 y 0 0 0 y $ $ 0 $ u y y 0 0 0 0 y 0 y y 0 0 0 0 0 0 0 7 0 0 e e 6 q 0 e e e 9 5 g I V.<X<X<X<X4X<X<X.Xd.T 7 7 e q q 9 7 9 7 7 5 e 8 6 6 ; 5 a V ] 1.[ ' ] ' ] ' ' 1.' 1.' ' 1.1.,.1.` ` ` ` ` ' ] ] ' [ ] [ ] ] ] [ ' ' ] ] ' ' ] [ [ ,.] ] [ ' 3.] ' ' [ ] [ [ ] 3.] [ ] [ ] ] [ ] [ ' ] ] ] ] [ [ ] ' 1.[ ] ] ] [ ] [ ,.' 1.] [ ] ' ] [ [ ] ] ] 3.' 1.] ,.1.' 1.1.1.,.3.,.' ' ' ' ` ' ' _ ' ' ' ' ' ' ' ` ( V : 7 e 6 5 e 5 * K x.].<X>X:X}.}.}.",
">X>X>X>X>X4X}.c.I - 6 7 0 7 0 0 6 0 0 8 e q e 6 0 7 e 0 e 0 e 6 7 7 e 8 e 7 8 e 0 0 0 0 0 7 0 0 7 6 6 6 7 5 6 u a U 1.` :.( ` :.1.1.Y m e 9 6 9 9 6 0 6 0 9 6 0 0 0 9 0 $ y 0 0 0 0 0 y 9 u $ b y 0 0 0 y 0 0 0 y 0 b $ y y 0 b $ y y 0 0 y 0 b y 0 y y 0 0 0 y 0 a 0 b 0 6 a L B.$X<X>X>X=X>X}.|.4.U # 9 y y y y 9 6 9 9 0 0 0 9 6 5 6 j V :.1.1.3.2.3.3.3.3.3.1.] ' ' 1.' 1.' ' ' :.` ,.1.1.:.,.:.:.' ` :.1.1.1.,.` :.,.,.:.:.1.,.` :.' 1.,.,.:.,.:.' ` ' +.' ,.` ,.,.,.` ,.` :.1.' ,.:.1.:.:.:.:.:.1.:.1.:.:.:.:.:.:.:.1.2.:.:.:.:.:.:.:.:.:.' :.' 1.` :.` :.3.1.1.3.1.1.3.1.1.3.3.[ 3.3.3.3.3.3.1.1.` J 8 7 8 q b e 7 - F a.{.1X4X4X>X>X>X>X>X>X>X>X}.>X>X<X<X{.l.K - 0 q 8 0 0 e 8 6 e 6 0 e 0 0 0 0 0 0 0 e 0 0 0 0 0 0 0 a 0 0 0 0 0 0 0 0 6 6 6 6 6 6 5 8 7 e l U 1.:.` ` W ,.,.,.T j e 6 0 0 0 y y 0 0 y 0 0 0 y 0 0 9 $ y y 0 y 0 0 0 0 0 y 0 0 0 b y 0 y 0 y y u y 0 0 0 0 0 0 0 y 0 0 0 q 6 0 0 0 0 6 0 0 e e e y e 5 l I C.<X<X<X<X<X4X<X|.4.V : - 7 7 5 5 5 7 7 5 6 8 8 8 u 5 5 j A _ 3.[ 1.1.3.3.3.[ ,.[ ' ] ,.' ,.` ,.:.:.1.1.` ] 3.] [ ' ] 1.[ ] ' ] [ [ 3.] [ ] ] 1.' ] [ [ ] ] ] [ ] ] ] 1.' ] ' ' ] ] 1.' ] [ ] ] ' [ ] ' [ [ ] ] ] [ ] ] ' 1.[ ] ] ] ] [ ] ' ] [ ] [ ] ] ] ] ] ] 1.' 1.] [ ] ] ' ' ' [ ,.[ [ [ ' ' ' ' ,.[ ] ] ] ] [ [ ] ( V - > e 5 8 e 5 O K k.{.1X>X}.:X}.}.",
"}.>X>X>X>X1X}.c.G - 7 7 6 0 7 7 0 6 e 0 6 0 8 q e e 6 7 7 7 6 7 0 e 6 e 6 q 7 0 6 0 0 0 0 0 0 7 9 7 5 @ - 5 7 u j K 1.:.:.` 1.:.1.1.R N 8 8 6 6 6 9 0 6 0 6 6 0 0 9 0 0 0 0 u 0 0 0 y 0 0 y y $ $ y 9 0 $ y $ y 9 y 0 y 9 0 0 $ u 0 0 0 0 0 0 $ 0 0 y $ y b 0 0 y 0 b 0 0 6 a K B.XX4X<X2X>X>X4X.X4.A + + 5 $ 5 $ @ 9 $ 6 0 b b 0 $ 6 6 b A ;.1.q.3.2.2.2.3.1.1.1.' 1.` 3.' ' ' 1.:.1.,.1.1.' 1.` ,.' ,.,.1.' 1.1.1.,.,.:.` ,.:.1.:.1.' 1.1.` ,.' :.,.:.,.:.,.:.` ' :.` +.1.1.,.:.:.:.:.:.:.1.:.:.:.:.:.:.1.:.:.:.:.,.:.:.:.1.:.:.:.:.:.:.:.:.:.` ,.,.` ,.,.1.1.' :.1.,.1.1.3.q.0.q.q.q.2.q.q.3.2.2.0.1.) V t 7 8 y q q 7 @ C 8.|.4X4X4X4X<X<X<X>X<X>X}.:X}.}.}.4X].l.F - 0 e e 8 7 e 0 e 6 0 0 0 0 e 0 0 0 0 0 6 u 0 e 0 0 u 0 0 0 0 e 0 e 6 6 6 6 7 6 7 5 - 5 ; - 8 j T 2.1.` ` :.,.,.3.T M e $ 0 0 0 $ u y 0 $ u 0 0 0 y 0 y b 0 0 0 y 0 y 0 y u $ b y 0 y 0 y 0 0 y y $ 0 y 0 y 0 0 0 0 0 0 0 0 0 0 0 0 0 0 0 7 0 e e y 0 y 8 M R Z.,X,X<X<X<X<X4X|.,.z . . O & & & o : 5 5 8 8 e 7 e 5 - n U ] q.[ q.3.3.3.3.>.3.1.,.1.,.3.' ,.1.:.:.' ' 1.3.] 1.] ' 1.' 1.' 1.' 1.1.] 1.] ' 3.] 1.' ] ' 1.1.[ 1.] 1.[ ] 3.3.] ] 1.,.] 1.' 1.1.' 3.1.[ 1.] 1.[ 1.' 1.3.' 1.' ,.] ' [ 1.] ' 1.' 1.1.,.[ 1.' ] 1.,.] 1.' ' [ ] ' ' ' ' [ [ 3.3.3.3.[ 3.2.3.2.3.q.3.3.2.3.1.( C 5 5 e 5 5 e 7 * K V.}.4X<X4X4X4X<X",
">X>X2X>X<X4X}.C.P - 5 8 0 7 0 0 8 q 8 7 8 8 7 0 7 0 8 8 0 e e e 8 6 7 e e 8 6 e 0 0 0 0 6 9 q a t t n t j j j j M Y 1.:.` 1.` :.:.1.R V i 5 6 6 0 6 6 0 0 6 0 0 0 0 0 0 0 0 0 0 0 0 0 0 0 0 0 0 u y 0 y b 0 y 0 0 0 0 0 0 y 0 y y y y 0 0 y 0 y 0 0 $ b 0 0 y 0 0 y 0 y 0 0 k C l. X X|.{.{.{.{.].l.R z k M m z n k M k u e e e u 9 9 7 a m ^ ) / ) ) ) ) _ ) ) :.1.1.1.1.] 1.,.` 1.1.' :.' ,.:.1.1.1.:.1.' ,.,.` 1.1.' 1.1.' 1.' 1.1.,.` ' ,.1.1.,.` ,.` ,.` ,.,.:.,.:.' ,.' :.:.1.,.:.:.:.:.:.2.:.:.:.:.>.1.:.:.1.:.>.:.:.:.:.:.:.:.:.:.:.:.:.,.:.1.:.1.' :.` ` ` ` ( ( ( ( ( ( ( ( ) _ ( ( ) ( ) ) ( R N 8 t 8 q t e 7 - z +.V.|.|.|.S.S.].].].XX2X>X>X>X>X>X4X{.l.K - 7 q 0 e 0 7 7 8 e 6 e 0 0 0 0 0 e 0 0 0 e 0 0 0 0 e 0 0 0 0 6 0 6 0 7 6 e a a a j a d j j l N T :.:.` 1.' ' 3.3.K j 8 0 b $ 0 0 0 0 0 y y y 0 0 0 0 0 $ y 0 y 0 0 0 9 y $ y 0 0 0 0 y $ 0 0 0 0 0 0 0 0 0 0 y 0 y 0 0 0 0 0 0 0 0 0 0 0 0 0 0 9 0 0 0 7 j R N. X|..X|..X.X.XF.a.I g g h z z h g M d 7 e 8 8 u 8 e 5 k V ^ ( ( ( ( ( ( ( ( ` ' ] ,.,.3.1.,.,.:.1.1.1.' 1.[ ' 3.] ] 1.' 3.] 1.[ 1.' ' 1.] ] 1.' 3.] 1.] 1.' ' 1.' ] 1.' ] ' 1.' 1.[ ] ] ' ] 1.] ,.] ' 1.,.] ' 1.' ] 1.] 1.] [ 1.1.' [ 1.] 3.] ' ] 1.' 1.3.' 1.[ 1.] 1.1.] 1.1.:._ / R _ ( ( ` ` ( ` ( ` ) ( ` ) ( ) ) ( m > 7 8 7 7 u 8 - N 8.V.|.|.S.].].].",
">X>X>X>X<X4X.Xc.L - 9 6 7 q 8 0 6 0 e 0 e 0 0 7 0 8 8 e 7 e e 0 8 0 7 6 e 8 7 0 7 0 0 0 0 0 t V J J J J J J J V U T ` :.` :.' 1.1.1.Y N e 6 5 e 6 6 6 6 $ u 0 0 0 0 0 0 0 0 0 u 0 0 0 0 0 y y 0 0 0 y $ 0 0 0 0 0 0 0 0 y 0 y 0 0 0 9 y 0 y y $ 0 0 0 0 0 e 0 y 0 y y y 0 6 a C 2.Z.Z.c.c.c.c.c.c.l.<.$.+.@.>.>.2.>.2.U k e 0 u e 9 0 7 a b A A A A A A A U T ( ) [ 3.3.1.[ 1.' ] 1.1.1.' 1.' 1.1.1.1.1.1.' 1.' 1.] 1.1.] 1.1.1.1.1.1.1.1.1.1.' ] 1.1.:.1.1.:.:.1.' ` :.:.:.:.:.:.:.:.` :.:.:.:.:.:.:.:.:.:.:.1.1.:.:.:.:.:.:.:.1.:.:.:.:.1.2.:.:.:.,.,.' 1.` ` ` R T Y U H A V U V U H J U V V H V J A U M e 8 8 q 0 7 7 5 a K ,.8.4.<.2.<.4.a.l.{.>X>X>X2X>X4X4X].l.K - 0 q 0 q e 6 8 8 e 0 0 0 0 e 0 0 0 0 e 0 0 0 0 0 0 0 u e 0 e 0 6 6 e 6 8 i N A A A J U J J J U ( 3.1.` ` ` ` ,.3.T l 8 0 y 0 0 0 y 0 0 0 0 0 0 0 y y 0 0 $ b 0 y 0 0 0 0 0 y 0 0 $ u y $ y 0 0 0 0 y 9 0 0 0 0 y $ b y 0 0 0 0 0 0 0 0 0 0 0 e e 9 9 9 5 j K 2.Z.Z.C.c.C.c.V.V.l.a.#.<.a.t.,.#.o.o.H r 8 e 0 0 e 0 7 b n V U V V J J U J T T ( 1.,.,.2.3.,.,.,.1.' 1.' ' 1.' ] 1.] ] 1.' ] 1.1.] 1.1.' 1.1.' 1.' 1.' ' 1.' ` 1.] ' 1.' ` 1.] ' 1.' ` 1.] ] 1.' ] ' 1.] 1.' ] ' ] ] 1.' ' ' 1.] ] 1.1.] ] 1.1.] ' 1.` ] ' ] ' 1.1.' :.] [ 1.3.` T K H J J J K J J U J U U J U U U U U U M ; 7 e 6 ; u 8 > z R 2.4.4.4.<.8.<.",
">X>X2X>X1X4X}.c.F - 5 6 0 0 7 8 e 7 8 7 6 7 e 8 8 0 7 6 0 0 7 7 7 8 e e 6 e 6 e 0 0 0 0 e 0 y ~ ) ( ) _ ) _ ` ` ( ` 1.` :.` :.1.1.1.^ C i 5 8 5 6 6 6 6 0 6 9 0 0 0 0 0 0 0 0 0 0 0 y 0 0 0 0 0 0 y 0 y 0 y 0 0 y 0 y 0 0 0 0 0 0 y 0 y 0 0 0 y y 0 y 0 y y u 0 b 0 e u 0 6 a k +.4.2.>.<.<.<.<.<.s.c.].S.n.{..X].|._.>.n a 0 0 0 a 0 0 0 0 b b b a b b a a n T ) 2.3.1.] 1.] 3.' 1.:.1.1.1.1.:.1.` ' 1.:.1.1.:.1.:.' 1.1.:.1.' ' 1.] 1.' :.1.:.:.1.:.' ' 1.1.' :.,.,.:.:.1.' 1.' 1.1.:.:.:.:.2.2.1.:.:.1.:.:.:.:.:.:.:.:.:.:.:.:.:.1.:.:.:.:.` 1.:.` :.1.` 1.:.` T M 8 8 a a d e j j e e j a j a j a a j i 6 8 q 8 9 6 6 5 e a j z k z g z g F o.c.}.>X>X>X:X}.<X{.l.K @ 7 q e 8 6 e 0 7 0 0 0 0 0 0 0 0 0 0 u 0 0 0 e e 0 0 0 0 0 0 6 6 e e 8 7 j ~ ) ) ) ( ( ( ` ` ` 1.3.1.' ` Q ' ,.[ P l 8 $ 0 y 0 $ y y 0 y 0 y 0 0 0 0 0 0 y $ y 0 0 0 y $ y 0 0 0 y 0 y y 0 0 y 0 y y u 0 y 0 y 0 0 y $ 0 0 0 0 0 0 0 0 0 0 e 9 e 0 y $ 5 a M :.d.d.,.>.<.<.,.a.j.c.{.|.{.b.{.D.S.c.W d 8 e 7 7 7 0 7 e e e e e e a e e e z T ' 2.1.` 1.' 1.1.1.:.1.:.1.1.1.1.1.:.1.' 1.1.:.1.` ' 1.` 1.1.' ` :.1.` 1.1.1.:.1.1.1.1.1.1.1.] 1.1.1.1.1.1.1.:.1.] 1.1.1.:.1.1.1.1.1.:.1.1.1.1.1.1.1.` 1.:.1.] :.:.1.1.1.1.1.1.1.1.' 1.' 1.] [ 3._ J M t 8 r 8 t r r 8 r e e r e a e i e a u 5 5 e 6 8 8 8 : 8 j g g j g j g k ",
">X>X>X>X>X4X}.c.L - 7 6 q e 0 8 8 7 0 e 8 q 7 0 q 7 6 e e 7 0 e 0 7 0 6 7 8 q e e 0 0 0 0 0 k ) [ ] [ ] q.3.w.q.1.,.' :.:.:.:.1.1.1.R N a 8 8 e 6 7 0 7 0 9 6 0 6 6 0 0 0 0 0 0 y 0 0 0 0 0 0 0 0 y b 0 y 0 0 y $ u 0 y 0 0 0 0 y $ $ u 0 y $ b 0 0 0 y 0 e 0 y 0 0 y 0 0 6 a k R 2.X.+.o.W X.o.+.g.].4X4X<X4X4X4X4X X2.B a 9 0 y a 0 0 6 6 9 9 $ 6 6 6 7 - e U _ 2.3.1.1.] [ ] 1.] 1.' ] 1.1.` 1.:.1.1.1.1.:.1.1.1.:.1.1.1.:.] :.1.` :.1.1.1.:.:.1.1.] 1.` 1.,.1.:.1.:.' 1.` 1.1.1.:.1.1.:.1.1.:.:.1.:.2.-.:.:.:.1.2.:.1.:.2.:.:.1.:.:.1.:.:.] ` 1.:.,.] ,.1.>.` Y j - - ; ; 5 5 ; 5 5 ; ; 5 5 5 5 - 5 ; 5 e 7 e 7 6 6 5 ; ; ; - O O * * - = > D j.[.1X:X}.}.}.4X{.l.F - 9 e e 8 7 0 7 8 e 7 0 e 0 0 e e 0 0 e e 6 0 0 0 0 0 e e u 0 6 u 7 8 5 6 j ( 1.1.0.1.1.3.q.3.2.3.3.,.' ' 1.' 3.,.T l 8 0 y 9 0 0 0 0 0 0 0 y 0 0 $ b y 0 y u y y 9 y 0 u 0 0 0 y 0 0 y 0 0 y y 0 $ b $ y y 0 0 0 0 y 0 0 0 0 0 u 0 0 0 e 0 0 e 0 e 9 9 + 8 k R 1.W W R W E E o.j.].<X1X<X4X4X4X<X,X,.g r 7 6 6 0 7 7 7 0 7 9 5 5 5 ; - O e U :.3.[ ' ` ` :.1.,.1.1.1.:.1.1.:.1.1.1.1.1.] 1.1.` 1.1.` 1.:.1.1.1.1.1.` 1.1.] :.` ` 1.:.1.1.:.1.:.:.1.1.:.1.1.:.1.:.1.:.1.` 1.1.:.1.:.:.1.:.1.:.] :.1.1.1.1.1.] 1.1.:.1.:.1.1.1.` 1.1.] 1.] 3.[ ( J t : - - * * - - - - - - - - ; - ; 5 5 5 5 5 6 5 6 8 8 5 ; * * * X X * O * ",
"}.>X>X>X<X4X}.c.P - 5 7 e 6 q 7 q 0 7 8 e 6 8 e e 0 7 e e 6 7 8 q e e 7 0 e 6 e 6 0 0 0 0 0 e ~ ) ] ] q.3.3.3.1.1.` ' 1.:.` :.:.1.1.T N 8 7 > 5 6 6 6 0 6 0 0 0 0 9 0 0 0 0 0 0 0 0 0 y y 0 0 y b $ $ y 0 0 0 0 y y 0 0 0 y y 0 0 b y 0 b $ y 0 0 0 0 0 0 y 0 y 0 y y u 0 0 a m Y -.:.+.+.+.:.X.@.x.].4X<X>X<X<X4X<X X1.k 0 6 0 0 0 0 0 0 0 0 0 0 0 6 0 6 6 k ~ ] 2.3.1.] ] 1.] 1.1.1.1.:.:.1.1.1.] :.1.:.] 1.] :.] :.1.` 1.1.1.:.1.1.1.` :.1.] ] 1.:.1.1.1.:.:.:.' ' :.:.1.1.1.' :.1.` 1.1.1.1.1.1.:.1.:.1.:.2.:.1.:.1.1.1.1.1.1.:.:.:.:.:.1.:.1.1.` 1.,.' 3.3.` P j - 7 8 5 6 5 8 5 5 6 6 6 5 6 5 8 5 5 6 8 e e 7 7 6 7 6 e 5 5 5 - ; ; - - 8 F c.}.>X>X{.}.>X4X{.j.K - 7 8 0 0 8 q e 0 0 0 0 u 0 0 0 0 0 0 0 0 0 0 0 0 0 0 0 0 0 6 e 6 e 8 8 8 j ~ ) ) 1.1.1.q.3.2.3.,.2.,.[ 1.' ' ,.' T M 8 9 u 0 0 0 0 0 0 0 0 0 0 0 y y $ 0 0 9 y y u $ b y y y 9 $ 0 0 0 y 0 0 u 0 y 0 y 0 u $ y y 0 0 0 u 0 0 0 0 0 0 0 0 0 0 9 0 9 9 9 5 q M R :.1.:.W :.W +.,.j.D.>X<X>X>X<X4X<XXX,.d 8 ; 6 9 7 6 8 e q 7 7 6 7 7 8 5 - a T ) 3.>.' :.:.` 1.1.:.' 1.:.' :.1.` 1.` 1.:.1.:.1.1.1.1.1.1.1.] 1.:.:.1.1.1.:.1.1.1.1.:.1.] 1.] :.1.1.] 1.] ' 1.1.1.` 1.1.1.:.1.1.1.` 1.1.1.` 1.1.1.] :.:.1.:.' 1.:.1.] 1.` 1.' 1.1.' ] 1.' ] [ 3.` J d - : 5 5 5 7 ; 7 - ; 7 5 6 5 7 5 6 5 6 6 6 6 e 6 6 ; 7 7 5 5 ; - ; ; - 5 ",
">X>X>X>X<X4X}.c.P - 5 7 0 8 0 0 e 8 7 0 e 6 8 6 6 0 8 0 e 7 6 8 e q 8 0 e e e 6 6 0 0 e 0 0 e T ) ] 0.[ q.[ [ [ 1.' ` :.1.1.1.;.0.1.^ m e > 8 5 6 7 6 6 6 0 0 0 0 9 0 0 0 0 0 0 0 y 0 0 y 0 0 y y y 0 y y 0 0 y 0 0 y 0 0 0 0 0 y 0 0 y 0 0 y 0 y 0 y 0 0 y 0 0 0 y u y 0 $ a n Y 2.-.>.+.-.:.+.<.j.W.<X<X>X>X}.<XXX X2.k 0 6 9 0 0 0 0 0 0 u 0 0 u y 0 6 7 a T 1.0.3.1.1.1.] 0.1.] 1.] 1.1.1.:.] 1.:.` 1.1.1.:.] 1.] :.1.1.1.:.1.:.` 1.1.1.] 1.1.1.` :.,.1.' :.,.1.:.:.1.1.1.1.:.1.] 1.1.1.1.1.1.1.1.1.1.1.1.1.1.1.1.1.1.1.1.1.1.1.2.:.:.1.:.1.` 1.1.1.1.1.1.3.` K j 5 6 6 8 6 e 8 7 6 6 6 8 6 e 6 6 e 6 6 u e e 6 6 6 0 6 6 6 6 6 5 5 8 8 7 d F c.XX>X:X}.>X<X<X].g.K ; 7 e q 8 6 7 e 8 e 0 0 e 0 0 0 0 0 0 0 u e 0 e 0 0 0 0 0 0 6 a 6 6 e 8 8 t ~ ) ] ) 1.1.1.1.3.1.3.,.,.' ` ' ' 3.3.T M 8 0 0 0 0 y 0 0 0 0 0 0 0 0 0 0 0 0 0 0 0 0 y y $ y 0 y 0 b y 0 0 y 0 0 $ 0 0 0 y 0 y y 0 0 0 0 0 0 0 u 0 0 0 e 0 0 0 0 0 0 0 9 y 5 e m ( 2.2.1.@.+.@.` $.j.].}.>X.X:X>X<X>XXX$.j 8 7 7 8 e e e e e e 7 8 0 6 6 6 ; a T -.>.:.1.1.,.1.1.:.,.1.1.' 1.1.1.:.1.1.1.1.:.1.] 1.1.] 1.1.1.` 1.` 1.1.' 1.' 1.1.` 1.] 1.:.1.] 1.] 1.1.1.1.1.1.:.1.1.1.:.:.1.1.1.:.1.:.:.:.1.1.1.:.1.1.:.1.1.1.1.:.2.:.1.1.1.:.` 1.1.1.] 1.' 1.3.` U j - 7 8 5 ; 7 8 7 6 6 6 6 6 6 0 6 6 6 6 6 6 6 6 6 8 6 6 7 8 8 5 8 6 6 7 7 ",
"}.>X>X>X>X4X}.c.P = 6 7 8 8 8 8 6 e 7 e 6 7 q e 8 8 8 8 e 6 e 6 6 0 7 8 7 6 8 e e 0 0 0 e q n ! _ ] [ [ 0.[ [ [ ` ' ,.:.` ` :.1.1.1.^ N i 7 > 8 5 6 7 6 6 6 7 0 0 0 0 u 0 0 0 0 0 0 0 0 0 0 0 0 $ u 0 9 0 0 0 0 0 0 0 0 y 0 y 0 $ y 0 0 0 y 0 0 0 0 0 0 0 y u y y 0 y 0 0 0 a m ( 1.>.-.>.-.-.:.>.c.{.>X2X>X>X>X<X}.XX2.M u $ 9 $ 0 9 0 6 $ 0 0 0 0 0 0 0 6 n ~ ] 2.1.1.] ] 1.1.1.1.1.1.1.` ] 1.:.1.1.1.1.` 1.' 1.:.1.:.1.` ] 1.] 1.1.1.1.:.1.:.:.1.1.1.' :.1.,.:.' :.1.1.] 1.] 1.1.1.1.1.1.1.1.1.1.1.;.1.;.1.1.1.;.1.1.1.1.0.;.1.1.1.-.:.1.1.1.1.:.1.` ] 1.1.3.` U z 5 > 8 i 8 e 6 8 8 6 0 6 6 6 8 6 6 6 e 6 6 6 6 e 6 0 e e u a 6 5 5 5 6 7 8 F c.}.>X}.}.>X<X4X{.l.K - 7 e e 8 e 0 0 7 0 0 0 0 0 0 0 0 0 e 0 0 0 0 0 0 0 0 0 0 e 0 0 6 6 8 7 7 t ~ ] ) ] ] 1.3.1.1.3.1.,.1.,.1.' ,.[ ' K l 8 9 9 y 0 $ y 0 0 0 0 0 0 0 y 0 y 0 y y 0 y $ 0 0 0 0 0 0 y $ 0 y 0 0 0 y 0 y 0 y 0 0 0 0 y 0 0 9 0 0 e 0 0 0 0 0 0 0 u 0 0 0 9 $ 5 e m ( 2.1.,.,.1.,.` $.j.n.{.{.>X{.:X>X>X.X+.d j 8 e e e e a e e e 0 e 0 0 6 6 5 a Y ] 3.1.:.3.:.1.1.,.:.1.1.1.:.` 1.1.` 1.:.' 1.1.1.:.:.1.:.` 1.1.1.1.1.1.1.:.:.1.1.1.1.:.1.1.:.1.:.1.1.1.1.1.1.:.:.1.:.1.1.;.1.:.1.1.:.1.:.1.1.:.1.1.:.1.1.:.:.1.1.1.1.1.:.1.] 1.1.1.:.] ] ' [ ] 3.` J j * - 5 7 8 8 > 6 5 > ; 6 6 6 6 6 6 6 7 u 6 6 6 e 5 6 6 6 5 6 5 6 7 8 6 7 ",
"}.>X4X>X>X4X}.c.K - 6 6 e 6 0 7 7 e 0 e e e 0 7 0 7 0 7 e 7 8 8 8 8 6 e 6 e 7 0 0 0 0 0 0 0 j ~ ) ] [ [ [ [ [ [ :.' ` 1.:.;.;.1.1.1.T H 8 > > 5 8 7 6 6 6 0 6 0 0 0 0 0 u 0 u 0 0 0 0 0 0 0 0 0 0 0 0 0 0 0 y 0 0 0 0 0 0 0 y 9 $ y 0 y 9 0 $ y 0 0 y 0 0 0 0 y 0 y e b 0 0 a M Y 2.-.:.:.:.-.+.>.x.R.2X>X>X>X>X<X}.XX4.m 0 $ 9 0 0 0 0 0 0 0 y u 0 0 0 6 6 n ^ ) q.1.1.1.] 1.] 1.] 1.1.1.1.1.:.] 1.] :.:.] 1.1.1.1.:.1.1.1.` :.:.1.1.:.1.1.] :.:.' ' 1.1.1.' 1.1.:.1.1.1.1.] 1.1.1.] 1.1.;.1.1.1.1.1.1.1.0.1.;.1.1.1.;.1.1.1.1.1.1.1.2.1.1.1.:.1.1.1.1.1.1.1.1.` Y j ; 6 i 8 8 8 6 6 u e e e 6 e e e e e u e 8 u e e e e u e e a 6 7 5 5 ; ; 8 z c.}.>X}.W.}.>X4X].l.K - 7 q q 7 0 e 7 e 0 7 0 0 0 e 0 0 0 0 0 0 e 0 0 0 0 u 0 0 0 0 6 0 e e 8 8 t ~ ) ] ) ] 0.3.1.1.3.,.[ 1.` ` ' 1.,.,.P j q 0 0 9 0 9 0 0 0 0 0 0 y 0 0 0 0 0 $ u 0 0 0 0 0 0 0 y 9 y 0 0 0 0 0 0 y 0 y $ u 0 $ y 0 $ y $ y 0 0 0 e 0 0 0 0 0 0 0 0 0 9 0 9 7 t N ( 1.2.:.:.>.,.:.$.j.S.}.>X>X}.>X>X>X{.#.r 8 8 e e a e e u e e e 6 0 6 6 e - a ^ ` 3.1.1.2.,.1.3.1.>.1.3.' 1.] 1.] :.1.:.1.1.` 1.:.1.1.1.1.:.1.:.1.` 1.1.1.:.1.1.1.1.] ` 1.` 1.1.1.1.1.1.1.1.:.1.1.:.1.1.:.:.1.:.1.1.1.1.1.1.:.:.1.:.1.1.1.1.1.1.1.1.1.1.1.1.1.1.:.1.' 1.' ] 1.3.` T t - - 7 > 5 5 5 5 8 6 8 6 6 6 6 0 6 6 6 6 6 6 6 6 6 7 7 e 7 7 8 8 5 5 6 7 ",
">X>X>X>X1X<X}.c.L - 5 6 0 7 0 0 6 e 6 7 6 7 e e q 8 0 q e 6 7 e 8 0 7 8 e q 6 e 0 0 0 0 0 7 e ~ _ ) [ [ [ [ 0.] ' 1.:.1.1.:.1.1.3.2.T M 8 > 7 7 6 ; 8 6 6 6 0 0 0 0 0 0 e 0 e e e 0 e y u 0 e 0 0 0 y u 0 0 0 0 u 0 y 0 0 0 0 y u 0 0 0 y y u 0 0 y 0 0 0 y a 0 0 0 y 0 0 9 a n Y 2.-.:.X.:.:.-.>.x.W.<X2X>X>X}.<X}.4X4.M 0 $ 6 9 b 0 y 0 0 0 0 0 0 0 0 6 6 a ~ ) q.1.0.] 1.1.1.1.1.] 1.:.` 1.1.:.1.1.:.1.1.1.1.` 1.1.] :.1.1.1.` 1.] 1.:.` 1.1.:.1.1.1.1.' :.1.:.1.:.1.1.1.0.;.0.1.1.1.1.1.0.1.1.1.;.1.1.1.1.0.0.1.1.1.1.;.1.1.1.1.1.1.1.1.1.1.1.` 1.' :.:.1.1.` K j ; ; 6 e i 8 i 6 6 e u e e e u 8 6 e 6 e e e e e e e e e e e 6 6 5 5 - - 7 z c.}.>XQ.{.W.}.<X{.l.K @ 0 e 0 6 q 0 7 8 q 0 0 0 0 0 0 e u 0 e 0 0 0 0 0 e 0 e 0 0 e 0 6 e 6 7 8 t ^ ) ) ] ] [ 1.1.1.3.,.1.1.1.,.' ` ,.3.T M 7 0 9 y 9 0 9 0 0 0 9 0 0 0 0 0 0 0 y y y 0 y 0 y $ y y u $ 0 0 y y 0 0 0 y $ y 0 0 y 0 y b 0 u y 0 e 0 0 0 0 e 0 0 0 0 0 0 0 9 0 9 e M ( 2.1.:.:.:.,.,.,.j.].>X>X>X}.:X>X:XXX+.r 8 8 8 8 e e e 6 e e e 0 e 0 0 7 9 k ^ ] 3.>.3.3.2.3.2.,.3.3.1.1.:.1.:.1.] 1.] :.1.:.] 1.1.` :.] 1.] 1.` 1.1.` 1.] :.] 1.:.1.:.1.1.1.:.1.1.;.1.1.1.2.1.:.1.:.2.1.1.1.:.1.1.1.1.1.1.:.2.1.1.:.2.1.1.;.1.1.1.1.1.1.1.1.' 1.1.3.] 1.] ' 3._ T t - 7 8 8 7 > 8 > 5 8 8 8 6 6 6 6 6 0 6 6 6 6 5 8 8 5 6 5 6 6 5 8 8 6 7 6 ",
"}.>X<X>X>X4X}.c.P = 5 6 7 0 7 0 e 6 8 q e e 7 6 6 e 8 7 e 6 5 e 7 7 0 e e 6 7 e 6 e 0 0 0 0 k / ] ] q.[ 3.[ [ ] :.` ' 1.1.:.` 1.1.1.^ M 8 > 7 ; 6 7 6 6 7 6 0 0 0 y 0 0 u e e 0 a 0 u y 0 0 e e 0 0 0 0 0 0 a 0 e e e u e e e u y y y 0 0 y 0 0 0 0 a 0 y 0 y 0 b 0 y e 0 0 a M ( 2.-.-.:.:.:.:.<.k.{.2X>X>X>X}.>X<X<X4.k u - 5 $ $ u 6 $ u 0 0 0 0 0 0 e e j ~ 1.0.0._ [ [ ] ] 1.] [ 1.1.1.1.1.1.1.1.1.` 1.1.' 1.1.1.1.' 1.' 1.1.1.' 1.1.1.,.1.' 1.1.' 1.' 1.,.1.:.1.1.1.1.1.1.1.1.1.[ 1.1.1.1.1.0.1.1.1.1.1.1.1.1.1.1.1.1.1.1.1.1.1.1.1.1.1.1.1.:.1.1.' 1.' :.( J d - - > 5 5 7 5 6 6 6 6 6 6 6 6 6 6 0 6 6 a 8 6 0 6 0 6 0 6 e e 8 ; 5 ; 5 8 v c.}.>X>X}.}.}.4X{.l.K - 0 e e e e 8 7 0 e 6 0 0 0 0 0 0 0 0 0 0 0 0 0 0 0 0 0 0 0 6 0 6 6 8 7 8 t ~ ) ] ] 1.1.3.1.1.3.1.3.1.' ,.` ' ' ,.H n 8 9 q q q q q q q 0 0 7 0 0 0 0 0 0 0 y 0 u 0 0 0 u y y 0 0 0 0 0 0 0 0 b 0 y 0 0 y u 0 0 u $ 0 0 y 0 0 0 0 0 0 9 0 0 0 0 0 0 9 9 9 e M ( 2.1.1.:.:.:.:.>.j.].<X>X>X{.>X2X>XXX+.> > - ; - ; 5 6 6 6 6 0 0 B $ $ $ $ y ) ) 2.3.3.2.3.2.3.,.1.1.1.1.1.` 1.:.] 1.1.` 1.:.1.1.1.:.:.1.1.1.1.' 1.1.1.1.1.1.' 1.] ' 1.1.,.1.1.' 3.1.1.1.1.1.1.1.1.1.1.1._ 3.1.] 1.1.] ] 1.1.1.1.1.1.1.1.] [ ] ] 0.] 1.1.1.1.1.1.1.] [ ] ] [ 3.` U t - : 5 > 7 7 > 7 5 8 6 8 6 e 6 e 6 6 6 6 6 7 6 6 5 e 8 5 8 5 e 5 5 e 6 7 ",
">X>X2X>X<X4X}.C.L - 7 6 7 0 6 9 0 7 6 e 6 e e e 8 e 6 e 8 e e 8 0 e e 6 e e e 6 6 u 6 0 0 e a ~ ] [ [ 3.1.3.3.[ ' ,.1.' 1.1.:.1.1.1.( C j d r i d j i a a a 0 0 0 0 u 0 0 e e e 0 0 0 e 0 0 u y u 0 b 0 0 0 y 0 u e y 0 e 0 0 0 0 0 0 0 0 0 0 0 0 0 0 0 0 0 0 0 0 0 0 e 0 0 a n Y ;.:.:.-.+.` +.>.x.R.4X2X}.}.>X:X>X4Xg.G c x x c x x c c p u 9 0 0 0 9 e e n U ^ ) _ ( ) / ( _ ( ] 1.1.1.] 1.] 1.1.:.1.:.1.1.] 1.1.1.:.1.1.1.1.1.1.1.1.[ 1.' 1.1.1.1.' [ ,.1.` W ( ( ( ( ( ( ) ( ( ) ) ) ( ( ` ) ^ ) ` ^ ) ^ ) ( ` ) ^ ) ) ` ( ) ) ^ ` ( ( ( ` ' 1.1.] 1.] 1.` R U l 8 8 r a a a a i e 6 6 6 6 6 6 6 6 6 6 0 6 6 5 6 6 e a e 6 e e e 8 7 5 8 i K C.<X>X<X4XXX<X<X{.l.F + 7 8 e 7 8 0 7 e 0 7 0 0 0 0 0 0 0 0 0 0 0 0 0 0 0 0 0 0 e u e 6 e 8 8 7 j ~ ) ) 1.1.] 1.1.3.3.,.3.' ] ,.` 1.1.' T H j e n j n n y n e 8 7 6 0 9 0 0 0 0 0 0 0 y 0 0 0 0 y 0 0 y 0 0 y y 0 y $ u $ y 0 y $ y 0 y y 0 b 0 0 0 0 0 0 u y 0 0 0 0 y 9 0 $ 7 e M / 3.1.:.` :.:.+.,.x.].<X>X}.:X}.>X2X}.%.c x x x x x x c x p i 0 e $ $ ! $ y ! ~ ) ) ] ] ) ] ) ` ` :.1.:.:.1.1.1.] 1.:.1.1.] 1.1.` ] 1.1.1.1.] 1.,.,.3.1.,.1.1.1.] 3.] ] 3.] 3.1.` _ / ) ) ( ( _ ( ) ( ( ) ) ) ) ) ) ( ) _ ( ( _ ( ) ( ( ) ) ) ) ) ) ( ) _ ( ( ) 1.3.] 1.' [ 1.1.` T n 8 r j j i i a a i 7 8 6 6 u 6 0 6 6 6 6 6 u 6 6 e 6 6 8 6 6 8 6 8 6 6 6 ",
"}.>X4X}.<X4X}.c.K - 9 9 9 0 7 6 0 0 6 6 e e 6 e e 6 6 e 6 e 6 e e e e 7 e 6 q u 0 6 e 0 0 6 j ~ ] ] 3.0.3.3.3.3.3.1.1.1.1.:.1.1.1.1.:.( T U U U Y U U U B a a 0 0 y 0 0 e u a e 0 e e 0 b 0 e e y e 0 0 b 0 0 u y 0 u 0 y 0 0 0 0 0 0 0 0 0 0 y 0 0 0 0 0 0 y 0 9 0 0 y 0 9 a k ^ 1.:.-.` ` ` :.<.j.{.2X2X}.+X}.}.:X}.}.~.I.Y.U.U.'.'.'.r.5.i 5 y 0 0 0 q e j n n N M M n M l l V / 1.1.] 1.1.1.1.1.1.1.1.1.1.3.1.1.1.1.1.1.3.1.1.1.' 1.] 1.1.] ] ,.1.,.3.,.,.` T H j M M M M m N N M N m M N m B N m N M N N N N m M N m m N V m z M N z M M J ( 2.3.1.1.1.] ) ) ( / T R U ^ T Y R ~ n e 6 6 6 6 6 6 6 0 0 0 6 6 6 6 6 e e e 0 e a e 6 5 5 8 i F c.<X>X>X4X<X}.4X{.l.K - 0 e q 0 q e 8 7 e 0 0 0 0 0 0 0 0 e 0 0 0 0 0 0 0 0 0 e 0 0 6 u 8 8 6 8 j T ) ) 1.;.1.1.3.3.2.1.3.1.,.' 1.' 1.3.' ( T ^ ~ / / ^ ^ ~ B 0 6 $ 9 6 9 0 0 0 0 0 0 9 0 0 0 0 0 0 0 y y 0 0 0 0 y $ y 0 y 0 0 0 0 y y 9 y $ 0 0 0 0 0 0 0 0 u 0 0 y u y 9 0 7 a m ( 1.1.1.:.1.1.:.,.k.].4X2X>X}.}.2X}.+X~.~.U.U.Y.U.U.U.'.r...p 9 0 $ ! B $ y b y B V m m M m M N J ) 2.1.1.1.:.] :.` 1.:.1.1.:.1.:.:.' 1.' ' 1.1.1.] 3.1.1.3.[ ,.3.[ ,.' 3.3.2.` T H l N N B V V V M N N N V M N V N N M J B V N V M N N N V M V V n N N N M M J ) ] 3.] [ ] ] 1.] ] ( / ^ T T U U T U n e 8 6 6 6 e 6 e 6 e 6 6 6 0 0 6 6 6 8 6 8 6 6 6 6 6 6 ",
">X>X>X<X<X4X{.C.L - 9 7 6 6 0 6 7 6 0 6 6 6 6 6 e 6 6 e 6 e 6 6 6 0 6 6 e 6 6 6 e e u 6 6 e a ~ ] ] 3.1.q.3.3.3.3.,.] ,.1.1.1.:.1.1.1.:.( R ` ` ` ( ^ ;.U n a 0 u 0 0 u 0 u 0 0 a 0 y u 0 0 u 0 e 0 a 0 0 e e 0 0 e e 0 0 e 0 0 0 0 0 0 0 0 0 0 0 e 0 0 0 0 0 0 0 y e e 0 6 q k U 1.:.:.` :.` ` <.j.R.4X2X$X+X}.}.}./.3XpXkXxXkXtXtXZXtX8Xr.p $ 0 e 9 9 e e e e q e t r w 7 w r j / 1.1.1.1.1.1.1.1.2.1.1.1.:.>.1.1.:.:.1.1.1.1.,.,.1.1.,.,.,.3.,.1.' 3.[ ,.3.W H g 7 r j 8 t t d 8 t r e a i r i e d 8 d e i a 8 j i i i i r e e i i 8 j r t g ( 1.1.1.1.1.` 1.1.] 1.1.1.] :.) ) ) :.m i 8 6 6 0 u 6 e e u 0 6 5 6 0 e a e u e e u e 8 7 6 8 i K C.>X>X>X>X}.<X4X].l.K + 7 e 6 6 8 6 e 0 e 0 0 0 a 0 0 0 u 0 0 0 0 0 0 0 u 0 0 0 0 6 e 6 8 8 6 7 j U ) ) ) 1.1.1.1.,.1.1.3.,.3.,.1.1.1.1.' ` 1.1.` ] ` ] ] ) A e 6 6 0 0 0 0 0 9 0 0 0 0 0 0 0 0 0 0 0 9 u $ y y 0 0 y y 9 0 0 y 0 0 0 y 0 0 0 0 0 y 0 0 0 y 0 y 0 0 0 $ y 0 0 6 e m / 1.:.1.' 1.1.' >.c.].4X$X+X}.+X}.$X+XiXxXkXkXkXjXrXNXZX8Xr.p $ 9 $ B $ $ $ $ y y e e t j e t r l / 2.1.:.:.1.1.1.1.:.1.] ] :.1.' 1.1.1.1.3.1.3.1.3.3.1.3.,.3.1.' ] ,.[ 1.3.1.` V l 8 8 a e y e y y b y y t y y y y b y y y e y y y b y y b e e e e n t q t j M ( 3.] [ 1.[ ' 1.1.[ 1.1.0.1.) ) ) ;.^ m e i 6 6 6 6 6 e u 6 6 e 6 6 6 6 e 6 6 6 6 e 6 7 8 0 6 ",
">X<X>X<X<X4X}.C.K - 8 0 6 6 6 6 6 6 6 6 6 6 u e e 6 6 6 6 0 6 6 6 6 u e 6 6 6 e 6 6 u 0 0 6 a ~ ] [ 1.0.3.3.3.1.1.1.1.1.:.` 1.1.1.>.3.1.) :.1.3.1.3.1.1.^ m a 0 y 0 0 0 u e u e 0 u 0 u e 0 u e u 0 0 a 0 0 e 0 e e 0 a 0 e e 0 0 0 0 0 0 0 0 0 0 0 0 0 0 0 0 6 q e q e 0 7 q n T 1.-.` 1._ ' ' >.j.W.<X>X$X}.}.}.:X-XiXlXGXGXGXAXSXHXGXtXJ.4 $ e 9 0 0 9 q q q q q 8 q w : 7 , a U ` ;.1.1.:.1.1.1.1.1.1.1.1.3.,.2.3.1.1.1.>.1.1.,.1.,.' 3.1.,.3.,.,.' 3.,.4.` H r - 5 7 7 ; 7 ; > - ; 5 ; ; ; ; ; 5 ; 5 ; 5 ; ; ; 5 ; ; ; ; ; 7 ; ; > : 7 : t ( 1.1.1.1.1.1.[ 1.1.0.1.1.1.1.;.1.;.) N 8 i e e 0 0 e u 0 6 6 6 6 7 0 e 0 e a 0 e a e 8 5 6 e 8 F C.>X>X>X4X>X}.<X{.l.K - 0 q e 7 8 0 7 8 e 6 0 0 0 0 0 e 0 0 0 0 0 0 u 0 0 0 0 u 0 0 0 6 e e 8 5 j ^ ) ;.) 1.1.3.1.1.1.,.1.1.[ ,.1.1.1.1.' ` ` :.` ) ` :.) ] ~ e e 6 9 0 0 0 0 0 0 0 0 0 0 0 0 u 0 0 0 0 0 0 0 0 0 y 0 0 y 0 0 9 y 0 0 y 0 0 0 y 0 0 0 0 y $ y 9 y y $ y 0 0 $ 9 t M ( 1.1.] 1.3.3.1.,.c.].<X<X}.}.Q.>X>X+XpXnXAXAXAXAXAXHXDXtXr.< $ $ B $ $ B y 9 0 9 6 9 q 8 8 7 8 r U ` 1.1.1.1.] :.1.] 1.:.:.1.] 1.3.3.3.3.3.3.3.3.3.3.3.1.1.3.3.' 1.' 3.' 3.3.R M 8 - - 8 9 q y 9 y 9 q 9 q 9 e 9 9 y 9 q 9 9 e 9 q 9 q 9 9 7 7 7 7 0 7 7 5 8 M ( [ ] ] [ ' 1.[ 1.1.1.1.1.1.1.1.) ;.;.V a e 6 6 e 6 u 6 e 6 u e 6 u 6 e 6 6 e 6 6 6 6 e u 6 u ",
"}.>X>X>X<X1X}.C.L - 7 0 9 6 6 6 6 6 6 e e 6 8 6 u 6 e 6 6 u 6 6 e u 6 e e 6 0 6 u 0 0 6 0 6 k ~ ) 0.1.[ 3.2.1.3.1.,.1.,.1.1.1.1.:.1.1.' :.1.1.3.2.,.1.1.^ n a 0 y u u 0 u e 0 0 0 0 e u y u 0 0 e 0 0 e 0 0 e e e u e 0 e 0 0 0 0 0 0 0 0 0 u 0 0 0 e 0 0 0 0 e e e e y 0 7 e j T ;.:.` ` _ ' ' ,.j.{.<X<X}.}.=X}.=X-XaXMXAXFXVXSXSXHXHXtXr.p $ e e 7 q q 0 q q e q q q 7 : : w r U ] 1.;.1.1.1.1.1.1.1.2.1.,.2.:.:.2.1.3.2.3.3.,.:.,.,.,.1.,.,.,.1.1.[ ' 3.3.` H t - 8 8 7 7 8 8 > 7 8 7 > 8 6 7 6 8 ; 8 7 8 8 8 ; 8 8 8 7 e ; 8 8 7 7 7 > 8 d ( 1.q.3.1.1.0.1.3.3.3.3.0.1.1.1.] 1.:.V a i e u 0 u 0 7 6 6 6 6 6 0 0 0 0 0 u 0 e u e 7 5 7 7 i F c.>X>X<X>X}.<X4X{.l.K @ 9 e q 0 0 8 8 0 q 6 0 0 0 e 0 0 0 0 0 0 0 0 e 0 0 0 u 0 0 0 0 6 8 6 7 e a T ) ;.1.1.1.1.1.3.1.1.1.3.,.1.' 1.' 1.1.1.` :.` :.` ` :.) ~ j e 6 7 0 0 0 0 0 0 0 0 0 9 0 0 0 0 0 0 y 0 0 y 0 y 0 0 0 $ y 0 0 0 y 0 0 0 0 y 0 0 y 0 0 0 y b 0 0 0 b y 0 y $ 7 q M ( 1.1.] 1.3.2.' >.x.].<X<X}.Q.}.:X>X3XpXnXnXAXVXVXAXHXDXrX=.< $ $ y $ $ B $ 0 0 9 9 9 q q 8 7 r t U ` :.1.:.:.1.1.1.:.1.1.1.:.1.1.1.3.3.3.3.2.3.3.3.3.3.3.3.' 3.' ' ,.' 3.3.3._ M r : ; 5 q 9 9 9 q q 9 q 9 9 9 y 9 9 e 9 q y 9 9 y q 9 q 0 0 9 7 6 7 0 7 7 e M ( 1.[ [ ] ] ] ] ,.1.1.1.1.1.1.1.1.1.0.A b u e e e e e e 6 6 e e e e 6 6 6 u e e 6 6 e 6 6 e 6 ",
"<X>X>X<X<X4X}.C.L - 6 6 6 6 6 6 6 6 6 6 e 6 6 6 6 e 6 e 0 e 6 a 6 6 u 6 u 6 e 6 6 6 0 0 0 0 a ~ ] [ 1.1.1.1.3.1.3.1.1.1.1.1.1.1.1.1.1.` ` :.1.>.2.:.1.;.~ a 6 6 0 0 0 y e u e a u 0 u 0 0 u e a 0 0 e 6 e 0 0 0 0 6 6 a 0 0 0 0 0 0 0 0 0 0 0 0 0 0 0 0 0 q q e e q q e q 7 t l T ] ' ` ` ' ' _ p.f.W.>X>X>X:X>X:X>X-XsXzXFXSXSXSXSXSXHXrXJ.< 5 y 9 9 0 0 0 9 0 q q q 7 7 7 7 7 t T 1.1.1.1.;.1.1.1.1.1.3.1.1.1.1.3.3.1.1.1.1.1.1.,.1.1.,.,.1.1.,.3.,.,.[ 3.3._ H r 5 e 8 e i 8 8 8 8 i u 8 i 8 8 i 8 i 6 i i 8 6 8 6 i 8 i i 8 e 1 i e 8 8 8 j ( 0.0.[ 1.[ 1.3.q.1.q.1.1.1.1.1.1.1.1.V j e u 6 0 0 u 0 6 $ 6 0 0 6 0 0 0 e y e e e e 8 7 6 6 a K c.}.4X4X>X4XXX4X].l.K - 7 e q q e 6 e e e 0 0 0 0 0 0 0 u 0 e 0 0 0 0 0 u u 0 0 0 6 0 u 8 6 8 7 j ^ ) ) 1.1.1.1.3.1.3.1.1.3.1.,.1.:.,.:.` ` 1.1.) ` ` ] 1.) ~ e 8 8 0 0 0 0 0 0 0 0 0 0 0 0 0 0 0 0 y y y 0 0 u y 0 0 y 0 0 y 0 0 $ u 0 0 0 y y 0 y 0 0 0 0 $ 0 0 0 $ $ y 0 9 7 e m ( 1.1.1.1.3.3.' ,.x.S.>X,X:X:X=X>X>X3XpXnXVXAXAXVXVXSXSXrX=.@ $ $ $ $ $ $ y $ y 0 0 0 0 q 8 8 8 t T 1.1.:.1.1.1.1.1.] ` 1.1.' 1.1.1.3.2.3.4.3.2.3.3.3.3.1.1.3.,.3.] ,.[ ' 3.2.` H r 5 7 7 e e e e q q y q y q y e q e y 9 q y q q q y y q q e q 9 0 9 e 0 7 a V ) ] [ [ ] [ 1.' ] ' 1.1.1.1.1.1.1.1.1.U j 8 8 u e e u e 6 6 6 8 e e 6 u e 6 e 6 6 u e e 6 6 6 ",
"}.>X<X<X<X<X}.c.K - 9 6 9 6 6 6 6 6 6 6 6 e u 6 6 6 e u 6 6 6 e e e e 6 6 6 u 6 0 0 0 6 $ u a ^ ) ] [ q.3.1.1.1.3.1.1.,.1.1.1.1.1.1.1.:.:.:.1.1.,.:.1.1.T j u 6 a b u 0 0 0 0 0 e 0 e 0 0 0 0 0 6 e 6 0 6 u 0 0 0 6 6 6 0 0 u 0 0 0 0 0 0 0 0 0 e 0 0 0 0 q 0 e e q 8 e q 7 e j T ` ' ` ` ` _ ' ' v.D.<X>X>X:X=X=X>X-XiXnXFXFXNXNXSXSXHXrXr.x - e q 9 q q q q q q q 8 w w 7 7 8 t T ) 1.;.1.1.1.1.1.1.3.>.1.1.3.1.3.>.1.1.,.1.,.1.,.,.,.1.,.,.,.1.' ' 1.,.3.3.W H t 7 e i u 8 6 u 8 8 8 8 8 6 8 8 6 6 i 6 8 8 6 i 8 6 8 8 6 8 6 6 6 8 6 8 8 7 j ( 1.1.0.1.q.1.1.3.3.1.3.1.0.1.1.1.1.1.K j e e 0 u u 0 7 6 6 5 7 u 0 0 0 0 0 e 0 e e e 8 5 ; 7 i F C.>X>X>X<X}.<X<X{.g.F - 7 e 0 8 6 e 6 7 6 q 0 e 0 0 0 0 e 0 0 0 0 e 0 0 0 0 0 0 u 6 0 6 8 8 6 7 j ~ ) ) ;.;.1.1.3.1.1.1.3.,.1.,.1.1.' 1.' 1.' ` ] :.] ` ) ] U t 8 5 7 6 6 0 6 9 9 0 0 0 0 9 0 0 9 y $ 0 $ b $ $ y 0 y 0 0 0 0 y 0 y y y 0 0 0 0 0 0 0 y 0 0 y y 0 0 y b $ $ 0 7 a n ^ 1.1.] 1.3.3.] ,.j.D.>X1X:X:X>X>X2X2XsXnXVXVXVXVXVXSXSX9X=.@ $ B B $ B $ y 0 0 9 6 9 9 9 q 7 7 t U ) 1.1.1.:.` 1.:.1.:.1.1.1.' 3.] 3.3.3.q.3.3.3.2.3.3.1.3.[ ] ' 3.' ' 1.3.3./ N t - 7 e e e 9 e y q y e e q q q q y q e e q y e q e q e e q q q 0 0 e 0 6 a V ( 3.] [ ] ' 1.1.] 1.' 1.] 1.1.1.1.1.1.V j a 8 6 e e e e 6 e u 6 e e 6 6 e 6 6 e u 6 6 6 e 6 e ",
"<X<X>X<X<X4X{.c.K - 5 7 6 6 6 7 6 6 6 6 6 0 6 6 0 0 6 6 u 6 6 6 0 6 0 0 6 6 6 0 0 u 6 6 6 0 e U ` ] 1.1.1.1.3.3.1.1.1.3.1.3.1.3.,.3.1.1.1.:.:.:.:.,.1.:.Y a e 6 0 b 0 9 0 0 6 0 0 6 7 0 6 0 0 0 6 6 e 6 u e 6 6 6 6 e 6 6 6 e 6 0 0 0 e 0 u 0 0 0 0 6 0 0 q e q q e q e q 7 8 l / _ ` ` ` ' _ ] <.j.{.<X>X>X:X}.Q.Q.(.pXVXFXSXNXCXSXHXHXwXJ.< 5 9 9 7 9 7 9 0 q q q q 8 q 7 7 w l T 1.;.1.1.1.1.1.1.:.1.1.1.1.1.2.1.1.3.3.1.:.1.1.,.,.,.,.1.1.1.,.3.,.1.1.' [ W H t 8 q e e 6 8 e 6 6 6 e 8 8 8 $ y y y y y 0 6 6 6 6 6 e e 6 8 8 6 6 e 8 7 8 d ( 0.0.0.1.1.[ 1.1.] 1.1.0.3.1.1.1.1.1.C j e 6 u 0 7 u 6 6 6 6 6 0 6 0 0 0 0 u 0 0 0 e 8 ; 5 8 i F c.}.>X4X>X<X}.<X{.g.K O 0 q 0 0 0 q 8 0 7 7 0 0 0 0 0 0 0 e u 0 0 0 0 u y 0 0 0 6 6 6 6 6 5 6 5 j Y ) ) 1.;.1.1.1.1.1.3.2.3.3.3.1.1.1.' 1.] 1.1.` :.' ] ] ) ~ e 5 $ 6 6 $ 6 7 6 6 6 6 7 9 6 9 6 9 0 0 0 0 0 0 0 0 0 0 0 y 0 0 y 0 y 0 0 0 0 0 y $ b $ 0 y 0 y y 0 y y 0 0 0 $ 6 8 M ( [ 1.] [ 1.0.' ,.j.D.>X>X:X:X>X>X2X3XsXMXVXVXVXVXNXAXSX9X=.< $ y y 0 0 0 9 0 6 9 5 9 7 9 q 5 5 t U ) 1.:.1.:.1.:.1.1.1.:.' 1.1.1.1.,.3.3.3.3.3.3.3.3.3.[ 1.1.1.1.,.1.1.,.3.2._ V j - e 8 0 e 0 y y 9 e y 9 e y e 9 e y 9 e 9 y e e y 9 e e e e e 9 e a 0 7 b V ( [ 3.] 1.1.] 1.] 1.' 1.1.1.] ] 1.1.;.V j 8 7 6 0 e 6 0 6 6 6 0 0 0 6 6 0 6 6 e 6 6 6 e u 6 6 ",
"}.>X>X>X<X4X}.x.K * 5 8 6 6 6 6 5 6 6 6 6 6 0 6 6 6 6 0 0 6 0 e 6 a e u 6 6 6 6 6 $ $ 6 $ 7 a ~ ( 1.1.1.3.1.1.1.3.1.1.3.1.1.1.3.1.,.,.1.1.,.:.:.:.:.1.-.U a 6 6 0 u 0 0 6 6 6 0 6 6 0 0 6 6 0 0 0 6 e 6 6 e 6 e e u 6 6 e u 6 0 0 0 0 0 0 e 0 0 e 0 e 0 0 0 e 0 e q e e q 7 q M / ] ] ` ` _ ' _ ,.c.W.>X<X>X}.E.Q././.pXzXSXFXSXCXSXHXHXrXJ.< O 5 9 7 7 5 5 5 7 q q q q q 7 7 t t T ) 1.1.1.;.1.1.1.1.:.:.1.3.2.,.1.1.1.2.1.2.3.1.1.' 1.,.,.,.1.3.2.1.1.3.3.3.R D t e e 0 0 u e 6 6 6 6 6 u 6 6 B $ $ y b $ 0 0 0 6 u 0 0 6 6 e i 6 0 7 6 8 7 k ^ 0.0.1.1.0.0.] 0.1.1.1.[ 1.1.1.1.1.;.V i 5 6 5 6 6 $ 6 0 6 6 6 a 0 6 6 0 0 0 0 0 0 e 5 5 7 8 i K c.}.<X<X>X}.<X4X].l.v o 7 e q 0 9 e 0 0 0 0 0 0 0 e 0 0 0 0 0 u 0 0 e b e 0 u 0 6 6 6 5 5 5 ; 5 i T ) ) ` 1.] 1.1.3.1.1.1.1.3.1.,.,.1.1.1.1.] ] 1.] ] ] ] ] J t 5 5 7 6 6 6 7 5 5 $ 9 6 7 6 $ $ 6 0 9 9 9 9 0 9 y y 0 0 0 0 9 0 0 0 0 0 y y 0 0 y 0 y 0 0 0 0 0 0 0 u 0 0 0 0 9 e M ( 0.1.] 0.3.3.' ,.l.S.>X,X:X*XQ.=X>X;XsXVXFXSXVXVXVXSXSX8X=.< + 9 $ 9 $ 5 5 5 $ 9 9 9 9 0 5 5 7 t U ` :.1.1.1.1.:.1.:.] 1.1.:.1.` 1.,.3.2.2.3.3.3.3.1.1.1.' 1.' 1.[ [ ,.1.3.2.( M 8 > 8 e e 9 9 0 e 9 9 e e 9 9 e 9 e e 9 e 9 9 9 9 0 y e 9 9 e 9 e e e 0 0 e M ) 1.[ 3.1.] 1.] ] ` 1.' 1.[ 1.] 1.1.) V e 6 7 6 7 7 6 7 6 9 6 0 0 0 6 6 0 6 0 e u e 6 6 6 e 6 ",
"<X>X4X>X1X4X[.x.P - e 8 a e e e 6 7 0 7 6 6 6 6 6 6 6 0 0 0 6 0 a 6 0 6 0 6 q e 0 0 0 0 u e k ~ ] [ 3.0.0.3.3.1.1.1.1.1.3.2.1.,.,.3.,.1.:.1.:.:.:.:.:.-.~ a a 0 b b 0 u u u u e u u 0 u u a 0 u u 6 6 6 6 6 8 u e 6 e e e u e 0 0 e 0 0 0 0 0 0 0 0 0 0 0 q 0 e q e e q q 7 q l T ] ` ` ' _ ] _ ,.k.[.4X4X4X$X}.Q./.(.uXVXVXSXCXCXSXAXGXjXJ.x 5 e e t e e q e t q 8 e t 8 t q t l U _ ] ;.1.1.1.1.1.1.1.1.1.1.2.3.2.2.,.1.1.3.1.1.,.1.,.1.,.1.:.' ` ' ' ' 1.:.Y N j e e 0 0 0 0 e 0 6 0 0 0 0 0 B $ $ $ $ $ y 0 0 0 0 0 e 0 e 0 6 6 6 8 7 7 7 a ^ 0.1.;.] ) ] ] ] 1.1.1.3.3.3.1.1.1.:.V a a a 0 u 0 0 a a a 5 6 a 6 e 6 6 a 0 0 0 7 0 e 5 5 8 8 K c.>X>X2X<X>X}.<X{.g.K 5 e a a y y b $ e e 0 0 0 0 0 0 0 0 e 0 0 0 0 0 0 0 0 0 u 0 u 0 u 6 6 u 5 j U ` ) 1.] 1.1.1.1.1.3.1.1.1.3.3.3.,.,.' 1.,.1.1.1.1.1.1.] ~ j e 8 e 0 e 0 q 8 8 e e q e q 8 0 e e 9 0 9 0 0 $ u 0 0 9 y $ y y 0 y $ 0 0 0 0 y 0 0 0 0 y 0 0 0 0 y $ y $ 0 $ 7 e m ( 1.1.] 1.1.[ ] ,.j.{.<X>X*X:X>X2X6X3XsXMXCXFXVXzXVXAXCX9X=.s 6 b b y e a 0 u 0 0 6 0 e e 7 9 8 l T -.-.1.:.1.1.1.:.1.:.1.1.1.1.1.] 3.3.3.3.w.3.3.1.1.1.:.' ` :.` ' ` :.` 1.,.R M j - 6 u 0 y 0 0 9 0 e 9 9 9 0 0 0 0 9 e 0 9 0 9 9 9 e 0 9 0 9 e e e e 0 0 q n ( [ _ _ ] ` ` ` ` ] 1.1.1.` ' ] 1.1.1.J j a q e q e q 0 u 0 6 7 e 0 6 6 6 e 6 6 6 u e 6 6 6 u ",
"}.>X<X}.<X<X{.c.I d j j j j a a a e 6 e 0 6 0 6 0 6 6 6 7 u 6 0 6 6 6 5 6 0 a n n a b k b n m ~ ) [ 1.[ 3.1.1.1.1.3.3.1.1.1.1.3.1.,.,.1.,.' ` :.:.:.:.-.Y M k k m m n b b b n a a b k b b a a b e e 6 0 e 6 6 6 6 6 6 u 6 0 6 0 0 0 0 0 0 0 0 e e 0 0 0 0 e q q e 8 q y q 7 t l T ] ` ' ' ' ] ] 2.c.+X5X5X@X@X@X@X7XyXjXzXNXNXCXBXNXVXAXrXU. .m J J H H H U H m M j n j n j j n N / [ 1.] 1.1.1.1.1.1.1.2.1.1.:.1.1.1.1.,.1.1.1.1.,.,.,.1.,.` ` ( ( ( R ( ( _ Y z a 6 7 7 0 6 0 6 0 a 0 0 0 0 e $ $ B B b y y 0 0 0 e 0 0 0 u 0 6 0 u 0 0 0 0 k ~ ) ^ ) ( ) ( ) _ 1.1.1.3.2.3.3.` 1.:.V j j k b b n n b m a 6 6 e a e 6 0 e 0 9 7 0 0 6 8 5 8 d F C.>X4X<X>X<X>X<X].l.R 8 b m m b B B b j e e 0 e 0 0 0 e 0 0 0 0 0 0 0 0 0 $ 6 a a k n j j j j j M Y ( ` ` 1.1.1.1.1.3.1.1.1.,.1.1.1.1.1.1.1.1.1.1.1.1.1.1._ ~ M j e a k n n b j j j k n n j j n a b e 0 0 y 0 0 9 0 0 0 0 u y $ 0 0 b 0 y 0 0 0 0 0 0 0 0 y 0 0 0 0 0 y u 0 6 7 t N / 1.1.] 1.3.q.] >.c.[.6X6X6X3X3X3X3XyXlXFXCXFXVXVXVXCXAX9Xr.} z K C m C N N m n k j e a a a j l M R -.1.1.1.:.:.1.1.1.:.1.` 1.1.1.3.3.3.1.3.3.3.3.1.1.` ` ` ) ` _ ( ( ( _ ( ` T M j 5 6 6 0 0 e e e 9 y e y e y 9 e y 9 y y 0 y 0 e y e 9 y e 9 e e u 0 0 e e e ~ ( ) ( ( ( ( ( ) ` 1.1.1.1.1.1.1.1.1.T m j k k j j n j b a 7 0 e 0 0 0 6 6 6 e 6 6 6 e 6 6 e ",
">X>X<X<X}.4X{.S.$.D U T Y U J U A B y e 9 0 0 0 6 0 6 $ u 0 6 6 0 0 6 6 e M J ^ ^ ^ ~ ~ ~ ~ ~ 1.] 1.[ 3.3.3.1.3.3.1.1.1.1.1.1.3.3.1.,.1.:.:.` :.1.:.1.1.( U K U U ^ ^ U ^ ~ U ~ ~ T ~ U ~ ~ ~ A j e 6 6 8 6 6 6 0 6 6 0 e 6 0 0 u e 0 e e u 0 e 0 0 0 0 0 q 0 q q q q y q q w l T ' _ ' ' ] _ 1.>.R.@XhXhXhXxXxXjXsXjXkXNXNXCXNXCXNXNXVXkXOX7.4.d.N.N.d.m.m.4.' ( U K U U U U ~ / 1.q.3.1.1.2.1.3.1.1.3.,.2.3.1.3.1.3.1.1.,.3.3.1.,.,.,.,.3.` H M m m z M N N z j e 5 6 6 6 0 0 u 0 0 0 0 u 0 e B $ $ $ $ $ $ $ 0 0 0 0 0 0 0 0 0 0 6 0 0 6 e e M B B N N M m m V ~ ) 1.3.3.3.3.` 1.1.( ~ A ~ A ~ ~ ~ A A m 9 0 a e e e 0 0 0 9 6 6 8 8 5 5 8 i F C.>X>X4X>X}.<X4XXXC.:.V ! ^ ~ ~ A ^ ~ V b e 0 0 0 0 e 0 0 0 0 0 0 0 0 u 0 6 a M K Y Y T K K U K U ` ` ` ' ] ] 3.1.1.1.1.1.,.1.1.1.3.1.1.1.3.1.,.3.3.1.3.1.[ ) T J J U ~ U U ~ T U T U T U U U K U A n b 0 0 0 0 6 0 0 0 0 0 0 u y 0 0 0 0 y 9 0 0 0 0 0 0 0 0 y 0 0 0 0 0 0 0 9 e M ( 3.1.' 1.3.3.:.<.].@XhXhXhXhXsXhXsXlXAXSXCXFXVXVXzXCXVXrX0X*.$.g.s.g.g.8.4.>.-.Y C U A C U A U T ( :.` :.:.1.:.1.1.1.:.1.1.:.1.1.1.1.1.3.3.3.3.1.] ] ` ) ` R V l M M M M M N M j 8 8 6 6 0 0 0 0 0 q e 9 9 y 9 0 9 y 9 0 9 0 0 9 0 9 e 9 e q q q e e e a e e u M m N N M m m M H T ^ 1.1.1.1.1.' 1.1.R T U U U T U T J m k 7 0 u 0 0 0 6 u e e 6 e 6 u e 6 6 ",
"}.<X2X>X<X4X}.{.a.W :.,.3.1.] 1.1.~ m e 0 0 0 0 6 6 0 6 0 0 9 6 6 6 a e n J ] 0.1.1.0.1.0.0.1.1.1.1.0.1.0.3.3.1.1.1.3.3.,.1.1.3.,.3.,.1.:.` :.1.:.:.' >.1.` :.1.1.1.1.2.2.q.2.0.0.0.0.0.0.0.0.) k e 5 6 6 6 6 6 6 6 6 6 6 6 6 0 0 0 0 0 0 0 0 0 0 0 0 e 0 q e q q q q t q 7 w n T ] ' _ ` _ ` ' 8.I.fXnXnXGXAXAXAXVXVXVXVXNXNXCXBXNXVXAXzXfX+XXX<X<X4X<X<X<X|.V.<.,.:.2.1.1.1.1.1.q.q.3.1.1.2.2.3.2.1.2.1.1.1.1.2.:.2.1.1.1.>.1.1.,.,.1.2.:.R a 5 ; 6 5 ; 6 6 8 e 6 e u e e e 0 e 0 0 e 0 e 0 0 $ $ B $ B $ ^ $ 0 e e u e 0 0 0 0 0 e 0 0 0 e 6 0 6 6 6 e e 8 5 8 V ^ ] q.[ [ [ ` 1.1.] 1.1.1.0.0.0.0.0.^ V 0 7 e e e e 0 0 0 $ 6 6 e 6 5 7 8 i K c.}.>X>X<X<X}.4X}.].8.) 0.0.0.0.0.0.0.~ V a 0 0 0 0 0 0 0 e 0 0 0 0 a 0 0 6 n Y ( 1.,.:.:.` :.` :.` 1.1.' 3.,.1.1.3.3.3.1.1.1.1.,.1.3.3.3.3.3.1.3.2.3.1.1.[ ] ` ` ] ] 1.) ] ] ] ] ] 1.1.' 1.' 1.1.( N b b 0 9 9 0 9 0 0 0 0 0 0 0 0 0 0 0 0 u 0 0 0 0 0 0 0 0 0 0 b $ u 0 9 $ 5 e M ( 1.1.1.1.3.2.,.>.oXxXMXGXMXnXMXMXnXzXAXHXCXCXVXVXVXCXCXzX8X!.}.>X1X1X>X>XXX|.V.<.+.:.2.2.2.2.2.:.2.:.:.:.-.:.1.1.:.1.2.1.1.` ' 1.1.,.1.1.3.2.1.3.1.] 1.` ) T r : - > > 7 7 5 8 6 8 e 8 6 0 0 0 0 0 0 0 0 0 9 0 9 9 9 0 9 y 9 9 y 9 y 9 e 0 0 0 0 0 0 0 0 e 6 7 8 7 8 8 8 8 7 7 e M T 1.1.3.2.1.1.` 1.` W ' ' ,.' ,.,.` U M 8 e e a a 0 a 0 0 u 6 6 6 e 6 e 6 ",
"}.>X<X<X>X<X[.n.a.o.#.>.:.1.( 1.1.U m 0 0 6 $ u 0 0 6 6 7 6 6 6 6 8 6 e n J ) 1.] [ 1.1.0.] 1.1.1.1.1.0.[ 1.1.1.1.,.1.1.1.3.3.,.,.1.:.:.:.` W ,.,.' 1.1.:.R :.:.:.1.1.1.1.1.1.1.1.0.1.1.1.0.1.] U j 7 6 6 8 6 6 6 6 6 6 6 6 e 0 0 0 0 0 0 0 0 0 0 0 0 0 0 q e q q q e q q q w M ! [ _ ` ' _ ] ` 6.I.dXAXSXSXSXSXAXCXNXNXNXNXCXSXSXNXVXAXkXjX+X}.<X1X<X<X<X<X|.j.<.W :.,.:.:.:.1.1.1.2.2.3.2.3.1.1.2.1.1.1.1.2.3.3.3.:.1.1.1.1.1.1.,.1.,.:.1.R j 6 ; 6 8 6 e 6 0 6 u e e e e 0 0 0 0 0 0 0 0 0 0 $ B $ B $ $ ^ $ 0 0 0 0 0 0 0 e 0 0 0 0 0 0 0 0 6 u 0 0 6 e 6 6 t V ( 1.3.3.1.] ` ] 1.] 1.1.1.0.] 1.1.) ( C q e e e e e 0 0 6 6 0 e e 8 5 7 8 i F c.XX2X>X4X>X4X4XXXZ.4.;.0.0.0.0.0.0.;.A m a 0 e 0 0 0 0 0 0 0 0 0 0 0 u 0 6 k K ( ,.,.,.+.W ` ` :.` ` ` 1.1.1.,.3.3.] 3.3.3.3.3.1.1.1.3.3.1.3.1.3.3.3.1.1.] ] ] [ 0.[ ] 1.] ' ] ' 1.3.,.,.` W ` ` ( V m a u 0 0 0 0 0 0 0 0 0 0 0 0 0 0 0 0 0 0 0 u 0 0 0 0 0 0 0 0 0 0 6 9 6 5 a M ( 1.1.` 1.3.,.:.5.oXrXAXAXVXVXVXzXAXkXSXSXDXCXCXVXVXVXVXkXuX!.Q.=X=X=X=X2X4X].k.<.+.:.-.+.:.:.:.:.-.:.:.:.:.:.1.:.:.1.-.1.1.1.1.1.3.1.1.3.3.[ 3.] ] ] ] ) ) T t 7 > 5 5 > 8 8 8 u 6 u e e 0 0 0 q 0 0 0 0 9 0 9 y e 0 0 9 e 9 0 9 0 0 9 9 0 9 q 0 0 0 0 e e 6 7 0 6 e 6 e e 6 5 i N ~ ] ] 3.3.3.' 1.' :.` ,.' ` W Q ` ` T z 8 5 6 6 0 0 6 0 6 0 6 e 6 e 6 u 6 ",
">X<X>X>X<X>X{.n.s.#.,.,.:.` ) ` 1.V n a u $ 0 0 6 $ 6 6 6 6 6 6 6 6 e e t J ( 0.[ ] [ 1.] 1.[ [ [ 1.1.[ [ 1.1.1.1.1.3.1.1.1.1.1.,.1.,.1.1.:.` 1.>.' ` ,.` W ` 1.:.:.1.1.1.1.1.1.1.1.1.1.0.1.1.) U n 7 6 ; 6 6 6 6 6 6 6 6 6 6 0 e 6 0 e 6 0 0 6 0 e 0 6 0 0 e 0 q q q y q q t t T _ ` ` ` ` ` ` 6.Y.wXAXGXSXSXSXSXCXCXCXVXSXSXFXSXVXVXSXAXxX@XXX<X<X1X<X<X<X].g.$.W :.:.:.) ` -.:.1.1.1.1.1.1.1.1.:.3.3.3.>.:.3.1.1.2.3.2.3.,.1.1.1.1.3.1.1.( d 6 6 6 u 6 6 6 6 6 e e e u 0 0 6 e 0 0 0 0 e 0 0 $ B $ $ $ B $ $ 0 0 6 e 0 0 0 0 0 e 0 e 0 0 e u 0 a e u 6 a 0 6 e V / 1.q.3.3.[ ] ] ] 1.] ] 1.;.1.;.1.1.) U e 7 e e e 0 0 0 0 0 6 e e 6 6 5 7 a K C.}.>X>X>X}.<X<X}._.2.;.;.0.0.0.0.;.0.! b e e 6 0 6 0 e q u 6 0 u 0 0 b e 7 z Y R 1.,.` Q ` ` ` ` 1.' ` :.] ,.1.3.,.[ 1.' ,.1.1.1.3.1.,.3.1.1.3.3.3.3.1.1._ ] ] 1.q.1.] ] ] ] ' ] ' ] [ [ ` ' W :.( N b a y 0 0 0 7 u 0 0 0 0 0 0 0 0 0 0 0 0 0 0 0 0 0 0 u 0 0 0 0 0 0 0 0 0 7 a M R 1.1.1.1.,.1.>.&.~.xXnXAXAXVXVXAXVXNXSXSXCXCXNXVXFXVXFXkXuX-X=X=X=X-X=X>X<X[.x.8.X.:.>.:.-.>.>.-.>.:.:.:.:.:.:.1.:.1.:.:.1.1.' 1.[ 1.1.1.3.3.3.3.1.' ) ] ) T j 7 8 7 8 8 6 6 8 e e e 6 e 0 0 0 0 q q q q e e e 9 e 9 e y 9 e e e y 9 e e e 0 q 0 0 0 0 e 0 0 0 0 6 0 a e e 6 - e N T ;.1.3.3.3.1.' 1.1.1.,.` Q ' ` ` ' R N 8 5 5 6 0 6 6 6 e 6 e u e e 6 e e ",
">X>X>X<X>X<X}.].g.+.,.2.,.:.W ` ` V j e 6 0 0 0 u $ $ 6 $ 6 $ 6 6 6 8 8 j H _ 1.1.[ 3.[ 1.1.1.1.[ 1.[ 1.1.[ 1.3.1.3.1.1.3.3.1.3.1.3.3.3.3.1.1.1.,.1.1.,.,.` :.,.:.1.1.' 1.1.] ] 1.' 1.1.] 1.] ) U j 6 ; ; 6 6 6 6 5 6 u 6 6 6 6 6 0 0 0 6 e 0 e e 0 0 0 7 0 0 q e q q q q 7 t t T [ _ ` ` W ' W @.Y.wXAXSXSXSXDXSXSXSXSXSXSXSXSXSXVXAXVXcXxX(.}.>X<X1X1X}.<X{.g.>.W +.-.:.-.:.:.:.:.:.:.:.:.:.:.:.:.:.:.:.:.3.1.>.2.1.2.1.1.1.1.,.1.1.1.1.1.R a 6 6 6 u 0 0 0 6 6 e e u e e 6 6 6 0 6 0 u 0 0 0 $ $ $ $ $ $ $ $ $ $ $ $ $ $ $ $ 0 0 0 0 0 0 0 0 0 0 u 0 y e 0 7 a V ^ 0.0.1.[ ] ] ] ] 1.] 1.1.1.1.] 0.) ( J e 8 8 e e e 0 0 0 0 6 e 6 6 6 6 6 i K ).}.}.<X<X}.<X<X}.C.a.:.-.1.:.-.-.1.0.A m e e e 0 e 6 6 6 e e u 6 0 a a u 8 j U R ] 3.1.` ` ' ' ` ` ' ' 1.' 1.' ,.[ ' ' 1.' 1.] 1.` 1.1.] ' 1.1.' ' 1.' ] ` ] ` 1.1.] ] 1.] ` ' [ [ 3.3.[ ' ] ` ` R M a 6 6 u u 0 6 0 0 0 0 0 e 0 0 6 u e e u 0 0 0 u e e u e 0 0 0 0 a 0 a 0 8 e M ( 1.3.>.,.,.1.:.&.oXjXGXAXAXAXHXHXHXSXSXDXSXVXVXZXVXAXAXNXuX;X=X*X=X=X=X=X}.].j.<.>.2.-.2.:.2.>.:.:.,.>.2.:.2.:.:.:.:.:.:.1.1.1.:.1.1.1.' [ 1.1.[ 1.] 1.3.` T j 7 7 7 8 8 8 e 6 e e e e e e e e 0 q e e q e y 0 e e e e 9 q e 0 0 q e e 0 q 0 q 0 0 0 0 0 0 0 0 e 6 0 0 0 0 9 $ e m R 1.1.3.1.1.[ 1.1.[ 3.' ` ' ' _ ' ` ( V > 7 8 6 6 6 6 6 6 e 6 6 6 8 6 8 e ",
">X>X>X>X>X<X}.].g.:.,.3.1.` ` ` -.U n a 0 0 0 u 0 6 6 6 6 6 6 5 5 6 8 8 j H ( ,.[ [ [ 1.[ 3.[ [ 0.1.1.1.[ 0.[ 1.1.1.3.1.0.3.3.3.3.3.3.3.3.2.3.3.1.' ,.3.,.1.:.` 1.1.' 1.' ] ' 1.1.] 1.1.1.1.1.) U j 8 5 5 6 6 6 $ 6 6 0 6 6 6 6 6 6 u 6 e u 0 u 6 0 0 0 0 0 e q q y q q 8 w w l T ' _ Q ` ' ' W $.U.wXAXSXSXSXSXSXSXSXSXSXSXAXSXAXNXZXAXAXpX-XQ.>X>X1X:X:X<X{.j.<.+.( +.X.+.:.:.:.:.-.>.:.2.1.-.:.2.2.:.1.:.>.2.3.:.1.1.1.:.:.1.1.1.1.1.1.1.( k u 6 $ u 0 u u 6 u 6 6 6 6 u 6 e u 6 6 a 0 0 0 0 ^ $ $ ^ ^ $ ^ $ $ $ ^ $ $ ^ $ $ u 0 0 0 u 0 0 0 u y u 0 u 0 0 6 a V / 0.1.[ [ ] ] ] ] ] 1.] 1.] ] 1.] ] ) H 8 7 7 e e 0 0 0 $ 0 6 e 6 6 5 5 ; i F c.}.<X}.<X>X}.<X}.c.a.W :.2.-.2.:.-.;.U n e e e 7 8 e e 6 6 6 6 e 6 6 8 u 7 j U ( 1.3.] ] ' ' ` ' ' 1.' ] ' 1.3.3.1.' ' ` ` ` 1.' :.' ' 1.1.` ' 1.1.1.:.] ` ] ] ] 1.] ] ] ] ` ' [ [ [ 3.3.] [ ,.' ( M j 5 5 e 6 6 0 u 6 0 0 u 0 0 u u e 0 0 6 u 0 0 0 0 0 0 0 u 0 0 0 6 0 e e 8 j z T >.,.,.,.,.:.@.&.OXlXGXGXAXHXHXHXHXSXSXSXSXAXZXAXAXAXAXcXuX-X=X=X=X=X-X=X>X].l.<.-.:.:.2.>.2.1.:.>.3.2.:.:.` :.:.:.:.:.2.1.3.1.:.:.1.1.' 1.[ 1.1.1.[ q.q.) U t 7 7 8 8 e 6 e u e e e 8 e 0 0 q e 0 0 q 0 9 0 e q 9 e e e 0 e q e 0 q q 0 e e q 0 0 6 e 0 0 0 0 0 0 u 0 0 u 7 $ e N ^ ] 1.0.1.1.[ 1.1.3.3.,.' ] ] ' ] ` ( m > 5 7 8 6 5 6 6 6 6 6 6 6 i 8 e 8 ",
"}.>X2X>X<X4X}.{.l.+.,.,.:.:.:.:.1.U k a u u a a 0 0 6 6 6 6 6 6 8 u e e j H / 3.3.3.3.[ 1.3.3.0.1.1.0.[ 1.0.1.1.3.3.3.3.1.1.0.3.3.q.3.1.3.3.2.3.' 1.,.3.,.3.1.` :.1.:.' ' 1.] 1.' 1.1.1.] 1.] ) J j 7 5 5 6 u 6 u 6 u 0 0 u 6 6 6 u 6 u 6 6 u 6 0 0 6 6 0 0 0 0 t q q 8 q 7 r l T ` ` ` ` ,.:.+.@.U.wXAXSXSXSXSXSXSXSXSXAXHXSXAXAXAXZXZXAXlX3X}.,X>X>X:X}.>X].j.$.W :.:.1.:.:.,.>.:.:.:.>.:.2.:.,.,.,.1.:.:.:.:.3.1.1.1.:.) ` :.' :.:.;.` 1.^ a 0 u u 6 0 0 6 0 e 6 6 e 6 u e u e 6 u 6 0 u u 0 $ $ $ $ $ $ ^ $ ^ $ ^ $ $ ^ $ ^ u 0 u 0 0 0 0 0 0 0 y 0 0 0 u 6 y N ~ 1.] ) ] ] ] ] 1.] ] 1.1.1.] 1.1.] ) C 8 7 7 0 e 0 0 9 6 6 6 6 e 6 ; ; ; i v C.}.$X}.<X}.>X<X}.n.<.X.+.>.+.>.-.2.;.A k e e e e 7 0 e e 0 6 u 6 u e e e 5 n J ` 1.3.1.' ] ' ] ' ' ` ' ' ' 3.3.' ' ' ' ' ` ' ' 1.1.1.1.1.1.3.1.1.1.1.1.:.] ) ] ] 1.1.3.] ] ' [ ' 3.3.3.3.3.3.3.3.` V j > e u u 6 6 6 6 6 6 6 6 6 6 6 6 6 u 6 0 6 6 6 6 6 6 6 u 7 6 6 6 0 0 0 5 r z R 1.,.,.,.+.:.o.g.OXsXGXGXGXGXGXHXSXSXAXSXSXAXAXAXAXHXAXcXuX;X=X=X=X=X1X1X4X{.g.<.+.2.:.2.:.2.:.>.2.>.:.>.-.:.R :.,.,.1.:.2.2.1.1.1.1.' 3.1.[ 1.1.1.[ 2.q.) U e 8 7 8 7 8 6 e e e e e e e q e 0 q e q q e q e 0 0 9 e e 9 0 q e e e e q e 0 q e 0 0 e 0 0 e e 0 0 0 0 0 u 0 6 $ u N ( 1.1.3.1.1.1.,.1.1.[ 3.] ' _ ' [ ] ( N > ; 8 6 5 6 6 6 6 u ; 8 8 6 8 > u ",
">X>X>X>X>X>X}.].g.` ,.2.:.:.-.:.:.U M e 9 0 0 0 6 $ @ 6 5 $ 5 5 5 ; 7 8 j H _ 3.[ 1.3.3.[ 3.[ 1.0.3.3.1.1.1.q.1.1.0.1.0.0.q.3.q.3.3.2.1.3.3.3.3.:.1.1.,.3.2.1.1.' 1.' 1.1.' 1.[ 1.] ' 1.1.1.1.( V j 5 ; ; 6 6 5 5 5 6 6 6 $ 6 $ 6 5 6 $ 5 6 5 5 7 5 5 5 9 5 5 5 8 q 7 7 7 7 8 j T ` Q W +.#.+.R %.I.tXAXAXSXSXSXSXSXSXHXSXAXSXGXAXAXAXnXcXsX3X}.>X>X>X>X>X>X].s.#.W :.+.+.+.+.+.+.:.+.:.( :.+.:.:.+.:.,.1.:.:.1.,.1.:.1.1.:.1.1.1.1.1.1.1.1.( k 6 6 6 u u 6 u 6 e u u e 6 e 6 e 6 e e 6 0 0 0 0 $ ^ $ B $ $ $ $ $ $ $ $ $ $ $ $ 0 0 0 0 0 0 u 0 u y u 0 u 0 0 9 e m ^ 0.0.1.1.1.1.1.1.1.1.1.1.1.0.1.1.;.` K 8 7 7 q e 0 9 6 $ ; ; - - - - O - > z C.}.}.>X>X}.>X4X}.k.g.W -.:.-.:.2.1.-.K j 8 5 5 5 5 5 5 5 5 5 5 5 6 5 e 8 5 k U ( 1.3.1.] :.] 1.' 1.] ' [ ,.' ' 3.] ' ] ' ,.3.1.1.1.1.3.3.3.3.1.1.1.1.1.1.1.1.1.] 1.1.3.1.1.' _ ] [ 3.3.3.3.3.3.] ( M a 8 8 7 ; 6 $ 6 6 6 6 ; 6 6 6 5 6 5 $ 6 6 6 6 $ 6 6 5 6 7 @ 6 6 7 7 6 6 5 8 j P ` +.+.` W +.o.&.+XmXGXGXGXGXHXSXAXAXAXAXAXAXAXAXAXGXAXnXsX;X=X=X=X1X-X1X<X{.l.>.X.:.:.+.:.X.+.:.:.,.,.+.+.W :.,.3.2.2.:.:.1.1.1.1.,.1.3.3.1.[ 1.1.0.3.0.` U j 8 8 8 7 8 e e e e e e 8 e q 0 e q 0 e 0 e q e q e e q e e e q 0 q q 0 e 0 0 e q 0 0 0 0 0 u 0 0 0 0 0 0 0 0 6 5 a A ^ 1.0.3.q.q.1.3.3.1.1.3.] ' ` ' ] ] ( V > 6 8 6 6 6 6 5 ; ; - - - - ; - - ",
"}.>X2X>X<X4X:X{.g.+.>.3.:.:.:.-.) K k e 6 6 u 6 6 $ 5 ; 5 $ ; ; ; 5 5 8 l J _ 3.3.[ 1.[ [ 1.3.1.[ 3.0.[ [ 1.1.1.1.1.1.1.1.1.1.1.2.3.3.1.] ] 1.1.` -.:.` :.2.3.1.` 1.1.` ] ] ] 3.] 1.1.:.1.1.1.( M j 5 - 5 6 7 6 5 6 6 6 6 5 6 ; 5 5 6 6 6 5 $ 5 5 5 5 $ 5 5 5 9 7 7 7 9 5 - 7 d K ` ` +.#.:.+.W %.Y.wXnXAXAXAXAXSXSXAXGXGXGXAXGXAXAXzXAXnXfX+X}.>X<X<X>X}.XX].g.$.o.` +.+.:.+.:.+.:.:.:.+.:.:.,.1.:.+.' >.,.:.:.1.,.1.1.2.2.3.2.1.1.2.1.1.0.) k 6 $ u 6 6 u 6 6 6 u 6 e 6 u e u u 6 u 6 0 u 0 0 $ $ | $ $ $ $ $ $ $ $ B $ $ B B 0 0 $ u b $ u y 0 0 0 0 0 u 0 $ e m ^ 0.0.1.1.1.1.1.1.1.1.1.1.1.[ 1.1.1.) V 8 8 6 0 0 y 9 6 6 6 ; + - * O * * ; v x.}.}.}.}.}.}.<X}.n.<.o.:.:.:.:.-.:.;.U k 5 5 ; 5 7 5 5 5 5 5 5 5 9 5 6 6 5 k U ( 1.3.] ] ' ` 1.' ,.' ' ] ,.[ 3.' ' ` 1.3.3.3.1.1.3.3.2.3.2.3.1.1.2.1.1.1.1.1.1.1.:.1.1.1.1.` 1.` 1.1.2.3.[ 3.1.:.( M k e 8 8 6 6 ; ; ; 6 5 6 ; 6 6 ; 6 6 ; ; 6 5 6 5 ; 6 ; 5 6 5 5 5 5 6 7 6 - 8 h T :.W o.#.o.W o.&.OXsXMXGXMXGXGXAXSXAXAXAXAXAXAXAXAXAXAXvXsX3X=X=X1X=X=X1X}.].l.2.o.-.+.>.+.+.+.:.>.:.:.:.:.+.' ,.d.2.3.1.:.1.1.1.1.1.1.' [ ] ] ] 1.1.1.0.` U j > 7 7 8 8 8 8 q e e e e q e e e 0 e 0 q q e q q e e q e q q e 0 0 e q q 0 q q e 0 0 0 0 e 0 e 0 0 0 0 0 0 0 6 6 a A ) 0.1.q.3.1.0.1.[ 1.1.1.] ] ` ` ] ] ( N 7 8 8 6 6 6 6 5 ; - + * - * @ * * ",
">X>X<X>X>X>X}.].l.` 3.,.>.:.>.:.:.( A N m B B B n m m n M n n m n M M M N J ` 3.3.0.1.0.1.[ 0.1.1.1.3.1.q.1.0.[ ] ) ( ^ / / ( / T R / T U U Y Y U U K U ( 1.1.' ,.,.` 1.1.,.' 1.1.` 1.' 1.1.1.1.R J m M m m B B m M B N m m m n B n k n m M m m m M M m m n n M m M m n M j N T >.l.d.l.d.j.l.g.h.~.wXnXnXcXcXcXZXcXcXjX9X9X8X8XqX8X8X8X8X~.I.R.n.n.{.b.n.n.v.c.j.x.l.d.l.l.d.l.l.l.l.l.l.l.l.l.N.d.>.,.:.,.,.,.:.>.1.,.( R / ( ^ ~ ( / ~ ~ A e 6 6 6 6 6 6 6 6 6 6 u 6 e 6 6 6 0 0 6 0 0 0 0 0 $ $ $ $ $ | $ $ | $ $ $ B $ $ $ u 0 0 0 y u $ 0 y u u y 0 y u 0 0 n V ^ ~ ~ T ( ~ ~ T ( ) ] ] ;.1.1.1.;.) A 8 5 0 0 0 0 9 $ b A Y Y Y Y Y Y Y R @.R.}.}.4X}.}.}.<X}.n.$.o.:.:.:.:.:.:.-.( A B M M M n m m m m m M m m m m m M N U ` 1.2.3.1.1.' :.' ] ' ' 3.' 3.3.3.' W _ T T T T ~ Y T U T K T T T T T T T R ) 1.1.1.1.1.1.1.;.1.' 1.1.3.3.3.3.1.1.( U m z m k m n n m n m k n k n m n n M n m k m k m k m m k M n m k n k B M j N L ,.m.l.f.l.f.d.l.h./.pXvXlXkXlXnXnXcXjXwX8X0X0X0X0XwX0X0X0X/.T.*Xb.*XT.T.*Xn.n.c.l.l.N.l.l.l.l.l.l.l.l.l.l.d.l.d.V.V.d.,.:.:.:.:.:.' ` ` ( / T U U U T ~ ( J M 8 8 8 8 8 7 8 e e e e e e e 0 q e q q 0 e 0 0 0 e 0 e 9 0 e 0 e q e 0 0 e e e 0 e 0 0 e 0 0 0 0 0 0 0 0 0 e 0 0 6 a B U ( R ~ / T T T R ` ] 1.] ] ] ] ] ] ( V ; ; e 6 6 6 6 ; i C K Y Y Y R Y R ",
"}.>X>X>X>X4X}.{.s.+.3.2.2.>.:.1.2.-.( U Y ^ ^ ^ ^ U Y ~ T ~ U T T U ~ T T T ` ] 1.1.1.[ 0.3.[ 3.3.0.0.[ 1.1.1.1.` T V M M M V m N N M M z n k M M k k n K ` :.` ` ` 1.1.1.1.1.1.1.1.` 1.1.1.1.1.;.) ( T ~ ^ ^ ^ ^ ^ ^ ^ ^ ~ Y ~ T ~ ~ T Y ^ ^ T ~ U Y ^ ~ T U ~ ~ T / T T U R 1.N.F.S.S.S.].S.n.R.~.@XhXfXpXiXpXpXeXqX^.!.J.J.J.J.J.K.J.K.H.g.g.s.j.j.j.g.s.j.S.D.].S.S.S.D.S.D.S.S.G.S.S.G.].S.G.V.d.,.:.:.,.,.3.>.:.1.( V N m N B M N M M n e 6 $ 6 u 6 6 6 6 6 6 e 6 u e u e 6 6 0 0 0 0 0 $ $ ^ ^ $ $ ^ $ ^ ^ $ $ ^ B $ | $ 0 0 0 0 0 0 u b 0 y 0 0 u y 0 $ 0 a m B n M N N n M M Y ( ) ] :.] 1.1.1.( V 8 7 7 0 0 0 0 6 M -.e.N.N.N.l.z.l.l.c.[.XX>X}.}.}.}.<X}.v.g.W ` :.+.:.+.-.:.) ( T T ^ T ~ ~ ~ ~ ~ ~ ^ ~ ^ Y R ~ T T T ` 1.3.3.' 1.1.1.] ' ] ' ' 3.3.3.3.' ` Y H h l j l M k j g M k j j z g j z M T ;.1.0.1.1.1.1.:.:.' 1.1.3.3.3.3.2.3.:.( T U Y T ~ U Y ~ Y Y Y ~ ^ U Y Y Y ~ ^ Y Y U ~ U Y ^ Y Y Y ~ Y T T Y T U K Y ,.x.|.F.].|.D.S.S.R.+X3XiXiXyXiXpXpXpXeX!.I.J.J.J.K.J.J.H.H.u.k.u.u.j.u.y.j.a.l.c.Z.|.].].|.].]._.S.].S.S.S.S.v.S.F.S.x.d.,.:.:.:.:.` ` ( T M M n M l M m V n j e 7 7 8 7 e e e e q e 8 e e 0 e 0 q e e q 0 q e e q q 0 q e 0 q 0 q q e 0 q e e 0 0 0 0 0 0 0 0 0 0 e u 0 0 0 0 0 u b m V M M V n n M M / ( ] 1.] ` ] 3.1.( V 7 5 6 6 6 6 6 - k -.8.B.V.B.z.C.B.",
">X>X>X>X>X>X}.].l.+.>.3.2.1.:.:.1.:.:.:.;.;.1.:.;.1.;.1.;.1.1.;.1.1.] ] ] ] [ 3.[ q.1.q.3.1.0.1.3.1.3.1.1.q.3.] ( V i 6 6 8 e e e e u i 8 e i e u i 8 8 j R ` ` ` ` ' ,.` 1.' 1.:.1.1.1.] 1.1.1.1.1.] ] ) 1.1.1.;.-.) 1.;.1.;.;.) 1.;.;.;.;.;.;.1.;.1.-.-.-.:.:.-.` 1.:.:._ >.d.F.,X.X{.{.,X>X>X[.Q.+X2X3X+X3X+X+X@X+XP.u.u.O.@.O.@.@.@.O.O.#.,.<.<.,.,.#.$.a.]..X<X{.{..XXXXX>XXX>XXX>XXXXX>XXX>X|.C.d.:.+.1.1.3.2.:.1.Y m a e e u u e i e u 5 6 6 $ 6 $ 6 u 6 6 6 u 6 6 6 e 6 0 u 0 u 0 y u u $ $ $ $ $ $ $ $ $ $ $ $ $ $ $ $ 0 0 u 0 0 0 y $ 0 u 0 u 0 0 0 0 0 e a a e e e e 8 5 8 V ) ] ] 1.1.1.1.;.) C e 7 7 0 0 0 0 $ C 2._. X XXX.X.X XXX{.}.>X<X4X>X<X4X4X}.n.<.R >.:.:.:.:.2.:.:.:.:.;.1.) 1.) ] ] ] ) 1.;.] ) ` 1.1.1.] 1.1.1.3.1.1.3.1.1.1.,.' 1.' 3.3.3.' _ l 8 7 8 8 u e 8 e 8 e 8 e 8 8 8 8 8 a N -.2.;.1.1.1.1.) :.1.] ,.3.3.3.3.m.3.1.:.) ) :.1.1.1.1.;.1.1.1.1.;.1.1.1.;.1.1.;.1.1.1.;.1.1.1.;.1.;.1.;.1.1.1.1.W ,.l.D.,X<X,X<X,X,X>X[.}.Q.2XQ./././.3X/.~.P.&.&.$.@.@.@.@.@.@.$.O.Q t.Q E t.Q @.d.S..XXX X[.XX.XXX{..X.X}.XX.X{.XXXXXXXXZ.d.1.` :.) ) ] ` ` U l j 8 8 j e i 8 a q 8 8 e 7 e 8 7 8 e 8 8 8 6 q 8 q 0 e q 0 e e q 0 0 q e e q 0 e q e e 0 q e q 0 q 0 7 0 0 0 e 0 0 e 0 0 0 0 0 0 9 7 0 e a a e a e a e e t J ) ] 1.] ] ' ] ] ( N > 8 6 6 6 0 7 - v 8.].XX XXX XXXXX",
"}.>X>X>X>X>X}.].g.+.2.3.3.2.,.,.,.:.:.:.:.1.1.:.,.,.,.3.>.3.3.3.3.3.3.3.3.3.3.3.3.3.1.q.1.0.[ 1.q.[ 0.[ 3.q.3.[ ) m 5 6 $ 5 6 6 6 7 6 6 6 $ u u 6 6 ; ; k ( :.1.` ` ` 1.` 1.] 1.1.1.1.:.1.1.:.1.1.1.0.] ] 1.0.1.0.] 1.0.[ 1.] 0.1.1.0.[ 1.1.1.1.1.1.1.1.:.:.:.:.,.,.,.>.>.+.<.j.].<X<X,X1X:X1X1X=X*X=X>X>X=X*X:X&X,X,XA.p.W E W W _ Q _ ` W ` ` :.:.:.W W o.a.D.XX<X:XW.>X>X:X1X:X:X>X>X>X>X>X>X>X,XG.m.` :.:.:.1.1.,.1.Y n y $ $ 0 $ u 6 6 6 6 6 6 6 6 6 6 0 6 6 6 u 6 u e u e 6 e e 6 0 0 0 0 0 0 $ u y 0 0 0 B $ $ $ $ B B $ $ $ ^ $ $ $ $ B $ $ $ $ $ $ $ $ 0 0 $ 0 0 u 6 6 9 @ - V ) ) ] 1.1.1.1.1.` C e 5 0 0 e 0 9 @ K 4.|.4X4X$X>X4X>X2X<X2X>X2X>X2X1X<X<X}.R.<.R :.:.:.:.:.:.W 1.,.1.1.1.1.[ 0.[ ] ] 0.] 1.[ 1.1.3.3.3.3.3.1.3.3.3.3.3.3.3.1.' ' ,.,.3.3.2.` R z - @ 6 6 6 6 5 ; 6 6 ; 7 6 ; 6 ; > i m -.2.1.1.1.1.1.;.2.:.1.1.1.3.3.q.3.q.1.] 1.] 1.1.1.1.1.1.1.1.1.1.1.1.1.1.1.1.1.1.1.1.1.1.1.1.1.1.1.1.1.1.1.1.>.' W #.j.].<X1X<X1X1X<X1X:X:X:X=X*X*X=X:X>X=XE.j.#.Q Q Q Q ' ` W ` W ` ` ` ` ' ` :.o.<.|..X}.<X4X>X<X>X>X>X>X>X>X>X>X>X1X<X>XF.d.:.:.:.` -.1.] ] A a e e 8 8 8 6 8 8 6 e e 6 7 0 7 e 7 0 8 8 7 0 e 0 e 0 q 0 8 q e e 0 q e q q 0 e q 0 e e q e 0 q e q e 0 0 7 0 0 0 0 0 0 0 0 0 e 0 u 0 0 0 0 0 0 6 u 0 0 8 8 K ( 1.1.] ` ] ] 1.( V > 5 8 6 6 6 6 O K h.].4X4X4X<X4X4X",
">X2X4X>X>X4X}.{.s.+.1.>.,.,.` :.:.:.:.:.:.:.:.` 1.1.` ,.[ [ ' ' [ ' ] [ ' [ [ [ 3.1.1.[ 1.1.3.1.1.1.1.3.1.1.0.[ ;.N 6 u 6 6 0 0 0 u 6 6 6 $ 6 $ $ 6 6 ; j -.1.1.1.' 1.1.,.:.1.:.:.] 1.` ] 1.] 1.1.1.1.] ] 1.1.[ ] ] ] 1.1.] 1.1.[ 1.1.1.1.1.1.1.1.1.:.>.:.:.:.:.,.#.,.,.:.W <.g.].<X,X>X:X=X*X*X*X*X*X>X:X*X*X,X,X,X,XA.' Q W ' _ ' 3.' 3.3.1.' :.:.:.:.+.R <.S.{.<X}.W.:X=X}.*XQ.:X:X=X:XQ.:X:X:X{.D.m.+.` :.:.3.3.1.:.~ m b y u y u 0 e u 6 6 6 u e u 6 u 6 0 6 e e 6 e 6 6 e 6 u e u 0 u u 0 u $ 0 0 0 u 0 0 $ $ $ B $ $ $ $ | $ $ $ $ B $ $ ^ B $ ^ ^ $ ^ $ 0 y u 0 0 $ 0 0 7 6 7 A ) ) 1.1.1.1.1.1.) K 8 8 0 0 e 9 0 5 v 8.|.4X<X<X>X<X2X>X>X>X4X>X2X>X>X2X4X}.c.a.+.X.:.:.+.:.:.:.:.1.1.1.[ [ ] [ [ [ ] ] ] [ [ 1.' 1.1.3.3.3.3.3.3.3.3.3.3.3.3.' ' [ [ 3.3.3.] ( k - 6 6 6 6 u u u 8 u 8 i 8 6 i 6 8 i m ;.;.1.2.2.1.1.-.:.:.1.:.1.3.3.2.3.3.1.` ` ' ` ` ` ] 1.:.' 1.] ` :.1.' 1.:.` 1.' 1.1.` :.1.:.:.1.) :.2.:.:.:.:.W W #.s.D.<X,X<X<X,X,X>X:X:X*X:X:X:X=X1X=X:X:Xf.t.' ' ' ' ' ' ,.3.,.3.3.3.>.3.1.:.:.<.]..X4X>X>X>X>X>X>X>X}.>X>X}.,X>X1X4XXXS.4.:.R :.:.:.1.` ] J j e 8 6 6 8 8 6 8 8 6 7 8 8 e 0 6 7 e 6 e 0 7 e q e 0 e e q 0 q e q 0 e 0 e e q e q q 0 q 0 e q e 0 q 0 0 0 0 0 e 0 e 0 0 0 0 0 0 0 0 0 0 0 0 0 0 $ 0 u 8 8 V ) 1.1.] ] ` 1.] ( N > 5 8 6 6 6 6 * F g.[.4X4X4X2X>X}.",
"}.>X>X>X>X4X}.].g.:.>.3.3.3.' 1.:.:.:.:.:.:.1.' ,.' 1.1.1.' 3.[ ' 1.3.] 3.[ 3.3.[ q.1.0.1.q.0.1.0.1.1.1.1.1.1.] ) N e e u 0 u u u 0 u 0 6 u u 6 u 8 6 ; k ;.1.1.1.] ] 1.1.1.1.1.1.1.1.1.1.1.1.[ 1.1.] [ 0.1.] 1.] 1.[ 1.1.0.] 1.1.[ ] 1.1.1.:.:.2.:.:.:.:.:.+.:.,.:.' @.:.W <.g.{.<X1X*X*X:X=X:X:X*X:X:X:X*X:X:X,X,X,XA.t.Q Q ' ' ' ' 3.,.[ :.' ` :.` :.` W 4.S..X>X*XW.*X:X}.=X:X=X:X:X=X:X=X:X:X.XS.f.W :.>.3.1.>.:.1.~ b b $ 0 u 0 0 8 e e e 6 6 u 0 6 e e 6 6 u e 6 6 6 6 6 u e 6 6 0 0 u 0 u 0 0 y y y u 0 $ B $ $ B $ B B $ $ $ $ ^ $ B $ $ $ $ $ $ $ ^ $ $ u u 0 0 0 0 0 6 6 6 A -.1.1.1.1.1.1.1.) V 8 7 7 0 0 e 9 + F g.[.4X4X>X2X>X1X>X4X>X2X>X>X>X>X>X<X}.k.a.W :.:.:.:.:.:.:.:.` :.` 1.] [ ] [ [ ] ] ] [ ] [ ] 1.3.1.1.1.1.3.1.1.1.3.1.,.' 3.' [ [ 3.3.3.' ( M - ; 6 u 6 6 6 6 6 6 8 6 u 6 6 8 e i M ;.1.1.1.1.0.;.1.1.:.1.:.3.3.3.2.d.3.[ ' ` ' ] :.:.` ` ] :.` 1.:.` 1.` ` ] ` ] ' ` ` ` ] ` 1.-.:.:.` ` ] :.( :.+.W #.g.D.,X<X>X<X<X,X>X:X=X:X:X:X=X:X:X>X=X}.j.,.' ' ' ' 3.,.,.2.2.3.2.3.2.1.1.2.:.<.S..X<X>X>X>X>X>X>X>X:X:X}.:X{.:X>X>XXXC.l.:.` :.,.3.1.[ 3.U j u 8 6 6 e 8 8 6 6 8 8 8 8 6 8 e e 8 e 7 7 0 0 8 0 q e e 0 q 0 0 0 q q 0 e 0 q e 0 q 0 e e 0 0 0 e 0 0 0 0 0 0 0 0 0 0 0 a 0 0 0 0 0 0 u 0 0 0 0 0 0 0 0 e H ) ] ] ` ` ' ] ] ( N 8 ; 8 ; 5 e 5 - F l.[.4X4X2X2X2X>X",
">X>X>X>X>X>X}.{.l.W 3.2.4.>.,.,.,.,.:.:.1.1.1.,.` ,.` ,.,.1.[ ,.3.[ [ 1.[ 1.3.3.3.3.1.3.1.3.[ 3.1.3.3.1.1.1.1.1.` V e u 0 0 0 a 0 u 0 6 6 6 6 0 u u i 6 m 1.q.0.3.1.1.1.' 1.' :.] 1.] 1.] 1.1.] 1.[ 1.1.[ 1.] 1.1.1.1.[ 1.] 1.] 1.0.] 1.1.1.:.1.:.:.:.:.:.+.:.,.,.,.:.:.@.W <.s.D.<X>X:X:X*X:X*X*X*X:X:X1X:X:X,X,X1X,XA.p.' Q ' ` ` ' ' ' ' ` ` :.` :.W +.+.<.S.{.>X:X=X:X=X:X>X>X>X=X>X>X>X:X:X>X:XS.m.+.:.1.,.3.>.1.1.~ b y $ 0 0 a 0 e e u e a 6 e e u e e u e 6 6 e u e u e e 6 e u 0 0 0 0 0 0 0 u 0 u $ 0 $ B $ B $ $ $ $ B $ ^ $ $ $ $ $ $ $ $ | $ $ $ $ 0 0 $ 0 0 u 0 u u 6 e A ) 1.1.1.1.1.1.1.` V 8 7 9 0 q 0 0 - z 9.[.4X<X2X>X<X2X>X2X>X>X>X>X1X>X>X<X}.n.<.R :.` :.:.:.:.:.:.` ` ] 1.] [ [ 0.[ [ [ [ ] ] 1.] ' ] 1.1.1.1.3.3.3.1.3.3.3.1.' ' 3.3.3.3.3.1.( M - ; 6 6 6 u 6 6 6 u 6 6 6 ; 6 ; 7 d N -.0.1.1.1.1.1.-.-.-.1.1.1.3.3.3.q.[ 1.] 1.1.1.` ` ] ' ] ` ` ` ` ` ` ` :.` :.` ] ` :.` :.:.-.:.:.:.` :.' :.:.:.+.W #.g.b.<X<X<X<X>X,X:X*X:X*X1X1X=X1X:X>X>XW.j.p.p.' ,.' ,.,.3.:.3.3.3.2.1.1.:.>.+.4.].XX<X>X<X>X>X>X>X}.>X{.>X{.:X}.:X>X.XC.d.X.` ' >.2.1.2.3.T t e 8 8 8 8 6 6 8 8 6 8 0 6 e q 6 7 8 e 0 e e 7 q e q 0 q 0 e e q e e 0 q q 0 e q 0 e e 0 q q e q e q 0 e 0 0 0 u e 0 0 0 0 0 0 0 0 0 0 0 0 u 0 6 0 0 0 7 8 K ( 1.1.` ' ] 1.] ( N 6 > 8 6 6 e 6 * F g.}.4X4X<X}.}.}.",
"}.>X4X>X>X>X}.].l.W >.3.3.,.,.,.,.,.:.:.` :.:.,.1.' :.` ' 1.' ] ] ] 1.] ] ] ] 3.1.3.1.0.3.1.0.3.1.1.1.1.1.1.1.1.) V e 0 0 e 0 u 0 0 6 6 6 u 6 6 6 u 8 8 m ;.2.q.q.[ 1.1.1.1.1.1.1.1.1.1.0.] ] 0.[ [ q.[ 0.3.3.q.0.[ q.1.1.1.1.1.] 1.1.1.1.] 1.:.:.:.,.:.+.' +.,.,.:.,.:.,.o.#.j.|.<X,X1X*X:X:X:X:X:X:X1X1X:X1X:X1X1X,XF.p.#.,.Q ' ,.` ' ' 1.` ,.:.:.:.:.:.+.<.S.XX,X,X:X,X<X>X>X>X>X>X>X>X>X<X1X,X.XG.l.:.` ,.,.:.,.,.1.U n 0 7 0 7 8 8 8 8 u e 6 6 e e e e 8 6 u 7 6 u e 6 8 u 6 6 e 6 u 0 0 0 b $ $ 0 $ y 0 0 B $ $ $ b $ $ $ $ ^ $ $ $ $ B B | B $ $ $ B $ $ u $ 0 0 0 0 0 0 e 6 8 A ) :.1.1.1.1.1.1.( J 8 7 7 q q q 7 * K 8.|.4X<X>X>X2X>X1X>X2X>X>X>X>X>X1X4X}.n.a.R :.:.:.:.:.` :.1.` ' :.] 1.] [ [ ] ] [ [ ] [ ] ] 1.1.1.,.1.1.3.3.1.3.3.1.,.] ' [ 3.[ 3.m.q.[ ( M 5 6 ; 6 6 6 6 6 u 6 6 6 6 6 6 8 6 8 z ;.1.1.1.1.1.1.] 1.1.1.1.1.1.1.q.2.1.] 1.1.3.q.3.1.1.3.3.1.1.1.1.1.1.1.1.1.3.[ 3.3.3.1.1.1.1.1.:.3.>.3.3.,.1.:.W E #.a.D.>X>X,X<X>X>X:X:X:X:X1X:X<X>X1X>X>X{.v.#.' ' ' ' ,.,.,.:.1.1.2.1.2.2.2.-.W 4.S..X<X>X<X<X<X>X>X>X>X,X,X,X>XXX>X<X>XS.d.' :.:.>.3.3.p.3.J d 8 7 7 8 8 5 8 7 8 8 8 8 7 6 e 8 8 8 7 6 6 0 0 7 0 0 q e 0 0 q e q q 0 e e 0 q e 7 0 q e q q e e 0 q 0 0 0 0 0 0 0 e 0 0 0 0 0 0 0 u 0 0 0 u 6 u 0 u 0 7 6 V ) ] 1.` ] ` ] ] ( M 7 7 8 6 6 u 5 - v g.].5X<X2X>X}.}.",
">X>X>X>X>X4X}.{.g.+.3.2.2.>.1.3.,.,.` ` W :.:.,.` 1.` :.' ' ' ] ' ] ' ] ' ' 3.[ 3.3.[ 3.3.[ 1.3.1.1.1.1.1.0.1.1.) V e a a 0 0 0 0 6 6 6 6 6 u 6 6 6 8 e m :.1.q.1.0.1.[ 1.] 1.] ] 1.] 1.1.] 1.] 0.[ 0.0.3.0.1.q.0.0.0.[ 0.] 0.] 0.1.] 1.1.1.1.1.,.,.:.:.,.+.+.,.#.,.$.#.#.#.p.g..X<X<X1X1X:X:X:X1X:X>X<X:X1X,X1X,X,X1XA.p.,.' ` ,.' 1.' ,.` 1.` :.1.:.:.:.W 4.F.XX<X<X,X>X<X>X>X<X>X<X<X<X>X,X,X<XXXS.d.+.+.:.$.,.,.@.1.Y k a > 8 e 8 8 8 1 > > i > > > 8 > 1 8 6 6 5 6 u 6 6 6 e 6 6 u 0 6 0 u $ b u 0 u u 0 0 $ $ B $ $ b y B $ $ $ $ $ | $ $ $ $ $ B $ B $ B y 0 y u 0 u 6 u 6 5 7 C ) ;.) 1.1.1.1.1.` H 8 : 7 8 8 e 8 - z g.[.$X4X>X>X>X>X>X>X>X>X>X2X>X-X1X<X:Xc.a.W ` :.:.:.:.:.1.' 1.1.' 1.] 1.' [ [ 0.[ 0.[ [ q.[ 1.[ 3.3.' 3.3.1.3.3.3.[ 3.[ 3.[ [ 1.3.[ [ [ / M 5 6 6 6 u u 6 e 6 8 6 6 i 6 6 8 i 8 V ;.1.1.0.1.;.1.1.) ] ;.1.1.1.1.1.q.1.] ] 1.2.3.1.1.1.0.3.1.1.1.1.1.1.1.1.1.1.2.3.2.2.1.1.1.1.:.2.,.3.3.>.>.,.#.W E #.j.D.,X,X>X>X>X>X:X:X:X1X,X1X<X,X,X>X,X{.f.,.' ' ,.` ,.` :.1.2.:.:.:.1.1.:.>.+.d.F..X<X<X,X<X<X<X,X,X,X,X,XXX.XXX,X,XXXV.d.:.+.,.,.,.3.,.,.P d 8 > > > > > > > > 7 > 7 > > 8 > 8 7 8 7 6 7 7 0 e e q e q e e 0 0 e e 0 q e e e q e 0 0 e 0 0 e q 8 0 0 0 e 0 0 0 0 0 0 0 6 0 0 0 0 0 0 0 0 0 9 0 0 6 6 e K ( ] ] ' ` ' ] ` ( H > 7 8 > 8 7 ; - F g.{.4X1X>X>X}.}.",
">X>X>X>X>X<X}.].g.:.3.3.,.3.:.>.,.,.' 1.1.1.:.` 1.` 1.' ` ' ] ` ] ` ` ' ] ] 1.1.q.3.[ 3.1.3.0.3.0.;.1.1.1.;.;.0.) V e a 0 6 0 0 6 6 6 6 6 6 0 6 5 6 0 e B ( ;.1.] ] ] ] ] 0.1.1.1.] 1.] 0.] ] ] ] 0.[ 0.] ] ] 0.] ] 1.) ] 1.) ] ) ) ] 1.) 1.1.,.,.,.,.:.` +.W #.#.#.,.<.<.#.p.g.D.1X<X>X:X>X1X1X1X,X,X<X<X,X,X1X,X,X,XV.,.,.' 1.' ' ,.,.' 1.:.:.:.1.,.:.,.` <.S.|.<X,XXX,X,X.X,X>X,X,X,X,XXX,X,X,XXXD.l.#.$.$.#.$.+.$.<.Y h d 8 1 > > > > , > > > 1 > 1 1 i i > > ; ; 6 e e e e 6 6 e e 6 6 u 0 u y 0 0 y u u 0 $ B $ $ $ B $ $ $ ^ ^ $ $ $ $ $ $ $ $ B $ $ B $ y u $ 0 0 6 6 e 8 e 6 C ) :.` 1.1.1.1.1.` H > 7 r r d r > = F 9.[.4X}.>X>X>X>X>X=X>X2X>X>X>X>X1X<X}.n.a.W :.1.1.:.:.:.1.1.' 1.3.3.] [ 1.[ [ ] [ [ [ ] [ 1.3.[ 3.3.3.] 3.3.[ 3.3.] [ ] ] [ [ 3.[ 3.[ ) ~ M 7 7 6 8 u e 0 e 6 u 6 u 6 i 6 e 8 8 N ;.1.1.;.;.1.) -.:.) ] ] ) ] ] ] ] ] ) ] ] 1.1.] ] ) ] ] 1.] ] ] 1.] ) ] ] ] 1.2.3.1.:.:.:.:.:.:.,.>.,.>.,.,.$.#.#.y.j.{.,X<X>X>X>X,X,X,X,X,X,X,X,X,XXXXX{.D.x.p.p.,.' ,.:.,.1.,.:.2.1.2.2.:.:.2.1.d.G.XX,X,X.X<X<X<X<X,XXXXXXXXX,XXXXX,X.XV.d.,.#.+.#.#.<.#.#.F 2 2 , , > > , , 1 > > > > > > > 8 2 > > 6 5 7 0 q 0 e e 0 0 q q q e 0 q e e 6 q e 0 q 0 q e e q 0 q 0 0 0 q 0 0 0 0 0 0 0 0 0 0 0 0 0 0 0 0 0 0 6 6 0 0 6 8 K _ ) 1.' ` ' ' ` T H 8 > 7 8 8 e 6 = D g.{.4X<X1X>X>X}.",
"}.>X>X>X2X>X}.{.l.+.:.2.3.>.1.,.3.,.1.' :.' 1.:.:.1.` 1.1.] :.1.:.' 1.1.' 1.' 1.] [ [ 1.[ 3.] ( ^ U U ~ U U U ~ ~ B a e e 0 0 0 0 6 6 6 6 9 0 6 6 6 0 0 n V A ~ ~ ~ ~ T ~ ~ T T ~ ~ ~ T ~ T ~ ~ ~ ~ ~ ~ ~ ~ ~ ~ ~ ~ ~ ~ ~ ~ ~ T U U U ~ ( :.1.1.1.,.` ,.#.,.p.d.d.g.s.x.j.s.f.c.{.,X,X,X:X:X:X:X:X:XD.D.b.A.A.A.A.A.A.f.,.,.3.' 1.1.1.' 1.:.` ,.:.:.1.1.,.>.,.m.V.F.|.G.S.D.S.D.S.F.F.S.G.S.F.S.S.S.C.x.s.l.g.f.j.s.d.j.<.W I P L P L I L L L P L L L K L I L K k 8 5 6 6 7 e u u e 6 6 6 a 6 0 0 0 0 u 0 $ 0 0 $ $ B B $ $ b $ $ $ $ $ $ $ ^ $ B B $ $ B $ $ $ y u $ y 0 0 6 u 6 5 5 C ^ :.` ` 1.1.1.1._ Q H P T P R T T P +.k.].2X}.>X>X>X-X>X>X1X=X>X>X2X=X>X<X}.n.a.W ` ` 1.] :.1.' 1.3.' 3.[ 3.[ [ [ q.[ [ q.[ 0.[ [ 1.[ 3.] [ 3.[ 1.[ [ 3.[ [ / / T ! / ! / ! J V a 7 0 7 0 0 0 0 6 6 e e 6 6 8 8 e 8 e z ~ ~ ~ ~ U U T T U U U U U U U U ~ U ~ U U ! U ~ ~ J ~ J ~ ~ U T ~ U U U U J / ` 1.1.:.:.-.:.1.+.,.d.d.x.l.g.d.f.s.k.n.{.<X<XXX>X>X>X>X,X|.F.S.A.F.A.Z.S.V.V.d.,.' Q ,.,.,.:.1.,.:.:.:.2.:.:.:.1.1.d.N.A.F.F.D.S.|.D.F.S.G.S.F.S.S.F.S.S.Z.V.x.l.f.d.j.f.j.s.j.#.E E I I L I P P P P P P G P G L I L K k i ; 7 0 e q q 0 q e e 0 0 q e q 0 q 0 e q 0 e e q 0 q 0 q e e 0 0 0 0 0 0 e 0 0 e 0 u 0 0 0 0 0 0 0 0 6 0 0 0 0 e 8 V ) ] ' ] ` ` 1.` ` T Y Y Y Y K U T K @.c.}.4X4X4X>X4X}.",
">X>X>X>X>X4X}.].g.` :.>.2.,.3.1.3.,.,.' ,.[ ,.' ,.1.1.1.:.1.1.1.' 1.:.] 1.:.1.] 3.3.3.] [ 1.` J n j i j a j a a j a e a 0 0 0 0 0 9 6 6 6 6 a 0 6 6 6 $ 6 a a e a e j t t t a a e j j a r j e a q j t t e j t j e j t a b e b k a k n N U ( ` ' ,.,.` #.,.d.V.G..XG.G.D.G.].{.{.{.,X,X:X:X:X1X:X:Xv.j.y.t.t.t.t.<.p.,.,.,.,.3.,.,.1.1.,.:.1.:.:.1.:.:.>.3.:.,.,.,.,.a.$.a.<.#.a.a.<.p.<.a.<.p.<.p.a.d.c.|.|..XXXXX.X.XXX.X|.Z.C.Z.F.F.F.F.].Z.|.].Z.|.|.Z.|.|.l.+.k - 9 6 6 8 8 6 6 e 6 0 0 0 0 0 0 0 0 0 $ u 0 $ $ u y $ $ y b $ $ $ $ $ $ $ $ $ B $ $ $ ^ $ B 0 $ y b $ b $ b 6 6 ; V ( :.` :.:.` ' ,.,.f.B.G.|.F.F.G.F.F.{.{.}.}.}.>XQ.=X>X>X>X>X2X2X1X>X>X1X4X>Xn.a.W ' ' 1.[ 1.1.3.3.' 3.[ 3.[ 3.[ [ 3.[ 3.[ [ 0.[ 0.[ 3.[ [ 3.3.] [ 3.[ 1.[ _ J M t t t t t t t t q 7 0 0 e 0 6 e 0 6 6 6 6 u e e 8 e i d a j j j j j a j j j j j t j j j t t j j j j j j j j j t j t j j j j j j e d M U :.1.1.2.,.2.3.4.l.Z.G.|.|..X|.|.]..X{.,X{.XX>X>X>X>X>X.XA.d.<.,.<.,.p.<.<.p.,.#.,.+.:.:.1.1.1.1.:.2.1.:.>.3.2.2.,.3.a.a.a.<.p.<.a.p.p.$.<.a.<.<.3.a.a.<.s.V.G..X.XG..X.X.XG.{.|.].].].].].].Z.].S.].C.Z.C.].].|.|. XN.R g - 5 7 e 9 e e e e q 0 e q e e e e 0 q 0 8 q e 0 q q e e q q 0 0 0 0 0 0 u e 0 0 6 0 0 0 e 0 0 0 0 0 0 6 0 6 e 8 8 C ( ` 1.] ' ` ' 1.2.m.F.Z.F.Z.Z.Z.Z.Z.].R.1X1X6X4X4X2X<X",
"}.>X>X2X>X4X}.{.g.+.3.2.3.3.1.,.1.1.,.1.1.,.1.1.,.1.' 1.1.' 1.` 1.1.:.1.] 1.1.' 3.[ [ 3.3.3.( M a 5 7 8 7 u e 8 6 6 0 0 0 9 0 7 6 6 6 6 6 6 0 0 6 6 9 $ 7 0 e e 6 7 8 8 8 8 7 7 8 8 5 7 8 8 e 7 q e q q 0 7 q e q e e q y b e e e a a M J R W :.,.1.,.' W a.S.|.<X,X.X.X.X,X.X,X,X:X:X:X:X:X1X,X:Xv.y.#.o.Q #.#.,.Q ,.,.,.3.3.,.3.3.,.3.1.:.1.1.:.1.1.3.3.1.,.,.,.>.,.,.,.#.,.$.#.#.,.$.,.#.,.$.,.<.s.v.XXXX>X,X,X.XXX>X<X,XXX.X.XXXXX X X.XXXXX.X.XXX X.X X XC.,.z @ 7 7 7 e e e 6 e 0 6 u 6 0 u 0 u 0 0 0 y y u b 0 0 b $ b $ $ | $ ^ ^ $ $ | $ B $ B $ $ $ B $ b $ y y $ b $ 8 6 > C ^ :.` 1.` 1.,.,.,.f.G..X>X.XXXXXXXXX}.}.}.Q.}.=X>X>X=X>X=X>X>X=X>X-X>X2X<X{.n.a.W ' 1.' ] 1.' 3.3.1.[ 3.3.[ [ 3.3.] [ [ [ [ [ [ [ [ [ [ 3.[ ' 3.3.[ 3.3.[ ( M t w q 7 q q q 8 q 8 7 0 7 6 e 0 6 e u 6 e 8 6 6 8 e u e e e 8 8 e i e e 8 e 8 8 8 r 8 8 u e q i 8 q 8 8 8 e 8 8 t e 8 i 8 8 8 8 8 8 8 k Y -.1.:.2.3.2.a.,.l.G.XXXX,X>X,X>X,X,X>X<X>X,X>X>X,X>X>X.Xc.d.W #.` @.,.,.,.>.,.:.:.:.:.,.,.,.>.,.:.:.>.2.1.3.3.,.3.,.3.,.,.,.,.$.#.<.,.,.#.,.<.,.,.,.,.,.<.x.G.XXXXXX.X,X,X,XXX}.>XXXXX.X.X.X}.{.{..X.X}..X.X.X XXX4XC.R j * 7 e e e e e e 9 e y e 0 9 e 0 q e q e q 0 q e e 0 e 0 0 e 0 0 0 e 0 0 0 0 0 0 0 u 0 0 0 0 0 0 0 0 0 0 6 0 e 8 8 A ` ] ` ` ' ' _ ,.,.Z.XXXX X.X.X.X X.X{.}.4X6X1X>X2X>X>X",
"}.>X>X>X>X>X}.{.l.+.1.2.2.>.,.1.,.,.,.,.,.,.3.,.,.1.1.1.1.:.1.1.1.1.1.1.:.1.' 1.' ] 3.[ [ 1.( M 6 ; 5 5 $ 5 6 5 6 $ 6 9 6 $ 6 9 $ 9 6 $ 6 6 0 0 6 0 $ 6 6 0 8 5 7 9 6 0 7 9 5 6 7 7 9 5 7 9 6 6 6 6 7 6 6 6 5 9 6 6 7 6 $ $ 9 y 0 7 0 n H ( ` :.:.,.` +.Q a.S.,X1X4X<X,X>X,X>X>X>X{.>X,X:X>X1X>X,Xv.y.Q W W W #.' ,.,.,.,.3.1.3.3.1.,.3.1.:.1.1.1.1.:.1.:.:.,.,.,.,.,.,.' +.:.:.` ` :.:.` +.:.:.,.,.g.S.<X,X>X<X>X}..X,X<X<X<X,X<X<X<X<X,X<X<X<X4X<X<X}.4XXXXX].>.h + 6 0 e e 8 u e 6 u 0 0 u 0 u u 0 0 0 u y u u $ 0 u $ b $ b $ ^ $ $ ^ $ $ $ $ $ $ B $ $ $ $ b $ b $ $ b $ b 6 ; 5 C ) :.:.` 1.' :.' p.f.,X<X1X1X>X1X<X>X>X>X2X>X>X>X-X>X>X>X>X2X-X>X>X-X>X>X4X}.n.a.W ` ' 1.1.' 1.3.3.1.[ ] ] 3.[ ] ] [ 1.[ [ q.[ [ [ [ [ [ [ [ 3.[ 1.[ [ 3.1.) M r : 5 5 5 7 7 9 0 0 0 0 0 6 u 6 6 6 6 6 6 6 e 6 8 8 8 8 8 8 8 e e 8 6 8 8 8 e e e 8 8 e 8 e e 8 8 7 e 8 8 8 8 e 7 8 e 7 8 8 8 6 5 7 - n U -.1.1.2.,.,.>.<.l..X,X<X<X<X<X<X<X4X<X<X<X<X,X<X>X>X>X.Xc.<.` +.:.:.+.:.,.,.1.:.:.:.:.:.1.1.:.2.3.>.3.,.1.>.:.:.1.,.,.3.,.1.,.,.,.1.1.,.' ,.,.,.>.,.,.:.,.x.S.XX,X.X.X>X>X>X>X:X>X.X>X}.}.>X>X>X>X>X<X<X>X<X<X4X4X1X].I d O 8 a e y e e e e e e e e e e 0 e 0 q e 0 q 0 0 0 q q q e e 0 0 0 0 0 0 0 0 e 0 0 a 6 0 0 0 0 0 0 0 0 0 6 0 e 8 e V ( ) :.` ] ' ' ,.a.C.1X1X<XXX<X}.}.>X}.>X2X<X4X1X>X:X>X",
">X>X>X>X}.1X{.].g.+.1.,.:.:.:.1.,.1.1.3.,.1.,.1.1.' ' 1.1.1.' 1.1.' 1.' ] 1.` 1.] 3.[ [ ,.] ` N a 5 7 u 6 6 6 6 9 0 0 7 0 0 0 0 0 0 0 7 6 0 a 0 0 6 0 $ 6 e e 0 0 0 0 0 0 0 0 0 0 0 0 0 0 0 0 0 0 0 0 0 0 0 7 0 9 0 0 0 b $ 0 u 0 0 7 n J ( :.,.,.' ,.W W ,.F.XX1X1X,X,X,X,X,X,X,X>X,X>X:X,X1X,X>Xv.a.#.W #.:.:.,.,.3.,.3.3.3.,.3.1.1.1.,.1.1.1.1.:.>.3.:.:.2.,.3.2.:.3.,.1.,.1.1.,.1.1.,.,.:.1.,.>.s.n.,X>X{.>X<X:X,X{.<X<X<X<X>X<X>X1X<X<X>X<X>X2X<X<X<X<X<X].>.z O 7 u e u 8 8 e 0 6 0 u 0 0 y $ 0 0 0 0 0 u y 0 0 0 b $ b $ $ $ $ $ $ $ $ B $ B $ $ $ | B $ $ b $ b y $ b $ 6 6 5 C ( :.` ` ` :.' #.t.v.,X<X>X>X>X>X>X>X>X>X>X=X=X>X:X>X=X>X>X=X>X2X-X>X>X2X4X:Xn.a.W ' ] ' [ ] ' [ [ [ 3.[ 3.[ [ 3.q.[ [ q.[ ] q.[ q.] [ 0.1.[ [ 1.] [ 1.1.[ _ M w 7 5 7 q q 0 7 0 0 7 9 6 6 6 e 6 6 e e u 6 u 6 6 6 6 6 6 6 6 6 e e 6 u 6 8 e 6 6 e q 6 e e e 6 6 6 e e e u 6 6 e e e e e e e e 6 5 7 n U ;.1.2.-.,.,.,.#.l..X,X<X>X<X>X,X<X<X>X<X<X>X>X>X>X>X,X.XV.d.,.:.:.:.1.:.1.,.:.:.:.1.:.1.,.:.:.,.3.:.1.1.1.,.2.,.1.1.3.1.3.1.1.2.] ,.3.3.,.,.,.:.,.,.,.,.a.V.|.,X,X.X,X,X{.,X{.:X:X:X=X:X:X{.:X:X}.>X>X}.}.}.>X>X4X6X].o.k * 7 e e e y e e e e e e e e e q q 0 e q 0 e e q e e 0 q 0 q 0 q 0 0 e 0 0 0 0 0 0 0 0 0 0 0 e 0 0 0 0 6 0 6 e 8 8 C ( :.:.' ' ' ' Q a.S.<X4X>X<X>X}.>X=X>X=X1X1X>X>X=X>X>X",
"}.>X>X>X>X4X}.R.d.+.:.2.2.,.:.,.,.' 3.1.1.,.,.,.,.1.,.1.` 1.' 1.3.3.1.1.' 1.] 1.' ] ] [ ] 3.( V a 6 u e u 0 0 0 0 0 e e e e 0 e 0 0 0 7 0 0 0 0 0 $ 6 9 9 0 0 u b 0 0 0 0 0 0 0 0 0 0 0 0 0 0 0 0 0 0 0 0 0 0 0 0 0 0 0 0 y 0 $ 0 0 0 b U ) :.,.,.' ,.W W a.D..X1X,X<X,X,X,X,X,X>X>X,X>X,X>X:X1X,Xv.g.#.,.,.,.:.,.' 1.1.,.1.1.3.' 1.] 3.3.1.1.1.1.1.1.1.1.1.2.3.1.>.3.,.>.3.>.,.>.3.>.3.3.2.,.,.,.>.s.n.>XXX{.<X>X>X{.}.}.>X>X>X<X>X>X>X<X>X<X>X>X<X4X>X<X4X4X].<.h * 7 a e i 8 i u e 8 0 0 u 0 0 0 u b $ u 0 $ y 0 $ u b $ $ b $ $ $ $ $ ^ $ $ B $ $ $ B $ $ $ $ $ $ $ $ B $ $ 6 6 6 A ( :.` 1.' ' ' #.p.j.&X,X:X:X>X>X=X>X>X=X>X=X=X>X>X>X>X=X=X>X=X=X=X2X:X1X<X}.S.a.W ` ' ] [ ] 3.3.[ 1.1.[ [ [ 3.[ [ [ 0.[ [ ] [ ] [ [ q.[ [ 3.[ [ [ [ 1.1.0.` M 8 7 q 8 q a q 0 e 0 q 0 7 5 e 6 e 7 e e 0 e 6 6 8 6 6 6 e 6 u e 6 6 u 6 6 e u e 6 e 6 6 6 e u 6 6 u 6 e 6 6 6 e u 6 e 6 e e 6 6 5 5 5 m ^ -.2.:.:.:.:.,.@.d..X,X<X<X>X>X>X<X>X<X<X,X<X<X>X,X>X>X.XV.d.,.1.:.1.,.:.:.2.:.` :.,.:.:.>.3.,.1.1.1.1.>.3.3.1.1.1.,.1.,.1.1.1.1.1.3.1.,.,.1.1.1.1.,.,.>.,.x.G.<X,XXX,X.X:X:X=X{.=X*X{.=XW.:XQ.W.:X:X>X=X}.}.Q.:X<X4X].#.h - 8 e e e e e e y e e 9 e y e e e 9 e 0 q e e e q q 0 e 0 e 0 q 0 0 0 e 0 0 0 0 0 0 0 0 0 0 0 0 e 0 y 0 0 0 0 8 e C ) :.1.1.' ' ' ' s.c..X>X>X>X>X>X:X}.=X:X>X2X>X>X>XQ.>X",
"}.>X>X>X>X>X}.].l.+.:.2.,.3.1.,.1.,.,.,.,.,.1.,.3.,.] 1.,.1.1.1.1.3.3.' 1.' 1.[ 3.[ ' 1.[ ] ( M a e 6 6 6 6 9 0 0 0 u 0 0 0 0 0 0 0 0 0 0 e e 0 0 0 9 0 6 0 e 9 e 0 0 0 0 9 0 7 0 7 0 0 0 7 0 9 9 6 0 0 0 7 0 0 9 0 0 0 u $ y $ 0 $ 0 b A ) 1.,.,.,.:.Q W a.|.,X1X,X,X<X<X1X<X,X,X,X:X:X:X:X>X>X}.v.s.W o.,.#.` 1.' 1.' ,.1.1.3.1.1.,.1.1.1.1.,.:.3.2.1.1.>.3.>.3.,.3.2.3.1.,.1.,.1.,.3.,.>.3.1.,.<.l.n.>X}.{.>X>X{.{.}.>X{.XX<X>X1X>X<X>X<X>X<X2X>X>X>X<X<X<X].<.h - q a e a u e 5 5 6 6 0 0 0 0 0 $ 0 0 y 0 0 u $ 0 0 $ b $ b $ $ ^ $ $ $ $ $ $ $ $ B $ $ B B $ B $ B y $ $ B 0 6 e K :.1.,.,.,.3.p.p.s.j.,X>X:XQ.Q.Q.=X=X>X>X2X>X>X>X>X>X>X>X1X=X>X>X>X=X>X>X4X{.v.a._ ' ' 1.1.' ' [ 3.[ [ 3.3.1.[ 1.[ [ ] [ q.[ [ q.q.[ ] [ 1.[ 3.3.1.1.3.q.1.) n q 7 7 8 8 e q 0 e q a e 0 6 e e 6 6 u 6 6 e 6 e u u 6 e u 6 e 6 6 6 e e 6 6 6 6 e u 6 e 6 6 6 e 6 e 6 e 6 6 e 6 6 6 u 6 e e e e 6 5 5 n Y 1.2.2.2.:.2.,.+.s.|.>X<X:X,X>X,X1X>X<X>X>X>X>X>X>X>X>X.XS.d.,.1.,.,.1.,.:.:.:.:.1.1.1.:.1.1.1.1.3.>.1.1.1.1.3.1.1.1.1.3.3.1.3.1.3.,.3.3.3.,.1.,.1.1.1.,.<.x.G.<X,XXX,X}.}.{.:X=X:XQ.=X:X=X=X:X=XQ.>X:X>X:XQ.}.}.<X4Xn.o.h - q e y e e y e 9 9 0 e 0 9 e 0 e e e e q 0 q 0 0 e e e 7 0 0 0 0 0 0 0 0 0 0 e 0 0 0 0 e 0 0 0 y 0 9 9 0 0 0 8 8 U ( :.1.1.' ' ' Q s.v.>X>X>X>X>X=XQ.=X}.=X>X>X>X=X>X:XQ.",
">X>X1X>X>X4X>X].g.+.1.2.1.>.3.1.1.,.1.,.3.1.,.,.,.1.1.3.1.1.3.1.3.3.3.1.1.' 3.3.3.3.[ 3.[ 3.( M i 6 6 6 6 0 6 0 0 0 0 0 0 0 a 0 0 0 0 0 0 e y 0 0 0 0 0 0 0 0 0 0 0 0 0 0 6 0 0 0 0 0 0 0 0 0 0 9 0 6 0 0 0 0 0 0 0 0 9 y 0 0 y 0 9 0 b U ` ,.,.,.,.,.+.#.d.|.<X<X,X,X1X<X,X<X<X,X>X,X:X<X,X<X<XXXc.a.@.#.#.:.,.:.' 1.:.' 1.] ] ,.1.1.1.3.1.3.>.1.2.1.,.3.2.3.3.2.3.>.,.3.1.,.1.>.:.1.1.:.:.1.,.,.<.g.S.,X,X<X<X>XXX}.XXXXXX>X>X<X<X>X>X>X>X<X>X<X>X>X4X>X<XXXS.#.h O 7 e e 8 8 6 5 5 6 6 0 6 0 u u y 0 0 u y y u 0 0 0 b $ b $ ^ $ ^ $ $ | ^ $ $ B $ B $ B $ $ B $ $ $ $ $ $ $ 9 6 6 A ) :.,.' ,.,.' ,.s.j.{.,X}.Q.Q.{.}.+X>X}.=X:X:X:X:X>X:X1X>X:X>X=X>X>X>X1X<X>XA.a.` ' ] ] [ ] 3.[ [ 3.1.[ [ 1.1.[ [ q.q.[ [ [ [ ] ] [ 0.[ [ 3.3.3.q.3.q.3.3._ M w 5 7 7 8 q 7 0 q e e e e e 5 e e 6 0 e 6 6 6 6 6 e 6 6 6 e 6 u 6 e e 6 6 6 6 6 6 e 6 6 u 6 e e e 6 e 6 u e u 8 6 e 6 6 e u e 6 5 5 5 m Y 1.4.>.1.:.1.,.+.g.{.XX<X}.=X}.>X>X,X>X<X<X<X>X<X,X<X>XXXB.d.,.,.,.2.,.2.2.>.:.1.1.1.1.2.2.3.,.1.3.3.1.,.1.1.1.1.1.1.,.1.1.1.1.1.1.3.1.,.,.1.>.:.:.,.1.,.,.x.G.,X<X,X,X,X>X:X>X>X:X:X:X:X=X>X>X>X:X>X>X=X:X}.:X}.<X4XS.o.g * 7 9 0 0 e e 0 0 9 9 9 0 9 0 e 9 9 9 0 q 0 e q e 0 q 0 q q 0 0 0 e u 0 0 e e 0 0 0 0 u 0 0 0 0 9 $ 9 $ $ 9 $ 5 5 V ( ) :.' ' ' ' ' a.v.{.}.>X=X>X>X=XQ.:X}.>X:X>X}.}.Q.>X",
"4X2X<X4X4X4X<X.Xl.W :.1.1.:.3.1.,.,.1.,.' ,.1.1.,.3.,.3.3.3.[ ,.3.3.2.1.1.1.3.q.3.3.3.3.2.1.) M a 6 6 6 6 6 6 0 0 0 0 0 0 e 0 0 0 0 0 0 0 0 e u 0 0 0 e 0 e 0 0 0 a e 0 0 0 e 0 0 0 0 0 0 0 0 0 0 0 0 0 0 0 0 0 0 0 0 u 0 y 0 u u 0 0 B U ` ,.,.,.,.,.:.Q s.G.,X<X<X,X>X,X1X1X<X<X,X<X<X4X1X1X1X<XG.l.,.,.,.>.3.1.,.1.1.1.1.,.1.1.1.3.1.1.1.3.1.1.3.1.3.1.3.,.2.,.3.3.1.1.,.:.1.1.:.:.1.:.1.:.1.1.,.j.S.XX<X1X4X<X,XXX<X>X>X>X>X>X<X,X>X>X<X>X<X}.<X<X}.<X<X4Xc.o.f X * - * @ - - + ; 6 6 0 u 0 y $ 0 0 0 0 $ u y 0 0 u $ b $ b $ $ $ $ $ $ $ $ $ B $ $ $ $ $ B $ $ b $ $ $ $ $ + O + M R R W W W W E #.#.j.{.E.Q.Q.Q.!.Q.Q.Q.-XQ././.Q.-X=X=X-X=X>X1X1X1X1X1X4X<X,XS.a.W ' ] ] ] ] [ 3.[ ] [ [ 3.[ [ [ [ ] [ [ 0.[ [ q.[ [ [ [ 1.3.3.q.q.q.q.q.q.] M 8 7 7 8 e q 0 q e a a e e e e 6 e 6 6 6 e u e e 6 6 e e 6 6 6 e e 6 6 u e 6 8 e u 6 6 e e 6 6 u 6 6 6 6 e 6 6 6 u e 6 6 e e 6 e 6 9 6 n ^ 2.2.1.>.>.:.,.@.l..X,X4X:X}.>X>X<X<X<X<X<X,X<X<X<X<X<X.XZ.l.1.>.2.2.3.2.3.2.:.1.:.3.3.2.1.1.1.1.1.1.1.2.,.1.2.,.3.1.1.1.1.3.,.1.1.1.,.3.,.3.3.:.:.,.,.,.4.Z..X<X<X<X<X<X<X<X<X>X>X1X2X>X1X>X>X>X>X>X4X>X>X}.}.>X<X<Xc.I 2 % O 5 - 5 7 7 $ 6 6 9 9 9 9 0 9 0 0 q 0 0 q q 0 e e q e e q 0 0 0 0 0 0 0 0 u 0 0 0 e e e e 0 9 6 $ @ # o + + O * z ( X.:.:.W ` Q #.y.k.[.}.>X+X/.}./.Q.Q.Q./.+X/.Q.Q.Q.Q.",
"{..X.X.X.XXX.XS.d.+.:.3.,.3.:.,.3.,.1.,.,.1.,.,.3.,.3.3.] ' 3.3.3.3.1.3.3.1.' ( _ ( _ ) ) ` T n a 6 6 6 6 0 6 0 0 0 0 e e 9 0 0 0 0 0 0 0 e 0 0 0 9 6 0 0 0 0 9 0 u y e e 0 e e 0 0 0 u e e 0 0 e 0 0 0 0 0 u 0 y $ b y y b $ b 0 $ 0 m U :.:.,.,.,.' ,.#.a.].>X1X,X<X,X:X>X,X<X|.F.S.G.F.G..X.XF.l.2.W ( R ( ` _ ) ) ] ] 1.1.1.1.1.3.1.1.1.1.3.2.3.1.3.3.3.,.2.,.3.>.3.3.1.1.1.1.1.:.:.,.1.>.3.,.,.d.x.F.F.|.|.|.|.|.S.].XX>X>X>X>X,X>X>X>X,X<XXX>X}.<X}.<X<X].$.G , g h z f g d f i e 6 6 6 0 0 u 0 6 6 0 u 6 0 0 6 0 0 6 0 0 $ $ $ B b $ b y y 0 0 0 0 0 y 0 0 a a k a k p j f j z I :.,.$.,.p.,.p.$.u.T./.OX3X(.(.(.(.(.(.@X@X@X@X(.3X3XqX3X+X}.{.].D.:XD..XXXG.A.d._ ' 1.` 1.' 1.' ' 3.[ 1.] 3.[ [ 3.] 3.[ 3.3.3.3.[ [ [ [ ] ] ) ) ) ) ] ) ;.( n 8 q 8 q e e 8 8 q q e 0 0 7 6 0 6 6 6 e u 6 e 6 e u 6 6 6 6 e u 6 6 e e u e e 6 6 e 6 6 6 6 e 6 u e 6 6 e a 6 6 u 0 6 6 e u 6 6 7 5 5 m ^ 1.2.-.2.,.1.,.,.f.|.<X<X:X:X.X>X<X<X,X.XG.G.F.S.|.F.F.Z.d.1.) ( :.) :.) ` ^ 1.1.3.3.1.1.3.1.2.3.1.1.1.1.1.,.1.3.2.1.1.1.1.,.1.3.1.,.1.3.3.1.1.:.,.1.,.>.:.m.Z.F.G.F.F.F.G.G.D.,X:X>X1X>X>X>X>X>X>X>X>X>X>X}.>X>X1X<XR.#.F 3 g g j j k j j 8 8 7 9 9 9 9 0 9 0 0 9 e 9 e e e e e q e 0 0 0 0 0 e 0 e 0 0 0 0 e 0 0 0 0 e a k k k M j d d d f L ,.>.a.<.<.<.<.u.h.R.+X+X3X3X@X@X@X@X@X3X3X@X3X@X@X3X;X",
"C.C.S.S.S.S.Z.V.4.` >.3.1.>.:.1.,.1.] ,.3.,.,.] ,.1.,.1.3.3.] 3.[ 3.3.3.1.( T J U U U U U K V k a 6 6 6 6 6 6 0 0 0 0 u 0 y u 0 u e 0 9 0 0 0 0 6 9 $ 0 6 9 6 0 0 0 u 0 0 0 0 0 0 0 0 0 0 0 0 0 0 0 0 0 0 0 y 0 y b $ $ $ $ y $ 0 0 0 b A ` 2.,.,.,.,.$.Q s.G.XX<X1X1X,X:X,X,XXXA.s.3.d.d.f.M.m.d.1.W K K K U T ^ ^ / ( ` ] ] [ 1.3.1.1.,.1.1.1.1.1.1.>.1.2.2.1.>.3.1.3.,.3.,.,.,.,.,.1.,.:.:.:.3.2.2.4.2.d.N.N.m.l.4.<.c..XXX>X>XXX,X>XXX>X>XXXXX>X>X}.>X<X4X{.k.$.I o.+.o.W E X.R v d u 6 u 0 0 6 0 u u 0 0 0 6 0 u 0 0 0 u 0 | $ $ $ $ b $ u 0 0 0 0 0 0 0 6 a B Y X.X.I R o.X.o.$.<.d.f.j.c.j.f.j.k.H.~.qXdXpXpXwXiXiXpXwXpXqXpXpXpXpXpXpXdX5XR.v.v.A.v.A.A.A.Z.V.d.` ` ' ' ' ] ' 1.1.[ ,.[ [ 3.3.[ [ 3.[ 1.] [ 3.[ q.[ [ ) ( / ~ ~ ~ ~ ~ ~ ~ A a 7 q 8 q 8 e e 8 8 0 q 7 0 6 9 0 6 6 e 6 6 u 6 6 e e e 6 e 6 6 e 6 6 6 6 6 6 u 6 e 6 6 u e 6 6 6 6 e 6 6 6 6 6 6 6 0 6 6 e e e 6 6 5 ; n Y 2.1.>.:.2.1.+.#.l.XX<X<X>X>X:X>X<X,XXXA.N.d.l.w.m.d.w.2.( ^ U T ~ T ~ ~ ~ U ( 1.1.3.3.1.2.1.1.1.>.3.2.3.1.2.1.1.,.1.3.1.1.1.1.1.3.3.3.,.,.1.,.1.:.:.,.,.2.4.q.m.m.m.m.w.4.l.c.S.}.>X1X>X-X>X>X=X>X=X>X>X>X>X>X:X>X4XW.g.#.E W o.I I >.( R j e 6 e 9 y 9 y 0 9 0 9 e e e e 9 e 9 q 0 q 0 q 0 6 0 0 0 0 0 0 0 0 0 0 6 6 e B Y +.-.>.-.X.R R +.<.g.j.g.j.z.g.j.k.P.oXdXdXiXpXiXdXaXfXpXiXiXaXfXaXdXiXaX",
"<.4.<.<.4.4.4.<.>.` 1.>.:.>.,.:.3.,.,.3.,.1.,.1.3.3.,.3.[ 3.3.[ ' 1.1.1.( T g t g j j j j j j j u 7 6 6 6 6 7 0 0 e e 0 0 e e a e 0 0 0 0 0 e 0 0 0 9 0 0 0 0 0 0 a 0 0 6 0 0 0 0 7 0 0 0 0 7 0 6 0 9 9 0 0 0 $ $ y $ b b $ u y $ 0 0 m U :.,.,.,.,.,.,.#.s.D.XX<X>X:X:X>X<X,XS.W S h M l l M D N M j j t e e j y n n T ] 1.3.3.[ 3.] 3.1.1.,.1.,.1.1.1.3.2.,.,.3.2.3.,.,.1.' 1.1.:.1.1.1.1.:.:.1.:._ K l l z l z k z g +.R.>X<X<X}.>X,X<X}.>X>X<X<X>X<X}.<X>X}.{.R.x.n.].S.]._.Z.N.Y g i 6 6 6 6 u 6 e e 6 e 0 u 0 6 u u 6 u 6 B $ B $ b $ b $ 0 0 0 0 e e 0 $ a ^ w._.C.V.).Z.].C.S.]..X.X.X].]..X{.E.oXiXvXMXnXnXcXnXnXnXnXkXvXnXvXcXkXnXvXvXdXk.a.p.p.p.p.p.a.,.d.[ ` ' ' ` ' ` ' ' ] ,.[ ] 3.' 3.[ 3.[ 3.[ [ 3.[ 3.q.[ [ ) J M e n b n b n b a 0 5 6 0 e e e e e e q q e e 0 6 6 6 e 6 e 6 e 6 6 u 6 6 6 0 6 e 6 e 6 u 6 e 6 6 6 e u e 6 6 e e 6 e 6 6 u e 6 e 0 u e u e 6 0 6 0 7 5 6 n ^ -.:.-.2.:.:.:.@.l..X>X<X>X:X{.>X<XXXZ.I g z M M M M z M j j j j n n n m n n U 1.1.3.3.1.3.3.1.1.3.1.1.1.2.3.1.1.1.1.1.,.1.3.,.1.1.3.1.,.3.,.>.:.>.1.1.,.' R J l M N M g j g S y.{.>X1X=X=X>X>X>X>X>X>X>X}.>X:X>X>X<X>XW.b.k.S.S.S.D.|.Z.m.Y i e q 9 9 y 9 9 0 9 e e e e q q e q q q 0 0 0 0 0 0 0 0 0 0 0 0 0 0 0 6 $ b ^ N.|.|.S._.C.S.S.S.].|.].{.].].[.].E./.5XhXvXvXlXvXvXnXvXnXnXvXvXvXnXvXnXvX",
":.+.:.W @.:.+.+.+.:.3.>.1.3.1.1.1.1.,.,.,.1.,.,.,.] 3.3.1.3.3.' 1.] ' 1.T H r - 5 7 7 7 8 7 8 8 e 6 6 6 0 6 0 0 0 0 0 0 0 0 0 e e e 0 0 0 0 0 e 0 0 0 0 0 0 0 0 e e 0 0 9 0 0 0 0 6 0 0 0 0 0 0 0 0 0 0 0 0 0 y $ y b $ b $ $ y u 9 9 b U 1.,.:.,.,.,.p.#.d.D..X<X:X{.:X:X1X.XV.D * * - - & : 7 - 7 7 - 7 - - 5 7 q q V ` 1.q.1.3.3.3.3.3.3.1.1.1.1.3.3.1.3.3.3.3.3.,.3.,.' :.1.` 1.:.:.1.:.:.1.1.:.T g * & * * - * * * L c..X4X<X<X<X<X<X<X,X<X<X<X4X>X>X>X<X4X4X4X<X4X4X4X4X<XXX XX.d u 6 0 u 6 0 e u 0 0 u e 6 0 6 a 6 0 6 0 $ $ B $ $ b $ b 0 0 u y 0 e 0 @ k -.Z.4X$X4X4XXXXX4X<X<X<X<X<X<X1X<X<X2XiXsXMXGXGXAXnXAXnXnXAXAXAXAXAXAXAXAXAXnXdXu.#.W Q Q Q Q ' Q ` _ ` ] ` 1.' 1.1.1.' ' 1.' ] ] ' [ ] ' ] ' [ [ [ [ [ [ [ ! V 8 5 q 0 7 7 0 9 9 9 5 9 7 7 8 q e e e e e e a e 0 0 0 u 6 0 6 e 6 0 0 6 e e u e u 0 6 e e 0 0 6 e u 6 6 e 0 e 6 u 0 0 a 6 e 6 6 0 0 6 6 6 6 e 6 6 6 6 5 5 k A -.-.:.-.:.-.:.+.j.].<X<X>X>XXX>X4XXXV.h * * - ; - 5 - 5 5 5 5 7 q e 8 q 8 q m ] 1.3.3.3.1.1.1.,.1.3.1.,.1.1.,.1.3.1.1.3.1.1.1.1.1.1.,.3.,.,.3.:.,.,.1.,.` J t - & - - & & * = E W.=X4X>X>X>X>X>X=X>X>X>X>XQ.>X>X>X>X>X>X>X<X<X<X4X6X4X<X|.R d e e 9 y 9 0 y 0 0 0 0 9 0 0 0 0 0 0 0 0 0 0 0 e 0 0 0 e 0 u e 0 0 7 9 + b 1.|.4X4X<X4X4X4X4X<X<X<X<X<X<X<X<X$X+X@XhXvXMXnXnXnXAXnXAXnXGXAXAXGXMXAXAXGX",
":.,.,.,.>.,.1.:.:.:.:.:.1.>.3.1.1.1.2.,.1.1.,.1.,.3.,.3.,.,.[ ' ' [ [ ] / H t 7 7 8 7 8 8 8 e e a e 6 7 6 0 0 0 0 0 0 e 0 0 0 0 0 0 0 0 e 0 e e 0 e e a e e e 0 e e u e 0 0 0 0 0 0 0 0 0 0 e 0 0 0 0 0 $ y y $ b y $ b $ u y $ 0 $ $ m ~ ;.,.,.,.,.,.,.#.a.].,X<X,X:X*X,X<XG.Z.H * 7 7 7 8 8 7 7 8 q 8 7 0 6 0 7 q e J ] [ 0.3.q.1.[ q.3.3.1.1.1.1.,.1.,.1.3.3.,.3.1.,.1.1.' 1.' 1.1.' ` :.:.:.:.:.Y l : - > - 5 5 ; ; L n.}.4X<X<X}.>XXX>X<X}.>X4X4X>X<X>X<X4X4X1X>X<X4X,XXXXXXX XI 2 5 6 0 0 0 6 6 0 u e e e e a 0 e 0 u e a B $ B $ B $ b $ 0 e u e e a 0 @ a 2.B.XX$X}.}.2X$X<X>X}.<X<X1X>X<X<X1X+X3XpXMXAXAXAXAXAXAXAXAXAXAXAXAXAXAXnXAXnXeXh.' t.' Q ' Q ' ' ' ` ` ` ' ' ,.` ' ' 1.' ' 1.3.' 3.3.[ 1.[ 1.3.] ' [ 3.p.[ ) V 8 5 q q e 0 7 e e 0 0 5 9 7 0 q e e e e 0 0 e 0 6 6 0 0 6 0 0 6 0 e 6 6 0 e 6 6 0 6 e u e 6 6 e 0 6 e 0 6 0 0 0 6 0 e 6 0 6 0 6 a 6 6 6 e e 6 0 6 6 6 ; 5 k Y ;.1.;.-.2.-.:.:.l.|.,X4X>X>X}.>X<X.XV.v - > 5 8 q 8 8 8 e q e q q e e e q e J ] 1.3.1.1.1.1.1.3.1.1.3.1.,.1.1.1.1.1.1.,.1.3.1.1.3.3.,.1.,.3.1.,.1.,.1.,.` U j : : : 7 : : : = o.{.:X<X>X>X>X>X>X>X>X>X>X>X>X>X,X>X>X>X<X>X>X>X>X4X4X<XXXF.R d e q y 9 9 y 9 y 0 0 0 0 0 0 0 0 0 0 0 0 0 0 y 0 e e e e a e e 0 e 0 7 + a 2.C.4X4X<X<X>X,XXX<X>XXX<X,X>X>X<X}.+XiXfXMXnXnXAXzXAXAXAXAXAXAXAXAXAXAXAXAX",
">.,.:.>.2.1.1.:.` :.:.:.1.,.1.,.,.:.:.:.1.,.1.' ' [ 3.3.[ 3.3.3.3.' 3.3.( U r 7 ; 8 e 8 e 6 e e 0 6 6 6 6 0 6 e 0 0 0 0 0 0 0 e 0 0 0 0 0 0 e 0 0 0 0 e 0 0 e e 0 e 0 6 0 0 0 0 0 0 e 0 0 0 0 0 0 0 0 0 b $ y y $ y b $ y 0 $ 0 0 9 9 B ~ 1.,.,.,.,.p.,.Q s.].,X>X:X=X:X>X<X,XZ.H 7 7 t 8 8 t e 8 8 q 8 e e e 0 0 0 8 V ] 0.[ [ [ 1.[ [ 3.3.3.1.3.2.1.1.1.1.1.1.1.1.1.1.1.1.1.1.1.1.1.:.1.1.1.1.:.) R M 7 - 5 7 7 7 5 > I c.}.<X<XXX}.}.>XXXXX}.>X<X<X4X4X>X>X>X<X2X>X1X4X>X}.}..X|.L i 8 6 0 0 u a 0 u e e e y e e e e a e e e B $ $ B $ y b $ e e e q 0 e 7 5 j >.C.$X<X}.4X}.>X>X>X>X>X>X>X>X>X>X:X-XyXpXMXMXAXVXVXVXAXVXCXAXAXSXAXSXZXAXZXAXfXh.,.p.' ' Q ' ' ' ' ' ` ' ' ' 1.1.1.1.1.,.3.' ' 3.[ ] 3.[ 3.[ 3.[ ' [ q.[ [ ) B b 9 e e e 9 9 e e 0 0 7 0 0 0 0 e e q e e q 0 0 0 e 0 0 e 0 e 0 0 e u 0 0 0 0 0 0 0 0 0 0 0 e 0 0 0 0 0 0 0 0 e 0 0 0 0 0 0 0 0 6 0 6 6 u 6 6 6 6 6 6 ; 6 M Y 1.2.;.2.-.:.>.@.l.|.<X<X>X>X}.XX4X XN.N - 7 e e q e q e e e q e q e e q q q N ] ] 3.3.1.1.3.1.1.3.1.3.1.1.1.3.1.1.3.1.1.1.1.1.3.1.3.3.,.,.1.:.,.,.>.:.1.W K l 7 > 8 8 : 8 8 = W ].>X2X>X>X>X>X>X>X>X>X>X>X>X>X>X>X>X>X>X>X>X>X1X>X<X>XXX|.Y d 8 9 y q y 0 y 0 0 0 0 0 0 0 0 0 q 0 0 0 0 0 0 0 0 0 0 0 0 0 0 e 0 0 5 O a :.C.XX<XXXXXXX>X}.<X>XXX<X,X>X>X>X>X+X3XsXAXAXAXZXNXAXVXAXAXAXSXSXSXAXSXAXSX",
"3.2.>.2.:.>.2.( :.:.1.:.>.3.1.1.1.:.>.,.1.,.3.,.3.,.3.,.,.3.,.[ 3.3.3.q.` U 8 - 5 8 6 6 7 8 7 e q 8 6 6 6 0 0 0 0 0 0 0 e 0 0 0 0 0 0 0 0 0 0 0 0 0 a 0 0 0 e 0 0 0 0 0 0 0 0 0 0 0 0 0 0 0 0 0 0 0 0 0 y y b $ y y $ b y $ 0 u 0 0 $ b A ) 1.' ,.,.,.#.#.a.D.{.1X:X:X=X,X1X|.Z.H 7 7 q q y q q q y q e e e e e e e e H ] ] 3.0.[ [ 1.[ [ 3.[ 3.1.1.1.3.1.1.,.1.1.3.1.3.3.3.' ,.] 1.1.' 1.1.:.1.1.` R M ; 5 7 7 7 6 7 ; I v.}.4X}.{.{.{.{.}.XX}.}.<X4X<X4X<X4X1X>X>X>X>X<X>X}.}..X|.X.d 1 6 u 0 0 u a 0 a e e e q 0 e e 7 0 6 0 $ $ $ $ B B $ b 0 0 0 0 0 0 7 @ j X.B.4X<X}.>X>X>X=X>X=X>X=X:X=X,X>X>X-X(.pXnXGXVXVXVXVXNXAXAXBXAXSXSXSXSXAXAXcXeXL.,.3.{ ' ' ' ' _ ' ' ' ' ' 3.' ,.] 3.] ,.,.' [ ] [ ] ' [ 3.[ ' [ [ [ [ [ q.) J t q q q y q 0 e y e e e q 0 0 e 0 q e q 0 e 0 0 0 0 0 0 e 0 0 0 e 0 0 e 0 0 0 0 0 0 0 0 0 0 0 0 0 0 0 0 0 e 0 0 0 0 0 e 0 0 0 0 e e 6 e 6 e 6 6 6 0 6 6 6 z Y 2.1.2.-.-.2.:.>.l..X<X<X>X}.XX}.4X XV.C ; 7 e q e t y e q e q e e q e q q q V _ 1.3.3.1.3.3.3.1.3.1.1.1.3.1.1.1.1.1.1.3.1.,.1.1.1.1.3.1.,.,.1.1.1.1.>.,.` U l > 7 8 > 8 7 8 > I [.>X2X1X>X>X>X>X>X>X>X>X>X>X>X>X>X>X>X>X>X>X:X:X,X=X{.{.].P r 7 9 q e e y y e 0 0 0 0 6 0 0 0 0 9 0 0 0 0 0 0 0 0 0 0 0 9 0 9 0 0 7 O j >.B.<X1X>X}.}.>X<X}.>X>X<X>X,X>X>X>X2XiXpXnXzXAXAXZXAXBXAXAXCXSXSXSXVXSXSXAX",
",.3.>.3.:.1.1.:.:.1.3.2.:.:.,.1.,.:.3.1.:.>.1.,.3.' 3.' [ [ ' ' [ ' [ 3.` J 8 - 7 e e 8 6 e 6 e e 0 8 0 6 0 0 0 0 a 0 0 u 0 e 0 0 0 0 0 a 0 0 0 0 0 0 0 0 0 0 u 0 0 0 0 0 0 0 0 e 0 0 0 0 e 0 0 y 0 0 y y $ y b $ $ b $ y u $ $ 0 $ 0 B ~ 1.>.,.,.,.<.,.#.s.G.>X>X>X:X:X>X<X.XZ.U : 7 8 q q e e e e q e e 0 e e e q 8 J ] [ [ [ ] ] [ 3.] ] 3.3.1.,.1.1.1.3.1.1.1.1.3.1.[ 1.' 3.' 1.' 1.' :.1.1.:.:.( M ; 5 6 6 6 7 7 > L c.{.4X}.}.}.}.>X>X>X>X>X}.>X>X>X>X2X>X1X>X1X1X1X>X:XXXXX|.E g u 0 b b b b u 0 e y e e e 8 e 6 0 0 0 0 $ B B $ $ $ $ y 0 0 0 0 0 0 7 5 j -.C.4X}.>X>XQ.>X>X2X>X>X>X>X>X>X=X=X-X;XpXMXVXAXVXVXVXCXCXCXAXSXSXSXSXSXSXAXZXfXz.,.,.' ' ' _ ' ' ' ' ' _ ' ,.,.,.,.,.,.,.3.] ,.[ 3.,.[ 1.' 1.3.' [ 3.[ [ [ ) B y q q y e 0 0 9 e q e 0 q 9 0 q 0 e 0 q e q 0 e 0 0 0 0 u 0 0 0 0 0 0 0 0 0 e u 0 e 0 e 0 0 0 u e e 0 e u 0 0 e u 0 0 0 0 0 u 0 0 6 e u 6 0 6 0 6 6 6 5 > m R ;.2.-.2.2.1.>.:.l..XXX4X>X}.}.<X<X|.N.N ; e e e e e e e q e e e e e e e q q V ] ] 3.3.[ 3.,.3.1.1.1.1.,.1.1.3.1.,.3.1.1.1.3.1.,.,.3.,.3.1.,.1.1.>.:.:.:.` K j 7 > 8 7 7 8 7 > E {.:X>X>X2X>X>X>X>X>X2X>X>X>X>X>X>X>X>X>X>X>X1X>X*X>X>XXXG.I r 7 q q y y e 9 0 0 9 9 9 0 9 0 0 0 0 0 0 0 0 0 0 0 0 0 y 0 0 e e 0 0 8 & e ,.Z.<X<X>X}.{.>X}.>X}.>X>X>X>X>X>X>X2XqXjXnXAXAXZXVXVXCXCXCXSXCXCXSXSXCXSXSX",
"3.,.:.:.>.2.3.,.:.2.1.:.1.:.3.3.>.1.3.>.1.,.1.,.,.[ ,.,.' _ ' ' ' ' [ 3._ U 8 & ; e e 8 7 e e 0 e 7 q e 6 6 0 0 0 0 0 e 0 0 0 0 0 0 0 u 0 0 0 0 0 0 0 0 0 0 0 0 e 0 0 u 0 0 0 0 0 0 0 0 0 0 0 0 0 0 y 0 0 0 0 0 0 y 0 u 0 0 0 0 9 9 $ m U ` ,.,.,.,.,.,.#.s.W.,X>X:X:X:X>X1XXXZ.T 7 8 e e e e q q e e e y e e e e e 7 N ' ] [ [ ] [ 0.[ [ ] 1.1.1.1.1.3.1.1.3.3.3.1.3.1.3.3.3.3.[ [ 1.' 1.1.1.1.1.-.T M 5 - 7 8 8 5 8 > L S.{.4X<X>X>X2X2X4X1X4X<X}.}.}.2X4X>X4X>X>X1X>X1X}.}.XX}. Xo.d u b u b u b u y 0 9 y e q q q 9 9 0 7 0 0 6 0 7 6 6 0 0 9 e 7 0 0 9 7 + a :.c.4X<X}.>X2X>X>X2X>X:X>X>X>X>X>X>X-XyXpXzXMXzXVXVXVXSXVXSXVXSXSXSXSXSXSXSXAXdXh.,.Q ' ' _ ' _ ' ' ' ` 1.' :.' 1.,.,.' ,.1.' 1.' 3.' 3.[ 1.[ [ [ [ [ [ [ [ / J y 9 e y 0 0 9 e y e e e 9 e e e 0 q q e e e 0 e 0 0 0 6 e 0 0 0 0 0 0 0 0 0 0 e 0 0 0 0 0 0 0 0 0 0 e 0 e 0 0 0 0 e 0 0 0 0 e 0 u e e 6 6 6 6 6 6 7 6 5 6 M Y 2.2.:.-.:.2.:.+.l.|.}.4X>XXX}.}.4X XN.N 5 e e e e e e q q e y q q e e q q q J _ 3.[ 1.3.1.3.3.1.1.,.1.3.1.3.1.1.1.1.3.3.1.1.1.1.3.3.3.] 1.,.1.1.,.,.:.:.:.K j 7 > 7 7 8 > 7 > W {.>X>X>X>X>X>X}.>X>X>X<X>X>X>X>X>X>X>X=X>X>X>X>X>X>X>X,X].P r 7 7 q q q 0 9 0 0 0 0 0 9 9 0 9 0 0 0 0 0 9 0 y 0 b 0 0 u y 0 0 y e q + i 1.C.<X<X:X,X{.>X}.,X,X>X>X,X:X:X>X>X2XyXjXnXVXAXVXVXVXNXVXCXCXSXCXCXSXCXCXSX",
":.:.` :.,.3.,.1.:.` ` :.1.:.>.1.3.1.,.:.:.:.1.1.,.3.,.1.' ` ` ' 3._ ' 3.( V j 8 5 6 6 6 0 0 7 7 e 6 0 7 8 e q 0 e 0 0 u 0 0 0 0 0 0 0 e 0 0 0 0 0 0 0 u 0 0 0 e 0 0 0 e 0 0 0 0 0 0 0 u 0 e 0 e 0 0 0 0 0 y 0 y 0 0 0 0 0 9 6 $ $ 6 $ k U ` :.Q #.,.#.,.Q a.].{.<X,X:X=X>X<X|.Z.J 7 8 q q q y e q e e q q e e e e e e H ] ] 0.[ [ ] [ ] [ 1.1.1.1.1.1.1.1.,.1.1.3.,.3.3.] 3.[ 3.3.[ 1.1.1.1.1.1.1.:.( M > 5 7 5 5 8 6 = L c.{.4X<X<X4X<X<X>X>X4X<X>X}.}.}.>X>X>X1X>X>X1X>X>X}.}. X.XR 3 @ $ $ $ $ $ 6 9 6 $ 9 9 5 - 5 5 5 5 5 - 5 $ 5 5 $ 5 5 5 5 9 5 - 5 - 5 * j W B.}.>X}.>X>X=X=X>X=X>X=X>X=X=X:X-X/.;XpXMXGXGXVXVXVXSXVXSXAXAXAXHXSXAXAXAXAXdXh.,.' ' ' ' Q ' ' ' ' ' ' ' ,.1.,.:.,.1.' ,.' ' 3.' 1.1.' ' 1.3.[ [ [ q.[ 0.) V y 0 e 9 y 0 9 e e e 9 q e 9 e q 0 e 0 q 0 q 0 0 0 0 0 0 0 0 0 0 0 6 a 0 0 0 0 0 0 0 0 u e e 0 0 0 0 0 0 u 0 0 0 0 0 0 0 0 0 u 0 e 6 6 6 e 6 7 6 6 6 5 ; - k Y -.2.>.,.-.2.,.>.l..XXX4X<X>X}.}.<X.XN.N 5 7 e e e e e e e e q e y q q e q q J ] [ q.[ [ [ 1.[ 1.1.1.1.3.1.2.1.3.1.,.1.1.1.,.3.1.1.3.3.1.1.1.1.1.1.1.:.1.` C j > > 8 8 7 8 8 > o.].:X4X$X>X<X2X}.>X>X>X>X}.>X>X>X>X>X:X1X>X>X>X:X:X>X<X>Xn.L > - - 5 5 9 $ 9 9 # 9 $ $ 6 5 9 $ 6 $ $ 6 9 6 7 6 $ 9 $ 6 6 0 6 7 9 7 - O j ,.C.<X<X}.>X>X}.:X>X>X>X,X>X1X:X,X>X3X;XjXnXGXVXVXNXVXVXCXAXSXAXAXSXAXAXSXAX",
"#.>.<.<.,.a.<.,.,.W ` ' :.>.1.3.1.,.1.:.>.,.,.3.1.,.3.1._ _ / ( ` ( ( ] / V e 8 e e e e e 7 8 8 7 6 8 8 8 6 6 0 0 0 0 e e 0 0 e 0 0 0 0 0 0 0 0 0 0 e 0 0 e 0 0 0 0 0 0 0 0 0 0 0 0 e 0 0 u 0 0 0 0 0 0 0 y 0 0 0 e a k b b p k p a i C Y :.,.p.p.,.p.<.p.f.S.{.,X{.{.{.{..X|.B.H 7 8 q e e q e e q q t e e e a e e 8 N ] ] [ 1.[ [ ] [ [ 1.1.3.1.1.3.1.1.1.1.3.,.3.[ 1.] [ 3.2.] ` ` ` ) ` ( ) ^ ^ Y m 5 ; 6 8 8 6 6 > K l.S. X].|.{.].].].{.4X4X>X}.}.}.}.>X2X4X1X1X>X>X>X}.XXXXXX@.c s s x s x x x f f d i d d r r i 8 i i d i i d 1 i i i i i 1 i d 8 d 8 2 v $.C.XX>X>X>X>X>X>X>X>X=X>X>X>X>X>X>X-X;XuXMXzXVXVXVXVXSXVXVXnXnXnXnXnXnXvXnXvXeXk.s.Q p.p.,.,.p.p.,.' ` ' ' 1.,.,.,.,.,.1.1.' 3.' ' 3.,.] ' ` ` ` _ ] [ ) ] ! B y 0 e e 9 0 0 e e e y q e e e q e 0 e e 0 q 0 0 0 e 0 u e 0 0 0 0 0 0 e 0 0 0 0 0 0 0 0 0 0 0 0 e 0 0 0 0 0 e 0 0 0 0 0 0 0 e 0 6 e e u d k z f j g d i 1 C X.<.4.2.2.<.<.>.<.l.]..X.X.X|.]..XXXF.e.m > 7 e e e e e e t q y q e e e e q q B ) [ 3.1.[ q.[ [ 1.1.1.3.1.1.1.1.3.1.1.1.,.1.1.1.1.3.2.1.1.` ( ) ` ` ` ( ` ( H j 7 8 8 7 8 7 8 > L C.].|.].].].].].].{.>X2X>X>X>X>X1X>X>X>X>X>X>X>X}.1X1X<XR.o.h 3 p x f p p p f d r d i j d d j d j d a i d d j i a d d j d j a d d 8 1 z @.n.<X>X>X}.>X,X>X>X>X,X>X>X,X>X>X>X2X;XjXMXAXVXNXNXCXCXVXAXAXcXzXzXnXnXnXnX",
"c.v.v.S.S.S.C.c.<.:.1.3.:.1.1.>.1.1.,.1.1.3.1.,.,.1.1._ K H M N H V V V V n e e 8 8 6 e e 6 6 e 0 e 8 0 q e e 0 0 0 0 0 0 0 0 0 0 0 e 0 0 a 0 0 e 0 0 0 0 0 0 0 0 0 e 0 0 a 0 0 0 0 0 0 0 0 0 0 0 y 0 y 0 0 0 0 0 k Y 2.6.8.<.2.2.<.<.4.l.j.x.A.x.v.v.v.c.v.j.j.j.x.c.j.v.j.V.w.N 8 8 y e q e q e y e e 0 0 0 0 q q 8 H ) ] 3.[ [ [ [ [ [ [ [ 3.3.1.3.1.3.1.1.[ [ 3.3.] 1.[ q.1.] T V V C V C N A A N k 5 5 ; 6 5 6 6 8 z Y :.,.,.>.,.@.,.<.j.{.>X>X>X>X2X>X>X<X>X>X>X1X>X>X>X}.$X+XY.J.r.r.J.J.r.r.r.7.6.$.@.>.,.$.>.>.$.,.>.>.>.>.,.>.>.>.>.>.>.,.,.>.$.$.,.>.<.g.].4X>X}.>X>X=X>X>X=X>X>X=X>X=X>X=X/.yXsXnXGXVXVXVXVXSXAXzXlXpXiXiXiXdXdXaXdX5XR.f.v.v.v.c.v.D.S.x.a.W :.:.,.,.:.,.1.' ' ,.,.' 1.' ' ] ' T M M N B B ! ! V B M b 9 9 y e 9 9 y 9 e e 9 e 9 e 0 e q q 0 8 q 0 0 0 0 0 0 0 e 0 e 0 0 0 0 0 0 u 0 0 e 0 e 0 0 0 0 0 0 0 0 e 0 0 0 e 0 0 0 0 0 0 6 8 6 e j R 8.>.>.@.>.<.>.$.g.V.C.z.c.c.c.C.c.c.C.z.c.c.c.c.c.C.Z.N.4.m 5 8 e e e e e e q e e e y e e q q q J ] ] [ q.[ [ 3.1.1.3.1.1.1.3.3.1.1.3.1.1.1.1.3.,.1.1.3.1.) T H V V V V V V V m k 8 5 8 e 6 6 8 8 z R +.,.+.>.+.+.+.<.g.{.}.>X>X>X>X:X:X>X>X:X1X>X>X:X4X1X5X$XK.7.r.r.r.r.J.J.r.z.l.,.@.>.>.>.@.,.>.>.>.>.>.>.>.>.>.2.>.>.>.>.>.>.>.,.$.$.<.g.S.<X<X,X>X}.,X>X>X>X,X>X,X>X,X>X>X-X3XpXnXGXAXAXVXCXCXAXzXlXpXiXpXiXpXiXpX",
"D.{.{.{.{.{.{.D.l.>.2.>.2.:.,.1.:.3.1.1.1.:.1.[ 1.1.1.T M j d a a n b n j j e e 6 8 5 e 7 6 e 6 8 e e 0 6 e 6 0 e 0 0 0 0 0 0 0 0 0 0 0 0 0 0 0 0 0 0 0 0 0 0 e 0 0 e 0 0 0 0 0 e 0 a 0 0 0 0 0 y u 0 b 0 y $ b a a 2._.|.|.[.|.[.].].]..X|.D.G.G.G.,XG.{.D.a.a.a.a.a.a.<.4.2.1.m q 8 q e e q q e e e e e 0 e e 6 e e N ] [ [ 0.] [ ] [ ] 0.[ [ 1.1.1.3.1.1.1.,.3.3.[ ' ] 1.1.1.) V j j j a a a a a a i 8 5 6 6 6 6 6 ; i k z m z v N z z L ,.].}.}.>X2X4X>X2X>X>X4X1X>X>X>X}.}.+X%X%XqXdXrXjXrXwXwXiX@X~.E.T.R.R.P.n.].c.].).].R.].C.].].].c.].C.].S.S.n.S.S.P.).n.{.<X>X}.>X>X>X=X>X>X>X>X>X>X>X>X2X/.yXuXMXGXVXCXVXCXCXAXlXsX;X/.-X2X2X2X3X2X2X{.R.D.{.{.{.{..X].v.a.W 1.1.,.:.:.1.,.1.,.1.' ' ,.[ 3.1.:.U r t j t a b b n b b y q 9 9 0 0 y 9 y e e e 9 e e e 0 q e 8 e e 0 0 0 0 0 e 0 0 0 0 0 0 0 0 0 0 0 0 u e 0 0 e 0 e u 0 0 0 0 e 0 0 0 e 0 0 e 0 0 0 0 6 5 8 k >.].].n.c.R.].].P.].].{.].].].].]..X].C.g.8.<.d.d.l.a.d.2.1.n 5 7 q e e q q y e e e e q e q e e 8 B ] ] q.[ [ q.[ ] q.0.1.0.1.1.3.1.1.3.1.1.1.1.1.1.1.[ 3.1.) V n n M n n n n n n e 0 8 q e 7 6 6 8 a k k C z z z z z K $.].>X>X>X>X>X>X:X1X>X>X1X>X>X4X2X2X2X@XeXeXiXrXwXtXrXtXdX6X4XR.c.S.].c.]._.S.R.].S.).].C.].].C.].).].n.C.].P.].C.R.n.b.{.<X>X:X}.>X>X>X>X>X>X>X>X,X>X,X>X2X;XpXAXVXVXCXSXCXCXVXlXpX3X@X2X3X+X2X3X",
":X<X<X<X<X<X>X].j.2.3.,.>.:.:.,.>.,.1.,.,.1.>.,.1.1.:.U d e 5 5 6 7 7 0 0 a e e e 8 8 8 e 6 e 7 0 0 7 7 e e 0 0 0 0 0 0 0 0 e 0 0 e e u 0 0 0 e 0 0 a 6 0 0 0 0 e 0 0 u 0 0 e 0 0 0 6 0 0 0 0 0 0 $ y $ 0 0 b $ a a 2.$X$X4X$X4X$X4X$XXX<X<X<X<X1X1X,X<X<XD.t.#.+.+.,.,.>.:.1.) M 8 e q e q q y e e e e y 0 e 0 e q 8 V ] [ q.[ [ ] [ ] [ [ 0.] 1.3.1.1.2.1.1.3.3.] 3.] ' 1.q.1.-.M 8 6 6 ; 5 @ 5 ; 6 6 > 6 ; 6 8 8 7 6 5 5 ; - - * - - - d L c.{.}.<X4X4X>X>X<X>X1X>X>X}.}.>X}.+X$XhXMXGXHXHXHXMXMXmXbXiX3X+X+X}.}.}.}.}.}.XX}.}.}.}.XXXXXX}.}.}.}.}.XXXX}.XXXXXX}.<X4X>X2X>XQ.>X>X:X-X=X}.=X>X>X=X>X-X;XsXMXzXVXVXVXCXCXFXzXaX/.Q./.}.>X=X>X2X>X}.>X>X<X>X1X>X<X{.v.a.W :.' :.,.,.,.,.,.' ,.' 3.' ' 1.' _ H 8 5 7 7 5 7 9 9 9 9 q e 9 9 9 9 0 e e 0 e e e 9 e q 0 e 0 0 0 q 0 q 0 e 0 0 u 0 0 0 0 e 0 0 0 0 e 0 e 0 0 0 0 0 u e 0 0 0 0 0 0 0 0 0 0 0 0 0 0 0 0 6 $ u m 4.XX4X4X4X<X$X}..X}.}.}.<X}.}.}.}.XXXX].g.>.:.:.>.>.>.2.1.R j 5 0 e e e e e e e e e e e e e e e q V ) ] [ 0.[ [ 0.3.1.[ 1.[ 1.1.1.0.3.1.1.3.1.1.1.' ' 1.3.] ( m e e q q q q 0 7 9 7 7 0 e 6 e e 7 5 ; - - - - ; ; - * d L S.<X>X>X>X>X>X>X>X>X,X>X>X>X1X>X2X+X@XhXMXGXSXAXAXAXGXMXmX6X4X4X$X4X}.$X4X$XXX}.$X4X}.4XXX$X4X$X<XXX4X<X<X<X4XXX<XXX<X<X1X1X>X1X>X>X>X>X,X>X>X:X>X>X>X>X2XiXjXMXnXVXCXCXCXSXAXkXiX/.E./.Q.+X+X+X",
":X>X<X>X>X<X.X].j.,.>.:.3.,.1.1.1.3.,.:.,.3.>.:.1.1.1.Y d > 7 5 6 6 0 7 7 e e e 6 8 8 5 8 7 e q 8 0 q e q 8 0 0 e u 0 0 0 0 0 0 0 0 0 0 0 0 0 0 0 e 0 0 0 0 u 0 0 0 0 0 0 0 0 0 0 e 0 0 0 0 0 0 y 0 0 y 0 0 9 0 a k 2.XX$X4X4X4X4X4X4X4X<X<X<X<X<X,X1X<X<Xb.t.#.+.:.+.,.,.:.` ( m e e e y q e e e y y e 0 a 0 e 0 0 q V ) _ [ ] ] [ ] [ ] [ 0.] 1.1.3.,.,.3.1.3.3.3.[ ' ' ] 1.1.) M 5 6 ; 5 $ 5 6 6 ; 8 ; 6 6 8 6 5 5 8 6 6 ; - - > ; - - d I c.>X}.2X<X2X<X>X2X>X4X>X1X:X>X:X}.$X@XhXmXGXHXHXAXnXGXmXhXaX+X+X}.}.2X>X$X$X<X4X}.XX}.}.$X}.$X<X$XXX4X}.$X4X}.>X<X<X<X4X>X>X}.>X>X>X2X>X2X>X2X2X=X>X-X/.-X7XuXMXzXVXVXVXCXCXGXvXsX-X/./.=X2XQ.Q.2X>X:X<X<X>X<X>X<XXX{.c.a.W :.1.,.1.,.,.1.,.1.1.' ,.] ' ,.:.) K 8 7 8 8 7 0 0 q q 0 y e 9 y 0 9 0 y 9 e 9 e 0 q q q e 0 e q q q 0 0 0 0 0 e 0 0 0 0 0 e 0 0 e 0 0 0 0 0 0 0 0 0 0 0 0 e 0 0 0 0 u 0 0 0 0 0 0 e 6 0 6 ; e z 8.XX$X4X4X4X4X}.}.}.<X4X}.}.<X}.<X<X<X].g.>.+.2.1.,.,.:.:.Y j 5 e e e y e e e q e y e e q y e e e V ] [ [ [ [ [ 0.[ [ 3.3.q.[ 1.q.3.1.1.3.1.1.1.1.3.] ] 0.0.~ n q 7 q q q 0 0 5 9 9 6 7 e 6 e e 7 5 ; ; ; - - ; ; - * j E Z.>X>X>X>X>X>X>X:X>X>X>X>X>X>X>X=X+X3XhXnXGXAXAXAXAXSXMXbX6X}.$X}.<XXX<X}.}.}.XXXX}.XX$X<X4X}.4XXX4X<X<X<X<X4X<X<X<X>X<X<X<X>X>X>X>X>X>X>X,X,X>X,X:X>X>X/.iXjXnXAXAXCXCXCXCXAXlXiX(./.Q.}.Q.}./.",
"{.>X>X>X>X>X,X].l.:.1.1.1.1.3.3.>.>.:.:.3.2.3.:.:.:.1.T 8 8 8 e 6 6 6 6 7 0 8 e 8 8 e e 8 6 e 0 q q 0 e q 0 0 0 0 0 0 0 e 0 0 0 0 0 0 e e 0 0 0 0 0 0 0 0 6 0 0 0 0 0 e e 0 0 0 0 0 0 0 0 6 0 0 9 0 0 0 y 0 0 0 e k >. X}.$X}.$XXX$XXXXX,X<X,X<X<X,X,X<X<Xn.y.#.W +.:.+.+.,.' ) M q e q e e q q e q e 0 0 e 0 e 7 q 7 V _ ] [ ] [ ] [ ] [ ] [ 0.3.1.1.1.1.1.1.[ [ 3.1.3.` 1.1.1.) l 5 5 $ 5 6 u 6 u e 8 6 6 5 6 6 8 e 7 8 u e 5 8 8 8 ; - k R ].<X<X>X<X<X>X>X>X>X>X4X>X:X}.*X}.+X%XgXvXGXAXAXAXnXnXMXvXiX/././.2X>X<X}.4X<X<X<X4X4X<X<X4X}.<X<X4X}.<X4XXX}.4X<X}.4X}.4X<X2X}.>X}.>X=X}.=X>X>X>X>X>X>X/.;XsXMXMXGXVXCXCXCXGXlXaX/./.>X>X2X>X>X>X2X1X>X1X4X>X>X<X>X{.c.a.W :.:.:.,.,.,.1.' ' ,.3.' 1.' 1.1.( K 8 8 i e e e e a y e e 9 y e 9 e y e e e 0 q q e e 0 e q q e 0 e 0 q 0 0 0 0 0 0 0 0 e u 6 0 0 0 0 0 0 0 e 0 0 6 0 e 0 0 0 0 e 0 e 0 0 e 0 0 0 e u 6 6 5 a z >. X{.}.}.<X2X4X}.4X$X4X<X>X<X<XXX4XXX].g.,.R :.:.` @.:.( Y t 5 e e e q e e e e e e q e e e e e e V ] [ 0.q.[ [ [ [ q.[ 3.3.1.1.1.1.3.1.3.1.,.1.1.1.1.] 1.0.^ n 0 0 0 0 7 9 7 6 5 9 9 0 e e 0 0 6 5 8 e 6 i 6 8 5 - - z +.D.>X>X>X>X>X>X1X:X>X>X>X>X>X>X>XQ.-X@XvXnXnXAXkXNXZXAXMXhX6X}.{.{.[.{.[.}.XX}.}.}.XX}.}.XX}.XX}.<X$XXX$X}.XX}.}.}.<X>X>X<X>X>X,X>X>X>X>X>X>X1X:X,X>X>X>X2X;XpXnXAXVXCXVXSXCXAXlXiX@X/.Q./.+X>X+X",
":X>X>X>X:X>X}.].j.` :.:.:.1.1.:.2.:.1.:.:.:.3.,.2.,.1.T r 8 e 7 6 6 6 6 6 e e e 8 q e 0 8 q e 6 q e 0 0 q 0 e 0 0 e 0 0 0 0 0 u 0 0 0 0 e u 0 0 0 0 0 0 0 0 0 0 0 0 0 0 0 0 0 0 0 0 0 0 0 0 0 6 0 0 0 0 0 0 0 0 e k >.XX}.4X$X}.<X}.}.<X4X}.XX>X,X,X>X,X,XS.s.$.#.` :.:.,.>.1.^ m 7 q e q e e e e e e 0 e y 0 0 7 0 7 N ` _ [ [ [ ] [ [ [ ] ' 1.1.3.,.3.3.,.1.1.3.3.[ ,.] 1.1.;.-.M 8 5 $ 6 6 0 e u e e 6 6 6 6 6 6 6 6 6 6 6 6 e e e 5 - k R ).<X>X2X<X}.>X>X>X2X1X>X1X>X:X:X}./.2XhXvXAXSXAXAXzXzXnXhXiX/.Q.Q.=X2X>X2X2X>X>X2X<X>X>X2X<X4X>X2X2X>X<X>X2X>X<X>X}.$X>X2X2X>X>X2X}.>X>X-X>X>X>X2X=X>X2X/.yXpXMXnXAXVXVXCXSXGXnXsX3X=X2X>X>X>X2X>X>X>X>X>X>X>X>X>X<X{.c.a.+.` 1.:.1.,.,.,.,.,.' ,.' 3.' 3.1.` K 8 8 8 i e e e a e e e y e 9 0 0 y e 0 e 9 q 0 q e q e q e q e 0 0 0 0 0 0 e 0 0 e 0 0 0 0 e 0 0 0 0 e 0 0 0 0 e 6 0 0 0 0 0 0 0 0 0 0 e 0 0 0 0 0 6 6 5 u z >.}.}.}.4X>X4X>X2X<X4X4X<X>X<X}.<XXX<X|.l.<.,.1.1.:.:.>.( T t 7 q e e e e e e e e 0 0 e 0 0 0 e e V ] [ [ [ [ 3.[ [ 3.3.q.[ 1.1.1.1.q.3.3.[ 3.3.3.3.3.3.1.] ( M e e e e y e e e 0 7 0 0 q e 0 0 6 6 6 6 6 6 6 6 6 ; ; m >.].<X}.>X>X>X>X>X>X>X>X>X>X>X:X}.E./.3XxXnXMXNXNXVXVXVXMXvX6X}.}.}.}.}.}.}.}.}.XXXX>XXX}.}.}.}.}.<X}.$X>X>X}.}.$X<X>X>X>X<X1X>X,X>X>X>X>X>X>X>X>X1X,X>X>X+XyXpXGXAXVXSXSXSXSXAXlXiX@X+X+X}.2X>X2X",
">X1X1X>X>X>X{.].l.+.:.:.-.2.:.:.,.,.:.,.:.2.,.2.3.3.1.T 8 8 e 8 6 0 6 0 0 e e e 7 e e q 0 q e q 0 e q e q 0 9 0 0 0 0 0 0 y 0 0 0 0 0 0 y 0 0 0 0 0 y 0 0 0 0 0 0 0 0 0 0 0 y 0 0 0 u 0 0 0 0 9 9 0 0 0 0 7 0 7 u d >.XX}.$X2X}.}.$X}.$X}.<X<XXXXX<X.X,X,X].a.<.+.:.,.+.,.2.1.( n 0 q e e e q e e e e e e 0 0 0 0 7 6 V ] [ [ ] ] [ ] [ ] 3.] 3.[ 3.] [ ] 3.3.3.[ 1.[ 1.1.' 1.1.) z 8 ; 6 6 6 0 u e e 8 6 6 6 ; 6 6 6 6 u 6 6 6 6 e 8 ; 5 k R ].<X<X}.}.>X}.}.4X<X<X2X>X>X=X=X}.+X@XhXMXMXAXAXAXAXAXMXvXiX/.Q.Q.=X>X>X>X>X4X>X>X>X>X>X>X>X>X>X<X>X>X$X>X4X>X2X>X4X>X2X>X>X2X>X}.2X>X>X>X>X=XQ.>X2X>X=X/.iXpXMXAXAXAXVXAXAXGXvXhX3X/./.>XQ.>X>X>X2X}.Q.}.}.>X}.>X}.{.c.a.W 1.:.,.,.1.:.:.,.` 1.,.1.' ' 1.1.( V 7 8 8 8 e e e e 0 9 y 9 e 0 9 e y e e y e e 0 0 0 0 0 0 0 0 0 0 0 0 e 0 0 0 0 0 0 0 0 0 a 0 0 0 0 0 0 0 e 0 0 0 0 0 0 e 0 e 6 0 6 e u 6 6 6 0 6 e 6 6 - 8 z >. X>X}.4X2X2X}.}.}.<X<X<X<X<X<X<X<X<X|.l.2.,.1.,.,.,.3.) U j 7 q e e e e y e y e 0 y 0 0 0 7 0 q m ) [ q.3.[ q.3.3.3.3.1.0.1.q.[ 3.1.3.1.1.3.,.1.3.3.3.1.) ( N e e e e e e y y e 9 0 0 e 0 7 7 6 $ 6 6 5 6 ; 6 6 5 ; C ,.].<X>X<X>X>X>X>X>X<X,X>X>X>X>X}.Q./.qXsXMXGXVXVXVXVXVXMXhX6X2X$X}.2X4X<X$X<X>X}.>X<X4X}.4X}.$X<X}.4X<X<X<X4X<X<X>X>X<X<X1X>X>X>X1X:X>X>X>X>X>X,X>X>X>X>X@XiXpXnXMXAXAXAXSXCXAXxXaX2X+X2X>X2X2X2X",
">X>X1X>X>X4X:X{.l.+.W +.:.( W +.+.:.,.,.:.>.3.3.>.1.1.U d 8 q q 7 9 0 7 e e q q 0 e e e q 8 e 0 0 e 0 e e 0 0 0 0 0 0 0 0 0 y 0 0 0 0 0 0 0 0 0 0 0 0 0 0 0 0 y y 0 0 0 0 0 0 0 0 0 0 0 0 0 6 6 $ 6 $ @ 5 7 6 5 8 d +.XX}.>X$X>X}.$X}.<X>X}.XX}.}.>X,X>X>XD.s.a.:.:.,.>.,.3.2.( n 7 q e e q q 0 e e e 0 0 0 0 7 6 8 8 N ] [ 0.] [ ] [ [ [ [ 1.] 3.3.1.3.3.3.3.3.1.3.[ 3.' 1.1.] ) M e 6 6 6 0 u 8 u u e 6 6 6 6 u 6 6 6 6 e 6 e 0 0 6 $ 5 n -.|.4X4X$XXX>X}.>X>X>X4X1X>X>X>X:X>X/.3XgXmXnXAXAXAXAXGXMXvXiX/.Q.W.Q.>X>X>X>X>X:X>X>X>X>X>X>X>X>X2X>X2X>X>X}.>X2X>X>X>X1X>X>X>X>X>X>X>X>X2X>X2X>X>X>X>X>X;XiXxXnXnXAXVXAXSXAXGXvXhX2X/.>X}.}.=X>X=X>X}.Q.>X>X>XQ.>X}.{.v.a.' [ ,.>.>.' ` ` ` :.,.' 1.,.,.[ ' ( H 8 > 8 i 8 e e e e e u 0 0 e 0 0 0 e 0 0 0 0 0 0 0 0 0 0 q 0 0 0 0 0 0 0 0 0 e 0 0 0 0 0 0 0 0 e 0 u 0 0 0 0 e u e e 0 0 e u 6 0 e 6 0 0 5 7 6 6 6 7 7 - ; h >.XX}.}.$X>X>X<X}.>X}.<X<X4X<X4X<X<X<X|.l.>.,.:.>.:.1.,.` T a 6 0 e y e y 9 e 0 0 9 0 y 0 0 9 0 q V :.1.3.q.q.q.p.3.q.q.q.3.1.[ q.1.[ 3.[ 3.1.[ 3.[ 3.q.] ) ) m e e e e e e e q 0 0 7 0 q e 6 0 7 6 5 6 6 6 6 6 6 5 5 M -.|.$X<X<X>X>X<X<X<X<X1X>X>X>X1X>XQ./.(.lXMXAXFXVXVXCXVXMXhX6XQ.Q.Q.}.}.}.}.2X}.}.<X2X<X>X>X2X>X>X<X4X>X>X>X>X>X>X>X>X>X>X1X>X>X:X>X:X,X>X,X>X>X>X>X>X}.+X+XiXsXMXGXGXAXAXAXSXGXvXgX3X-X-X2X>X2X2X",
">X:X>X1X1X1X{.D.j.,.:.:.:.>.:.:.,.:.1.,.2.>.2.,.1.2.1.U 8 e e e 0 0 0 0 0 e q 0 0 9 e 9 0 0 e q q e q 0 e 0 0 0 0 0 0 y 0 0 0 0 0 y 0 y 0 0 0 y y 0 0 0 0 y 0 0 0 0 0 0 y 0 0 0 0 y 0 0 0 9 0 7 0 0 6 6 e u i i u d @..X}.2X>X$X}.}.$X}.}.}.}.}.}.{.{.>XXXn.a.$.+.W :.+.<.>.` T k 7 q e q 0 e e 9 e 9 0 0 0 0 0 q q 8 J ] ] [ [ ] ] ] ] 1.] [ ] [ [ 3.[ 3.[ ' 3.[ 3.[ 1.1.] 1.] -.M 8 u $ 6 6 6 e e u e 6 6 6 6 6 6 u 6 0 0 u 6 0 0 6 6 5 b X.|.XX}.}.{.{.[.{.}.>X>X4X>X>X>X:X=X/.+XsXvXAXAXAXZXSXGXGXvXhX3X/.Q.>X1X>X2X>X>X:X>X>X:X>X>X4X>X>X>X>X}.>X:X}.>X}.=XQ.>X}.>X>X=X>X>X=X>X>X=X>X>X>X=X=X>XQ.2X@XpXnXAXnXZXAXAXAXMXvXgX3X}./.:X}.}.>X}.}.>X}.}.>X}.:X>X<X}.S.l.#.>.3.3.<.,.,.:.1.,.1.,.' 3.' 1.' ` K r 8 8 8 8 e 6 e 0 e 0 e y y 0 e e 0 e 0 0 0 0 q 0 0 0 0 0 q 0 0 q e u 6 0 0 0 0 0 0 0 6 0 0 0 0 0 e 0 0 0 0 0 0 0 0 0 0 u 0 e 6 0 e 0 6 6 u a a a i u 8 i z >.XX}.4X>X>X}.}.}.}.}.XX<X<X4XXX<X<X<XD.g.,.+.:.:.:.:.1.( ~ t 5 0 e 9 y 9 y e 0 y b e y e 0 0 0 e N ( ` 1.[ [ q.[ ] 1.[ 1.3.[ [ 1.1.1.1.[ [ 3.] 3.3.3.[ ] ) ( m 8 e 8 e e e e q 9 0 0 0 q 0 6 0 6 6 6 6 6 5 6 6 9 6 5 k R ).{.}.{.}.XX{.}.}.>X>X<X<X>X2X}.+X+X@XlXnXAXAXAXVXVXSXzXlXgX/./.>X2X>X$X>X2X>X>X>X<X2X>X>X>X}.>X}.}.}.>X>X:X>X}.>X}.>X>X>X:X>X:X:X,X:X>X>X*X:X=X:X=X}.+X@XqXfXnXMXGXAXAXAXAXGXvXaX+XQ.>X2X=X=X1X",
"=XW.:X>X:X>X{.T.j.a.<.<.>.4.<.a.<.<.>.>.>.>.>.:.1.2.1.U u 8 e e 0 9 7 0 0 9 q 0 0 e 9 e q q e e q e 0 7 q 0 0 0 0 y 0 0 0 y 0 e 0 0 y 0 0 0 0 0 0 0 0 0 u e 0 e 0 0 0 0 u 0 0 0 0 0 0 y 0 0 6 7 i a g j f z z f h h <.}.>X2X2X}.+X}.}.}.}.[.{..X{..X.X.XXXS.,.,._ ` W :.:.' ( U a 7 0 0 9 0 0 q 0 0 0 0 0 0 e 0 0 e e V ) ] [ 1.) ] ] ) ] _ 3.[ 1.[ 1.3.1.[ 3.1.3.[ [ 1.] 1.1.] ) m 8 6 6 6 6 u a a 0 u 7 0 6 0 0 0 0 0 u 0 0 0 0 0 9 6 0 a Y Z. X X X|.].].].{.1X>X4X>X>X:X:X>X/.+XgXMXnXAXAXZXVXAXGXMXlXiX3X-X3X2X2X2X6X3X>X>X=X>X>X>X>X1X>X>X>X>X.X,X{.,X.X>X}.}.>X.X>X{.XX{.>X.X,X>X:X}.XX}.>XXX{.+X%XeXvXvXnXcXvXnXcXfXhX5X2X/.Q.}.Q.Q.:X}.Q.>X}.}.}.>X}.>X4X:XD.j.,.>.p.d.d.,.,.,.,.,.,.' ,.3.' 1.' ) J 8 > 8 6 i e e e u e 0 a 0 e 0 u 0 e e 0 0 0 0 0 0 0 0 0 0 0 0 0 e 0 0 0 e 0 0 0 e 0 0 0 0 e 0 e 0 0 0 0 0 0 0 0 e 0 0 e 0 0 6 u 6 6 u e i d z z k k k z z h &.}.4X2X>X>X}.}.}.XX}..XXXXX XXXXXXXXXZ.4.1.` ` ( ] ` ` ( ~ b 6 0 0 y e e 9 y 0 y 0 0 0 y 0 0 0 0 B ( ( _ ( ` ) ) ) ` 1.1.0.1.] ] ] ] 3.] [ ' [ 3.3.3.3.[ ) ) m q q e 0 7 0 0 0 0 0 7 0 q 0 e 0 6 6 6 5 6 $ 0 0 0 6 $ k Y B..X|.].|.].].|.{.{.<X<X4X4X>X>X+X/.7XlXnXGXAXAXSXNXAXAXxXpX(.(.3X3X3X+X3X2X+XQ.>X2X>X>X}.}.>X}.}.}.XX}..X,X,X,X,X,X,X,X,X,X,X,X,X,X,X,X,X,X>X}.,X}.}.}.+X%XdXfXvXvXvXcXcXvXvXhX5X/.E.-X>X=X>X-X",
":X=X=X>X>X>X:X=Xn.v.j.c.j.c.c.V.C.d.d.,.3.2.1.:.2.1.1.T 8 8 e e 0 8 9 0 0 q 9 0 y 9 0 e e 0 q 0 0 e q e e e 0 0 0 0 0 e 0 0 0 0 0 0 0 0 0 e 0 0 0 0 y u 0 0 0 0 0 y 0 0 0 0 0 y 0 0 0 0 0 0 6 u Y +.>.2.>.<.<.>.<.8.P.>X>X<X2X2X+X>X>X}.].v.x.x.x.x.c.j.V.,.P K D M M N M N m M q 0 7 0 q q e q 0 7 0 0 0 0 0 e e e e j N V V J V B J J J / ] ] 3.3.3.' 3.[ 3.3.1.,.[ 3.1.' ] 1.) M 8 6 ; 6 u 6 u 6 e e 0 6 6 u 0 u 0 0 0 0 e u u 0 0 9 6 a n ( 2.:.+.X.+.X.I $.v.[.4X>X=X>X:X>X2X+XhXvXAXAXVXAXVXAXGXGXnXlXsXsXaXsXsXsXaX6X2X:X>X>X>X>X>X>X:X:Xv.j.j.c.j.c.j.j.x.j.j.j.j.x.j.j.j.x.j.j.j.j.x.j.j.j.j.c.k.P.[.Y.`.`.`.Y.Y.[.E.+X}.+X}.=X>X>X>X:X}.>X>X>X>X}.>X>X1X:X{.n.j.v.V.S.D.A.S.V.d.4.,.,.1.' ,.3.` ` K 8 6 8 8 8 8 u e e 0 e 0 0 a e e 0 a 0 0 0 0 0 0 e 0 e 0 0 0 0 0 0 0 0 0 0 0 0 0 0 0 0 0 0 0 0 u 0 0 0 e 0 0 0 0 0 0 0 0 6 0 e 6 0 6 8 j Y >.8.<.>.<.>.<.<.<.n.<X<X>X+X}.}.}.}.{.].c.l.V.V.V.V.B.B.4.R K V V V J J N V V e 9 9 9 e 9 y 0 e 0 y 0 y 0 0 0 0 0 0 b m m m V N N N V Y ) 1.[ 1.1.1.1.] ] ] 3.[ 3.[ [ [ q.] ] ^ N e e e e e q q q e 0 0 0 e q e 0 6 6 6 6 6 0 6 0 u 6 9 e m R +.+.W +.+.o.E >.c.{.<X4X2X}.+X+X(.(.jXnXnXAXHXVXSXAXAXzXlXpXpXpXpXfXpXpXhX5X2X>X>X>X}.>X>X}.>X{.v.x.x.v.j.x.x.j.x.j.x.x.f.f.x.j.x.j.f.j.f.x.j.j.v.x.j.x.k._.I.`.Y.`.I.Y.Y.oX~.+X}.>X>X>X>X2X=X",
":X:X>X>X1X1X=X>X:XW.{.:X{.{.].,X.XS.j.<.>.3.1.1.>.2.1.T t 8 8 e 9 0 q 0 9 0 9 0 9 9 0 q e q e 0 0 q 6 e 0 e 0 0 0 u 0 0 0 0 0 0 0 0 0 0 0 0 0 0 0 0 0 0 0 0 0 0 0 0 0 0 0 0 0 0 0 0 0 0 0 0 6 d >.Z.XX$X}.<X4X}.XX}.}.>X}.$X2X}.}.$X}.[.n.<.#.#.' ,.' ,.3.I l r 7 7 7 8 8 e t 8 7 9 6 0 0 0 q 0 0 0 0 0 0 0 0 e e e e q q q 8 8 7 5 7 q t V ` 3.] 3.3.3.3.,.1.1.3.[ 3.3.' 1.1.` :.M 8 6 6 6 6 e 0 u 0 u u u e 6 6 u 0 u 0 u 0 0 0 0 0 6 $ 0 u 0 6 a 6 e 5 > = z <.n.4X1X>X=X:X=X/./.hXvXAXAXAXAXSXAXAXAXAXMXGXGXMXMXnXvXvXaX3X3X>X>X>X>X:X:X>XD.y.#.#.,.,.Q Q +.' Q #.W ' W #.Q ` Q Q o.#.Q ' W W Q #.o.,.@.@.@.@.%.%.@.@.O.g.P.Q.$X>X>X2X=XQ.>XQ.>X}.:X}.>X>X>X>X>X>X>X,X,X,X{.,X<X,X,XS.d.<.,.,.,.[ [ 1.( K 8 8 i 8 8 e u e e y 0 0 0 0 0 a 0 0 y 0 0 0 e 0 0 0 0 0 0 0 0 0 u 0 e 0 e e 0 0 0 0 0 e 0 0 e 0 0 0 0 0 0 0 0 0 0 0 0 0 6 6 e 6 6 6 6 k 8.|. XXX.X}.XXXX$X4X>X2X2X4X>X}.}.}.{.R.c.$.>.,.,.:.>.2.2.( n t q e y q e e e 0 9 9 0 0 y e y y 9 y 0 y 0 0 0 y 0 0 0 0 0 a e a 0 6 a a N ~ ] 1.3.0.1.1.] [ [ 3.[ [ 3.3.q.[ [ ] ( M e e e e e e e e q q 0 0 q e e 0 6 0 6 6 0 6 6 0 e 0 0 e a 8 8 i 8 8 i 8 = z <.].4X>X}.}.2X+X/.@XxXMXnXAXSXAXSXSXAXAXzXcXzXAXnXAXnXzXnXgX3X2X>X>X>X>X}.>X>X].s.' ' Q ,.' ' ' #.' ' ' ' ' Q Q { ' ' ' ' ' { Q Q ,.#.+.@.@.@.@.@.@.@.@.%.@.h.E.Q.2X>X1X=X2X>X",
"Q.:X>X=X=X>X1X=X:XQ.>X>X=X{.,X>X>XS.l.,.,.,.>.:.3.1.1.Y 8 8 e q 9 q 7 0 q 0 0 9 0 0 0 q 0 0 e q e e q q 8 6 e 6 0 0 0 0 0 0 0 0 0 0 0 0 0 0 0 0 0 0 0 0 0 e 0 0 0 u 0 0 0 0 0 0 0 0 0 0 0 0 5 d @.R.}.<X4X$X>X}.2X}.<X>X2X>X}.>X}.}.}.].c.<.` ` ` ` ' 3.3.T g 8 7 q q 8 8 8 e q 0 9 9 7 q e e e 0 0 0 0 a 0 0 6 0 7 6 7 0 e e e 9 7 7 7 j N ) 1.3.1.1.1.1.1.3.3.3.3.3.] 1.] 1.1.) M u ; 6 6 6 e e a 0 6 6 6 6 0 0 0 0 0 0 0 0 0 0 0 0 0 0 9 9 0 7 0 0 0 0 6 O d >.n.<X>X>X1X>X=X2X/.hXvXnXAXAXAXAXSXSXAXSXAXAXSXGXVXVXVXMXsX6X2X-X>X>X:X:X:X,Xn.p.' ' ' ,.' ' ' ' ` ` ' ' ' ' ` ` ' ` ' ` ` ' ' ' ' ' ` ` 1.,.,.,.2.<.>.1.+.g.n.}.4X4X2X>X>X>X>X>X>X>X>X>XQ.:X=X>X>X1X1X>X>X>X:X<X<X,X.Xc.a.,.1.,.] ,.1.1.( H 8 > 6 8 e 6 6 a 6 u 0 0 0 b 0 e 0 0 0 0 0 0 u 0 0 e 0 0 e 0 0 0 e 0 0 0 u 0 0 0 0 u 0 0 0 0 0 0 0 e 0 0 e u e 0 0 e 0 0 u e e 6 a e 6 k g.].}.$XXX}.$X>X}.>X2X>X2X2X>X>X>X}.>XR.c.>.+.-.:.1.1.1.1.( n e q e 9 e e 9 0 0 9 0 9 9 0 9 9 e 0 0 0 0 0 y y 0 0 y 0 0 0 0 0 u 0 6 6 6 n U ) q.3.1.1.] ] [ 3.[ 3.[ [ [ p.3.[ ) ( M e q q e e q 0 0 q 0 9 0 q 0 e 6 e e 6 6 6 0 9 0 0 0 0 0 0 0 8 8 8 8 8 8 - z 4.|.4X4X}.$X}.+XOX@XvXnXAXGXAXGXAXSXAXAXZXVXVXVXAXNXVXSXnXfX3X2X}.}.>X>X>X>X}.].p.' ' ' ' ' ' ' ' ' ' ' ' ' ' ' ' ' ' ' ' ' _ Q ' ' ' ' 1.:.:.:.2.:.2.-.X.+.6.n.Q.>X>X>X=X=X>X",
"*X:X:X=X>X:X>X>X>X>X>X1X>X:X:X>X>Xv.g.,.:.:.X.:.2.1.1.T 8 e q e 9 e e 9 0 9 0 9 9 e e e e q e 0 8 7 6 7 6 e 6 6 u 6 6 6 e 6 e u 0 0 6 u e 0 6 0 e 0 0 0 6 0 e 0 0 e 6 0 e 6 e 6 6 6 0 6 0 0 6 f ,.n.}.4X>X}.$X}.>X>X>X>X2X>X}.$X}.}.}.].j.>.` ` ` :.` :.1.R j e w 8 8 q q e q e 9 7 7 0 0 8 q 0 0 0 0 0 0 0 6 9 6 6 7 6 5 6 a e 0 5 5 6 j N ` 1.3.1.1.1.3.1.3.3.,.] [ 3.] 1.1.] ) M e ; 6 6 6 u e e u 6 e 6 6 6 0 6 6 u 0 6 0 0 0 0 0 0 0 9 $ 9 $ 0 0 0 0 5 X i >.v.<X>X=X>X:X:X/./.hXvXnXAXAXSXVXSXAXHXVXSXSXVXSXVXVXAXAXsX5X2X}.}.>X:X}.:X{.n.s.' :.' ' ' ,.' ' ' ,.Q ' ' ' ' ' ,.Q ' ' ' Q ,.Q ' ' ' ` W ` +.2.4.<.2.1.+.a.R.}.5X4X>X2X>X>X>X>X>X=X>X}.>X}.>X>X>X1X4X1X>X>X>X,X<X,X,Xc.a.,.,.1.' 1.1.' ` K 8 ; 8 8 8 6 6 u e 0 0 e e 0 a 0 e 0 e 0 0 u 0 0 0 u e 0 0 0 0 0 0 0 0 6 0 0 0 0 0 u e 0 0 0 0 0 u 0 0 0 0 0 0 0 0 0 0 0 0 e e e 6 6 6 g 8.].$X<X}.<X}.>X}.}.2X=X>X2X>X>X2X>X>X].j.+.W :.( -.:.;.;./ n e 9 9 9 e e 9 0 0 9 $ 9 0 9 9 0 0 0 0 y y 0 0 0 0 0 0 0 u y 0 $ u y $ 0 6 n A ) 1.3.1.1.1.1.3.[ 1.[ [ 3.3.3.0.] ) ( V 8 8 8 7 6 e 7 0 0 7 0 0 0 0 e e 0 0 0 6 0 9 9 0 0 e 0 0 9 5 5 7 6 7 7 5 - k 8.|.4X<X}.>X+X+X%XqXxXnXMXAXAXAXAXSXAXBXAXVXBXVXBXNXBXSXAXsX5X}.}.>X>X>X>X>X>XS.p.` ' ' _ ' ' ' _ [ _ ' ' ' ` _ ' ' ` ' ' ' ' ' ' W ' :.` :.>.-.:.:.-.:.X.o.<.P.W.}.>X=X:X>X=X",
":XQ.}.}.Q.:X=XW.*XQ.>X2X>X=X{.}.,Xc.a.$.:.:.:.:.2.2.1.T i e e e 9 9 9 9 9 0 9 9 9 y 9 e 0 q q 8 e 6 e e e 6 e 6 e 6 e e 0 0 0 6 0 0 6 6 6 e 6 e u 6 e 6 6 e 6 6 0 0 e u 6 0 e u e e 6 e 6 e 5 d @.R.}.}.2X>X>X}.}.+X+X}.>X}.2X}.}.$X}.R.c.,.W :.` ` ] :.1.T l t q q t q e q e q 7 9 9 0 q 0 e e 0 0 0 0 0 0 0 6 6 6 9 6 6 e e 6 7 7 5 6 j V ) 1.1.1.3.1.3.1.1.1.3.3.' 1.1.' 1.] -.M 8 6 6 6 6 e u u e e 6 e u e 0 u e 6 0 0 u 6 0 0 e 0 0 9 0 $ y 0 0 9 0 5 X d @.C.2X2X>X>X:XQ./.+XgXvXAXAXSXAXSXAXSXVXSXAXAXSXAXAXSXSXGXlX3X2XQ.>X}.}.:X,X:XS.a.` ,.:.,.` ` #.Q ,.' ' ,.' ,.,.,.' ,.' ,.' ,.' ,.' ,.W ` ' ` @.X.>.>.:.:.+.g.n.}.2X2X>X>X>X2X>X>X2X>X>X1X>X>X4X1X>X1X>X>X>X>X,X>X>X>X,Xc.a.,.,.:.,.1.' :.` J 8 > 8 u 8 8 8 6 e 0 0 0 0 0 0 0 0 0 0 e 0 0 0 0 0 0 0 0 0 0 0 0 0 0 0 0 0 0 u e 0 0 0 0 0 0 0 0 0 0 0 0 0 0 u e 0 0 0 0 0 e e e e 6 5 d <.].XX4X<X4X2X>X2X}.}.}.2X>X>X=X2X4X<XW.l.@.:.:.2.:.2.1.1.~ M y q y y e q e e y 9 0 0 0 0 e e y 9 e 0 0 e 0 b y 9 y 0 0 0 0 0 b $ $ 0 u n A ) 1.] ] 1.1.[ 3.[ [ 3.3.[ [ 3.[ [ ] ^ M 8 8 8 e e q 8 0 0 0 0 0 0 0 q 0 0 0 6 6 6 0 6 9 0 e e 6 9 7 6 0 6 0 0 5 + k 4.|.<X}.}.$X}.+X@XqXfXnXAXnXAXAXAXAXZXSXAXZXSXSXCXCXSXDXAXsX3X2X}.>X2X>X>X>X>X].p.' ' ' ' ' ' [ _ ' ' ] ' ' ' ' ' ' _ _ ' _ ` Q ' ' :.` :.:.:.:.>.+.:.>.@.@.g.n.W.}.>X=X>X=X>X",
"=X:X}.Q.{.=X}.Q.Q.}.>X>X:X,X{.>X}.c.a.:.X.:.>.,.,.2.2.Y e 8 e y y e e e y e e e e e e e 8 e 6 e 8 8 e q e 6 e e e e e e e 6 0 e e e e e 6 e e e e 6 6 0 a 6 e e e e 6 6 e e e 0 6 u e 0 a 6 6 d >.n.}.4X}.}.Q.>X+X}.>X}.}.2X>X+X+X}.>X].j.,.` 1.,.1.' ` 3.T l r q q q q b q q q 0 9 7 0 q e q e 0 q 0 0 0 0 6 0 6 6 0 6 8 e u e 0 6 5 5 j V ` 1.3.1.1.1.1.1.1.3.[ 1.[ 3.1.' 1.] ) M e 6 ; 6 u u e 8 u e u e 6 u 6 u 6 u 0 6 0 0 e e e 0 0 0 9 0 9 0 0 0 q 5 o d ,.S.<X>X>X=X:XW.Q.+XfXvXGXAXAXSXAXSXAXSXVXSXSXVXSXAXSXAXAXhX@X+XQ.}.}.:X>X>X,XS.a.:.:.` ' ,.,.' ,.' ,.' Q ,.' ' Q ' ,.' ,.Q ' ' ,.' ` ' Q ` :.:.,.>.>.:.:.W g.P.}.4X>X>XQ.>X>X>X>X>X2X>X>X2X>X>X>X1X>X>X>X>X>X>X>X>X,XXXc.a.:.:.,.1.1.1.:.) V 8 8 8 > 8 6 6 e 6 0 0 0 0 0 0 0 0 0 0 0 0 0 0 0 0 0 0 0 0 0 0 u 6 e 0 u e 0 0 0 0 0 e 0 0 0 0 0 0 0 0 6 0 0 e 0 0 u 0 0 0 0 u e 6 7 $ d 6.].<X4X$X}.$X>X}.Q.>X}.>X2X>X>X>X4X>XR.l.+.:.:.2.:.:.>.2./ n t q e y y e e y 0 0 9 0 y 0 y 9 0 y y e y y y y 0 b y 0 y 0 0 y 0 y u 0 0 n U ^ [ ] ] 1.1.1.3.1.[ 1.[ 3.3.[ [ [ ] ( M q e e e e e 8 e q 0 0 e 0 0 0 0 0 e 0 9 0 0 0 0 0 e u 9 $ 6 0 8 q 0 e 5 - z 4.|.XX<X[.}.+X+X@XqXvXnXnXAXAXAXAXSXAXZXSXVXBXSXBXSXSXDXHXlX3X2X:X}.>X>X>X}.{.S.<.' ` ' ` _ ' _ ' ] ' ' ' ' ` ' ' ' ' ` ' ' ' ' ` :.:.:.+.W :.:.-.>.:.,.,.+.h.n.[.>X>X:X:X>X:X",
">X>X>X>X>X:X>X:X:X>X>X1X4X>X>X>X>Xc.a.#.:.:.1.:.>.1.:.T 8 8 e e y b b e y b e 0 e e e e 8 e e e 8 8 e 7 8 8 8 8 e 6 u 6 e e 6 6 u e e 6 e e e u e 6 e 6 6 6 e u e 0 e e 6 6 e e e e 6 6 6 6 6 f <.R.$X}.2X>X}.}.}.>X}.}.>X}.2X>X}.4X4XR.l.,.( ' 1.' ' :.3.T l 8 8 q e y q q q e 0 9 0 0 q 0 0 e 0 0 0 0 0 0 0 6 6 0 6 0 6 e e 8 0 7 6 5 a V ) 1.1.1.3.3.1.3.3.3.3.3.[ 3.] ] 1.1.:.z 8 5 6 @ 6 6 e i e u 6 6 8 e 0 6 0 e 6 u 6 0 u 0 y 0 0 0 0 0 0 0 0 a 0 5 O d <.S.4X>XW.{.{.W.Q.@XhXMXMXAXAXGXSXAXAXAXAXGXAXAXAXSXZXAXAXfX3X$XQ.}.}.}.}.>X:XD.p.,.#.,.,.,.' ,.' ,.' ,.' ' ,.' ,.' ' ,.' ,.' ,.' ,.' ' :.1.,.,.2.2.>.,.:.R a.c.[.}.}.}.}.}.}.}.=X:X=X>X>X>X>X>X>X>X>X:X:X{.,X>X,X>X.X.Xx.<.,.' :.:.:.:.:.` T d 8 8 u 7 8 e e 6 6 0 0 6 0 0 6 0 e u e 6 0 0 0 0 e 6 6 e 0 0 0 6 6 0 0 0 0 0 6 0 0 0 6 0 0 0 6 0 6 a 0 0 6 0 0 6 6 0 6 6 6 6 8 6 6 5 d 8.].}.}.4X>X}.}.+X>X>X=X2X2X>X2X4X4X4XR.j.@.-.2.:.-.:.1.1.( n y q q y e y b 0 e 9 9 0 9 y 9 y e 0 0 0 0 u 0 0 0 0 0 0 y u y u 0 u 0 0 0 n A ) ] ] ] ] ] ] [ [ 3.[ [ 3.[ q.3.1.[ ( M 8 8 8 e e e 8 e 0 0 0 0 0 0 0 0 0 0 6 0 6 0 0 0 0 e e 6 6 7 6 6 e q q 5 - M N.|.4X}.{.}.$X%X@XeXfXvXnXnXAXZXAXZXAXAXZXSXSXSXAXSXDXSXAXlX2XQ.W.Q.:X}.}.}.{.S.<.` ' ' ` ' ' ' [ _ ] ` ' ' ' ' ' ' ' _ ' ' ` ` +.` :.:.:.:.:.:.:.:.:.:.:.:.g.].}.2X>X>X:X:X,X",
"=X>X>X:X}.>XQ.}.=X>X>X2X>X>X>X>X<Xn.a.#.R +.:.>.:.1.-.N ; 5 5 5 5 7 9 5 6 9 5 9 5 5 5 5 - 5 5 - 5 - - 5 5 - 5 5 ; - - - 5 - 5 - 5 5 - 5 - ; - 5 ; @ 5 5 5 - - 5 5 - - 5 ; ; - - 5 - 5 ; - - - 2 <.R.}.2X}.}.Q.}.>X}.}.}.>X+X>X+X}.$X}.R.g.:.W 1.1.' 1.` ,.T j 8 7 q q t e e q q 9 q 0 0 e 0 q q 0 0 q 0 0 0 0 6 6 0 e 6 e e e e 8 e 5 6 j V ` 1.1.1.3.1.3.1.1.,.3.3.[ 3.1.1.1.] ) k 8 - 5 5 @ 6 5 6 6 6 6 6 u u 6 e 6 e u 6 u e e u y e 0 0 0 0 y 0 y $ 0 6 O d <.].4X<X>X>X}.}.$X3XhXmXMXAXGXAXAXAXGXGXAXAXGXAXAXAXAXSXAXhX5X}.[.>X,X{.>X<X>XG.a.:.,.,.' ,.,.' ,.,.' ,.' [ ' ,.' ' ' [ ' ,.' ,.' { ' ' ' ] ] 3.2.2.2.1.,.` a.S.{.4XXX4X<X}.<X>X>X>X>X>X>X}.>X>X>X:X>X>X:X>X>X>X:X>X>X.Xj.a.@.' :.` ` :.` ( M - - ; ; 5 ; 5 5 ; 5 5 5 5 5 5 5 5 5 7 5 5 5 5 5 7 6 5 5 6 ; 5 5 6 5 5 $ 6 5 @ 6 5 5 5 5 5 5 6 $ 5 5 5 $ 6 5 5 5 6 5 5 $ 5 $ ; - 5 5 @ r >.R.}.}.}.>X}.}.}.>X=X2X>X>X}.:X>X>X>XR.g.,.` :.:.>.2.1.1.( n e e y 9 y e 0 y b 0 9 9 0 y 9 e e 0 9 b 0 0 0 y 0 y 0 u y 0 u 0 0 0 6 6 6 n A 1.1.] ] ] ] 1.] 3.[ ] 3.[ 3.3.3.0.] ( M 8 8 7 6 7 7 7 5 e 6 6 0 0 0 0 0 0 e 0 0 0 0 0 0 0 0 e 0 6 6 0 q 6 e 0 6 - m 8. X<X}.XX4X$X5X3XqXvXnXnXAXAXAXAXAXAXAXAXNXAXAXSXSXSXSXGXhX6X,X*X>X<X>X>X>XXXD.,.' ' ` ' [ ' ' [ 3.[ [ ,.[ ,.,.' 3.' [ 3.' ,.1.1.,.,.3.1.:.1.:.:.3.3.1.1.:.j.|.}.<X1X1X,X,X1X",
"}.Q.Q.}.>X}.:XQ.:X:X=X>X>X>X:X>X>Xv.y.o.+.:.+.:.:.>.( v - - - - + o + + + + + + o + + - - * - + - @ - * * - O * - - - @ - @ + - - O - @ - * + + - + * - - + - @ + + - @ - + - + - @ - + + - O , $.E.<X>X2X$X}.}.}.}.>X>X>X>X}.}.Q.}.}.R.g.+.` ' 1.1.1.] ' T l r 7 q q q e q e 0 7 0 q q q 0 e 0 q 0 0 0 0 0 0 0 6 6 e e u 6 e e e u 6 5 i m ) 1.3.3.0.3.1.1.1.3.' 1.[ 3.1.1.1.1.) M 7 ; - @ ; 5 ; 6 6 6 6 6 e 6 e u 6 u e e 6 6 e 0 e 0 0 y 0 0 0 0 y u 9 6 o j 2._.4X4X>X>X>XXX}.+XhXvXnXnXnXMXGXMXnXnXMXGXnXnXGXAXSXHXAXhX5X<X.X>X,X,X,X,X,XD.p.,.' ,.,.' ' ,.' ' ' ' [ [ [ ' [ [ [ _ ' ' ' [ ' [ ' ' ` ' ] ] :.1.q.2.3.` d.S..X<X4X4X<X4X<X<X<X<X>X1X2X4X4X>X>X>X:X>X>X>X>X>X>X>X,XXXc.a.1.' ` :.` ` ` ( N > - - - ; ; - 5 - ; 5 ; - ; 5 ; 5 ; - 5 ; ; ; ; @ ; ; 5 5 @ ; 5 5 ; ; ; 5 ; 6 @ 5 ; ; ; ; ; 5 ; ; ; ; ; 5 ; ; ; ; ; ; ; ; - ; - @ @ O > $.c.}.}.4X$X>X}.}.}.:X>X2X>XQ.Q.=X>X}.k.u.@.X.,.>.-.-.1.1.T n q 9 9 9 9 9 0 0 9 $ 0 0 0 9 y 0 y 9 0 e e y a 0 e u 0 0 0 0 0 0 9 $ $ $ 6 b A ) 1.1.] 1.1.] 3.] 3.[ [ 3.3.3.3.[ _ / M 7 7 5 6 7 7 7 5 6 6 6 0 0 0 0 0 0 a 0 0 0 0 0 0 0 u e 0 9 0 7 q e e q 5 - M 2.|.<X<X$X$X4X4X3XeXhXnXnXAXSXAXAXAXAXcXAXkXVXVXAXSXSXHXGXbX2X,X,X<X<X<X>X>X,XD.a.' ' ' ' ' ' [ [ 3.3.,.3.,.[ 3.3.3.,.3.[ ,.,.3.,.2.3.3.3.:.1.3.2.[ [ 1.1.1.l.|.,X4X4X1X1X1X,X",
"Q.}.:X}.}.>XQ.}.}.Q.>X>X>X>X:X>X<XR.j.a.d.d.l.4.d.4.2.:.K K U U U U U A U U U U U A U A U U U U U U A U U U U C U U U K A Y A Y K A A Y U Z Y C A Y L U C Y Y U L U Y U U Z L A Z U C U K Y K L g.W.>X2X>X}.Q.}.=X2X2X2X3X2X6X2X4X5X5X[.x.@.` 1.1.1.] :.' T l 7 7 q q t 8 q q e 0 7 q e q e e 0 0 0 q 0 e e 0 7 0 6 a u e e u e e 6 6 5 a N ) 1.1.0.1.1.1.3.1.3.3.1.[ 1.3.3.1.2.1.U n k j n n n n k u 8 6 6 e u 6 u 6 e 0 6 a 6 u e y u 0 0 0 0 0 y y 9 0 6 - r R <.c.c.n.n.v.k.k.I.@XhXlXvXxXnXxXzXzXxXxXlXxXnXkXcXzXZXnXdX$X].D.S.D.D.D.D.D.A.<.' ,.' ' ' ' ' ' Q ` T T ! T T T T _ T T T T T ! T _ T ~ / / T T / ( ( / T ` a.j.x.k.c.C.c.c.n.R.{.>X>X>X>X>X>X>X>X:X>X>X>X1X>X>X,X>X>Xc.j.d.d.m.m.d.m.d.m.1.Y U C K C U U U U U U U U A U U Y U U Z U U U U U U U Y A U U Y U U U Y U Z U Z U U Y U A U U U U A Y U U U U A Y U U U U U Y Y U K C L j.[.}.$X}.>X>X+X}.>X3X6X2X2X3X4X2X5X6X{.k.$.` -.2.:.:.1.;./ n y q 9 y y 0 9 0 0 9 0 9 0 9 9 0 0 9 0 0 0 e 0 0 0 0 y u b 0 0 0 0 0 0 6 0 n ~ ) 1.] ] ] ] ] ] ] 3.[ 3.[ 3.3.3.1.] ( M t n n n k j a a a e e 6 9 9 6 0 0 0 0 0 0 0 0 0 9 0 a 0 0 0 8 e e 0 0 5 ; k :.w.V.k.k.c.k.T.i.K.eXxXcXcXcXcXcXcXcXcXlXkXkXzXzXzXVXzXvX5XQ.D.b.D.{.{.{.].D.V.,._ ' ' _ ' [ [ [ _ _ T T T T T Q W T T R T / T R T / T / _ / T R T T / / T +.a.j.v.f.v.v.v.v.",
":X:XQ.>X}.>X:X>X>X:X>X>X>X:X{.>X<X{.R.c.c.Z.C.C.V.V.x.l.8.4.l.4.4.4.l.4.4.N.4.e.d.e.8.N.8.4.l.8.l.4.l.l.8.d.l.l.8.8.l.8.l.8.g.g.8.g.l.8.l.l.8.g.l.8.8.8.l.8.8.g.8.8.8.l.8.l.8.g.l.8.g.l.8.8.4.h.c.T.}.>X2X>X}.Q.}.2X3XgXaXhXhXsXaXgXhX@XP.$.` 1.1.1.' ] ' T l 8 7 q e q 8 e e q q 0 q 0 0 e q q 0 0 0 0 0 u 0 0 0 0 6 0 e e e e u e 7 5 j V ) 1.1.1.3.3.1.1.1.3.[ 3.3.3.1.3.3.q.1.( U A U U U U ~ U k 8 6 6 6 6 6 e 0 0 u 0 u 6 0 0 9 0 0 0 0 0 0 0 0 0 0 7 - 8 C K W @.+.#.E E o.%._.5XdXpXiXiXiXaXiXaXiXpXaXiXiXpXpXdXfX3XR.c.j.c.x.x.v.x.f.f.,.' ' ,.,.' ' ' _ T T H H H H H H H M H H H H J J M H M J N V N n m N V J M K R R :.+.+.>.@.+.,.g.R.>X>X>X>X4X1X1X>X>X}.}.:X>X>X>X>X>X.Xn.v.C.S.S.V.S.V.Z.Z.V.4.8.4.<.2.8.4.8.8.4.l.8.d.8.8.4.8.8.8.l.8.8.8.8.l.8.8.8.8.8.8.8.8.8.8.8.8.l.8.l.8.8.l.8.8.l.8.8.8.8.8.l.8.8.8.8.8.8.8.8.8.8.8.e.l.8.<.g.].{.4X>X4X2X$X}.+X4X3XaXgXaXaXgXdXdXgX+XR.>.X.:.:.:.-.:.1./ n e q y 9 9 e 9 0 0 9 9 0 9 0 0 9 y 0 0 0 0 e u 0 0 0 0 0 0 0 u 0 0 0 u $ u n A 0.1.] ) ] ) ] 1.[ 3.3.3.] 3.3.3.[ ] ) N M J U ~ V A A N M a 6 6 6 6 6 0 0 0 0 u 0 0 6 0 6 0 6 0 0 0 0 6 e 7 0 e 5 a U -.>.,.+.+.o.o. .*.I.%XdXfXfXfXpXpXfXpXpXpXfXfXpXfXfXpXfX}.n.v.f.x.c.c.j.x.x.x.,.' ' [ [ ' ' [ ' T J H H N H J J J J N H H H N V J N H H N N J N H N H N M K W W ` Q Q I I W ",
"Q.:X:X}.>X>X}.>X}.}.:X}.>X}.>X>X<X>X{..X.X.X.X{.{..X.X.X.X|.{..X XXX{..X XXXXX.X.X.X X.X X.X.X.X.X.X.X.X XXX.X.X.X{..X{.{..X}..X X.X{. X{. X.X.X.XXX.X.X[.}..X{..X.XXX.X.XXX{.[.XX{.{.XX}..X{..X}.}.+X>X2X>X>X}.:X3XaXmXzXkXFXFXzXnXnXiXI.6.1.1.1.1.) :.:.Y j 7 5 q q e e q 8 q 0 0 q e 0 q e e 0 e 0 0 u 0 0 6 0 e 6 0 e e 6 a e e ; 5 j N ) 1.1.2.1.3.1.3.1.' 3.3.] 1.,.1.2.3.3.1.;.] 1.;.;.0.;.) U n 6 6 u 0 0 0 0 0 0 0 0 0 0 0 0 0 u 0 0 0 0 0 0 0 0 0 @ 5 5 8 e > d 8 d > , g $.[.+X3X3X-X2X3X2X-X2X;X2X2X3X-X+X@X3X].c.<.,.,.3.>.p.3.>.,.' 1.' ' ' ' ' ' Q T l w r t 8 t e t q t t e b t e b w t t w q t e e j t e t t j j a d d i i d h L c.{.>X>X}.1X2X<X>X<X>X}.}.}.4X>X>X,X>X,X{..X,X|.{.,X.X{..X.X].]..X].|.{..X.X X{..X.X.X.X.X.X.X.X.X|..X.X.X X X.X X X X X.X[..X{.}..X}..X}..X}. X X{.XX.X.X{. X{..X.X.X X.X.X.X.X X.X.X X.X X.X.X X{.}.<X4X4X>X>X$X}.+X3XgXvXnXnXnXnXnXvXvXeXI.6.:.2.2.:.:.-.2.T n q 9 9 y e 9 9 0 0 9 9 9 0 9 0 0 e 0 0 0 0 q 0 u e y 0 a 0 0 u 0 0 u 0 6 0 n ~ ;.1.[ ] ] ] [ 1.[ 0.3.3.[ 3.3.0.1.1.] ) ( ] ] ) ] ] ] ) B m 9 6 6 $ $ 6 6 6 0 0 6 0 0 0 6 0 a e 0 e 0 0 0 e 9 6 7 a a j k j j i 1 1 1 3 &.[.$X@X@X(.@X3X@X3X+X@X3X@X3X3X3X3X+X].g.<.<.,.>.,.<.,.,.:.1.' ' ` ] ' ] 3.] J M 7 w w t n t t 8 t q e t q e t e e t 8 t q e t 8 t 8 7 8 t r r 7 w , > w ",
"}.}.}.:X}.>X>XQ.}.:X=X:X}.>X}.$X<X>X>X<X2X<X}.<X<X,X<X>X>X1X1X1X<X4X1X4X4X<X<X<X4X>X<X4X<X<X<X2X4X4X2X>X<X<X4X>X1X>X4X4X4X2X2X1X4X4X4X2X2X2X2X2X2X2X2X2X4X4X2X2X2X2X2X2X2X2X4X2X4X4X2X2X2X1X2X2X2X>X>X>X>X2X>XQ.>X-XaXzXFXFXBXBXCXAXAXrX^.%.:.1.1.1.1.:.1.T l 8 7 q e q e e 0 e q e 0 e e q q 0 0 0 0 0 e 0 0 0 6 6 e a e e u 6 6 e 6 5 a V ) 1.1.3.1.3.1.2.3.1.3.,.3.1.1.1.1.3.1.1.1.1.1.0.1.0.0.;.^ B 6 6 0 0 0 u u 0 u 0 u 0 0 0 0 0 e 0 0 0 0 0 e 0 0 0 9 9 5 5 5 9 5 9 5 - - , ,.].XX>X>X:X>X:X>X>X>X>X>X>X:X:X>X:XXX].x.,.+.1.' ] ,._ ' ' ' ` ' ' ' ' 3.' _ T l * 7 8 q q q q 9 9 9 q q q q e q q q q 7 q q q 7 q q 7 q 7 7 7 7 5 - 5 ; 8 z j.{.}.>X:X}.>X>X>X>X}.>X>X>X>X<X<X<X,X>X>X>X>X<X,X>X,X1X>X>X>X>X2X2X>X<X>X>X>X>X1X1X>X<X<X<X<X<X1X<X2X<X2X4X<X4X4X<X4X2X4X4X2X2X4X4X1X2X2X4X1X2X4X4X>X4X$X2X>X4X4X4X2X4X2X2X<X4X2X2X4X4X>X4X$X>X2X$X2X4X}.<X2X}.>X$X+X3XpXnXAXSXSXAXAXAXnXeXI.%.-.1.1.:.:.:.-.~ n e 9 9 9 9 9 0 9 9 0 7 9 0 0 9 0 q 0 0 0 0 e 0 0 e 0 0 0 y u 0 0 0 0 u 0 u m A ] 0.[ ] ] 1.[ q.3.3.3.q.1.q.1.3.3.q.0.1.0.1.0.0.0.0.q.0.~ m $ 6 6 6 $ $ 6 6 0 u 6 6 6 6 0 0 e a e 0 9 9 0 0 e 0 6 6 6 6 6 6 0 5 ; - * 3 >.XX>X>X2X>X/.}.2X>X>X>X}.>X<X4X>X4XXXC.d.,.` ` :.1.:.1.,.` ' ' ` ' ] ] ] 3._ J t 5 9 q q q q q 9 q q 9 0 q q q q 9 9 9 9 7 9 q q q q 5 9 7 5 5 7 5 7 7 - ",
">X}.>XQ.>X>X>X>X}.}.>X}.>X>X<X>X>X>X}.>X}.<X<X>X<X>X>X>X>X>X>X>X>X>X>X>X>X>X>X,X>X}.:XQ.>X}.}.}.}.}.}.}.}.>X:X}.>X=X=X1X>X>X2X>X2X2X>X>X=X>XQ.>X}.}.=X>X=X}.>X>X>X=X}.=X}.>X=X}.>X=X>X>X2X>X>X2X>X}.>X2X>X>X2X=X>X;XuXVXBXFXFXBXCXCXAXrXY.&.1.1.1.:.:.1.] T M 8 5 q e e 8 e 8 q 0 e q e e 0 q 0 0 0 e 0 0 0 0 0 u e 0 6 a 6 6 0 6 u 6 ; a V -.1.1.1.3.1.,.1.1.1.3.1.3.1.3.,.1.2.1.2.1.0.0.1.0.1.1.0.^ B 5 6 u 0 0 0 u 0 0 $ u 0 0 0 0 0 0 0 e 0 e 0 e 0 0 0 0 e 0 0 9 e e q q 8 8 g 4.|.XX>X,X,X>X:X>X>X>X:X:X>X:X>X,X>X,XS.N.3.` 1.] ' ] ] ] ] 1.' ' ' ' ' ' 3._ _ t : 5 8 7 0 9 9 e y 9 y 9 q 9 9 9 9 q q q 0 9 0 9 q q q q q 0 q q 0 q 7 7 e D c.}.}.}.}.:X>X}.>X>X>X<X>X>X<X>X<X>X>X>X>X>X>X:X:X=X:X:X=X>X>X>X>X}.:X>X=X>X>X1X=X>X>X>X>X>X>X>X>X>X>X>X>X+X>X}.}.4X}.>X2X2X>X2X>X>X-X>X>X>X=X:X=XQ.}.}.>X>X>X2X>X1X2X2X2X<X2X>X2X>X>X>X+X}.>X>X}.}.}.}.}.}.}.}.}./.2X3XsXGXSXSXSXDXZXAXnXwXI.%.:.1.>.2.-.1.;.~ n e 9 y 9 9 e 7 0 9 6 7 0 9 0 0 q q 0 0 0 0 e e a u 0 0 e 0 0 y e a u 0 0 u m ~ ;.1.1.] 1.q.3.3.3.q.1.1.q.1.q.3.3.3.q.1.1.1.1.1.1.) 1.1.A b 6 6 a u 6 u 0 6 6 u 6 6 u 6 u 6 e 0 0 u e e 0 0 u 0 0 0 0 0 0 0 0 0 6 ; 1 g 4.XXXX>X=X>X>X>X}.>X>X>X>X>X>X>X<X>X,XS.4.1.` :.:.:.1.1.' ` ` _ ] ] ` [ 3.q._ J t w 9 q y q q 9 e q 9 9 9 9 9 0 9 q 9 9 9 9 9 9 9 q q 9 e e e q y q y q y ",
">X>X}.>X}.}.:X}.>X}.}.>X>X>X>X>X<X>X<X>X>X>X>X>X>X>X>X>X>X>X>X>X:X>X:X>X:X:X:X:X:X}.>X>X>X>X:X}.}.}.:X>X>X}.:X=X=X>X=X:X>X2X1X=X>X>X=X>X}.=X>X=X>X=X}.=X>X=X>XQ.Q.>X=X}.Q.>X>X=X=X>X-X}.=X>X=X=X>X>X:X>X>X2X>X}.>X3XuXVXBXFXBXBXBXSXSXrXU.%.2.1.1.1.:.1.1.T l t 7 q e q 8 q e 0 0 0 0 0 0 e 0 0 0 0 0 0 0 0 0 6 0 e 6 a 6 0 0 6 0 6 6 5 a V ) 1.3.1.1.1.1.1.1.3.1.1.1.1.1.1.1.1.1.1.1.1.1.2.1.0.0.1.^ B 5 6 0 0 0 0 0 0 0 0 0 0 0 0 0 0 e 0 0 0 u 0 0 0 0 q e 9 0 0 e e y e q 8 8 j 4..XXX>X>X>X>X:X>X>X:X>X>X>X>X:X:X:X,XG.m.2.` ` 1.] ] ' ` ] ' ' ' ' ' ' ' [ ` T t - 7 q 0 9 9 e 9 e 9 9 q 9 9 9 y 9 q q q q q q 9 0 9 0 0 q 0 e e e e 0 e 8 v V.}.}.}.}.{.}.}.<X<X}.>X<X}.>X<X}.>X>X>X>X,X>X1X:X>X>X>X>XQ.>X>X>X>X-X>X>X>X>X:X:X:X>X>X>X>X>X>X>X>X>X>X>X>X>X>X>X}.<X}.>X>X2X>X2X>X2X>X=X=X>X:X>X}.*X>X>X>X1X>X>X>X>X>X>X1X>X>X>X>X2X>X>X>X}.}.2X>X>X}.}.>X>X2X}.>X2XiXlXMXVXSXZXDXSXAXAX0XI.@.>.:.:.:.2.:.1.~ M e 9 9 9 e 9 9 9 6 0 0 0 q 7 0 q e 0 6 0 6 e 0 e e 6 u e e a u e u 0 u 0 0 n A ;.0.1.1.1.3.q.3.q.1.q.3.1.q.3.q.0.3.1.0.1.0.1.1.1.0.0.0.~ b 6 7 u 6 6 6 6 0 u 6 0 6 0 6 e u 0 0 0 0 0 e 0 0 0 0 0 0 0 0 0 y e e 6 5 i f l.XXXX>X>X>X>X>X>X>X>X<X<X,X>X<X>X<X>XS.a.1.` ) 1.:.` ' 1.1.' ] ] ' ] _ ] q.) J t 5 w q q q q q 9 9 9 0 9 9 9 9 9 9 9 q 9 0 9 q 9 9 9 q 9 y y y q q y q t ",
"}.>X}.>X>X}.>X>X}.>X}.>X<X>X<X>X}.>X>X>X<X>X>X<X>X<X>X>X>X>X>X:X:X:X:X>X>X>X>X>X>X>X1X>X>X>X>X>X>X>X>X>X>X>X=X:X=X:X>X:X=X>X1X:X>X>X>X=X>X=X=X}.}.=XQ.>XQ.Q.>X=X=X}.=X=X:X=X>X=X>X>X>X=X>X>X>X>X=X>XQ.:X:X>X>X}.2X3XpXAXDXDXFXFXBXCXVXrX!.%.:.1.1.:.] :.] T j e 5 7 0 e y $ y $ 0 0 0 0 0 e 0 0 0 0 0 0 0 0 0 0 6 e e 6 6 6 u 0 e e 6 5 a N ) 1.3.1.1.1.1.1.1.3.3.1.3.3.1.3.1.3.1.1.1.1.1.0.0.1.1.1.^ M 6 6 6 6 0 0 u 0 0 0 u 0 e 0 0 0 0 0 0 0 0 e 0 0 e e q q e e e e e y e 8 r g d..X>X>X:X>X>X1X,X>X>X,X:X:X,X,X:X,X,XS.N.p.` :.' ' ] ' ] ' ' ' ' ' ' ' ' 3._ T M - 7 q 0 0 0 9 9 9 e 9 e 9 y 9 9 0 0 9 0 9 0 0 e 9 9 e 0 9 7 0 q e e 8 8 e K C.}.>XXX}.}.}.}.}.>X<X>X}.<X<X>X<X}.>X>X>X>X>X=X>X:X=X1X=X>X=X=X>X>X>X=X>X>X>X=X>X>X:X>X>X>X>X>X,X>X>X:X>X>X>X>X<X>X}.}.>X$X>X>X2X>X>X>X>X=X=X:X=X:X:X=X>X>X1X>X>X>X>X>X>X>X>X>X>X>X>X>X>X>X>X>X>X>X>X>X>X>X>X>X+X+X2X3XfXAXAXSXSXDXSXAXcXwXI.@.>.:.2.:.:.:.;.T n e 9 9 y 0 q 0 0 7 0 0 9 9 0 0 q q e 0 0 6 e e 0 e a 0 0 0 e 0 e a u 0 6 6 b A 1.1.1.1.0.1.3.q.3.3.q.3.q.1.1.3.3.3.3.q.3.0.1.1.1.1.q.0.~ m 5 6 u e 6 6 6 6 e 0 6 6 $ u 0 u 0 e 0 6 u 0 0 0 0 u 0 0 0 0 y 0 0 e e 8 2 h l.<X<X>X>X>XXX>X>X>X>X>X>X>X<X>X<X<X<XS.4.1.:.:.:.-.1.1.' ] ] ] ' ] ` [ [ q.] J t 5 9 y e e 9 9 e 9 9 9 0 9 0 9 9 9 9 0 9 0 9 0 9 0 9 9 0 9 e 9 e 9 y q e ",
">X}.>X>X}.>X>XQ.>X>X>X}.>X>X}.>X2X<X>X<X>X>X>X}.>X>X>X>X>X:X1X>X>X>X>X:X>X>X:X>X>X>X>X>X>X2X>X2X>X>X2X2X2X>X2X>X>X>X*X>X:X1X=X:X>X>X>X=X:X>X>X:X=X>X>X>X>X>X}.:X>X}.}.>X=X>X>X>X=X>X>X=X=X2X=X>X2X}.Q.:XQ.:X:XQ.Q.3XpXAXBXDXBXBXBXSXSXrX^.%.:.2.1.] :.1.:.T l a 9 0 e 0 y b y $ 0 0 0 0 0 6 0 0 q 0 e 0 0 0 0 0 e 6 e u a 0 e 0 0 u 6 5 a N ) 1.1.1.3.3.1.3.1.1.>.1.1.1.1.2.1.1.1.2.1.3.2.1.1.1.1.;.( B 5 6 6 u 0 u 0 0 u 0 0 0 0 0 0 0 0 0 e 0 0 0 0 0 0 0 0 0 9 e e q e q q 8 7 d ,..X,X1X:X>X>X:X:X:X:X>X1X:X<X>X:X,X,XG.M.3.` ` 1.` ] ' ' ] ] 1.' ' ' ' ' [ Q T t - 8 q 0 0 0 y 0 0 9 9 y 9 $ y 0 9 9 0 9 9 0 9 0 9 0 9 9 9 0 0 e e e 8 8 i z C.XX}.}.}.}.>X<X>X<X>X4X>X>X>X>X>X>X>X>X>X>X>X>X>X:X:X>X>X>X:X2X>X=X>X>X=X>X=X>X:X>X=X>X>X>X:X>X>X>X:X>X>X>X>X>X2X4X}.2X}.>X>X>X4X=X1X:X=X>X>X>X:XW.Q.:X>X>X>X>X>X}.:X}.,X>X>X>X>X>X>X>X}.>X}.>X>X}.}.>X}.>X}.>X}.}.+X@XpXzXSXSXSXDXSXAXAXeXI.%.-.:.1.2.:.-.1.T n e 9 9 e 9 9 7 0 9 0 7 0 8 9 0 e 0 6 e 6 6 e e u e 6 0 6 a 0 a 0 6 6 6 6 6 n A ) 1.] ] 1.1.q.3.q.3.3.1.q.3.q.1.q.0.3.3.1.1.1.1.1.1.1.) ~ n 5 5 u e 6 6 6 u 6 u 6 0 u 0 0 6 a 6 e 0 e 0 0 0 e 0 0 0 0 0 0 0 0 e e 8 > f a.XXXX>X>X>X>X>X<X<X}.<X<X>X,X<X<X<X<XS.d.1.:.-.` 1.` ` 1.` ` ' 1.' ] [ ] q._ J y 5 9 q q y e e 9 y 9 9 9 9 9 9 9 e 9 9 9 9 9 9 9 0 9 0 9 0 9 e e 9 e e q ",
"XX>X>XXX}.XX}.<X<X}.>X}.>X2X<X>X<X>X>X}.>X<X<X>X>X2X>X4X2X2X2X=X2X>X:X>X=X>X2X2X2X2X2X2X2X2X+X2X2X2X2X+X2X2X2X-X>X=X*X:X:X1X1X>X=X>X>X1X-X2X=X/././.=XQ.=XQ.=X}.:X=X>X=X>X>X>X>X}.=X>X>X>X>X=X>X>X2X-XQ./.Q.Q./.+XyXjXAXDXDXBXBXCXCXSXrXY.&.:.1.1.] ] ;.1.R l 8 9 7 0 0 y 9 $ B q 0 0 0 0 e u 0 e 0 0 0 0 u 0 0 6 6 7 0 0 6 6 0 e e 6 > a N ) 1.1.3.1.1.1.1.,.1.3.1.,.1.3.1.>.3.1.1.2.2.3.3.1.0.0.;.~ M 5 7 6 0 6 e 6 0 9 0 0 0 0 0 e 0 0 0 u 0 0 0 0 0 0 0 0 0 9 e 9 q e e q 8 7 d 4.|.,X>X>X,X:X:X,X>X>X,X>X>X,X,X,X,X,XF.m.3.` 1.1.] ] ] ] ] 1.' 1.` ' ' [ 3.` T j - 5 0 0 0 9 0 0 9 0 9 9 9 9 9 9 9 0 9 $ y 9 9 9 0 9 0 0 0 0 0 e e e e e e C c..XXXXX<X4X<X4XXX}.4X<X>X<X}.<X>X>X>X>X>X>X}.>X=X>X>X=X=X>X-X/././.-X/.-X-X-X-X-X2X-X=X2X-X+X=X>X2X2X+X2X+X2X>X$X$X+X}.<X>X>X>X>X>X=X=X:X1X-X-XQ./.=X=X>X2X1X>X:X:X{.{.>X>X,XXX,X>X}.}.>X>X}.>X}.}.}.+XQ.+X+X+X/./.+X(.pXzXAXSXDXDXSXSXAXwXI.@.:.2.:.2.:.:.1./ n 9 9 y 9 9 e 0 9 0 9 0 9 7 0 0 q e e 6 e u e 6 0 0 6 6 u 6 u 6 6 u 6 6 6 6 a V ) 1.] [ 1.3.3.3.q.q.1.q.3.3.1.q.q.1.1.q.1.[ ] 1.1.1.1.;.U m 6 6 8 8 6 6 6 u 8 6 6 6 6 u 6 0 6 e e 0 0 0 0 0 0 y 0 y 0 0 0 0 0 6 8 > > f g.XX<X>X>X>X>X>X>X>X>X>X,X<X,X<X<X<X,XS.d.1.` :.:.:.] :.] ] 1.] 1.] ] [ ] [ ) ! n 5 9 q y 9 9 0 9 9 9 9 0 0 0 9 9 9 0 0 9 9 9 0 0 9 0 9 0 0 9 y 9 9 0 e 9 ",
"XXXXXXXXXXXXXX<X}.>X}.>X}.<X>X>X<X>X>X<X>X}.>X>X>X>X2X2X2X2X3X-X-X/././.-X-X-X-X/.;X/./.@X(./.@X(.(.(.(.(.+X/.-X-X:X*X:X*X>X:X*X:X=X>X=X=X/././././././.+X>X/.=X>X=X:X:X=X>X=X>X>X>X>X>X>X>X2X2X-X(.3X+X/.2X/.(.@XiXlXVXFXFXDXFXCXCXSXrXY.%.:.1.1.1.:.] 1.T M i 7 0 0 0 0 0 $ B 0 0 e 0 0 0 0 e 0 0 0 0 0 0 0 6 0 6 5 6 6 6 6 7 7 e 8 8 d M ) 1.1.1.1.,.2.3.1.1.1.1.1.1.3.1.1.1.1.1.1.1.1.0.1.1.1.1.T z > 7 u e e e 6 7 6 9 0 a u 0 0 0 0 0 0 e 0 0 e 0 0 0 0 0 9 0 e e e e q 8 8 d 4..XXX>X>X>X>X1X>X1X,X,X,X<X<X,X,X,X.XG.M.d.` ` ] 1.] 1.] 1.] 1.] 1.3.[ 3.3.] / l 5 8 7 0 0 9 0 9 9 y 0 9 0 0 9 0 9 y 0 y 9 0 9 9 9 y 9 0 9 0 0 7 7 5 7 5 a K N..XXXXXXXXXXXXXXXXX<X<X<X>X>X}.}.<X>X>X>X>X>X>X>X>X=X=X2X/.3X+X;X(./.(.(./.-X/.(./././.-X2X/.-X(./.(.(././.2X(.@X3X2X2X>X>X:X1X>X>X:X=X=X=X-X;X-X/./.3X3X2X2X:X}.}.,X,X>X,X>X:X{.:X}.:X>X}.>X}.:X-X+X+X/./.+X/././.3XwXjXzXSXSXSXSXSXAXAXwXI.%.X.:.2.:.:.2.;.~ n e 9 y 9 e 9 9 0 7 0 9 0 0 q 0 e q e 6 6 6 e a 6 0 0 0 7 7 0 6 5 8 e e 5 ; k A ] 0.] [ 3.q.3.q.3.q.3.3.3.0.q.1.3.3.q.1.1.1.1.1.;.1.1.:.U k 6 5 > 6 6 ; 8 e u 6 6 6 6 6 0 6 0 0 e 0 0 0 0 0 0 0 0 0 0 y 0 0 0 6 5 - > 2 s. X,X>X}.>X>XXX>X>XXXXXXX,X<X<X<X<X,XZ.p.3.` ` :.1.:.1.1.1.1.1.1.1.1.[ q.q.] ! t 7 9 e 9 e y 9 0 9 0 0 9 9 9 y e 9 0 9 0 e 9 9 9 0 9 e e 9 y 0 e e y y y ",
"x.j.l.j.j.l.j.n.{.>X>X}.>X}.<X}.}.<X>X>X4X}.>X>X}.}.2X3X6XdXdX5XiX3X3X3X3X6XiXiX3X3XiXiXiXiXqXiXiXiXiXiXiXiXiX5X3X>X=X:X:X,X:X:X*X=X=X6X6X3X;X3X;X3X3X3X6X-X=X=X:X:X=X=X>X>X=X>X>X=X=X1X=X1X>X-X3X3XiXiX3X5XiXiXiXpXzXSXDXDXBXBXCXCXCXrXY.%.:.q.1.] ] 1.;.~ j a $ B $ y $ B $ $ $ B B $ B $ $ $ 0 6 0 0 0 0 0 0 u 9 $ y m b n b n M M M m U ] 3.2.3.3.1.1.1.,.1.,.1.1.1.1.2.1.3.3.1.2.1.1.1.1.3.1.;.^ V j n M M M m M n a 0 0 0 e 0 u 0 0 0 u 0 0 0 0 0 0 0 q e e e e e e e e q 8 d a..X,X<X>X1X:X:X1X,X{.W.S.{.D.D.D.D.S.V.m.3.` 1.1.1.1.[ 0.] T T T _ T T _ _ T J k 5 6 6 0 0 0 y 0 9 0 9 0 y 9 9 0 y 9 9 0 9 9 0 0 9 9 9 9 0 9 0 7 0 7 7 7 a z 2.l.x.x.l.g.j.l.c.S.}.<X<X>X}.>X>X<X>X}.2X2X>X>X>X>X>X=X2X3XaXiXiXwXiXiXyXiXyXiXyXiXiXiXiXiXiXiXiXiX5XiX5X5XiXiXiXdX5X$X}.{.>X>X>X>X>X=X-X6X3XiXiXyXiXaX6X6X3X=X=X{.:X,X>X>X>X}.}.:X:X}.>X}.}.:X>X2X2X3X3X3X5X3X3XiXiXpXkXnXVXSXCXSXSXAXAXwXI.%.+.:.2.:.:.:.;.Y n e 9 9 9 9 0 0 0 6 9 9 0 0 0 0 q 0 q 0 e 6 e e e 6 e 0 6 a m n n n m M m M V ~ ] 0.] 1.] 1.1.q.3.0.q.3.3.1.3.1.q.3.3.q.1.1.1.1.] 3.3.1.( A k k n n n j n m a 6 6 6 6 u 6 0 e e e 0 0 0 0 0 0 0 y 0 0 y 0 y 0 0 7 7 > f d.XXXX}.>X>X}.>X}.{.{.n.n.].].].].].|.V.d.1.:.:.` :.:.:.1.` ( R / / ( / / ( / B y 5 9 9 9 e 9 9 0 9 0 y 9 y 9 0 0 y 0 0 0 0 y 0 9 0 0 e 0 e 9 e e y 0 e e ",
"K F F F G S L #.k.>X}.>X}.>X}.<X>X>X>X>X>X>X>X$X2X2X5X5XgXhXvXmXvXhXbXmXbXbXmXmXmXvXvXvXvXvXvXvXxXnXlXnXvXvXvXhXgX6X:X:X:X:X:X*X*X=X1X6XhXhXsXsXsXhXbXhX6X;X=XQ.=X:X:X>X>X:X>X>X>X1X>X:X>X>X>X2X5XpXhXsXsXlXlXpXlXlXzXSXDXCXFXBXBXCXAXrX'.%.:.3.1.1.] 1.1.~ z e $ $ B $ $ $ B $ $ $ $ B $ $ B B 0 0 0 0 u 0 0 0 $ 0 u B ^ ^ ^ ^ ^ ^ ( ( ) ] 1.3.1.1.1.1.3.1.1.1.1.1.1.3.1.,.1.3.1.1.3.1.2.3.1.2.1.1.( ( ( / ( ( ^ ^ ( ) V b e 0 0 0 0 0 0 0 0 0 0 0 0 0 0 0 e e e e e e e e e e 8 f 4..X,X<X>X<X1X>X:X{.v.s.a.a.a.a.a.p.d.s.p.3.2.1.3.1.1.1.[ ( H t t g t t g t l j e 6 7 6 9 0 0 $ 0 9 9 0 9 9 0 9 9 0 0 9 9 9 0 9 9 9 9 0 9 9 q 9 0 e 0 0 6 6 i C K G F K F F h K >.].<X<X}.>X}.<X>X>X>X>X>X>X>X>X=X2X2X2XiXhXvXnXvXnXnXxXzXvXlXvXvXlXvXvXhXlXvXvXvXvXvXvXvXvXvXhXhXdX3X{.{.,X:X>X>X>X>X6XaXaXvXvXlXmXmXmXaX6X1X=X{.:X>X>X>X{.:X}.>X>X1X>X}.}.Q.>X2XiXhXhXhXhXfXsXsXlXlXnXAXVXSXSXDXSXGXAXwXI.@.:.:.1.:.2.-.1.~ n e 9 y 9 0 9 0 7 0 0 0 7 0 0 0 0 e 0 6 6 6 e 6 e 6 u 0 0 B ^ ( ( ( ) ( ~ ( ( ) 1.1.] ] ] [ 1.1.3.3.3.3.0.q.3.3.1.q.q.1.1.1.1.:.1.3.3.q.1.( T ( ( ( ( ) ( ^ B u 6 6 u 0 6 0 0 e 0 0 0 0 0 0 0 0 0 0 9 0 0 e 0 0 7 > > f l.XX,X}.>X>X}.}.XX{.v.g.a.a.a.a.d.g.a.d.4.:.` :.:.1.` ` ] ( M n j j l j n n n n e 5 9 e y 9 y y 9 9 0 9 0 0 0 9 y 9 9 y 9 9 9 y 9 y 9 y 9 9 e 9 y 9 0 9 9 ",
"d 2 2 d 2 > f I j.<X>X}.}.>XXX>X>X>X}.<X>X>X<X>X>X$X3XgXhXmXMXnXnXmXmXmXnXMXnXnXvXnXnXnXnXnXnXnXnXnXnXcXnXnXMXvXsX6X>X>X,X1X:X:X=X=X-XaXmXMXlXlXzXMXmXbXaX3X-XW.*X:X:X:X=X>X:X>X=X:X1X=X>X:X>X;XiXsXnXvXlXxXnXnXkXzXNXCXCXDXFXBXBXCXAXrXY.%.:.1.1.1.] 1.1./ j e $ B ^ $ B y y $ $ B $ $ $ B $ $ e 0 0 0 0 u 0 6 $ u 6 B ) ) ) 1.;.;.1.) 1.1.3.2.3.3.1.3.,.1.3.1.1.3.1.1.1.1.1.2.1.2.2.3.3.1.1.1.3.1.1.:.] ] ] ] ] 1.1.1.~ b a 0 0 0 0 0 0 0 0 0 0 0 0 0 0 0 0 q e q 9 e e e e 8 8 d 4..X<X<X>X1X>X,X>XD.v.a.#.<.<.<.,.,.,.3.3.3.3.3.3.[ 1.[ [ / t r w r r r r w 8 r 7 7 6 6 0 9 0 9 0 9 0 9 9 0 y 9 0 9 9 0 $ 9 y 9 9 y 9 0 0 0 0 0 0 q 0 7 7 6 8 d d g f g d 8 = g o.C.<X}.}.<X}.>X>X>X>X>X>X>X>X>X>X=X/.;XiXvXvXnXAXAXAXnXnXzXnXzXnXnXnXnXnXnXnXlXnXnXmXnXvXnXnXnXvXvX3X[.:X,X:X>X>X>X-X3XhXmXnXMXMXnXMXmXbX6X2XQ.W.:X>X<X>X>X>X{.>X>X<X>X:XQ.}.2X5XhXvXnXnXnXnXnXnXnXnXVXSXSXSXSXBXSXSXAXwXJ.%.+.2.:.1.:.1.;./ n e q 9 9 0 0 9 9 9 6 0 7 0 7 0 0 0 0 e 6 u e 0 e 0 6 6 0 V ;.;.0.] ] ] ) ] ] ] ] 1.] ] ] ] 1.1.1.3.3.3.3.q.1.q.1.3.3.2.3.1.1.1.1.1.2.q.1.;.( ) 1.] 1.1.1.-.A a 6 6 6 e 6 u e u e 6 0 e 0 0 0 y 9 9 9 y 0 y 0 e 7 ; > d s.XXXX>X>X}.>X}.}.].x.@.<.,.,.>.,.<.>.2.4.1.:.] :.` 1.' ' R j i i 8 8 e a q t e 0 9 9 9 0 0 9 0 0 0 0 9 y 9 y 0 9 9 0 y 0 0 0 0 0 0 9 9 0 y 9 0 9 y e 0 9 ",
"; - - - : . > F l.4X:XQ.>X>X>X>X$X>X<X>X<X>X}.>X>X2X3XgXvXnXGXHXGXAXnXzXnXnXnXAXAXAXMXAXAXAXZXAXZXSXAXSXAXAXGXMXvXaX>X>X>X>X>XQ.Q.=X6XaXMXGXVXVXzXGXMXMXsX;X/.Q.}.:X=X:X:X:X=X:X:X>X:X:X:X>X>X2XsXlXnXAXAXAXAXAXVXzXVXCXCXCXDXBXCXCXVX9X^.&.` 2.1.] 1.;.1.R l a $ $ $ $ $ $ $ B $ $ $ B $ $ B $ u 0 0 0 0 u $ 6 0 $ 6 B ;.1.0.1.1.1.1.1.1.1.q.3.1.1.1.1.1.1.3.1.1.3.1.,.1.3.3.:.1.3.1.1.3.1.3.1.3.2.1.1.q.2.0.0.0.1.0.0.^ n 0 6 0 y u 0 0 0 0 u u 0 0 0 0 0 7 0 0 0 e 9 0 e e 5 7 r 4.|.,X>X>X:X>X>X>XD.j.,.#.#.,.,.,.,.,.,.3.,.,.[ 1.1.1.0.1./ r : : : 7 : 7 7 7 7 6 6 6 6 9 7 9 0 9 0 9 9 0 9 0 9 9 9 0 9 y y 9 9 0 9 0 9 q 9 7 0 9 7 0 6 6 7 5 5 5 6 7 5 ; - o 7 R l.XX}.}.}.<X>X>X}.>X>X}.<X>X=X>X:X+X(.iXmXnXAXAXAXVXVXVXVXAXVXVXVXVXnXVXAXVXGXnXVXnXVXAXGXGXnXnXvX5XQ.,X,X:X:X>X2X2X6XbXmXGXVXGXVXGXmXbXaX3X>X{.>X>X>X>X:X>X}.>X<X>X>X>X:X:X2XdXsXnXAXGXAXAXAXAXAXVXSXSXSXBXBXBXDXSXAXwXY.%.,.1.2.1.2.:.1./ n e 9 9 0 0 0 0 6 0 0 9 9 0 6 0 q 0 7 0 6 6 e e u 6 7 6 6 V 1.q.q.q.q.q.0.[ q.[ ] [ 1.[ [ 1.1.[ 3.q.0.q.3.1.q.q.3.0.3.3.q.3.1.1.1.1.3.q.1.1.) 1.1.1.3.1.1.1.U a 6 6 6 6 a 0 0 e e a 0 0 0 e 9 0 0 0 y 9 0 0 0 6 6 7 > f g.XXXX}.>X>X}.>XXX].l.,.+.+.:.' 1.,.,.1.,.1.:.:.` 1.` 1.' T j 7 8 7 > 7 7 7 q 6 5 5 9 0 0 9 y 9 9 y 9 9 e 0 9 0 9 y 9 9 9 9 y 9 y 9 y 9 y 0 0 0 9 9 0 y 9 ",
"7 ; 6 5 5 - e K l.4X>X>X>X>XXX>X>X>X>X>X<X}.<X>X}.2XiXfXnXMXHXFXSXSXVXAXVXzXAXZXAXAXAXBXSXZXBXSXDXZXDXZXZXSXSXAXlXaX-X:X:X>X>X:XQ./.6XvXGXFXCXNXVXVXGXnXsX;X-XQ.:X:X:X=X:X>X>X:X:X>X:X:X>X>X>X-XpXkXAXVXVXSXVXVXVXNXVXVXBXBXBXBXBXCXSXrX!.%.:.1.1.] 1.1.1.( j e $ $ $ $ $ $ $ B B $ B $ $ B $ $ y $ b y 0 u 0 0 $ u 0 V ) ] 1.] 1.] 1.3.q.3.3.3.3.[ 1.[ 3.3.,.3.1.[ 1.1.,.1.2.1.1.1.2.3.1.3.1.1.1.1.3.1.1.3.1.1.1.1.1.0.~ n a 0 u 0 0 0 0 0 0 0 0 0 0 6 0 0 0 0 0 0 0 0 9 e e 7 8 g 3.XX,X<X>X>X<X1X,XG.x.,.,.,.' ,.` 1.1.,.3.' ] 1.] 1.1.[ 1./ r 7 > 7 8 7 e 5 5 7 6 6 7 0 6 0 0 0 e 9 0 0 9 0 9 9 9 9 y 0 0 9 0 0 9 0 9 0 9 0 7 9 0 7 7 0 0 7 e 7 7 e 0 7 6 5 O i ( z.4X<X}.}.}.>X>X>X}.>X>X>X>X2X>X=X/.(.yXvXAXNXCXCXCXCXCXCXCXCXSXSXSXVXSXSXAXAXSXAXAXVXAXVXAXAXAXnXiX/.>X,X:X:X>X>X2X3XpXnXVXVXCXVXVXMXmX6X2X>X{.>X>X<X4X>X:X}.<X>X>X>X}.{.}.2XiXsXAXAXSXSXAXSXSXFXSXSXSXSXSXBXSXSXSXSXrXY.%.:.3.,.1.1.:.;.T n a 0 9 9 0 6 6 0 6 0 0 0 0 0 0 e 6 6 e e u e e 8 6 e e e J q.3.3.q.[ p.q.[ [ 3.[ [ ] ] 3.] 1.3.1.q.3.1.q.1.q.1.q.3.0.3.3.3.3.3.3.1.3.2.3.3.] ] 3.3.3.1.1.1.A a a u u 0 u 0 0 a e 0 e 0 e e 9 e e 9 e 9 9 e e e 5 > > g a.XX>X}.>X>X}.}..X].l.:.+.:.-.-.:.:.,.1.,.` 1.:.` ' :.` ` / j 7 6 6 6 6 6 6 0 0 6 $ 9 e 9 0 9 y 9 y 9 0 y y 9 0 9 e y 0 9 9 y 9 0 9 0 0 9 9 9 e 9 0 9 0 9 ",
"8 8 7 7 5 - j L l.4X<X>X>X2X>X}.>X}.>X<X<X>X}.>X2X+X3XsXvXAXFXDXHXSXAXAXZXAXAXAXSXAXCXAXSXSXSXBXSXSXSXBXSXSXSXAXzXaX2X{.>X>X>X}.Q.=X6XvXGXFXCXCXVXSXGXMXsXiX/.W.*X:X{.:X:X:X:X:X>X:X:X>X:X:X>X;XpXzXAXVXSXSXSXSXVXNXVXCXFXFXBXFXDXCXFX9XY.%.:.1.1.1.) ] ) ~ M a $ ^ $ | B B $ $ $ $ B $ $ B $ B b y $ $ y 0 y 0 0 0 0 A 1.` ] ] 1.1.3.3.3.3.3.3.1.3.3.,.3.1.3.] 3.3.3.1.1.1.3.1.3.1.1.1.1.3.1.3.3.1.] 1.] ] ] [ ] ] ] 0.U n a 0 0 0 u 0 $ 0 6 0 0 e a e 0 0 e 0 9 0 0 7 q e e 7 > d 4..X>X<X>X1X>X,X>XD.x.,.+.,.1.1.1.1.' ' 3.' 1.] 1.] [ 0.] ( j 7 7 8 8 7 8 6 8 7 0 7 0 7 0 0 9 0 0 0 0 9 0 9 0 0 0 0 9 9 0 9 0 9 0 9 0 9 q 0 0 0 0 9 9 0 0 0 e 6 0 0 e 0 6 7 + a R B.4X<X>X<X>X}.}.4X>X}.>X}.>X}.>X}.-X(.pXzXzXAXBXCXSXCXCXCXCXSXSXSXSXSXSXSXSXVXSXSXSXVXSXSXAXSXAXnXaX}.}.,X,X:X=X-X;X5XpXnXVXVXCXNXFXzXmXaX6X=X{.>X>X<X>X>X>X}.,X>X>X,XW.}.}.2XiXpXkXAXAXCXNXBXDXSXDXSXSXCXSXBXBXSXSXHXtXU.%.+.,.2.>.,.1.1.~ j e 7 9 0 6 6 0 6 0 6 6 6 6 6 0 u 6 e e 6 e e e u e u a e J 3.3.q.q.3.3.3.q.[ 3.3.3.,.] [ 1.[ 1.1.[ 1.3.3.3.3.3.1.3.3.3.1.1.3.3.] ,.] 2.3.1.1.] 3.3.' 1.1.1.~ a a u y y u y a y e y 9 e 9 y e q 9 y 9 y y e q q e 5 > f l.XXXX>X}.:X:X>X.XS.x.+.:.-.:.:.( 2.1.:.:.,.` ` ` ` ' ` ` T j e e 6 8 e e 0 a 0 0 6 7 e 0 0 0 0 0 0 0 9 0 0 0 e 0 9 0 0 0 e 0 0 0 0 9 y e 0 0 0 0 0 9 0 0 ",
"e 8 8 0 6 5 j K l.<X}.}.>X>X>X>X>X>X>X>X>X>X>X2X>X2XiXiXxXnXSXSXSXSXVXVXAXAXVXZXVXAXCXSXSXAXSXSXSXSXSXSXSXSXAXVXlXiX/.>X,X>X>X>XQ.}.iXvXGXFXCXCXCXSXAXnXlXiX-XQ.:X:X:X>X>X:X:X>X>X:X:X>X:X:X}.3XlXAXVXSXCXCXVXSXVXCXBXFXBXBXBXBXCXSXAX9XY.&.1.0.1.1.1.] 1.~ m a $ $ $ $ $ $ $ $ B $ $ $ $ $ y y $ $ y y b $ $ u 0 0 7 V ] ] ] ] [ 3.3.3.3.3.3.3.3.3.1.3.3.1.3.[ 3.[ ,.1.1.1.,.1.1.1.,.1.3.1.1.1.1.1.[ ] ] ] ] [ [ [ ] ] U n e 0 0 0 6 6 u 0 6 0 0 0 0 0 0 e e 0 8 5 7 0 e e e 7 : g a.XX,X<X<X,X,X>X,X].x.,.+.` ` ` ,.1.1.] 1.] [ 1.] 0.] 0.0./ j 7 > 8 7 8 8 q 6 6 6 0 0 0 7 0 q 0 0 9 0 0 0 0 0 0 0 0 0 9 0 0 0 9 0 0 0 0 0 9 0 0 0 0 0 e e 0 e 0 0 e e 0 0 5 - e R V.4X}.[.>X}.2X>X>XQ.>X}.>X>X>X=X=X/.;XiXnXzXAXCXCXSXCXSXCXSXCXSXDXSXCXSXSXSXSXVXSXSXVXAXSXSXSXAXnXiXQ.:X,X:XQ.:X+X2XiXvXnXVXSXSXSXSXMXlX6X-X=X}.>X<X<X1X>X>X}.>X>X>X>X}.}.}.2X3XpXkXAXAXSXCXCXSXDXSXCXCXSXBXBXSXBXSXSXrX!.%.X.1.3.3.3.1.:.T k q 8 e 0 e 6 u e 6 6 6 6 6 8 e e 8 8 6 8 8 6 8 e u e u e J 3.[ [ [ [ [ 3.[ 3.3.[ 3.[ [ [ [ 3.[ 1.3.1.3.3.3.3.3.3.3.3.3.3.3.3.1.1.1.,.1.3.1.1.3.,.[ ' 1.:.1.U b b y 0 y 0 0 y 0 y y 9 9 y 9 e e y 9 y 9 y e y q 8 7 1 g a.XXXX}.>X>X}.>X.X|.l.:.+.-.:.-.:.1.:.:.:.` ` ` :.` ' ` ` / j e e 8 e e 6 6 e 0 0 9 0 e 0 y 9 0 e 0 e 0 0 0 e y 9 0 0 y 9 0 0 9 0 0 y 0 9 0 0 0 e 0 0 0 0 ",
"8 e 7 0 7 5 j L l.4XXX<X>X<X>X2X<X>X>X2X>X>X>X>X>X+X@XpXlXnXSXCXCXCXSXVXVXNXAXCXSXCXCXSXSXBXSXSXSXBXSXSXSXSXSXVXzXpX+X>X}.:X}.}.+X/.aXsXGXDXCXCXCXFXGXnXlXiX/.}.,X:X1X:X>X:X:X>X:X:X1X:X>X:X:X3XlXAXCXSXNXCXNXCXCXBXCXBXBXFXFXBXBXSXAXrXU.%.:.1.1.] ] 1.) / m b $ $ ^ $ B $ B $ $ $ $ B $ B $ $ y y $ y $ b $ y 0 0 7 N ` ) ] [ [ 3.[ 3.3.3.3.3.[ ' [ 3.[ [ [ 3.1.[ [ [ 3.3.1.1.3.3.1.1.>.1.1.3.3.[ 1.[ [ 1.[ 1.] 1.] ] J n e 7 $ u 6 6 0 6 6 6 0 6 6 6 6 6 6 7 7 9 9 7 q e q 7 : d ,..X,X>X<X>X:X1X,XD.V.,.:.:.` :.1.' ' 1.' ] ] 1.1.1.;.] ] ( j 8 7 7 8 8 6 e e 0 6 0 8 0 0 0 0 e 0 0 0 9 0 0 0 0 0 0 0 0 0 0 0 0 0 0 0 0 0 0 0 0 0 0 0 0 e u q 0 0 0 0 0 0 7 O j X.c.4X}.}.:X>X>X2X2X>X>X=X}.=XQ.>X}./.;XpXvXzXVXVXVXSXVXVXCXCXFXDXCXDXCXSXFXCXSXSXSXHXVXSXAXSXGXAXnXiX/.:X:X}.>X}.2X3XiXsXnXAXSXSXSXAXMXmXaX6X=X{.:X>X1X<X1X}.}.>X>X<X>X>X}.W.>X3XpXcXAXAXSXSXBXSXSXDXSXCXCXSXBXBXSXSXSX9XU.%.+.1.3.3.3.1.1.^ j 8 6 0 0 e e e 6 e 6 6 i 8 e 6 8 u 8 6 8 6 6 6 5 8 8 e e J [ [ [ [ [ ' 3.' 3.[ 3.3.[ 3.1.[ 3.3.3.1.1.1.1.1.1.1.1.3.1.3.1.1.1.1.,.1.' 1.1.1.1.' 3.3.3.>.1.1.A y y 9 y 0 y y 9 y 9 y 9 9 y 9 e 9 y q 9 e 9 9 0 7 7 : > d d.XX}.>X:X:X>X}..XD.x.+.+.+.W -.+.+.:.:.,.` ` ` ] ] ] ` ` / t 6 6 6 6 6 6 e 6 0 0 0 0 e 0 0 0 0 0 9 0 0 0 0 9 0 0 0 0 0 0 0 0 e 0 0 e 0 0 0 0 0 9 0 e 0 0 ",
"u 7 6 6 7 - a Y N.4X}.<X<X<X4X<X4X<X<X4X4X>X<X2X>X2X3XsXhXnXAXHXHXAXAXnXAXAXSXSXSXSXBXSXSXCXSXSXSXSXCXSXCXSXSXVXzXiX+X}.}.>X>X}.>X+X3XsXGXHXAXAXSXHXGXMXhXiX2X>X<X1X>X>X>X<X,X:X1X>X>X:X1X>X=X3XmXnXAXAXAXAXAXzXAXzXAXZXVXAXVXCXAXAXAXwXY.@.1.2.3.] 1.] ) T n e 9 9 0 0 y 0 y y 0 9 y 9 9 9 9 9 9 9 9 9 9 9 0 $ 7 7 5 M 1.' ` ] ] [ 3.3.3.3.[ [ 3.[ 3.[ 1.[ [ 1.[ [ 3.3.3.[ 1.3.1.1.1.1.1.1.,.3.3.3.3.3.1.1.[ 1.3.1.] ] J j 8 5 ; 5 5 5 5 7 9 7 7 7 7 7 5 5 5 - - & : : 7 7 : & = , p.].<X:X1X:X>X,X.X].x.,.#.,.' ' ' [ ] ' ] ] 1.] 1.1.1.0.) ( j 7 7 8 8 6 e 8 6 0 e q e 6 7 0 0 0 0 0 0 e 0 0 0 0 0 0 0 0 0 e 0 0 0 0 0 0 e 0 0 0 0 0 0 0 0 e 0 0 0 0 e 0 0 5 + i X.C.4X$X$X}.}.4X4X4X4X>X}.>X}.=X>X=X/.;XaXvXMXMXGXGXFXMXzXFXFXGXFXFXFXSXSXSXSXCXFXSXVXVXSXVXAXAXSXnXiXQ.}.:X:XQ.>X2X3XdXhXnXGXHXGXGXGXMXmXgX3X2X}.,X<X>X4X>X>X}.>X1X>X1X>X:XQ.>X2XaXvXGXGXGXHXAXHXGXHXGXVXAXAXAXzXAXAXVX9X!.%.:.3.3.3.1.1.1./ t 8 7 5 e 7 7 ; 5 8 7 e 7 8 5 8 6 5 5 7 5 5 6 ; 5 6 ; 6 ; V ` _ ' ] [ [ ,.' [ [ 3.] 3.[ [ 3.1.3.3.1.1.,.1.3.1.1.1.1.3.1.1.1.1.1.,.1.1.1.1.3.3.3.,.' ,.3.' ] V e 9 9 0 9 9 9 9 9 9 9 9 5 9 5 5 5 7 5 q 7 5 5 - - : * = , y.,X>X>X:X>X>X}.}.S.l.#.+.` :.W :.-.:.:.:.:.1.] ] ] 1.] ] / j 5 6 6 6 6 0 6 0 0 0 0 0 e 0 0 0 0 0 0 u 0 e 0 0 0 0 e 0 0 0 0 e e 0 0 0 0 0 0 0 0 0 0 e 0 0 ",
"e 6 9 9 6 5 a U e..X X|. X.X|.{.|.XX}.}.>X>X>X>X>X2X3X6XhXvXnXnXnXnXnXnXzXAXGXSXSXVXSXCXBXSXCXVXCXVXSXCXSXSXCXCXzXpX+X}.}.}.}.>X}./.3XgXmXMXnXnXnXMXMXmXhX5X2X+X>X>X>X>X>X>X>X>X:X1X1X:X:X1X>X3XhXnXnXnXcXnXnXnXnXnXnXnXnXxXnXnXnXnXnX7XK.@.:.1.1.] 1.) ) T m n y y b y y b y y b b a y y b b e y b b e b 0 y b j e 8 U ] ` ` ] 1.] 3.3.3.[ [ 3.[ 3.[ 1.[ 3.3.[ 1.' ] 3.3.3.1.3.1.,.1.3.3.1.1.3.3.3.3.1.[ [ [ [ 1.] ] ) U M t e e a a e a e e y a e a t t 8 7 > r r d t g g g g 2 3 a.{.,X>X>X:X>X<X>XD.x.#.` W 1.3.3.3.1.] ' ` ) ) ) ) ] ) ) ^ j q e 6 7 e e 6 e q 6 8 e e 0 0 0 0 e 0 0 0 0 0 0 e e 0 0 0 0 0 0 0 e 0 6 0 0 0 0 0 0 0 0 e 0 0 0 0 0 0 0 0 6 6 ; a R N. X|.].]. X.X|.]. X}.}.>X}.>X>XQ.2X3X6XbXbXmXMXmXzXlXzXzXzXFXHXSXSXSXSXCXSXFXVXSXVXHXAXFXFXSXGXnXiX/.>X:X}.:X}.2X2XdXhXvXnXnXnXnXMXmXhX6X2X>X:X>X<X1X1X>X>X>X>X4X2X<X2X>X}.>X2XiXsXmXMXMXnXlXnXnXnXnXvXnXxXnXnXMXnXnX7XI.@.:.,.3.2.,.1.1.( g j t i e i d 8 d i i 8 r i i i 8 d 8 i i 8 i 8 e i 8 i u K 1.1.' [ ' 3.' [ ,.3.' 3.[ ' 3.3.' [ 3.1.1.1.1.1.1.,.1.1.1.,.1.3.1.1.1.3.3.3.1.1.[ 3.' 1.3.3.1.] T M y e b n t a e e q q 8 e q t q r 8 q 8 q t t d t g , , S j.>X,X>X:X:X:X:X}.].x.+.W +.` ` X.:.:.:.( ) :.( ` _ ) ( ) ~ j 6 9 6 6 6 7 0 0 0 0 0 0 0 0 0 0 e 0 0 0 0 0 0 0 u 0 0 0 0 0 0 0 0 0 0 0 0 0 e 0 u 0 0 0 e 0 ",
"e q 7 9 9 + a C 1.Z.C.Z.Z.Z.x.l.c.].{.XX>X>X>X>X>X2X2X3X6XhXsXvXvXvXsXlXxXAXAXSXSXSXSXSXSXAXCXSXSXCXCXSXCXSXCXVXzXpX+X}.XX>XXX>X}.}.2X5XhXvXvXsXvXvXmXbXhX3X2X}.>X>X>X1X1X1X>X1X1X1X1X=X>X:X>X3XgXvXhXvXvXvXxXsXvXvXvXlXvXlXvXlXvXvXvXqXK.$.1.2.1.[ 1.1.` ( U m m m n m n B m m n m m n n n n m n m n n m n m n l j n ~ ] ` ] ] ' 3.[ 3.3.3.[ 3.[ 1.[ [ 1.[ [ 1.[ 3.] [ 3.,.1.1.1.1.1.3.1.1.3.1.1.3.[ [ 1.[ [ ] ] ] ] ] T J M n M M M m M M N m N m m M M z r l l K P I P P P P P E s.{.<X,X,X>X,X1X>XG.x.,.` :.:.,.3.3.1.] _ / / ^ ^ ~ / / ^ U e 8 8 7 e 5 7 e 8 0 0 7 7 e 6 0 0 0 0 0 0 0 0 0 0 0 u 0 0 0 0 0 0 0 u 0 e e 0 0 6 e 0 0 0 0 0 0 0 0 0 0 0 0 e 6 ; k Y 2.C.B.V.B.V.c.h.g.].}.}.>X=XQ.:X>X=X2X5XgXgXgXhXsXaXbXsXbXzXzXVXFXFXSXSXVXSXSXVXSXVXVXVXHXVXGXAXMXiXQ.:X>X}.:X=X2X2X5X5XhXhXvXvXvXbXhXhXgX4X=X}.,X<X<X<X1X>X>X>X4X<X4X1X>X:X:X2X3XgXhXvXbXhXsXhXhXhXhXhXhXhXhXhXbXhXmX7XE.$.+.,.3.3.3.1.' R H z l j j j j j j j j j j j j j j j j k k k k k k k k k k T 1.[ [ [ 1.3.[ [ 1.' ,.] [ ' [ [ 3.3.1.1.1.3.,.1.3.1.1.1.,.3.1.1.1.3.1.3.>.3.1.1.,.3.1.' ,.3.1.1./ V M M V m m M n n n n l l M M M l l l H H H P P P G E G G k.>X>X:XQ.:XQ.>X.XD.l.@.` R +.+.:.:.>.` T T T ~ / ( ~ / ! V a 7 0 0 6 6 6 7 0 e 0 0 0 0 u 0 e 0 0 0 6 0 0 0 0 e 0 0 0 e 0 0 0 0 u e 0 0 0 0 0 e 0 0 0 0 0 ",
"e e 6 9 6 7 7 a k V H z K z z h f ,.S..X>X2X>X>X>X>X>X2X4X3X5XiXiXdXiXiXpXjXzXAXAXCXCXSXCXCXSXCXCXSXSXCXSXVXSXNXcXiX+X>X}.}.>XXX}.}.2X2X5X5X3XqX3XiXdX5X3X2X+X2X>X>X>X>X,X>X>X:X>X:X=X>X>X=X>X2X3X5XdX3X%X3XiXiX3XiX3XiX3XiX3X3X3XiX3X!.z.@.' 1.1.1.] ] 1.' ( ( ^ ( ( ( ( ^ ( ( ( ( ( ( ^ ( ( ( ( ^ ( ( ( ^ ( ( ( ( / _ 1.] 1.] 3.[ [ 3.1.3.[ [ 3.[ 3.[ [ 3.[ [ 3.[ 3.3.] 3.1.1.1.,.1.1.,.1.1.1.3.3.[ q.1.1.[ 3.1.[ 1.1._ / / ~ / ( / T ( ( / ( ( ( ( / ( T Y W ,.j.c.c.c.j.c.V.v.j.{.,X>X1X1X>X>X,X.XD.x.,.#.' ` ' 3.[ 2./ H M j t n n j n j k e 8 8 7 8 8 8 6 8 6 e e 6 e 0 0 0 0 e u 0 0 e u 0 0 e 0 u e 0 0 e 0 0 0 0 u 0 0 0 0 0 0 u e 0 0 6 e u e e e u 6 6 8 k z C v v K C v z h >.].}.}.>X>X>X=X>X=X-X3X3X2X3X3X6X3X;XuXlXzXnXVXVXVXVXCXSXVXVXVXGXFXSXVXSXGXVXnXaXQ.:X:X:X}.>X}.>X2X5X3X3X5X5XiXiX6X3X2X2X2X>X>X>X1X<X<X2X>X>X>X>X1X>X,X:X{.>X2X5X5X3X5X3X+X;X3X5X5X3X3X3X3X3X3X5X5XQ.k.@.` 3.3.3.' ' 1.' _ T ( R ( T / R R ( R R / R / R R R ( T ^ R R Y ( Y ( R Y ) 1.3.3.3.[ [ ] ,.' 1.' [ ,.1.,.' 1.' 3.3.1.1.1.1.1.1.3.1.1.1.1.3.1.1.1.1.1.1.1.1.3.,.1.,.1.' 1.2.] ( ( ( ) ( ( ( T ( ( / ( / ( / / R T ` 3.f.V.A.A.n.v.v.v.v.{.1X4X4X1X1X1X<X>X|.l.+.+.:.:.` +.+.:.Y V j a j n j n j n a 0 7 6 7 0 6 6 6 0 0 0 e 0 0 e 0 0 0 0 0 0 0 0 e 0 0 0 0 0 0 0 0 0 0 e 0 0 e 0 0 e 0 0 0 0 0 0 ",
"e e 5 8 7 0 7 5 - - - * - = - % % L c.{.>X<X}.}.}.}.}.=X/.+X/.(.2X3X+X(.7XpXzXAXAXSXCXCXCXSXCXSXSXCXSXBXSXCXSXVXzXiX+X}.}.}.>X>X2X}.>X+X+X+X+X/././././.}.+X}.}.}.:X>X:X:X>X>X>X=X:X>X=X:X>X:X/.+X/.+X/.+X/.+X(.+X/.+X+X+X/././.+X+X/.E.h.$.:.1.1.1.] 1.1.3.1.0.0.1.0.0.0.0.1.0.0.0.0.2.3.0.1.1.1.1.0.1.1.1.0.1.1.1.1.1.3.[ 1.[ 3.3.[ 3.3.3.] 3.3.3.3.[ 3.[ 3.,.3.3.[ 3.1.1.1.1.3.1.3.1.1.3.1.3.3.3.3.3.q.3.3.3.0.3.3.q.1.] ] ] 1.[ 1.] 0.] 1.] 1.[ 0.1.1.1.:.d.S..X<X<X,X<X,X<X:X,X>X<X1X>X,X1X1X:X>XD.V.:.W +.` ' 1.,.q./ l r 5 - ; 5 - 7 ; 5 7 6 6 7 8 7 e 6 7 0 e e 7 e 6 e 0 0 0 0 0 a 0 0 e 0 e 0 e 0 0 0 0 0 0 0 0 0 0 0 0 0 u e 0 0 0 0 0 0 e u 0 0 6 e 6 6 ; ; ; ; = ; ; = = = o.c.}.}.>X>X>X=X=XQ./.2X/.Q././.-X-X-XyXsXkXzXVXVXVXVXSXVXAXVXAXSXVXFXVXFXGXVXzXyXQ.:X:X=X}.}.2X}.$X+X+X+X+X+X/././.+X/.>X}.}.>X>X>X>X>X<X1X>X>X>X>X>X>X:X>X}././.-X+X/././.Q./././././.-X/./.}.-X-XT.u.+.` 1.,.3.' 1.' ' 3.3.3.3.3.3.2.1.2.3.2.3.3.3.2.2.3.2.1.1.1.1.1.1.1.1.1.2.1.3.3.3.3.3.[ ' 3.,.[ 3.' [ ,.' ,.] 3.,.3.1.,.1.3.3.1.3.1.1.3.1.1.1.,.1.1.>.1.1.1.1.,.1.1.:.,.' 3.q.3.[ 1.2.q.3.2.1.1.1.1.3.3.2.3.3.4.2.,.f.Z.,X<X4X<X1X4X<X4X1X4X4X1X1X1X1X1X1X<X].x.@.` W W +.` :.2.Y j e 5 5 7 7 7 7 7 q 8 9 6 7 7 9 9 0 0 e 0 0 0 0 0 0 e a 0 0 0 e u e 0 0 0 0 e 0 0 e u 0 e 0 0 6 0 0 0 0 0 0 0 0 0 ",
"e e 7 8 0 7 6 6 7 5 5 - > > > : = W C.{.}.<X>X}.}.>X>X}.>X+X>X2X2X2X+X(.wXpXzXAXAXSXSXCXAXCXSXCXVXSXSXSXCXSXSXVXcXpX+X}.>X}.>X>X:X}.}.}.}.+X+X+X+X}.+X$X}.+X}.>X>X}.}.>X>X>X:X>X>X:X:X>X>X=X>X=X2X$X+X$X$X+X2X+X2X+X+X+X+X+X2X$X+X+X}.E.j.@.1.1.1.' 1.] 2.3.3.2.1.1.1.1.1.1.1.1.3.2.3.2.3.3.q.1.q.0.3.1.1.1.3.2.3.3.q.3.q.3.3.1.3.[ 3.3.3.3.3.3.1.[ 1.3.3.1.3.] ] ,.3.1.1.1.1.1.,.1.1.3.1.1.1.1.1.1.3.3.3.3.q.3.3.3.3.3.1.[ [ 0.1.1.[ 0.[ [ ] 0.1.0.0.1.1.' W >.V.|.<X,X,X<X>X<X>X>X<X>X>X:X,X:X:X,X,X|.x.#.,.` :.` ' ' 3./ M 8 7 5 ; 6 7 e 8 6 e q 6 8 6 e 8 8 e 0 7 6 6 e 0 0 0 e 0 0 0 0 0 6 0 0 u 0 0 0 e 0 0 0 0 0 e 0 0 e e 0 0 0 0 0 e 0 0 0 0 0 0 0 6 e 6 i 6 8 > ; ; > 8 > > = >.].}.>XQ.>X-X>X>X=XQ.}.>X-X/.=X1X=X-XyXuXzXVXzXGXVXSXGXSXVXFXVXCXFXFXVXVXGXAXMXiX/.:X=X:X:X>X>X>X2X+X+X$XQ./.}.}.}.}.}.=X>X>X>X>X.X>X>X>X<X>X>X,X}.>X>X>X>X>X>X>X/.}.Q.Q.}.Q.}.2X>XQ.}.}.Q./.>X2X=Xk.g.$.` 1.' ,.' ' 1.1.,.3.3.3.1.1.3.3.[ 3.,.3.3.3.1.3.3.[ 1.1.1.3.2.1.1.2.3.1.1.1.3.[ ,.1.[ 3.] ' 1.' 1.' [ 3.' ' 3.1.[ 1.1.1.1.1.1.,.1.1.1.1.3.1.3.1.3.3.1.3.1.1.1.1.1.1.:.' 3.3.>.1.1.3.3.3.3.1.1.3.3.2.3.3.3.3.2.,.,.4.F..X<X1X1X<X1X1X1X1X<X1X=X2X>X2X>X1X}.D.l.+.W ` :.` X.:.-.U M 7 9 5 8 7 0 7 7 0 7 7 6 6 6 6 7 6 0 0 0 0 0 0 0 0 0 6 0 0 0 0 0 0 0 0 0 0 0 0 0 e 0 0 0 0 0 u e 0 0 0 0 e 0 u e ",
"i e 6 q 7 0 6 5 6 9 5 5 e 8 8 > > R C.{.}.<X>X}.>X>X>X>X>X}.>X>X4X>X>X2XqXpXzXAXAXSXCXSXCXSXCXCXCXSXCXAXSXCXSXAXzXiX+X}.>X}.<X}.>X}.>X}.>X>X}.>X}.}.}.}.}.}.>X}.}.>X:X>X>X=X>X:X:X:X>X:X:X:X>X>X>X}.$X>X<X}.>X}.$X>X}.}.>X2X$X>X>X>X}.R.g.,.:.1.1.:.1.1.3.3.3.q.1.1.1.1.1.:.:.1.1.1.1.3.3.1.3.3.3.3.3.1.3.3.3.3.3.[ 3.3.] 3.1.1.3.3.3.3.3.3.3.3.' 3.,.3.[ 3.3.3.3.3.1.,.2.2.1.1.1.2.3.>.3.2.3.,.1.1.1.1.3.3.[ q.p.3.[ 3.[ [ 3.3.[ q.1.[ [ q.[ [ 1.[ [ 1.1.,.W <.x.{.1X,X:X>X>X>X>X>X>X>X:X>X:X>X>X,X,X].V.,.+.W 1.` ' 1.2./ N 8 5 7 6 8 e 6 6 8 6 e 6 8 6 e 7 0 e 7 e 6 e e 0 0 0 0 0 0 0 0 0 0 0 0 0 0 0 0 0 0 0 0 0 0 0 0 0 0 0 0 0 0 0 0 0 0 0 e e 0 e 6 e u e 6 6 e e 6 6 6 6 6 ; ; ,.|.}.>X>X=X=X>X=X2X>X2X>X>X1X=X=X=X=X3XsXlXzXGXVXVXVXVXSXVXVXFXFXAXVXFXFXFXFXMXiX-X:X>X}.2X>X2X2X>X$X>X}.}.}.[.}.}.>X>XXX>XXX>X>X>X}.1X<X<X>X>X,X>X}.>X>X>X>X2X>X>X}.}.Q.>X>X>X>X>X>X>X:X=X:X>X:X1Xb.j.#.+.:.1.1.:.' 1.1.' [ 1.' ,.,.' 3.1.,.1.1.' 1.,.' ,.' 3.' 3.3.,.3.,.' 3.,.,.3.,.,.,.] ,.' ' 1.[ 1.' ] ,.1.' ' 3.3.3.3.1.3.1.2.3.1.3.1.,.1.1.1.1.3.1.1.3.1.1.3.1.1.1.:.1.1.1.,.1.1.1.1.,.[ [ ,.3.:.:.,.2.,.3.,.,.$.W 3.G..X<X<X,X<X>X>X>X1X>X>X1X1X=X1X:X>X}.].l.W :.R :.:.-.:.:.T n q 7 7 7 6 7 7 0 7 0 7 0 6 6 7 0 0 0 e 0 0 0 0 e 0 0 0 0 0 0 0 0 0 0 0 e 0 0 0 0 0 0 u e 0 0 0 0 e 0 e 0 e 0 e 0 ",
"e e e e 0 0 7 9 6 6 6 7 8 8 8 > > X.V..X}.>X}.}.>X>X>X>X>X>X>X>X1X2X>X2X3XjXnXGXAXCXSXCXSXCXCXSXSXSXCXCXCXSXCXZXnXpX+X}.XX}.}.>X}.>X}.>X}.}.}.}.}.>X}.2X}.>X}.>X>X>X}.}.:X}.}.:X>X>X>XQ.>X}.>X}.>X>X>X>X>X>X>X<X>X>X<X<X>X>X>X>X>X<X}.R.j.,.:.1.1.1.3.[ 2.3.3.3.:.1.1.` -.:.` ' 1.1.1.1.1.1.1.] 1.1.1.1.[ 1.3.1.3.] ] 3.] [ [ [ [ 3.3.3.3.3.3.3.1.1.1.1.1.3.1.1.3.1.1.1.1.3.1.1.1.1.1.1.1.1.1.1.3.1.3.1.[ [ [ [ q.q.3.3.[ d.3.3.3.[ 0.1.3.3.3.0.1.0.1.1.,.,.W #.j.D.<X<X>X>X>X:X>X:X,X1X1X>X1X,X>X<X>XG.x.,.,.:.` ' ' ] 3.R M a 5 8 e 6 8 i e e 6 8 e q 8 6 7 e 0 7 8 q 8 6 6 q 0 0 e 0 0 0 0 0 0 0 0 0 e 0 0 0 0 6 a 0 0 0 0 0 0 0 0 e e 0 0 0 0 0 0 0 6 6 e e 6 6 5 5 6 ; 5 5 6 1 = = X.].[.>X>X-X>X-X>X=X>X}.>X>X=X1X=X1X-X3XsXzXGXVXVXFXFXAXSXVXVXVXVXFXVXVXGXVXVXzXyXQ.:X:X>X>X2X4X4X2X>X>X>X>X:X:X>X>XXX>X>X>X>X,X<X>X>X<X1X<X>X>X>X>X}.}.2X2X>X1X>X:X>X>X1X1X4X4X4X1X>X>X>X>X>X:X:X=Xv.y.,.:.:.` ' 1.1.' ,.3.[ ,.3.1.[ 3.3.[ ' 3.,.3.,.[ [ 3.,.1.3.,.] ,.' ,.1.,.1.,.' 2.[ 3.3.' ,.[ ' ,.3.,.' ,.3.[ ,.1.,.1.1.1.3.1.2.1.1.1.1.2.,.1.3.1.3.1.1.3.1.,.1.1.1.1.1.:.1.' ,.1.] 1.1.,.3.3.,.,.3.>.,.2.<.,.<.3.,.` d.A..X1X<X<X:X1X:X1X:X>X>X>X>X>X>X>X>X.XD.V.@.:.+.-.` +.>.1.T n q 7 7 0 7 0 7 7 0 7 6 9 7 0 7 0 7 0 u 6 0 e 0 0 0 0 0 0 e 0 0 0 e 0 0 u 0 0 e 0 0 0 0 0 0 e 0 0 0 0 0 0 u 0 0 0 ",
"e 8 8 e a 8 e 8 7 0 7 7 0 e e 8 ; R B.XX<X>X}.>X}.>X4X>X>X}.:X>X>X>X:X/.@XjXcXAXAXSXSXCXCXSXSXCXBXSXCXSXCXCXSXCXcXdX+X}.}.>X>X}.>X}.}.>X}.>X}.}.}.}.}.}.}.}.}.2X}.>X>X>X}.>X>X}.:X}.>X}.}.>X:X}.>X>X}.<X$X>X>X$X>X}.2X}.>X$X>X>X}.>X>XW.k.,.1.3.1.1.1.1.1.:.1.1.1.1.:.:.:.1.,.1.1.1.:.1.' 1.:.1.1.1.' 1.:.' :.1.1.' ] ] ] 1.] ] [ 1.q.1.3.1.3.3.3.1.1.1.1.3.1.1.1.1.1.2.1.1.1.2.1.1.1.2.1.1.1.1.1.1.1.1.[ ] ] ] ] 1.1.3.3.3.3.3.q.3.3.[ 3.[ 3.1.1.1.1.1.1.3.Q ,.x.D.,X>X:X:X>X:X:X:X>X>X<X1X,X1X,X1X>XF.N.,.,.,.` ` :.' 1.( M j 6 ; 8 6 8 e e 8 e 8 8 7 6 0 e 7 8 q e 8 7 0 0 0 e u 0 0 e 0 0 0 0 0 0 0 e 0 0 e 0 0 0 0 0 0 u 0 0 u 6 0 0 0 e 0 0 0 0 6 0 0 6 a 0 6 7 6 6 5 5 u u 6 - = +._.}.2X-X=X-X=X2X>X=X}.>X}.>X>X:X1X=X3XsXzXzXGXVXVXVXFXVXCXFXVXVXFXVXVXFXGXVXzXaX=X=X:X}.>X}.<X$X4X2X4X2X}.2X>X$X+X>X}.>X>X}.<X<X>X>X<X<X<X>X>X<X>X,X:X>X$X>X>X>X>X>X>X}.>X>X1X4X1X>X>X>X>X>X>X1X>Xb.j.#.,.:.:.' :.,.,.,.1.' ,.[ 3.' 3.[ ,.[ ,.[ ,.3.,.3.,.,.3.' ,.' ,.' 1.,.,.:.1.1.1.1.' 3.' ' 1.' ,.' ' 3.1.3.3.] 3.1.1.1.3.1.1.1.1.1.1.1.1.1.1.1.1.1.1.1.1.1.1.1.1.1.1.1.1.1.:.1.:.:.1.1.,.,.1.:.,.,.,.3.,.>.3.>.,.,.,.a.S..X<X<X<X>X1X1X=X1X>X1X>X1X=X1X>X>X,XS.j.#.:.W :.-.+.:.-.T M q 5 6 0 6 7 0 6 7 0 6 6 0 7 0 0 0 0 0 0 0 0 0 0 0 e 0 0 0 0 0 0 0 e 0 0 0 6 0 0 0 0 e 0 0 0 e 0 u 0 0 0 0 0 0 0 ",
"e e e e e e e q q 0 0 6 6 e i 7 ; R Z.XX<X1X>X}.>X1X1X>X:X}.}.>X}.>X}./.@XpXAXAXSXSXSXCXSXCXSXSXSXCXCXCXCXSXSXNXzXiX+X}.}.}.}.>X}.}.2X>X2X+X+X+X+X2X}.+X2X}.}.>X>X}.}.>X>X=X>X}.>X>X>X}.>X>X}.}.>X2X2X>X>X>X>X>X>X>X2X>X>X>X>X}.>X>X>XT.j.,.` 3.1.1.1.1.1.1.:.:.` :.:.1.1.1.2.3.1.1.:.:.:.:.:.:.1.` :.` ` 1.` ` ` ` 1.] ] ] ] 0.0.[ 1.1.3.q.1.1.3.1.1.1.1.2.1.3.1.1.1.1.1.2.1.2.2.2.1.1.1.2.1.1.1.q.1.1.1.] ] ` ] ] [ 1.3.3.3.3.3.3.1.3.1.1.[ 0.1.] 1.3.1.' W $.f.D.>X:X>X>X:X>X}.}.>X>X>X>X>X>X1X,X,XD.V.,.#.` ` 1.` ' 1.T M e 6 6 6 6 i 8 8 u 6 7 e 6 e 7 e 0 6 e 6 8 0 e 0 0 0 0 0 0 0 0 0 0 e 0 e 6 u 0 0 0 0 0 0 e e 0 e 0 0 0 0 0 0 0 0 0 0 0 0 a 0 6 0 6 e 0 6 6 6 6 5 i u i ; 1 >.|.}.>X=X2X-X2X>X+X>X2X}.2X>X>X>X>X=X;XsXlXGXVXSXVXSXVXVXFXVXVXFXVXVXVXVXFXGXzXyX=X:X:X>X}.}.}.}.}.<X>X+X2X+X+X+X}.+X+X$X}.>X<X<X>X1X<X>X1X>X1X>X>X>X>X>X2X2X>X>XQ.}.}.>X>X>X1X1X>X>X>X1X>X>X>X>X1Xb.u.#.:.1.,.1.' 1.' ' ,.1.1.1.1.] [ 1.1.1.' 1.1.[ ,.1.] ' ,.3.1.3.] ,.1.1.1.,.1.1.1.3.3.3.1.' ,.1.3.1.,.' ,.3.3.3.1.1.3.1.1.1.1.1.1.1.1.1.1.2.1.1.1.1.3.1.1.1.1.2.1.1.1.1.1.:.1.1.:.:.:.:.1.' ,.,.,.1.>.,.,.:.:.3.,.,.#.p.Z.XX4X<X<X>X>X=X>X=X>X>X>X>X>X>X>X>X>XD.V.:.+.:.` :.:.:.1.T n e 5 6 7 6 0 9 7 6 9 7 6 7 6 7 6 6 0 0 0 0 0 0 0 0 0 0 0 e 0 0 e 0 0 0 0 0 0 0 0 0 e 0 0 e 0 6 0 e 0 e 0 0 0 0 0 ",
"8 8 a 8 8 e e e 7 0 7 0 e 8 i - - R Z.,X4X4X>X>X4X4X<X<X:X}.{.>X>X>X>X}.@XpXnXHXAXAXVXVXAXVXSXSXCXCXCXCXCXCXSXSXzXpX+X}.>X>X>X>X}.$X4X4X4X4X4X4X4X4X2X4X4X4X2X4X4X4X4X4X4X4X4X4X4X4X4X4X4X1X4X4X4X4X4X<X4X>X4X<X}.4X<X4X2X<X>X1X2X>X>XQ.x.$.:.>.1.:.1.,.:.1.` ( ` :.1.1.:.,.:.` :.:.:.` ` :.:.:.` :.` ` ` ` ` ` :.` ` ` _ ] [ 1.[ 0.0.[ q.1.3.1.1.1.1.1.1.1.1.0.1.1.1.1.0.1.1.1.1.0.1.1.0.2.1.1.1.1.0.0.0.1.] ] ] 1.1.3.3.3.3.3.3.q.[ ] 1.1.] 1.1.:.:.:.:.+.W $.j.{.>X,X>X>X>X:X}.<X<X<X<X,X<X,X,X,X,XG.V.<.:.` ` ' ' ] 3./ m j ; 8 8 6 6 6 e 8 e e 7 e 8 e 7 0 7 6 0 8 q e 6 0 0 e e 0 0 0 0 e 0 0 0 0 0 0 0 0 e 0 0 0 0 0 0 e 0 0 0 0 6 a 0 0 0 0 0 0 0 e 6 0 0 0 a 0 u 5 6 6 e 8 ; ; >.|.4X5X2X6X4X6X2X2X$X}.}.>X2X:X:X>X=X;XiXlXGXVXGXVXFXGXFXFXFXVXFXVXVXGXzXGXVXmXiX=X=X:X{.}.}.XX}.<X4X5X5X5X5X4X5X3X2X$X$X<X}.<X<X,X<X<X<X1X<X<X1X4X2X4X4X2X4X4X4X4X}.>X}.>X<X<X<X<X>X1X>X:X>X>X>X>Xv.s.#.,.,.' ` ' ` ` ' ` ' ' ` ` ` ' ` ` ` ' ` ` ' ` ` ` ' ` ` :.' 1.:.:.:.:.:.2.1.1.3.3.1.1.3.3.1.1.1.1.1.1.1.1.1.1.1.1.1.1.1.1.1.1.0.1.1.1.1.1.1.1.1.1.1.1.1.1.1.1.1.1.1.1.1.1.1.:.:.1.1.:.,.1.:.:.,.,.:.R +.+.+.W W I ,.S..X<X<X<X2X=X>X>X>X>X>X>X:X>X1X>X<X.X].N.@.` ( :.:.:.+.:.U n e 5 9 6 6 7 6 7 0 7 0 7 9 7 7 0 6 0 0 0 0 0 e 0 e 0 0 e 0 0 0 0 e u 0 0 0 0 0 0 0 u 0 0 0 0 0 0 e 0 0 0 0 e 0 0 ",
"e e e e 8 e e e 0 0 0 7 5 e e ; ; ( B. X.X X.X|.|..X{.}.>XXX:X:X>X>X>X>X3XhXmXMXMXMXnXMXnXnXzXAXSXCXSXCXCXCXSXAXnXiX/.:X>X<X>X2X>X>X$X[..X[. X X.XXX XXX[. XXX{..X.XXX X.X.X.X.X.X.XXX.X.X|..X X|..X[.|. X|.{.[. X{.}.4X2X>X2X2X>X4X>XE.R.<.,.4.2.,.>.,.>.,.+.$.+.,.$.<.2.,.>.<.$.,.,.,.@.,.,.,.,.1.' W ` ` ` ` ` ` ` ) ) ) ( _ ) _ ] ) ] ] ] _ ] ) ] ) ;.` ) 1.) ;.1.) 1.-.;.;.-.;.;.-.;.;.` ) 1.1.1.] ] 1.] ^ ( ( ] ] 1.3.3.3.3.3.1.1.1.,.2.>.%.&.%.%.%.@.O.u.n.E.>X1X1X>X>X:X>X<X<X}.>XXX.X,X:X.X|.F.m.,.,.' 1.' ' 3.3./ N e ; 6 6 6 e 6 e 6 0 e 6 e 6 e 6 e e e q 8 e 6 0 0 0 0 0 0 0 0 u e 0 0 e u 0 e 0 0 6 0 0 0 0 0 0 0 0 e 0 0 0 0 0 0 e 0 0 0 0 u 6 0 0 0 a a a 6 6 6 e ; ; 6 X.B._.XX}.[..X}..X{.}.}.>X+X>X>X>X:X=X3XaXbXvXmXvXMXzXmXlXzXMXVXVXFXVXVXFXGXVXzXyX=X=X=X>X{..X}.}.}.[.{.XXXX X$X X X XXX X|. X|..X X.X X.X|.|..X].|. X.X X.X X_.]..X|. X].|.{.|.{.{.>X}.:X,X}.>X<X>Xb.j.a.$.<.#.<.#.<.#.,.#.Q #.#.#.#.#.#.#.#.,.#.#.Q #.,.#.<.,.,.,.` :.:.1.:.:.,.:.:.:.1.1.] ) _ ` ) ] ) ` ) ] ) ) ] ) ) ] ) 1.) ] -.) ;.1.) ] ) ] ) ] ] ) 1.) ;.] ) 1.` ) ) ] ) ) ` ` ` ` :.:.,.,.1.' ,.>.@.@.@.O.@.@.O.O.&.R.XX<X<X2X>X>X>X>X:X:X,X{.:X,X{.{.{.|.F.l.:.+.:.` -.:.:.:.T n q 5 5 9 6 9 7 0 6 6 6 6 6 0 0 7 0 0 0 0 e 0 u 0 0 0 0 u 0 0 0 0 0 0 6 a 0 0 0 e 0 6 e 0 0 0 0 0 0 0 0 0 0 0 0 e ",
"e e 8 e 8 e e e 6 0 8 0 5 5 8 6 5 N -.2.2.2.4.4.4.4.d.C.<X<X}.:X>X>X1X=X5X3XaXhXsXhXhXsXsXsXlXnXVXSXCXCXCXCXSXAXnXiX/.}.:X1X:X1X<X$XR.l.$.>.2.8.6.2.2.6.8.<.6.2.2.<.<.<.<.2.2.2.<.<.4.2.2.<.4.4.<.<.>.>.2.<.<.8.4.6.S.4X<X>X2X>X4X2X2X>X{.k.c.x.x.j.x.j.j.j.j.x.j.j.x.x.j.j.x.j.l.j.x.x.j.x.x.x.l.l.4.' ' ` ` :.` :.,.R J J J J U J J T J J J J J J U T U A U U U U U A A U U U U A U A U U U J J U U J J V J J T T U T ( ' ,.3.3.1.1.:.` 2.l.L.I.Y.Y.Y.Y.!.!.=X/.2X>X>X>X>X>X>X<XXX].v.S.F.Z.Z.Z.V.V.x.d.,.,.,.] ' ] ] 3./ V t 5 6 6 e u e e e e 6 0 6 0 7 0 0 0 e 6 0 0 0 0 e 0 0 0 e 0 0 0 0 0 0 0 0 0 e 0 0 u e 0 e 0 0 0 0 0 0 0 0 0 0 0 0 0 0 0 0 0 e 6 0 e e a a a 8 6 8 6 ; ; 1 C R >.2.4.<.8.<.6.g.C.}.}.<X>X}.}.:X}.2X3X6XsXaXhXgXhXsXsXbXzXVXVXFXVXzXVXGXzXlXyX/.+X}.{.{.{.}.XX].z.6.<.8.8.8.8.8.2.8.4.4.4.4.4.4.8.4.4.4.8.4.4.8.4.4.8.8.4.8.4.4.4.2.4.2.<.4.l.n.XX>X}.}.>X>X1X>XW.v.v.j.j.v.f.j.j.j.v.j.f.j.j.f.j.j.j.f.j.j.j.j.v.f.j.j.j.f.<.<.' ,.,.,.,.:.:.` ( T ~ J ! J J ~ V ! U U ~ A U A U U ~ A A U U J U U U J U J T U J U U T U U U U J U T U J J J V A T ( :.1.:.2.:.:.@.,.h._.~.Y.Y.I.Y.~.E.E.[.$X>X<X>X2X>X=X>X:Xb.v.v.v.V.V.c.S.V.V.m.:.:.:.:.:.) :.:.T n q 7 9 7 6 7 6 0 9 7 6 6 7 0 7 0 0 0 0 0 0 0 e 0 0 0 0 0 0 0 0 0 0 0 0 u 0 0 0 0 0 0 u 0 0 0 0 e 0 0 0 0 0 0 0 0 ",
"7 e q 8 e 8 8 e 0 7 8 7 5 5 e 7 6 k B N J A A A V K K <.XXXX>X:X=X:X:X>X1X2X6X6X6X6X3X6X6X3XiXlXVXCXCXCXCXCXVXAXnXiXQ.}.:X>X>X,X}.}.k.@.v m C C C C C C C C C C V C C C C C K C C C C C C C C C C C C C C K C N K P h.<X>X2X>X4X2X>X2X>X>XW.W.W.{.{.].W.{.].R.].].R.].R.D.{.S.R.R.{.S.].{.].].].D.V.4.` ` ` ` ` :.:.1.K j j n t n n n n M n M n n n j j n k n n j k n k k n k j n k n n n j k n j j j j j n j n n n n j K Q ,.,.,.1.1.` ` <.z.OXwXwX9XjX8XuXsXaX3X3X=X2X>X>X>X>X<X,XS.l.d.m.d.w.d.m.3.3.3.3.,.3.1.[ ] ] 0./ N e 8 6 6 6 6 e e e 0 e 0 0 0 0 0 0 6 0 0 0 0 0 0 0 0 0 0 0 0 e 0 0 0 e 0 0 0 u 0 e 0 0 0 0 0 0 0 0 0 0 0 e 0 e 0 e 0 0 0 e 0 0 0 0 0 e 0 e a 8 u e 8 6 6 6 i k C C C C A m F Y d..XXX<X>X>X}.}.=X>X2X6X6X6X2X3X6X3X6XyXmXGXFXMXVXFXVXAXzXzXiX/.>X}.}.}.XX}.}.j.+.K C C C C C C C C A V C A A C A A A A A C A C A A A A C A A A K V J K N K P l.}.>X>X}.>X<X>X1X:X{.b.b.b.b.b.b.&Xb.b.b.b.b.D.b.b.b.b.b.b.b.b.b.b.b.D.b.b.v.s.<.,.,.,.,.>.+.X.` K l n n n M n n n n n n b n n n a k n n n j n n M j n k n n j j n j j j j j n n j n j j n n b n n U R :.:.:.,.>.:.,.<.z.%XfXpXpXpXhXfXpXiX3X+X$X}.2X>X=X-X:XT.v.s.a.d.d.d.d.d.d.d.4.+.:.+.:.:.:.:.1.U n q 7 7 0 7 9 7 7 6 6 6 6 6 6 6 6 0 0 0 e u 0 0 0 0 0 0 e 0 0 0 0 e 0 0 0 0 0 0 e u 0 0 e 0 0 0 u 0 0 0 e 0 0 0 0 ",
"6 e 8 e e 7 8 8 8 7 6 e 6 e 6 8 e e 7 5 5 # 5 + - - > R  XXX<X}.:X}.>X>X=X-X=X=X=XQ.Q.Q.=X+X;XkXNXVXCXCXCXSXVXZXnXqXQ.Q.:X:X:X:X>X}.x.o.= O 5 @ $ ; @ 5 5 @ @ - @ 5 @ ; - - - 5 5 @ ; ; @ ; 5 5 ; @ - - - - + o + 1 @.XX>X>X4X2X1X>X1X-X1X>X>X<X>X>X<X<X>X<X<X<X>X4X<X<X<X<X<X1X<X>X<X<X<X<X<X<X.XZ.d.' ` ` :.1.:.,.` H 8 7 - - 5 5 5 7 7 7 7 5 7 5 5 ; 5 5 5 5 ; 5 5 5 5 5 ; 5 5 ; 5 5 ; ; 5 5 7 7 5 5 5 5 7 7 7 7 7 7 l T W ` 1.1.' ` ` 4.P.fXAXAXGXGXGXGXMXmXhX3XQ.>X>X2X2X>X,XXXj.<.1.' :.1.] 1.1.1.' ,.' [ [ [ [ [ [ / N q 7 6 6 e 0 e u e 0 0 e 0 0 0 0 0 0 0 0 0 0 e 0 0 e 0 0 6 0 0 0 0 0 0 0 0 0 0 0 0 0 e 0 0 u 0 0 0 0 e 0 0 0 u 0 0 e 0 0 0 0 0 0 e 0 e 0 e e a a a e 8 6 > > 6 8 6 $ @ - o O d o..X$X<X<X<X{.W.:X}.=X>X=XQ.=X}.=X=X=X;XlXVXFXGXVXVXFXGXzXlXyX/.2X>X}.}.}.XX{.6.F > + @ @ 5 # - @ 5 @ 5 @ 5 5 @ @ 5 ; $ ; $ $ ; ; $ @ @ $ 5 5 @ @ 5 - - & - d $.<X<X>X>X>X4X<X>X>X:X*X:X>X:X:X:X:X:X>X>X:X:X:X:X:X:X:X:X,X,X>X:X:X>X:X,X,X{.x.d.$.` :.:.:.+.` -.M 8 7 7 9 9 6 9 9 9 9 9 9 6 9 6 5 5 7 5 5 6 5 5 5 5 - 5 5 5 ; 5 7 5 5 5 ; 5 5 5 5 5 5 5 5 7 5 q 7 m ( W +.:.,.,.,.1.d.[.hXMXGXGXGXGXGXMXmXgX5X+X}.=X>X-X>X:XD.j.#.Q ' Q ` Q #.' ' 1.:.` :.` :.:.:.:.T n q 7 9 7 6 0 9 6 6 6 6 6 6 6 6 0 0 0 0 e e 0 0 0 0 e 0 6 0 e 0 0 0 0 0 e 0 0 e 0 0 0 0 0 0 0 0 e 0 0 0 0 0 0 0 e ",
"6 7 e e e 8 e q e 5 e 6 7 e e 8 7 6 5 5 5 5 # 5 - - d R |.XXXX>X:X>X=X1X:X=X=X=X-X>X=X>XQ.>X;XlXNXVXVXCXVXVXAXNXcXiX/.:X=X:X&X:X,X<Xh.X.; + 9 6 6 6 5 5 7 5 5 9 9 6 7 6 7 7 6 7 7 5 5 6 6 5 6 7 5 ; 5 - - ; ; O ; i #.XX}.2X>X}.-X>X>X=X1X>X>X>X>X<X<X>X4X>X1X4X1X4X>X<X>X1X<X>X1X1X4X<X<X<X4X4XXXV.d._ ` ` :.1.>.,.+.N 8 7 5 7 7 7 7 7 7 7 7 7 7 7 5 6 6 7 7 5 5 6 6 6 6 7 e 5 6 8 6 6 6 6 e 7 5 7 5 8 5 7 7 8 8 7 7 : l T W 1.' ' ' ` ` d._.fXMXVXVXGXFXzXFXMXaX-XQ.:X1X>X}.}.>X.Xj.#.:.` ] ` :.' 1.' ,.,.3.3.3.1.] [ q./ M y 6 6 6 6 e e e e 0 0 0 0 0 0 e 0 e 0 0 0 0 0 0 0 0 u e 0 0 0 0 e 0 0 0 e e 0 0 0 0 0 0 0 e 0 0 e 0 0 0 0 0 e 0 0 0 0 0 e u 0 0 0 u 0 0 e 0 0 e 8 u u 8 6 8 ; 6 5 5 5 7 + * d +.XX<XXX}.}.Q.}.>X+X}.Q.}.Q.Q.2X=X=X-X;XmXzXVXVXVXFXVXGXVXlXyX/.>X4X<X<X<X4XXX6.v ; - 5 ; 5 5 @ 5 5 5 9 7 5 6 7 5 $ 6 5 $ 6 5 $ 5 6 6 6 5 $ 6 7 9 6 9 - O - d 2.4X<X4X>X<X>X1X4X1X>X>X1X1X:X:X:X,X:X:X>X1X:X:X>X1X:X>X1X:X>X1X:X:X:X>X>X,X{.c.d.W +.+.+.:.:.+.:.H 8 q q 9 9 9 9 7 0 9 6 6 $ 0 7 6 6 6 9 7 7 7 7 5 7 8 8 5 7 8 5 7 5 8 5 7 e 5 7 7 5 7 7 7 9 q 9 7 M ( ( +.:.:.:.+.W d._.xXAXAXAXGXGXGXMXMXhX3X+X$X>X=X=X:X:XW.s.Q Q _ ' ' ' ` ` 1.' :.` :.:.:.:.1.] T n q 7 7 7 6 7 0 7 6 6 6 6 6 6 6 6 6 0 0 0 0 0 0 0 0 u e 0 0 0 e 0 0 0 0 0 0 0 0 0 e 0 0 0 0 e 0 0 0 e 0 0 e u 0 0 ",
"6 7 0 e e 7 0 e 7 7 7 6 e 0 e 7 0 e 6 7 0 7 7 7 0 8 g X. X.XXX}.}.>X>X=X=X>X-X>X2X>X>X>X>X>X3XlXVXVXVXVXVXVXZXZXnXqX/.>X:X:X&X:X<X<Xx.X.8 7 e a y e e y e a e e a y e y e e a e e e y y e y e e 6 8 8 e u 6 6 6 e d 2.XX}.}.}.}.=X=X:X=X>X>X>X>X=X>X>X>X>X>X>X>X2X>X>X>X2X>X>X>X1X1X>X>X2X>X4X<X.XA.d.` ` ` 1.3.,.:.` H e q 7 0 q q t e t t e t e e e e e j a 0 a 6 a 6 a a 6 a e e a a e u i e e 8 e e e e t t 8 q 5 - j T ' ' ' ] [ _ ` <.P.fXAXzXzXVXzXzXzXbXiX-XQ.>X>X>X}.}.{.|.f.,.,.' ' 1.1.1.,.,.3.3.3.3.3.d.[ [ [ ) B y 7 6 0 0 0 u 0 0 0 0 0 u e 0 0 0 0 0 e 0 0 0 0 e 0 0 0 0 0 0 0 0 0 0 0 0 0 e e u e u 0 0 0 0 0 0 0 0 0 0 0 0 e 0 6 0 0 0 0 0 0 e e 0 0 0 0 e 0 a e a 6 6 6 7 0 6 6 0 7 6 7 g >. X<X}.}.}.}.:X>X>X}.Q.Q.}.>XQ.2X>X2X;XlXzXVXVXSXCXVXFXVXbXiX-X=X1X>X4X4X4X4Xl.F 1 5 0 0 0 0 6 e a 0 0 e e e e 0 e 0 0 0 y 0 0 0 0 u u y 0 0 0 0 0 0 7 5 6 z 4.4X4X4X<X4X>X<X<X1X1X1X:X>X1X:X1X1X,X:X>X>X:X>X>X:X>X>X:X,X:X:X>X:X1X>X1X:X{.v.p.W W :.+.+.:.:.1.V 7 q q e y e e y e 0 0 u y 0 0 0 a 0 a e e 8 u 8 e 8 8 a e u e 8 i e e u 8 8 a e 8 e e 8 e e e 7 N 1.:.:.+.` :.W W 8.[.fXcXcXzXZXAXGXMXvXpX@X+X$X>X=X:X>X:XD.s.Q Q _ { _ ' { ' [ [ ,.] 1.:.:.1.:.,.T n 7 5 7 7 7 9 6 6 7 6 6 6 6 6 6 6 0 0 0 0 u 0 0 0 0 e 0 0 0 0 0 0 0 0 0 a 6 0 0 0 e 0 0 0 0 0 0 0 0 0 e 0 0 0 0 0 ",
"7 0 7 e e 7 e e 0 6 e 0 e 7 e 6 7 e 8 8 0 0 0 0 7 e j R .XXX,X>X>X>X>X2X>X>X>X>X2X1X>X>X>X>X3XlXNXVXVXVXNXzXNXZXcXpX/.>X:X&X&X:X<X<Xh.R 8 5 y e e 9 e e y 9 0 y 9 0 9 y e y 9 y y e e e e e e 9 6 6 e e e 6 ; 5 e f >.}.}.>X>X}.:X>X}.>X=X>X=X1X>X>X>X>X=X1X>X=X>X=X>X>X=X1X>X>X=X>X>X>X>X>X}.>X{.V.d.` ` ` ' ,.,.:.+.K j 0 7 7 e q q e q q q q 0 0 e e e e 6 a e u 6 a 6 0 u 6 u 0 e 6 e e e e e e e e e t e q e q 7 5 M R ` ,.' [ [ ' _ d._.hXVXVXVXVXFXzXbXbXpX3X-X>X2X>X+X}.,XXXM.3.,.' 1.1.1.3.3.3.3.3.3.3.3.3.[ [ ] ) B y 6 0 0 0 0 0 e e e 0 0 0 e 0 0 0 e 0 0 0 0 0 0 0 0 0 0 e 0 0 0 0 0 e 0 0 0 0 0 6 0 0 0 0 0 0 0 e u e 0 0 0 0 0 0 0 e e 0 0 0 0 0 0 0 0 0 0 0 e e a 0 u a a e 0 0 e 0 9 7 8 z ,..XXX<X>X>X}.}.+X>X>X>X}.Q.}.>X=X>X-X3XbXMXnXFXSXSXVXHXGXbXyX=X:X1X<X}.$X<X<X8.K i 6 a a u 0 0 0 e 0 0 0 y y 0 0 b y 0 0 u 0 y 0 y y 0 y 0 0 y y 0 0 7 5 e z 4.<X<X4X>X<X>X>X4X>X1X>X>X:X:X:X:X:X>X:X1X:X1X1X:X1X:X:X1X>X:X1X>X>X:X>X:X,X:Xc.d.W #.,.,.,.$.,.>.H 8 9 9 e e q y 0 0 0 y 0 0 u y u 0 0 0 e e 8 e e e e e e e e e e e e e 6 e 8 e e e e q e q 0 0 q N -.1.,.1.>.$.+.W l._.xXAXAXZXAXAXAXAXcXpX@X/.2X2X=X=X=X,X:Xf.Q { [ { { _ [ [ [ 3.1.' ' :.,.` 1.1.T n q 7 q 7 7 0 7 0 6 0 6 6 9 6 6 0 6 0 0 0 0 0 0 0 0 0 0 0 0 0 e 0 0 0 0 0 0 0 0 0 0 0 0 0 0 e 0 0 0 0 0 0 0 0 0 0 ",
"5 e 0 e 8 0 7 8 6 7 0 7 q 8 e 7 7 0 8 0 7 8 8 7 e 8 d R |.,X<X2X>X>X>X2X1X=X>X>X>X>X1X:X:X>X3XsXzXVXVXNXNXNXNXNXcXpX/.>X:X:X&X&X<X<Xx.I 7 5 9 e y 0 9 e 9 y 9 9 y 9 e e y e e y y 9 9 y e e 0 e 6 0 e e 8 5 5 ; e f >..X}.2X}.>XQ.>X=X>X=X>X>X:X=X:X1X>X>X=X>X=X>X>X>X>X=X>X=X=X>X>X>X2X>X$X>X$X.XS.d.` ` :.,.,.,.+.:.H 8 q 6 9 q q e q q e e q 9 9 y b 8 0 0 6 6 6 0 0 0 6 0 0 0 0 0 0 6 6 e 0 e e 8 t b q t e q 8 7 # l R Q ,.,.[ ' ' W p._.vXFXVXVXVXFXzXFXbXpX;X=X1X2X>X}.}.,XXXM.p.,.,.3.,.1.1.3.,.,.3.3.' q.] [ [ [ ~ J y 6 9 0 0 0 0 0 e 0 0 0 e 0 0 0 e 0 e 0 0 u e 0 0 e 0 u 0 0 0 0 e u e 0 0 0 0 0 0 0 0 0 e e 0 u 0 0 0 e 0 0 0 0 e u 0 0 0 0 0 0 0 0 0 e 0 u 0 0 e 0 a e e e e a e e 0 7 0 8 h +..XXX4X4X>X>X}.>X+X+X>X>X>X>XQ.}.2X>X;XbXzXVXVXFXSXHXHXVXzXiX>X>X>X}.<XXX4XXXg.K i 7 b b 0 0 0 0 0 e 0 0 9 0 0 9 y b y 0 y 0 y 0 0 y y 0 0 0 0 0 0 0 6 - e z <.<X<X1X>X>X>X>X<X>X>X1X:X>X:X:X:X:X:X:X:X:X:X:X:X:X:X:X:X>X:X:X:X:X:X:X>X,X{.c.s.+.+.<.,.<.,.:.:.V 8 9 5 0 y 9 y 9 y y 0 u y y 0 0 0 0 0 u e e e 6 u 6 6 6 e 6 e e u 6 e 6 e 6 e u 8 6 8 q 0 9 9 0 m -.:.,.2.2.,.:.+.8.[.cXAXSXZXAXZXAXnXzXpX(.+X2X2X>X=X:X:X&Xs.Q Q [ _ [ [ [ [ [ ] ] ' 1.1.1.1.1.:.T n 8 5 7 7 0 7 6 0 7 6 6 6 6 6 6 6 0 0 0 0 0 0 0 e e u 0 0 u 0 0 0 0 e 0 0 0 0 0 0 0 0 e 0 0 u 0 0 0 0 0 0 e 0 0 e ",
"e 5 e e e 0 0 e e 7 0 e e 6 e 6 e 0 7 7 0 0 0 8 e 8 d R  X<X4X>X>X>X>X>X>X>X>X>X=X:X:X:X:X>X3XsXzXVXVXVXVXNXVXAXcXpX+X:X,X{.&X:X<X<Xl.Y e 9 9 y 0 y 0 9 e e 0 0 0 e y 0 9 e 0 0 e 0 e e y 9 0 9 0 6 u 6 6 6 6 5 e d >..X}.}.<X>X>X:XQ.>X>X>X>X>X>X>X=X=X2X>X>X>X:X-X>X=X>X>X>X>X=X>X>X>X>X2X>X}..XS.d.W W 1.,.,.,.,.,.K 8 e 6 6 q e q e e q e e y y $ $ e 6 6 e 0 0 e 6 0 0 0 6 0 0 0 0 e 6 0 6 8 e 8 e e e q e e q 7 5 l ` W ,.' ' 3.W R p.I.hXzXVXVXFXFXzXMXbXsX3X=X>X>X}.+X$XXXXXV.p.,.1.] ] ' 1.' 1.3.3.3.3.[ ] ] ] [ _ M y 9 6 0 0 y 0 b 0 0 0 0 0 0 0 0 0 0 u 0 0 0 0 0 0 0 0 0 0 e 0 0 u 0 0 e 0 0 0 0 e 0 e 0 0 0 0 e 0 0 0 0 0 e 0 0 u 0 e 0 0 0 e u 0 0 0 0 0 e 0 e 0 0 e 0 a a e y e e 0 5 5 7 z +. X<X4X4X>X2X}.}.}.>X2X2X2X2X>X2X>X2X3XhXzXzXGXGXVXFXGXGXlXiX=X>X>X<X$X4X4X$Xl.K > 6 y a 9 0 0 0 7 0 0 0 0 0 0 0 0 $ 0 0 y 0 0 0 0 0 u $ 0 0 y 9 y 0 6 - 8 z d.<X4X2X<X<X>X<X>X>X>X,X>X>X:X1X:X>X:X1X>X:X>X:X>X>X1X>X:X:X1X:X1X:X>X,X>X:X:XV.d.#.:.,.@.' :.:.` H 8 9 9 9 e e 0 0 0 0 0 0 0 0 0 0 0 0 0 6 e 6 e 6 6 e e u 6 0 6 6 6 e u 6 6 6 6 6 8 e 0 e 0 9 9 7 m ( +.,.>.2.,.+.W d.Y.vXSXSXSXAXSXAXAXxXpXOX/.}.2X=X=X*X,X:Xj.Q { ' [ [ ' [ ' [ 3.1.1.1.' 1.:.:.1.T M 7 5 7 9 7 0 7 7 6 6 6 6 6 0 6 6 0 0 0 0 0 0 0 0 0 0 0 e 0 e u 0 0 0 0 e 0 0 u 0 e 0 0 0 0 0 e 0 u e e 0 0 0 0 0 ",
"5 e 6 e e 6 8 8 6 6 q 0 6 7 0 8 8 q e 8 8 e 7 e 7 8 d R |.XX<X>X-X>X>X>X>X>X:X:X:X:X:X:X:X:X3XsXzXVXVXVXCXAXSXAXnXdX/.:X{.W.&X:X<XXXz.L 8 9 0 9 y 9 0 0 0 9 0 9 0 y e y e 0 9 e e 0 y 0 y e e e 0 0 0 0 6 6 6 ; u d >.].}.}.}.}.}.Q.}.:X>X>X>X-X>X=X=X>X>X>X=X>X>X>X=X>X>X=X=X>X>X2X>X>X2X1X>X4X.XS.d._ ' >.' ,.,.,.,.K 8 e 7 9 9 q e q e t e e y b $ b $ $ $ B 0 0 $ 0 0 0 0 0 0 0 0 0 0 0 q 0 0 q 6 e e e t q q q 7 5 M W :.,.,.,.3.' W 4.K.fXzXFXFXzXFXzXFXbXsX3X=X1X:X=X+X$X<XXXx.,.' ' ' 1.' 1.1.1.3.3.3.3.q.[ [ [ 0.) M y 9 0 0 0 0 0 0 0 0 0 0 0 0 0 0 0 e 0 e u e 0 0 0 0 0 0 0 0 0 0 0 0 e 0 0 0 0 0 0 0 0 0 0 0 0 0 0 e 0 0 0 0 0 0 0 e 0 0 0 e 0 0 0 0 0 0 0 0 0 u e 0 e e b 0 e e e e 9 9 5 8 f o. XXX4X<X}.>X}.Q.}.-X1X1X2X2X>X>X2X2X3XsXzXzXVXVXVXVXGXnXlX;XQ.{.}.}.}.4X4XXXg.G 8 5 0 0 0 0 0 0 0 0 9 $ 0 9 $ y 0 y y $ $ b $ $ y $ u y 0 0 0 y $ 0 9 ; e z <.<X<X<X>X>X>X:X{.:X>X>X>X,X>X:X:X:X:X:X:X:X:X:X:X:X:X:X>X=X1X>X>X>X:X>X>X,X{.v.a.,.<.,.:.$.,.+.X.H e 9 7 0 9 9 y y 0 y y $ u 0 y 0 0 0 0 0 0 e e e e e 6 e e e 8 6 e e e e 0 e 6 6 0 0 e 0 0 9 0 7 V -.>.>.2.2.,.,.@.l.`.xXSXSXSXSXAXAXnXvXpX@X$X>X>X=X=X*X,X&Xf.Q ' ' ] 3.1.1.1.3.1.1.1.1.' 1.:.1.1.T n 8 5 6 7 6 6 9 6 6 7 6 6 $ u 6 6 7 e 0 0 0 0 0 0 e 0 e u 0 0 e 0 0 0 0 6 0 0 e 0 e 0 0 0 0 0 0 0 0 0 u e 0 0 0 0 ",
"e 5 7 8 e 8 e e q 7 e 7 e 8 0 7 6 e 6 e 7 6 e 6 8 i j R |. XXX>X>X>X>X>X>X>X>X,X,X:X:X:X:X>X2XgXlXnXnXnXnXnXAXnXvXdX}.{.{.{.D.{.XXXXl.R e 5 y 9 9 9 9 e 9 y 0 9 9 9 0 9 9 y 9 y 9 y 9 e 0 e 9 0 7 0 0 6 6 e 6 5 e g >.|.}.<XXX}.>X{.}.>X1X4X>X>X>X>X>X=X=X>X>X>X=X>X>X>X>X>X>X>X>X}.2X>X>X>X>X2X}.c.d.+.,.,.,.,.$.<.,.K a 0 7 7 9 e e e q e q e y $ b $ B B $ $ u y u 0 u 0 u 0 0 u u 0 0 0 0 0 0 e e q a e e e e q 7 5 M ,.W $.,.,.,.,.,.l.I.iXlXzXFXzXzXlXzXbXsXiX-X=X2X(.@X5X4X<Xd.o.` :.' 1.1.1.1.3.3.q.3.3.3.q.[ ] [ ~ B y 0 9 y 0 0 y 0 y e 0 0 0 0 0 e 0 0 0 0 0 0 0 0 0 0 0 0 6 0 0 e 0 0 0 0 0 0 e 0 0 0 0 0 e e 0 0 0 0 0 0 0 0 e 0 0 0 0 0 0 0 0 e 0 0 0 u e 0 e 0 0 0 0 0 e y e 0 0 0 0 7 # 7 j :..XXXXXXXXXXX{.{.}.2X2X6X6X4X-X2X>X=X3XsXvXbXmXMXMXmXMXMXsX3XE.|.{.].]..X X.X>.K > 0 0 0 0 0 e 6 0 0 y u 9 0 y 0 0 $ y y y $ y y $ y y $ 9 $ y y u 9 6 5 e N 4.XXXX{.}.XX}.{.W.{.>X:X>X>X:X1X>X:X>X:X>X:X>X=X1X>X:X:X:X>X:X:X:X:X:X:X:X:X:Xc.g.a.,.$.,.$.2.,.,.K e 9 0 0 9 0 0 0 0 0 u y y u 0 0 u a 0 0 0 u e e 6 e e u 6 6 e 0 6 u 6 e e e a e 0 e e e e 0 9 7 C >.,.4.<.<.<.>.$.g.I.vXGXAXAXAXAXnXnXxXiXiX@X@X2X-X-X-X$X{.g.#.#.] ] ] 3.' 1.1.1.` :.:.:.1.1.1.1.T n q 5 6 0 7 9 0 7 0 7 0 6 6 6 6 0 0 0 0 0 0 0 0 0 0 0 0 6 0 e 0 0 0 0 u e 0 e 0 0 0 0 6 0 6 0 0 a 6 0 0 0 0 0 0 e ",
"7 6 e e e 0 7 e 6 6 0 8 e 0 e 7 7 6 7 e 6 e e 8 8 e j Y m.Z.B.c.c.v.k.c.n.W.{.>X:X:X:X:X>X>X2X6XaXpXpXsXsXsXpXaXdX+Xk.c.v.j.v.c.Z.Z.:.K 7 9 9 y y 0 9 0 y 0 9 0 e e e e y 9 0 e e 0 9 y 9 e e 9 0 0 0 0 6 6 8 5 u j X.x.k.C.c.c.v.k.c.].}.}.}.>X>X>X>X1X>X2X2X>X2X>X>X-X2X>X2X>X2X>X>X>X2X2X>X>X}.{.S.j.j.S.c.c.C.j.C.W j 7 6 7 0 e q e e q e e $ y $ B $ $ b $ y $ 0 u 0 u 0 0 0 0 u 0 0 0 0 0 e 0 8 e e 8 q e q e 7 5 U d.j.V.j.v.x.j.j.v.W.3XyXuXuXsXuXuXuXaXsXaXaXaXpXiXpXhXdX5Xc.,.:.:.:.1.[ 3.3.3.3.3.3.3.3.3.[ [ 0.) B y 9 0 0 0 0 0 0 y e u 0 0 0 0 0 0 0 0 0 0 0 0 e 0 a 0 0 0 0 0 0 0 0 0 0 0 0 0 0 e 0 e 0 0 0 0 e 0 0 e u e 0 0 0 0 0 0 u e 0 0 0 0 0 e 0 0 0 0 0 0 0 0 u e 0 a 0 0 0 0 0 6 > d Y Z.C.S.C.c.c.c.j.b.W.1X4X4X>X>X>X=X>X/.3XaXyXaXsXaXaXgXiX@XE.x.V.c.c.c.c.C.C.X.K e 6 0 0 0 0 0 0 0 0 0 0 0 9 y 0 0 $ y y $ y y $ b $ y $ y y 0 0 $ 9 0 6 e z +.C.j.c.c.v.c.j.j.S.{.>X>X>X1X=X>X:X1X>X:X:X>X>X:X1X:X>X>X:X:X:X:X:X:X:X>X>X{.{.v.C.c.c.j.x.V.x.l.R e q 0 9 y 0 y y 0 0 y 0 y 0 0 e 0 u 0 e 0 e e e e 6 e e e e e e a e e e e 0 e e 0 0 0 0 0 9 0 e K 4.V.C.C.c.c.l.x.R.[.dXvXfXjXxXxXpXpXpXiXfXsXpXpXaXyXaX5X5Xk.$.+.' ] [ [ ' ] [ 3.1.1.1.1.1.1.1.:.T n 8 5 6 6 6 7 7 6 7 6 6 6 6 6 6 6 0 0 u 0 0 0 0 0 0 0 0 e 0 0 e 0 0 e 0 0 0 0 0 0 0 0 a 0 0 0 0 0 e 0 0 0 0 0 u 0 ",
"6 7 e e 8 7 0 e q 8 8 8 6 7 e 0 e e 6 e 6 7 7 e 8 8 e m 1.1.2.>.,.>.>.<.s.n.{.>X:X,X,X>X,X:X>X2X2X2X2X2X2X5X2X+X}.x.>.<.<.,.,.,.3.4.T j 9 9 y e e y 0 9 y e 0 y 9 y 9 y 0 e 0 y 9 y e e e e e e 0 0 0 0 6 8 6 e e d K 2.$.<.<.>.<.<.<.j.v.W.}.:X=X1X-X1X1X2X1X1X1X2X1X1X4X1X1X4X>X4X2X2X>X>X2X}.<X<XXXXX.XXX.XXXXXXX.X1.a 0 6 6 0 q y q e e e q $ B $ $ $ B y $ y u 0 0 y 0 0 0 0 0 0 0 0 0 0 q q e 0 q e e e q q 0 9 5 R S.,X<X,X,X{.{.W.W.W.-X-X-X-X-X-X;X;XyXsXbXbXzXnXzXzXnXvXgXP.%.,.1.] :.,.3.3.3.3.3.1.' [ [ [ ] [ ) B y 9 0 0 y 0 y 0 0 0 0 0 0 0 e 0 u 0 0 0 0 e 0 0 0 6 0 0 0 0 e e u 0 0 e 0 0 0 0 u 0 0 0 0 0 0 0 0 0 0 0 0 0 0 0 e 0 0 0 0 e 0 0 0 0 0 0 e 0 0 0 0 0 0 e 0 0 0 e a 7 9 0 6 7 8 K 2.4.2.$.,.<.a.y.g.b.E.2X2X}.Q.Q.>X=X=X=X-X-X-X-X1X2X3X}.R.k.2.4.2.<.<.>.<.<.R z i 0 0 0 0 0 0 0 0 0 0 0 y 0 u $ y b $ y b $ y b $ u y u y 0 0 y 0 0 0 6 e j L <.$.$.<.$.a.<.$.j.n.>X:X>X:X:X>X:X:X:X:X1X=X:X:X>X>X:X:X:X>X1X=X>X1X>X,X<X>X}.XX>X.X.X|.{..X.X|.W j a q e 0 0 9 0 0 0 y u $ 0 u 0 0 e 0 0 0 6 6 6 e u 7 6 e 8 6 6 6 0 0 0 0 0 e u 0 0 0 0 0 0 0 e R F. X<XXX.XXX{.].{.$X4X%X@X@X3X@X3X@XiXhXvXMXAXnXVXzXnXvXhXK.*.,.' ' [ [ ' [ [ ] :.1.:.1.1.1.1.1.T n 8 - 9 9 0 7 0 6 0 6 6 6 6 6 6 0 0 0 e 0 0 0 e 0 0 0 0 0 0 0 0 0 0 0 e 0 0 0 0 e 0 0 0 0 0 0 0 0 0 0 0 0 0 e e 0 ",
"6 7 e e e 8 e e 6 7 8 8 7 6 e 8 e 8 5 8 e 6 5 e e e a B ;.1.:.>.:.>.1.@.a.v.,X<X1X,X,X,X1X:X:X,X>X:X:X:X>X1X>X:X.Xj.#.,.,.,.,.:.3.3.R M 7 9 9 q y e 9 y y 0 9 0 0 9 e 0 0 9 y 0 y 0 0 y 0 0 0 e 0 0 0 0 7 6 6 6 e i K >.+.,.:.,.2.,.,.l.C.{.:X>X>X>X:X1X1X2X>X1X>X1X>X1X>X2X<X<X<X2X>X2X2X>X}.>X>X2X}.4X}.}.<X}.}.XXXX>.j e 5 7 0 q e q e e q q 0 0 0 u b $ b b y y $ u $ y 0 $ b y y $ e e 0 0 q 8 6 0 q e q 8 q 0 0 5 T D.>X<X1X:X=XQ.W.W.W.=X=X=X=X=X=X-X/.3XaXmXnXAXVXNXSXAXnXfXI.6.,.1.1.:.1.,.1.[ 1.3.3.3.0.[ ] ] [ ( V j 9 0 0 0 9 0 e 0 0 0 0 0 0 0 0 0 0 6 0 0 u 0 0 0 e 0 0 0 0 0 e 0 0 0 0 0 0 0 0 e 0 0 0 0 0 e 0 0 e 0 0 0 0 e 0 0 0 e 0 0 0 0 e 0 0 0 e e 0 0 0 0 0 0 e u 0 0 a a 0 u e 0 6 8 H :.:.:.+.+.:.>.#.a.c.W.1X>X}.}.>X>X-X:XQ.Q.>X>X>X:X:X<X:XD.l.:.1.2.2.,.@.:.,.K k e 0 0 9 6 0 0 0 e 0 0 0 e 0 y 0 0 0 0 y y 0 0 $ b $ y b $ 0 0 0 y e e 8 e t P <.,.,.$.>.$.+.#.s.n.{.>X>X>X:X>X>X*X1X:X:X:X:X:X:X>X:X=X>X:X>X>X*X>X:X>X,X>X<X<X1X<X,X{.{.<X,X X,.8 a e e e 0 y 0 0 u y y 0 0 y 0 0 a 6 0 e 6 e e e e e e e e 0 0 0 e e 0 e u e 0 e e 0 e e 0 0 8 +. X<X4X}.}.<X}..X}.$X4X4X+X$X2X2X3X/.3XsXnXGXSXCXVXVXVXnXfXI.%.>.1.' ] _ ' [ [ [ 1.1.' 1.,.1.] 1.T n 8 5 5 7 7 6 6 6 6 6 6 6 6 6 6 6 0 0 0 0 0 0 e 0 0 0 0 e 0 0 0 0 0 0 e 0 0 0 0 0 0 6 0 0 0 0 0 6 0 0 0 0 0 0 0 6 ",
"7 6 7 e 6 6 6 e e 0 6 e 0 e 0 7 6 e e e e 8 e e q e e V ^ ;.1.2.:.,.1.+.a.c..X<X,X1X1X1X1X:X:X>X>XW.:X}.}.}.>X:X{.j.#.' ,.,.,.) 2.3./ M q 9 9 y 9 9 0 0 0 0 0 9 0 y 9 y 0 y 0 0 9 0 0 9 9 y 0 0 0 0 0 u 0 0 0 6 e i C :.-.+.:.>.>.,.$.l.c.}.>X:X>X>X>X=X=X>X>X>X>X>X>X>X>X>X>X>X1X>X>X>X>X>X2X2X}.}.}.4X4X}.4X}.}.<XXX4.j e 5 e 9 q e e q e e 0 0 0 0 0 $ b $ $ $ u $ y y u 0 0 $ u 0 y q e 0 q q q 0 q 6 e q 8 q 0 7 - Y ].<X1X<X1X:X=X:X:X:XQ.>X=X>X=X=X=X/.3XsXvXAXSXAXZXSXAXnXvXY.6.>.1.1.1.1.1.1.1.3.3.3.3.[ [ [ [ [ ~ m y 6 0 0 0 y u b 9 0 0 0 0 6 6 0 0 0 e 6 0 6 0 0 0 0 0 0 0 0 0 0 0 u e e 0 0 0 0 0 e 0 0 0 0 0 e u 0 0 0 e 0 0 0 0 0 0 0 e 0 0 0 0 0 0 6 u 0 0 e 0 e 0 0 0 0 0 a e 0 0 0 0 e u M R -.( +.` :.` W a.k.{.<X2X2X}.}.2X>XQ.}.:X:X:X=X:X:X>X{.v.g.,.1.1.1.+.W ` ( K k u 6 0 6 0 0 e u e 0 0 0 y a 0 y 0 0 y 0 0 y 0 b $ b b $ b 0 y 0 0 e e q 8 8 J >.,.,.:.,.o.W +.d.c.{.:X>X*X:X*X:X>X=X:X=X:X:X:X>X:X:X1X*X>X:X:X>X:X=X:X>X:X<X<X1X<X>X.X>X<X<XXX,.i e e e e 0 0 0 y 0 y 0 0 u 0 0 0 e e 0 e e e 8 q 8 e e q e e 0 0 e 0 e e e e u e 0 0 0 e 0 0 5 +..X4X4X<X<X<X$X}.4X4X4X4X$X2X4X2X/./.(.sXnXGXFXCXCXCXHXnXcXJ.*.@.1.' [ [ [ ] [ [ ' ] 1.] ] 3.3.3.T n 8 5 9 6 6 6 6 6 6 6 6 6 6 6 6 6 6 0 0 0 u 0 0 0 0 0 0 0 0 e 0 0 0 e u 0 0 0 0 0 0 0 6 e 0 0 u 0 0 0 0 e 0 0 0 0 ",
"6 6 0 e e 7 6 e 6 6 e e 6 e e 6 e e 0 6 6 8 6 6 e e a V 0.;.1.:.:.:.:.+.<.c..X<X<X>X1X>X1X,X:X>X>X{.{.:X:X>X>X,XD.f.:.:.1.:.:.:.0.0.( V y q q e e y 9 9 y 9 9 0 0 9 0 0 9 0 y 0 0 0 0 y 0 0 0 0 e 0 0 6 0 6 6 6 0 a A :.:.( :.:.<.,.,.g.S.{.,X:X>X>X>X1X:X>X>X>X>X>X>X>X>X>X,X>X}.>X<X2X>X>X>X>X<X}.$X4X}.<X}.$X>X>X,X>.g e 5 5 7 0 e 7 0 q 0 0 0 0 0 0 b $ u $ u $ u y y $ u u 0 0 0 0 q e q q q q 8 q q e e e q 7 9 5 Y |.<X4X>X>X>X>X:X}.:X>X=X>X>X>X>X-X/.+XgXnXAXSXAXNXSXAXnXcXI.6.@.1.1.1.1.,.1.3.3.3.3.3.0.[ [ [ 0.) V e 9 0 $ 0 0 0 e 0 0 0 0 u 6 a 0 6 0 u a 6 0 0 0 a 0 0 e 0 0 0 0 0 0 0 0 0 0 0 0 0 e u 0 0 0 0 e 6 0 0 6 u 0 0 0 0 0 0 0 0 u 0 0 0 0 0 0 0 0 0 0 0 0 0 0 0 0 0 u e 0 0 a 6 7 e C :.:.1.:.1.,.` W y.c.{.4X>X>X}.>X2X=X>X>X>X>X1X>X,X,X>X{.v.d.1.1.1.2.:.:.R ( K k i u 0 0 0 0 a e 0 0 0 0 e $ y 0 b u y 0 y 0 $ b b $ b y $ b 0 y 0 e e q 8 r U 2.>.,.>.:.:.W :.d.C.{.,X:X,X:X:X:X=X:X:X>X:X:X1X>X>X>X>X:X1X>X>X:X>X>X:X:X1X<X1X1X<X>X>XXX>X<X,X@.d a e e e 0 y e 0 0 0 y y e 0 u 0 e e e e e 8 8 q 7 e 8 8 7 6 6 6 u e 6 0 e u e 0 0 0 0 0 0 6 ; X.|.XX<X<X<X<X}.}.}.4X4X2X>X2X>X2X2X/.3XsXMXHXFXVXCXCXSXnXxXI.O.,.1.' [ [ [ [ ' 1.1.] ' 1.1.] 1.1.T n 8 5 5 6 6 6 6 6 6 9 6 6 6 6 6 6 0 0 0 0 0 0 0 0 e 0 0 0 0 0 e 0 0 0 0 e e 0 u 0 0 0 0 0 0 0 0 0 0 0 0 0 0 e 0 e ",
"0 7 7 e e 6 6 e 6 6 6 6 6 e 6 6 0 6 6 6 6 e e 7 e e a N ;.1.1.:.1.2.1.` p.V.XX<X,X,X:X>X>X>X,X>X>X}.:X:X:X{.,X{.|.x.,.1.:.:.2.1.0.[ _ V y 9 e q 9 9 0 0 0 0 0 9 0 y 0 0 0 0 0 0 9 0 0 9 0 0 9 9 6 0 0 0 6 0 6 0 0 a A -.-.:.:.:.:.,.,.d.C.{.>X>X=X:X>X:X1X>X>X>X>X>X,X>X>X>X>XXXXX>X}.>X}.<X$XXX$X}.}.}.$X$X}.<X$X>XXX$.d e 5 5 0 7 6 0 8 e 6 0 0 9 u 0 u u u u y y u 0 y u u u 0 0 0 0 q q q q q e q 8 e e e e q 0 6 - R |.<X<X>X}.}.>X:X:X}.>X}.}.}.}.:X}.+X+XhXvXSXBXBXCXSXAXAXvXU.7.@.,.:.1.1.3.1.1.3.3.3.3.q.[ ] [ [ ~ N y 9 0 0 0 0 0 a e e 0 0 0 6 6 e 6 6 0 6 6 6 0 6 0 e 0 0 0 0 e 0 0 0 e 0 0 0 e u 0 0 0 0 0 0 0 0 0 0 0 e 0 0 0 e 0 0 0 e u e 0 e 6 e 0 0 0 0 e 0 0 0 0 0 e 0 0 0 6 7 0 a 6 5 a V ) 1.1.1.1.,.,.o.a.c.}.4X>X>XQ.>X>X>X2X>X1X>X1X>X>X>X,X{.].8.:.:.1.:.1.1.:.` U k e 6 6 9 b u 0 0 u u y u 0 u 0 0 0 0 0 y u u y y $ y $ b u $ y 0 y e q 8 8 8 U 1.3.:.:.:.1.:.1.d.C.{.1X:X,X1X>X1X1X1X:X:X:X>X=X,X>X>X>X>X>X>X>X>X>X>X>X>X>X4X4X1X4X,X.X>X<X<XXX+.8 e e e e 0 y a e y 0 0 u a 0 0 0 e e 8 q e 8 8 r 8 e e e 6 6 6 u 0 6 u e 0 6 0 0 u 6 6 6 e 7 ; R ].}.4X}.>X}.>X}.<X4X>X>X>X>X=X}.+X/.3XsXnXGXFXVXBXCXAXAXxXJ.*.@.1.1.[ ] ' ] 1.[ [ ' ] ] [ ] 3.3.T M 8 5 9 6 6 6 6 6 6 6 6 6 6 6 6 0 0 0 0 0 0 0 0 0 0 0 u e 0 0 6 0 0 0 0 0 0 0 0 0 0 0 0 a e 0 0 0 0 e 0 e u 0 0 0 ",
"7 0 6 0 6 6 6 6 6 6 6 6 e u e 6 6 6 0 6 6 0 7 7 7 e j V ) 1.1.:.:.:.:.` d.V..X<X>X}.:X:X:X>X>X>X>X{.,X{.{.{.,X{.G.V.' ' 1.1.:.:.[ 0./ B y q q 9 9 e 0 0 9 0 0 0 9 0 0 0 9 0 0 9 0 0 9 0 0 9 0 0 0 0 0 0 0 6 0 6 e a U ;.;.:.` 1.:.+.:.a.S.{.>X,X:X:X,X1X>X:X>X}..X>X.XXX>XXX>X{.}.,XXX}.}.XX}.}.}.$X}.$X}.$XXX[.}.}. X>.g 8 ; 5 7 6 e 8 8 e 7 0 0 0 0 0 u 0 b u u u $ | $ $ s b 0 e e 8 e e 7 q 8 8 q e e 8 e e 8 8 8 ; I |.>X<X<XXX}.}.}.}.}.}.>X}.}.}.}.}./.@XpXnXAXZXZXAXSXAXnXnX~.*.>.3.3.3.3.1.1.1.1.,.[ 3.] [ [ ] q./ N q 6 6 0 0 0 0 e 0 6 6 u 6 e 6 u e 0 6 6 e 6 0 6 0 0 u 0 0 0 0 0 0 0 0 0 0 e 0 0 0 0 0 0 0 0 0 0 0 0 0 0 0 0 0 0 0 0 0 0 u 0 0 0 e e u 0 0 0 0 0 0 0 0 0 0 0 0 e 0 6 0 a 6 8 a V ` 1.] :.' ,.' W a.k.{.4X>X>X}.$X>X2X>X<X>X<X>X,X>X>X,X,XD.f.` :.:.:.1.1.1.1.U z e 6 6 u a a a u 0 e u u 0 b y y 0 0 u 0 y 0 y $ y b $ y b 0 0 0 0 e q q e r H 2.,.2.1.1.1.` :.4.Z.,X<X4X1X,X1X,X1X>X*X:X:X<X,X>X>X>X>X1X>X>X>X}.>X>X>X>X>X>X4X1X4X>X.XXX<X4XXX,.i e e 0 0 e e 0 0 0 0 0 0 0 6 6 6 0 8 q e e 8 e i 8 8 j e e e 6 6 6 u 6 u 6 u 6 6 6 6 6 6 8 7 - I S.{.}.}.}.}.}.}.XX>X>X>X}.}.:X}.+X/.(.pXnXAXVXNXNXNXAXnXxXK.%.$.:.1.:.1.' ' ' ] ] ' 3.' ] 3.3.1.J M 8 5 7 7 6 6 6 6 6 6 6 6 6 6 6 6 6 0 0 e 0 0 0 0 0 e 0 0 u e u 0 0 e e 0 0 0 e 0 0 0 e 0 0 0 0 0 0 0 0 0 e 0 0 0 ",
"0 7 8 e e e e e u 6 e 6 6 6 e e 0 6 6 6 6 6 7 5 5 7 8 M ) 1.1.:.:.1.1.W 3.A..X<X,X:X:X=X>X1X1X1X>X,X>X>X,X,X,XXX.Xf.' [ 1.1.1.1.0.0.~ N y q q q 0 0 9 9 0 9 7 9 9 0 9 0 9 0 9 0 0 9 0 9 0 0 0 0 6 6 6 6 6 0 $ 6 e a V 1.;.` 1.,.,.,.,.l.S..X>X<X:X,X>X4X1X1X>X>X>X>X>X,X.X,XXX>X>XXX.X>X}.XX}.}.XXXXXX}.}.XX}.4X4X}.<X2.d ; - - - 5 - - 5 - 5 5 6 0 $ 6 6 5 $ $ $ $ $ $ $ $ @ @ ; ; 5 5 7 7 7 7 7 7 7 8 7 5 7 5 5 5 5 - R ].<X4X<X4X<X<X,X<X<X<X<X<X4X<X<X4X+X@XhXnXSXSXSXSXAXAXAXnXY.*.>.>.1.3.1.1.,.1.1.3.1.3.[ [ ] ] 3./ N y 6 6 0 7 0 0 e e e 6 e 6 e 6 e 6 6 e 6 0 6 0 0 0 0 e 0 0 0 e e 0 0 e 0 0 0 0 e 0 0 0 0 e 0 0 0 e 0 e 0 0 0 0 u e 0 0 e e 0 0 0 0 0 0 e 0 e 0 0 e 0 e 0 0 0 6 6 5 5 6 6 5 8 d N ) ) 1.] 1.,.#.W a.v.{.4X>X2X}.>X>X>X>X>X>X,X<X>X,X<X,X,X].x.+.` ' 1.:.1.1.1.U j e 5 6 0 u 6 a 0 6 0 7 0 u $ u 0 0 0 0 0 0 $ y u y $ b b $ 0 0 0 0 0 0 7 8 r J 3.2.1.1.:.:.:.:.m.F.,X<X<X<X>X,X<X<X>X,X,X,X4X<X1X<X>X1X<X<X<X>X1X1X1X1X4X<X<X4X1X1X<X,X,X4X<XXXo.> 7 7 ; ; 5 5 5 ; 5 5 5 - 5 5 @ 5 - 5 5 ; 5 - ; ; > 5 6 8 5 5 ; 5 5 $ ; 6 5 5 6 5 5 5 5 ; - - * I |.}.<X<X}.<X<XXX>X>X>X<X>X>X>X2X+X/.@XfXnXGXAXAXVXNXAXnXxXK.%.@.:.1.1.1.' 1.3.] [ ] ] ] 3.] ] 1./ n 8 9 0 7 6 6 6 6 6 6 6 6 u 6 6 6 0 e 0 0 0 0 0 0 0 u 0 e 0 0 e 0 0 0 0 0 0 0 0 0 0 0 u 0 0 0 0 0 e 0 0 0 0 0 0 0 ",
"0 7 7 e 6 6 6 e e 5 6 e e u 6 6 7 0 6 6 6 5 9 5 5 7 8 M ) 1.1.` 1.1.1.W 3.A..X<X>X>X>X1X1X6X1X1X<X>X>X,X,X<X,X,XG.x.,.' 1.1.1.] [ 0.( V t q q 7 9 q 9 9 9 9 0 9 0 9 0 9 0 9 y 9 0 9 y 9 0 y 0 9 0 0 0 0 0 0 u 0 0 e A 1.` ` 3.3.3.3.<.x.D..X<X>X>X>X1X<X<X<X>X,XXX}..X}.,XXX.XXXXX}.XXXXXX}.}.}.}. X}. X X}.$XXX<X4X<X>.d ; - - - ; - ; ; - - 5 5 5 5 5 $ $ $ $ $ $ @ @ @ @ @ @ @ @ - - 7 7 7 7 7 7 7 7 > 5 5 ; 5 5 5 - Y |.XX4X4X<X<X4X4X<X<X4X4X<X<X4X4X$X+XeXhXnXHXHXSXAXAXGXnXvXY.7.>.1.3.1.1.1.1.1.3.[ ' 3.[ [ ] [ q./ m j 6 6 6 0 0 0 0 u 0 e 6 6 6 e 6 6 6 6 6 u u e 6 e 0 0 0 0 0 0 u 0 0 0 0 0 e 6 0 0 0 e 0 0 e 0 0 0 0 0 u e 0 e 0 0 0 0 0 0 0 0 0 0 0 0 e 0 0 0 0 u 0 0 0 0 0 7 5 $ @ 5 7 9 5 a N ( ) ] 1.1.,.' W y.k.{.>X>X}.}.2X>X}.}.}.>X:X,X:X,X<X,X,X|.d.' 1.1.] 1.:.1.:.U k 7 5 6 e e u 0 0 7 0 6 6 6 0 0 0 $ 0 7 0 0 u 0 $ u b $ $ $ 0 7 0 7 0 7 8 8 8 J 2.1.1.1.:.-.` 1.m.F.,X,X>X,X,X,X<X<X>X{.{.<X<X1X<X<X<X1X<X4X<X<X<X4X>X<X4X<X1X<X1X<X<XXXXX<X<X X+.; ; * + - + - + - + - - - * - - O O O * - - - - @ @ ; ; ; @ @ @ ; @ 5 @ $ 5 @ @ ; - ; 5 @ - O O I ].<X4X<X}.}.}.}.>X,X<X<X<X>X>X>X}./.%XfXnXGXSXAXVXVXGXnXfXK.&.>.:.1.:.` 1.] 1.] ] ' ] ' ' [ 1.3.T n 8 7 6 6 6 6 6 6 6 6 6 6 6 6 6 0 0 0 0 0 0 0 0 e 0 0 0 0 0 0 0 e 0 0 0 0 0 0 0 0 e 0 e 0 0 0 0 0 u e 0 0 0 0 0 e ",
"7 7 0 e e e 6 e 6 6 6 6 e 6 e e 6 6 0 a k a n j t j j J ` 1.1.:.' 1.1.W d.A..X,X>X>X>X>X4X1X<X>X{.b.D.{.D.D.D.D.S.d.` 1.1.1.1.:.1.q.( ! M y n n n b n b n n n b b b n n m b n n b m b n b n n b b b k n b n n n n n U ) ) 1.[ >.,.,.,.d.c.D.D.D.D.{.{.{.].].].D.n.S.n.S.v.S.S.n.S.C.v.S.C.S._.C.).].).).].C.).].).n.].<.L D z z z m N C N C K V N N C A C A Z Z | | | | 5.| | | Y Y U N M M M H M N N N N N N m N V m z W x.S.|.n.].n.n.].S.].n.n.R.S.n.R.R.P.[.@XwXcXtXrXjXxXcXcXfXJ.*.>.:.3.,.3.3.,.1.1.3.1.3.3.[ [ 0.3./ m e 6 6 6 6 6 a 6 e 6 u 6 e 6 u e 6 6 a 6 6 e 6 0 0 0 0 0 e 0 0 e 0 0 0 e 0 u 0 0 0 0 0 0 e u 0 0 0 0 e 0 0 0 0 0 0 e 0 0 0 0 e 0 0 0 0 0 0 0 0 0 e 0 0 6 e 0 e a b a b k k j M U ` ` ] ' ' ,.1.W a.b.}.4X>X>X}.}.>X>X}.W.n.n.{.{.{.{.D.D.S.d.>.1.1.:.] ] :.:.U m j a k a M n n a b a k b n a n b b b b b b b b b b b b B B b n a n b j j j j U 2.:.2.1.:.:.` 1.m.V.D.D.{.{.D.{.{.{.].v.v.v.v.S.S.n.n.n.n.n.n.R.R.n.n.R.R.n.n.S.].S.D.S.v.R.S.C.,.F N v N m z m z m m z z N M N m M m v Z Z Z Y Z Z Y Z Y Y C k C m B C C m C m C m C m m C N v z @.C.n.].S.n.S.n.n.S.S.n.n.S.].n.R.E.P.~.qXdXxXjXrX9X9XpXpXeXL.>.>.:.1.1.1.' 1.' ] [ 1.] [ ] ] ' 1.J M 8 7 6 6 6 6 $ 6 6 6 6 6 6 6 6 6 q u 0 0 e 0 0 0 0 0 e 0 0 0 0 0 0 0 e u 0 0 e 0 0 0 0 0 0 0 0 e 0 0 0 e 0 0 0 0 ",
"0 7 e e 6 0 0 6 6 6 6 6 0 e e 6 6 a k N A V V V V H V T ` 1.1.' 1.>.] W ,.A..X,X<X<X1X>X>X1X}.S.v.j.j.v.x.x.V.v.V.d.' ] 1.1.1.;.1.1.( T J N V N V V V V V V V V V V V V V V V J V V V J V J V V A V V V V A V A V V / ] ] ) ' 1.1.>.,.d.d.j.c.v.c.c.j.c.c.l.a.#.#.,.#.,.,.,.>.,.<.,.,.>.>.>.>.,.>.>.>.>.>.>.>.>.>.>.@.>.<.>.,.>.@.>.>.>.>.,.>.>.>.>.:.>.2.6.8.9.9.r.r.r.r.r.r.L.L.z.8.$.#.:.@.:.,.:.@.:.,.>.>.:.1.:.>.:.>.:.<.<.,.$.@.#.$.+.,.$.+.$.#.$.$.$.+.6.x.I.oX^.U.Y.!.OX#XoXh.@.@.' 1.3.1.,.1.3.1.3.3.,.,.[ ' ] 3./ M a 5 6 6 6 6 e u e u 6 6 8 6 e 6 e e 6 e u e 0 0 0 e 0 0 0 e 0 0 e e 0 0 0 0 0 0 0 0 0 0 0 0 6 0 0 0 e 0 0 u e 0 0 0 0 0 u e e 0 0 0 0 0 0 0 0 0 0 0 6 7 0 e M B A ! A U V V U / ] ' ] ` ' 1.:.W y.c.}.4X>X}.>X}.>X>X{.n.c.c.j.v.V.S.A.V.x.4.,.1.1.1.' ` ` ` T U V N A V A V V N V V V V V C V V V A V C V V V A V A V C V V V V V V V H N V R 3.3.3.3.1.1.` 1.4.x.V.x.x.c.x.v.S.V.f.<.Q Q +.:.,.$.,.$.$.,.$.#.@.$.$.$.@.$.$.$.,.$.#.$.,.$.,.<.<.2.>.2.>.,.>.>.,.>.,.@.,.,.,.,.>.>.>.>.9.9.L.L.L.r.L.r.z.9.6.>.>.>.2.>.2.2.>.>.2.>.1.:.2.2.2.$.@.>.a.>.$.,.$.$.,.$.$.+.$.:.$.,.$.$.$.O.6.L.I.OX~.~.Y.Y.Y.[._.9.@.,.] ] ] 1.] ] ] ] 3.] [ ] ] [ [ 1.T n e 5 $ 6 6 6 0 0 6 6 6 6 6 6 6 6 0 0 0 0 0 0 e 0 0 0 0 a 6 0 0 0 0 0 0 0 0 e 0 0 0 0 0 e 0 0 e 0 u e 0 0 0 0 0 0 ",
"7 0 0 q e 7 6 e 6 6 e 6 u e e 6 6 k ~ ) 1.] ` ) ` ( ( ` 1.1.1.1.1.:.1.` d.C.,X<X,X<X>X,X:X:X{.j.s.,.,.<.,.p.p.' ,.1.' 1.' 1.1.` 1.1.] ( ( ` _ ` ` _ ` _ _ ) ` _ ` ( ` ` _ ` ` ` _ ` ` ) _ ) ] ` ` ) ) ] ] ` ] ) ] ) 1.1.1.1.1.1.,.,.,.,.,.<.p.,.p.,.<.<.,.W S d r 8 r r d d r r r r r d i i d d i i p i i d i d i f h +.].].].].].|.].|.].|.].].|.].].]._._. X%XtXxXcXtXtXtXfXhXdX@X[.].].].D.].].].|.|.|.].|.].|. X|.|.4.L z d d i r 8 i d 2 i d 8 8 d 8 , r j P +.&.%.%.O.%.%.@.@.+.X.:.1.1.,.1.,.3.3.1.' 1.[ [ 1.] ] 3./ M j ; 8 6 6 8 8 e 8 e e 6 6 u 6 6 6 6 6 6 e 6 0 6 e u 0 0 0 0 0 0 u 0 0 0 0 0 e 0 0 a 6 0 0 0 0 0 0 0 0 0 0 0 0 0 0 0 e 0 6 0 0 0 0 0 0 0 e 0 0 9 0 6 0 7 0 M ~ ] ] ;.) ) ( ( ( ] ] 1.] ] 1.,.:.W a.k.{.4X<X2X}.2X>X>X{.g.2.,.,.,.>.,.3.>.2.,.,.2.,.1.1.:.:.1.` ` ` ( ) ) ` ` ) :.( ) ` ) ` ( ) ) ` ) ) ) ` ( ` ) ` ) ) ) ` ` ) ` ) ( ` ` ) ` ] 2.3.2.,.1.1.1.,.2.3.,.,.$.,.,.,.,.,.R z j r r 8 8 e 8 i 8 8 8 8 8 e 8 8 8 8 8 8 2 8 8 i > 8 r d @.|..X.X].|.|.].].|.|.].|.|.].|.].[.[.oX5XhXfXxXhXhXfXfXhXdX%XoX X X_.|.|. X_. X X X X X_. X|.].|.<.F z d 2 d 8 i d 8 d d i r , 2 8 2 > f L @.>.%.%.&.%.6.5.>.>.:.` ` ` ] ] ' ] ' ' ' ] ' ] [ ] 1.[ T g e 5 0 6 6 6 6 6 6 6 6 6 $ 0 6 0 0 0 0 0 0 0 0 0 e 0 0 0 0 0 0 0 e 0 0 0 0 0 0 0 u e 0 0 0 0 0 0 0 0 0 0 0 e 0 0 ",
"0 9 0 0 0 0 e e 6 6 6 6 e e e 5 7 m ^ 2.3.3.1.1.' ' :.1.3.3.1.:.1.1.:.W ,.V..X<X>X,X1X:X:X:XD.f.3.' ' ,.' ' ' [ ' ] ' 1.1.] 1.] ] [ 1.' ,.' ' ' ` ' ' ' 1.:.' ' ' ' ' 1.3.1.,.3.1.3.1.1.1.3.3.1.1.1.1.[ 1.1.1.1.0.1.1.1.1.1.1.1.3.3.3.,.:.:.:.:.>.,.,.:.:.T t 7 5 5 7 9 - 5 5 5 5 5 5 5 5 5 5 5 5 5 5 5 5 $ 5 5 5 5 = X..X}.4X<X>X<X}.}.+X[.+X>X}.}.>X}.}./.@XhXvXGXAXAXAXAXAXMXmXdX;X2X>X2X2X2X2X2X4X4X4X$X}.<X4X<X4X4Xl.C e - - 5 - - - - - - - 5 - 5 5 7 5 w J ! ,.+.o.R o.R R R X.` :.,.1.,.,.1.,.,.3.[ 3.' [ ' ,.] 3./ m e 6 8 6 6 8 e e 6 e 6 u e e 6 u e 6 u 6 6 6 u 0 0 0 e e 0 0 0 0 0 0 e 0 e e u 0 0 0 0 0 0 u 0 0 e e 0 0 0 0 e 0 0 0 0 0 0 0 0 0 0 e 0 0 0 0 0 0 0 0 0 6 e V ( 0.0.0.1.1.1.] ] ] ] [ [ [ ,.,.W W y.v.}.2X>X}.>X>X=X}.{.l.:.W :.' ' ` 1.:.` 1.3.,.3.1.1.` ` ` 1.1.] ,.3.3.3.1.1.1.1.1.1.1.1.1.1.3.1.1.1.1.1.1.1.1.1.1.1.1.1.1.1.1.1.1.1.2.1.1.:.2.3.3.1.1.1.3.1.3.,.W W :.+.:.:.` ` T q q 9 5 # 9 5 5 5 9 $ - 5 $ $ - 5 6 $ - - 5 @ - 5 - - 5 > ,.}.4X4X4X$X<X4X<X<X<X<X<X<X<X,X<X2X3XiXhXMXGXGXGXGXGXGXnXvXaX3X3X$X4X4X4X4X4X4X4X$X4X$X$X}.4X>X}.>.k i - ; @ 5 ; - - - ; ; - ; - - 5 o 8 V Y _ W ( ` ` ` ` :.` _ ] ` _ ' _ ] ] ] 1.] ] 1.' ] [ 3.1.T n e 5 6 6 u 6 6 6 6 6 6 6 u 0 6 6 6 0 0 u 0 0 0 e 0 0 0 0 0 0 0 0 0 0 6 e 0 0 e 0 0 0 0 0 0 0 0 0 0 0 e 0 0 0 0 u ",
"7 0 0 0 0 7 8 e e 6 e e e e e ; 5 V ) 2.3.2.3.' ] 1.] 1.3.,.,.:.1.1.1.` d.V..X<X1X>X1X1X1X<XG.x.p.,.,.' ' ] [ [ ] 1.' ' 1.] ] ' 1.1.1.1.' ' ' W ` ` ` ' ` W ' W ` ' ' ' ' ' ' ' ' ' ' ' ' ' ' ' ] ' ] ] ] ] ] ] ] 1.[ [ ] ] ] 1.3.3.p.3.:.:.:.:.3.3.3.1.1.T g 8 5 9 0 q q q 7 q q 0 0 7 e 0 6 0 0 u 0 0 u 0 u 6 6 7 > o..X$X>X2X<X}.2X}.}.>X}.>X}.>X}.Q.}./.3XhXnXGXSXSXAXSXAXGXmXiX-X-X-X>X>X-X2X>X}.2X>X>X4X<X<X<XXXXXd.C e - 8 8 e 8 e e e e 8 8 q 8 q w q w ! _ 3.,.:.:.1.:.:.:.:.1.1.3.,.,.3.,.3.1.3.1.,.3.,.] ' [ 3.( m t ; 6 6 6 6 i 8 e e 8 6 6 e 6 6 6 6 e 6 e 6 e 0 0 0 0 0 0 0 0 0 e 0 u 0 0 0 0 0 e 0 0 e 0 0 0 0 0 0 u e 0 0 0 0 e 0 0 0 e 0 0 e 0 0 0 0 0 e 6 7 0 7 8 8 8 V ) [ 1.1.1.1.[ 1.1.1.1.3.[ 3.3.,.,.#.a.c.{.4X>X}.>X}.>X>X].g.:.( :.2.3.:.1.:.` 1.3.2.2.1.:.` ` ` ` ' ,.3.3.,.,.` 1.` 1.[ 3.3.3.3.,.3.3.3.3.1.3.3.3.[ 3.1.3.3.3.3.3.1.1.3.1.3.1.1.1.3.>.3.3.>.:.>.:.1.1.' 1.1.1.:.:.1.` / n q q 9 9 9 y 0 0 0 y e e y y 0 0 e e 0 0 0 e e q e e j j 2.XX<X4X<X<X}.>X<X<X>X>X>X>X<X>X>X2X/.yXsXvXGXAXVXVXzXzXvXvXyX(.$X4X4X$X$X4X$X<X$X<X<X$X4X4X}.$XXX8.k 6 5 6 6 6 6 6 e 5 7 7 7 6 7 q 7 5 e U ` ] ' ` ` ' ' ] ' ' ] ] ] ] ] ] ] ] ' [ ' [ [ ] [ ] [ 3.T n u $ 6 6 6 6 6 6 6 6 6 6 6 6 6 6 0 0 0 6 0 0 0 u 0 0 0 e 0 0 0 0 0 u u 0 0 0 0 0 0 0 0 0 e 0 0 0 e 0 0 0 0 e 0 e ",
"7 0 q 0 q 7 0 e e 6 6 6 u e e ; 5 V ) 1.2.2.1.1.] 1.' ,.3.3.,.>.' 2.] W p.V.G.1X,X1X>X:X1X,XD.f.3.' ' ,.3.3.[ [ 3.' ] 1.1.1.1.] ] 1.1.,.' ` ` ` W ` ' W W ' ` ' ` ` ` ' ' ' ' ' ' ' ' 1.' ' ' ] [ ] [ [ ] [ 1.] 1.1.1.1.' 1.1.' 3.3.3.3.,.,.:.:.3.>.:.:.:.Y g e 8 8 q q e q q q q q q e e e e e e 0 0 0 0 0 0 6 5 6 ; X.{.}.<X2X2X2X}.}.}.2X}.+X>X>X>X:XQ./.3XhXMXHXSXSXSXZXSXnXmXaX-X-X>X=X2X>X2X>X2X>X>X2X<X>X}.<X<X4Xd.C e - 8 8 8 8 i e 8 i e e 8 8 q 8 w M ! _ q.3.:.:.:.:.1.>.1.1.,.1.' 1.,.1.,.1.1.3.,.] ,.] ] ] 3./ m a 5 6 6 8 6 e e u 6 6 e 6 u e 6 e e 6 e u 6 0 0 e 0 0 0 e 0 0 0 0 0 0 0 u 0 0 0 e 0 0 e 0 0 e 0 0 0 0 0 0 0 0 0 0 6 e 0 0 0 0 0 0 0 0 0 0 0 7 0 0 0 0 7 8 V ( 0.[ 1.1.3.3.1.3.3.[ ] [ 3.3.,.,.W a.k.}.1X}.>X}.>X>X=X{.l.:.1.1.>.2.1.1.:.:.:.1.1.1.1.` ` ` ' ' 1.1.3.3.3.3.:.' ' 1.3.[ 3.' 3.' 3.' ' 3.3.,.] 3.3.,.,.1.,.3.,.,.3.1.1.,.1.1.3.3.3.,.>.3.,.1.1.1.,.3.3.3.3.3.1.3.1.] / n q q y 9 y 9 y y 0 y 0 y 0 y e u y 0 0 0 0 0 e e e e a j >..X}.>X>X>X>X>X,X<X<X<X>X}.>X<X<X+X(.7XsXnXnXAXVXVXVXzXnXvXiX(.+X$X$X4X$X<XXX$X<X$XXX$X<X}.}.$X$X<.k i 5 6 6 u 6 6 8 8 8 8 0 6 e 6 7 5 a ~ ] ] 1.[ ] ] [ 1.1.] [ ] ] ] [ ] ] 1.[ ] ] ] [ 1.[ ] ,.1.T n q 5 6 6 6 6 6 6 6 6 6 6 6 6 6 6 0 0 u 0 e 0 0 0 0 0 0 e 0 0 0 0 u e e 0 0 0 0 0 0 e 0 0 0 e 0 0 0 0 0 0 0 u 0 e ",
"0 7 e e e 0 0 e e 6 6 e e e e 6 7 m ^ 1.3.3.1.1.1.` ' ,.3.,.3.[ [ >.1.` d.A..X<X,X<X1X1X1X,X.Xf.d.' ' [ 3.' ' 1.3.] 1.1.1.] 1.:.1.1.1.' ,.` ' ' ' ` ' ' ` ' ' ,.' ' ' ,.[ ' ,.' 1.' ,.' 3.' 3.' 3.[ 3.[ [ [ 3.3.3.1.1.1.1.' 1.1.,.3.2.,.1.1.:.:.1.:.:.:.:.R g j 8 8 e t e e q q q e 8 8 6 e 0 0 6 6 e u 0 0 6 6 6 6 > o. X}.4X<X>X}.$X>X}.>X}.}.}.>X:X,X}.}.2XhXvXGXSXSXSXSXAXMXmXaX-X-X=X>X>X2X+X$X>X$X}.<X<X}.<X<XXXXXd.C e - 8 e e e 8 e e e 8 8 a 8 8 q w n ~ _ 3.3.,.:.:.1.1.3.,.,.,.,.,.,.,.,.3.3.3.3.,.3.' 3.' [ 3./ N t 6 8 6 6 i 8 8 8 8 u e 6 e 6 6 6 6 6 6 e 0 0 6 u 0 0 0 0 0 e 0 0 0 0 e e 0 0 0 0 0 0 0 0 0 0 0 0 0 0 e 0 u 0 0 0 0 0 0 0 0 e 0 0 0 0 q q 0 0 0 7 0 q 7 8 V ( 1.1.[ ] [ 3.3.q.3.] ] ] 3.3.,.Q Q y.v.{.<X>X>X>X>X:X:X].d.>.1.3.3.3.1.1.1.` 1.:.1.1.,.1.` ` ] ,.' ] ,.3.3.[ ' ,.' 1.,.3.1.,.,.1.3.3.[ ,.[ 1.,.3.' 1.[ 3.[ ] 1.3.3.,.3.,.3.,.,.,.3.3.3.3.1.3.,.>.,.2.3.3.3.2.1.2.1.1.! b y q 9 y 9 y 9 0 0 9 y y $ u 0 0 e 9 6 0 0 0 q e e 7 e d @.D.{.}.>X<X>X>X>X,X<X,X>X<X,X,X<X}./.3XpXnXAXVXAXAXVXnXnXvXiX(.+X$X}.}.}.$X$X}.XX}.$X}.}.$X}.}.XX<.k 6 ; 8 e e i e i 8 e 8 e e u a 6 9 b ~ ) q.[ [ 3.3.3.3.3.1.3.1.] 1.] [ ' [ ] [ ] [ ] ' ] [ [ 1.T n e 5 6 6 6 6 6 6 6 6 6 6 6 6 6 0 0 0 e 0 0 0 0 e 0 0 u 0 0 e 0 e 0 0 0 0 0 e 0 0 0 0 0 0 0 0 e 0 0 e 0 0 0 0 0 0 ",
"0 7 0 q 0 0 0 q e 6 8 e 8 8 e 7 5 N ( 1.3.3.1.' ` ` ` ,.,.,.' ,.:.,.1.W 3.C..X<X<X<X1X>X:X>X:XV.,.,.,.,.3.[ 3.[ ,.] ] 1.' 1.1.' 1.,.1.' 1.' ` ' ` ' ' ` ` ' ' ,.:.' ,.' ,.,.[ ,.3.,.3.[ [ 3.,.3.3.3.3.3.[ 3.3.3.3.1.1.3.1.1.1.3.3.3.3.3.,.:.,.:.1.1.1.:.>.T l e 8 q e e t q 8 8 e 8 q e e e 6 6 e a 6 e 0 6 6 6 6 6 > o..X+X>X2X>X}.>X}.}.+X$X}.}.:X:X:X}.Q.2XhXnXGXSXSXSXZXAXGXmXaX-X+X2X=X>X>X}.>X}.<X>X<X}.<X<X}.<XXX8.V e 5 7 e e 8 8 8 8 8 8 8 e 8 8 q 9 b ! ( 3.,.' :.1.:.1.1.:.1.' ,.1.1.1.,.1.,.3.3.[ 3.1.' ] [ 3./ M e 6 8 > 6 8 8 u 6 e 6 6 6 e 6 6 6 e 5 6 6 7 0 0 e 0 0 0 0 0 0 0 0 0 0 0 0 0 0 0 0 0 0 u e 0 0 e 0 0 0 0 0 e 0 e 0 0 0 0 0 0 0 0 0 0 0 q q 0 9 0 9 7 0 7 8 V _ ] [ ] ] ,.3.3.3.3.' ' ' ,.,.,.' W a.v.{.<X>X>X>X>X>X>X].l.2.1.>.2.,.:.1.-.] ` :.1.1.3.] ,.,.3.' ' 1.' p.3.,.[ ,.,.] ' ] [ ' ' ] ' 1.1.' 1.' ' ,.[ 3.' 1.3.,.,.,.,.1.,.1.,.,.1.,.2.,.,.,.1.>.1.1.2.3.2.3.1.3.3.1.1.0.~ n e 9 9 9 y 9 9 0 9 0 $ u 0 $ 0 0 0 0 6 0 7 0 e 5 6 6 i j ,.|.}.XX>X>X>X,X>X>XXX>X<X<X>X>X}.$X+XqXxXnXGXAXAXAXAXnXnXvXiX@X+X}.}.$X$X}.}.}.$X}.XX$X}.}.}.}.XX4.k e ; e 8 8 8 8 6 5 8 8 e 6 6 0 0 9 b ! ) [ [ [ ] [ [ ] ] 1.' [ ' 1.[ ' [ ] [ ] ' 1.[ ' [ ] ] 1.T k e ; 6 u 6 6 6 6 0 6 6 6 6 6 0 6 6 e 0 0 0 0 0 0 0 0 0 0 0 0 0 0 0 0 0 e 0 0 0 e 0 0 e 0 0 0 0 0 u 0 e 0 0 e 0 0 ",
"7 0 q 9 0 0 7 0 5 8 6 8 e 8 e 7 > M R 1.,.' W ` W W W ` ` ,.,.` ` :.:.` p.c..X1X1X,X,X,X>X,XG.f.p.' ' 3.' 1.' 3.3.1.1.' 1.1.1.' 1.' 1.1.' :.' ,.,.' ' ,.' 1.' ' ,.,.' ,.' 3.,.,.' [ ,.3.,.3.[ [ [ 3.3.3.3.3.3.3.3.3.3.3.1.1.1.3.3.,.,.1.1.1.1.1.1.:.1.1.3.R j r 7 q t q 8 8 t e e 8 e e e 8 e e 6 6 e e 0 a 6 6 6 7 ; X..X}.>X$X2X2X}.>X>X}.Q.}.+X/.>X>X+X+X3XhXnXHXSXSXZXSXAXnXmXiX/.>X>X>X=X2X>X+X}.4XXX<XXXXXXX<X$X<X4.C u 5 7 6 e 6 e e 8 8 8 8 e q q q q b J ` 3.' ,.` ' 1.1.' ' 1.1.,.,.3.1.3.,.3.1.3.' 1.[ 3.[ [ 3./ N t ; 5 6 6 e 8 e 8 e 6 8 e 5 e e e e e e e 8 0 0 u 6 e 0 0 0 0 0 e e 0 0 0 0 e 0 0 0 e 0 0 0 0 0 0 e 0 0 0 0 0 0 0 e 0 e 0 0 0 0 e 7 0 0 0 0 7 0 7 0 7 7 7 N / ` ` ` ` ' ,.3.,.' ` W ` ' ,.,.W W $.c.{.4X<X>X.X>X>X>XG.f.>.1.,.3.1.] :.:.) :.` 1.1.3.3.3.3.3.3.1.' [ [ 3.3.3.' 3.3.3.,.1.,.3.3.[ ,.,.[ 3.,.3.] 3.' [ ,.' 3.1.1.3.,.3.,.1.1.3.3.3.1.1.3.1.1.,.1.3.3.' ' ] ] 1.1.1.] ~ M e 9 y 9 0 9 0 9 0 0 0 0 0 0 6 9 6 0 6 0 9 0 6 e e 5 e i ,..X}.>X<X,X1X>X,X,X>X}.}.$X}.$X+X+X(.qXlXnXGXSXSXAXVXzXnXxXiX!.+X}.}.}.XX}.$X$XXXXXXX$XXX$X}.4X$X<.z u ; 5 6 6 ; 8 5 8 e 5 5 6 6 6 0 9 b ! ) ] [ ] ] ] 1.] ' 1.1.1.] ] ] ' ] ] ' ] ] [ ] ] [ ] 3.1.T j e 5 $ 6 0 6 6 0 0 u $ 0 6 0 7 0 0 0 0 0 0 0 0 0 0 e e 0 0 0 0 0 0 0 0 0 0 0 u e 0 0 0 0 0 0 0 6 e 0 0 0 0 0 0 0 ",
"9 0 0 0 9 6 9 $ 6 0 q 7 5 5 ; - - l Y W Q W W E W W W W W W #.W ` W ' W a.c..X<X<X<X,X<X,X<X|.V.p.' ' 3.] ' 1.1.[ 1.1.,.1.1.1.1.' 1.1.' 1.` ,.,.] ,.,.,.' ,.,.1.' ,.,.3.' ,.] 3.3.1.,.] ,.3.3.1.3.[ 3.3.3.3.1.3.3.3.3.3.3.1.,.1.1.1.1.1.1.,.2.:.1.,.1.:.:.R k e 7 8 q 8 8 q 8 q e e e e 6 e e 0 0 e e 6 0 6 e 6 6 6 > o.XX}.2X4X>X>X/.>X}.Q.Q./.+X+X+X/./.(.iXxXnXHXSXSXZXZXAXnXvXiX2X>X>X=X=X>X2X4X<XXX4XXXXX$X X X4X$X8.C e 5 6 e 8 e e e e e e e e e 8 6 e j ! ( 1.1.3.q.2.] ] ] 1.[ 3.3.3.3.,.1.3.3.1.,.[ 1.' [ ' ] q./ V t 7 e 6 e e e 8 e 0 q e e 6 e 6 e 6 8 6 e e 6 6 e 0 0 0 0 0 0 0 0 0 0 0 0 0 0 0 0 0 0 e 0 u e 0 0 0 0 0 0 0 0 0 0 0 0 0 0 0 0 0 9 e 0 9 8 8 7 5 5 5 - - 7 M R _ ` W W W W W W W W W W W Q W W E a.c.{.<X<X<X4X<X<X<X.Xd.1.1.1.3.1.:.] ` 1.` ` 1.1.1.3.3.1.3.,.,.' 3.[ 3.3.3.1.' ,.] ' 3.3.[ 3.,.3.[ 1.,.1.,.3.3.,.3.1.3.,.1.,.1.3.,.1.,.3.,.3.3.,.3.1.1.1.1.,.1.1.` ` 1.1.1.1.3.1.~ n 8 q 9 0 9 0 y 0 y y 0 y 0 0 0 0 0 $ u 0 0 0 6 6 e 5 i d ,..X}.>X>X<X,X>X1X:X}.+X+X+X+X+X+X(.!.8XxXnXHXSXAXAXZXAXvXvXwX~.+X$X}.$X}.4X}.}.$XXX4X4X$X4XXX4X$X4.z e 5 6 6 6 6 6 6 5 8 5 6 6 6 0 0 e n U / ] ] ] 3.1.3.] ' 1.2.[ ] [ ' ' ] ] [ ,.] [ ] [ ] ] 3.1.T n e 5 6 6 0 0 6 6 6 $ 0 6 0 6 0 0 0 0 0 0 0 e 0 0 0 0 0 0 0 0 e 0 e 0 0 0 0 0 u 0 e 0 0 0 u e 0 0 e 0 0 0 0 u e 0 ",
"9 0 q 0 9 7 6 9 a n M n k j j d j K ` 4.a.t.,.,.$.,.p.,.a.,.d.d.d.s.a.a.f.V.D.].D.D.D.D.G.G.A.d.3.[ ' ] ' ] 1.1.3.3.1.1.,.1.3.' 1.1.' 1.1.1.,.' ,.' [ 1.' 1.' 1.' 1.' 1.1.,.' ,.' ,.' ,.3.' ' ,.3.3.[ 3.' 3.3.1.1.1.1.1.1.1.1.1.>.1.,.3.1.1.3.1.:.:.1.1.1.R j 8 8 q 8 8 8 e e q 8 q 8 6 8 e 6 7 6 6 6 0 6 e 6 6 6 5 = X.{.>X2X>X2X>X>X:XQ.2X+X@X5X5XiX3X3XwXfXcXnXAXAXAXSXZXAXnXmXiX;X-X>X:X>X>X>X}.{.].k.x.V.C.V.c.V.Z.2.z e 5 6 6 6 6 6 6 6 6 e e 6 6 6 e 8 a M T / / / ( _ / T / ` ] 1.3.1.3.3.3.1.1.1.3.3.[ 3.] ] 3.[ / M q 7 5 6 6 e e 8 e 7 8 6 e e 7 e e 6 e e 7 6 e 6 6 0 0 0 a 0 0 0 u 0 0 e 0 0 e e 0 0 0 0 0 0 0 0 0 0 0 e 0 0 0 0 e u 0 0 0 q 0 0 e 9 9 0 e n n n a t t t t T 1.<.p.a.p.p.a.a.<.a.p.a.d.d.,.d.<.a.s.c.S.{.{.|.].].{.].S.d.1.:.1.,.1.:.1.1.' 1.1.1.1.1.1.3.3.3.3.1.1.3.3.3.3.3.3.3.3.3.3.[ 1.1.,.] 3.3.3.[ ,.[ 1.[ 3.' 3.3.,.3.3.3.3.3.3.3.1.3.1.3.3.1.,.1.,.1.1.1.] 1.` :.' 1.] 1.[ ~ n q q 9 0 0 9 0 0 u $ $ u 0 0 0 u 0 0 0 9 0 9 0 6 6 5 e j @..X>X:X>X,X:X,X:X:X2X2XqX3X3XqXqXqXwXpXcXnXGXSXSXAXAXnXcXvX7X/.+X}.}.<X>X<X$X{.].c.k.c.C.c.c.c.c.+.k u $ 6 6 6 6 6 6 ; 6 7 6 7 6 6 6 e a V T / / / / ( R T T ] 3.3.] ] 1.' ] ] 3.[ ' [ ,.] [ ' [ 1.T n e 5 6 6 0 0 0 0 0 u 0 0 0 6 9 6 0 0 0 0 0 0 0 6 a 0 0 e 0 0 0 0 u 0 0 e 0 0 0 0 0 0 0 0 6 0 0 0 0 0 0 0 0 0 0 0 ",
"7 0 q e 0 9 e b A -.^ ( R R Y K K ,.V.G.S.D.A.D.S.A.S.D.D.D.D.G.G.S.F.F.A.c.x.f.s.s.s.s.s.f.d.s.3.` ' ' ' ' ' 3.1.1.1.3.3.1.,.1.1.1.1.3.' 1.3.,.1.,.3.,.,.,.1.,.,.,.,.,.,.1.3.,.,.1.,.1.,.,.1.1.,.3.1.1.3.1.:.1.1.1.,.1.1.3.1.1.3.1.3.1.1.2.1.3.2.1.2.,.1.R g e 7 q t 8 q q 8 8 q e e q q e 0 e 8 e e 6 6 6 0 6 6 6 > X.[.>X4X>X>X>X}.-X}.2XhXhXhXvXhXvXlXvXvXnXAXAXZXNXZXZXZXnXmXiX/./.=X=X>X>X>X{.].<.F P I I L L L R C a 6 6 5 6 6 e 6 u 6 6 8 e 6 6 6 0 0 q j M N M N N M M M H T ` ] 1.1.3.1.1.,.1.1.3.3.1.1.[ [ [ q./ N y 6 5 e 7 8 e e e 8 0 0 7 6 6 e 6 7 6 7 6 7 e 0 e 0 e 0 0 0 0 0 0 0 0 6 u 0 u e 0 u 0 0 0 0 e 0 0 0 0 0 0 e u 0 0 e 0 0 0 e 0 9 e 9 e M V / ( ~ T ~ J K Y 3.V.F.S.S.S.D.S.D.D.D.].S.D.D.S.D.S.S.C.j.l.g.g.g.j.l.j.l.d.:.1.1.2.3.1.1.1.] 1.,.1.1.1.1.,.1.3.3.3.1.1.1.1.1.,.3.1.3.1.1.,.1.1.1.3.1.1.1.1.1.3.1.1.1.1.1.1.1.1.1.1.1.1.1.3.1.1.1.1.1.1.1.1.1.1.1.,.' 1.] ' ] ` 1.1.] 1./ j e q 9 9 0 0 0 0 0 0 y u 0 u 0 0 0 0 0 0 0 u 0 0 e e e j ,..X,X:X>X>X:X>X:X=X6XgXhXvXvXhXvXxXlXcXnXAXSXSXSXAXAXcXnXlXiX/./.}.4X>X<X2X}.c.>.o.I E o.I o.I I K m u $ 6 6 6 0 6 6 6 6 7 7 0 0 0 6 5 a n N N N N M M M M m / [ [ ] 1.] ` ] ] [ 1.1.' ] [ [ ] [ 1.T n u 5 6 6 $ 0 0 0 0 0 9 0 0 6 6 0 0 0 0 e 0 0 0 0 0 0 0 0 0 0 0 0 e 0 0 0 0 0 0 0 0 0 e 0 0 e 0 0 0 0 0 0 0 0 0 0 ",
"9 0 e 0 0 0 y n A -.-.-.-.:.` W W l.F.XX,X]..X.X].{.|..X.X.X.X|.{.G..X,XD.V.d.<.<.p.p.,.<.p.p.,.,.' ` ' ] ' ] 1.1.3.1.1.1.1.1.1.,.1.,.3.3.,.,.1.,.,.1.1.1.,.,.3.3.1.1.,.1.,.,.1.,.1.[ ,.1.,.,.3.3.,.1.1.1.3.2.3.3.3.1.1.1.,.2.1.1.3.2.:.1.3.1.3.3.1.3.1.1.R l r 7 q 8 e t 8 q t 8 8 0 7 8 6 7 8 6 6 e e 0 6 6 6 6 5 7 o.{.:X2X2X2X=X}.}.}.5XhXnXnXnXnXnXnXnXAXcXAXZXZXZXBXZXAXnXnXiX-X-X>X>X>X=X:X{.c.X.1 d k k f d i j a a 0 7 6 e 6 e 6 e e 6 6 u 6 e 6 0 7 8 e e e e e t e 8 t t J ` ] 3.1.3.3.3.1.1.1.[ 3.[ ] [ [ 3.[ ~ N t 7 6 8 e e e e 7 0 8 e 8 8 7 e 7 e e e e 0 e 6 0 0 0 0 0 6 0 0 0 0 0 0 e 0 0 0 0 e e 0 0 0 0 0 0 0 e 0 0 e 0 0 0 0 0 0 e 0 0 e 9 9 y m ~ 1.1.1.) ` ( ( :.d.F..X,X,X,X.X.X.X.XXX}.XX}..X.X{..X{.D.x.a.<.,.>.,.<.2.<.2.:.:.1.:.1.3.1.1.1.1.1.1.1.1.1.3.1.1.1.1.1.,.1.3.1.1.,.1.1.1.1.1.1.3.1.3.1.,.,.1.1.3.1.1.,.1.1.3.1.3.1.,.1.1.1.1.,.3.1.3.,.1.1.,.3.1.1.1.1.1.` 1.` ] ] ] 0.1.T l e e 0 0 0 0 0 0 u 0 0 $ 0 0 0 0 u 0 0 0 0 0 0 0 6 e e d @..X,X<X>X>X1X=X>X1X6XhXnXvXnXvXnXnXnXnXzXAXSXSXAXAXZXnXxXxXwX/.+X+X}.2X2X<X[.a.L 3 2 f 3 f f f f k j 8 5 6 0 $ 9 0 6 6 6 6 8 e q q 6 9 0 a e t j e j e t t j ~ ] ] ` ` ` ] ' ] ] ' ] ] [ ] ] ] [ 3.T n e 5 6 0 u 0 0 0 9 0 0 u $ 0 0 6 0 0 0 0 u 0 0 0 0 0 e 0 0 e 0 0 0 0 0 0 0 e 0 0 0 0 0 0 0 0 0 a 0 0 0 0 0 0 0 0 ",
"7 0 0 0 0 7 y M ^ 2.2.:.>.1.:.+.+.V.|.<X<X<X<X1X1X>X<X<X<X<X<X,X:X,X>X<X.XV.a.+.#.Q +.` +.` ' ` ' ' ' ' ] 1.' 1.,.1.3.1.1.,.1.3.3.1.1.3.3.,.,.1.,.] ,.,.1.,.,.,.1.' ,.,.,.,.3.,.,.1.,.,.1.,.3.,.1.3.1.,.1.1.1.1.1.1.1.1.3.1.1.3.1.1.1.3.3.1.3.2.1.1.1.3.1.Y j e 7 q 8 q t q 8 8 8 q q e e 6 e 0 e 7 q e 6 e 6 7 5 6 > +.].}.4X>X>X2X2X}.+X3XlXAXAXAXAXAXAXAXAXAXSXZXZXSXZXZXZXAXMXiX/.=X=X:X>X:X>X{.l.K X & 6 5 ; @ + + $ 0 0 0 6 6 u e 6 e 6 6 6 6 6 6 e 7 0 6 6 5 # $ $ 5 5 - 7 r J ` [ 1.1.1.1.1.3.1.1.3.,.[ 3.] ] [ q./ N q 7 6 7 e e e 8 e e 6 8 6 q 0 0 8 e 0 e 6 e e 6 0 0 0 0 e 0 0 0 0 e 0 0 e u 0 0 0 0 0 e 6 0 0 0 e 0 0 0 u 0 0 0 0 e 0 0 0 0 0 e 9 7 e V / 4.<.2.2.:.:.>.2.V.|.,X<X<X1X1X1X>X1X1X>X<X<X4X<X4X1X,X].x.,.o.R W W R :.W :.:.:.1.1.1.1.3.1.1.1.1.1.1.,.1.3.1.1.3.1.2.:.3.1.3.1.1.3.,.1.1.3.,.1.1.1.1.1.1.3.1.1.3.1.1.1.1.3.1.1.3.,.1.1.1.1.3.1.3.>.3.1.1.1.1.3.1.1.,.] 1.' ' ] 1.] [ 1.T j e 8 q 0 0 0 0 0 y u u u y 0 u 0 0 0 e u 0 e 0 6 e 6 e d ,. X}.}.>X>X>X>X=X2XgXvXnXAXAXnXAXAXAXAXAXAXSXSXAXAXzXnXnXxXqX!.+X}.>X2X>X4X{.>.z X X * O * ; ; 6 7 5 6 6 $ $ 0 0 0 $ 9 9 0 0 0 0 0 0 9 6 9 0 6 0 0 9 9 7 9 8 J ] ] ] ` ` ` ] ] ' 3.] [ ] 3.[ ' [ 1.T n q 5 0 0 $ 0 6 0 9 0 6 $ 6 9 0 6 0 0 0 0 0 0 0 0 0 u 0 0 0 u 0 e 0 6 0 0 u e 0 0 0 0 0 e 0 0 0 0 0 0 0 0 0 0 e 0 ",
"9 0 0 0 9 9 e n U 2.:.>.:.+.:.@.$.j.|.,X>X,X<X1X,X,X>X:X>X,X,X:X:X:X>X1X.XA.<.` ' 1.1.,.` 1.,.' 1.' 1.' ] ' 1.1.3.1.1.1.1.1.1.1.1.1.3.,.,.1.3.,.,.1.3.,.,.,.1.1.,.,.1.1.,.1.,.1.,.1.,.1.,.,.1.3.,.3.1.1.3.1.3.1.1.,.3.1.1.1.1.,.2.3.1.1.>.1.1.1.,.3.2.2.1.R j d 7 q 8 8 8 q 8 8 8 8 q e q 8 8 7 6 e 0 7 7 8 0 7 5 6 ; o..X}.<X2X>X>X=X}.}.qXxXAXBXAXAXBXBXSXBXSXSXSXSXZXSXDXSXAXMXiX(.-X=X:X*X=X,X{.x.T & 5 e 0 0 0 0 9 0 0 0 0 6 6 e 6 6 6 u e 0 6 a e 6 6 9 6 6 6 6 6 0 9 6 6 7 t U _ 0.1.1.1.,.1.1.1.1.,.1.[ [ ] ] 3.3./ V t 6 7 6 7 6 e e 8 0 7 q e 8 7 8 0 7 7 8 7 7 0 0 0 0 0 0 0 0 0 0 a 0 0 0 0 0 e 0 0 0 0 0 0 u 0 0 0 0 0 0 e 0 0 e 0 0 0 0 q 9 e e e q e N ~ ,.,.,.,.:.,.,.$.V.].>X>X=X>X=X>X>X:X=X>X>X>X=X>X>X:X>X{.l.<.:.:.1.:.:.:.:.:.:.:.1.3.>.3.1.1.3.3.1.3.1.1.1.1.1.,.1.1.3.1.,.1.1.1.:.1.1.1.1.1.1.1.1.3.3.1.1.1.1.3.1.1.3.1.1.2.1.,.1.1.3.1.1.,.1.1.1.1.1.1.3.1.1.1.1.3.1.' ` ] ] ' ] 1.1.1./ j e 7 0 7 0 0 0 0 0 $ y $ 0 0 0 0 0 0 0 0 0 0 0 e u 6 a d @..X}.>X>X>X=X=X2X6XgXvXAXAXSXAXZXSXZXAXAXSXHXSXSXAXAXzXnXvXqX/.Q.}.}.}.:X2X.Xg.K * - 8 6 6 e 0 u e e 7 6 9 9 9 0 $ 0 9 $ 6 0 0 0 7 6 5 $ 9 0 0 0 9 u 0 9 e e / ) ] ` ` :.] ' ' ] ] [ ] ' ] ] 3.[ 1.T n e 5 $ 0 u 6 6 0 6 0 0 u 0 6 0 $ 0 0 0 0 0 0 0 0 0 0 0 0 e 0 0 u 0 e 0 e 0 0 0 a 0 0 0 0 0 0 0 0 0 0 0 0 0 0 0 0 ",
"9 9 6 9 9 $ 9 n Y 2.2.+.+.+.,.,.,.x.].,X>X,X>X>X,X:X{.*X*X:X:X:X>X1X<X1X.XA.d.+.1.:.,.' 1.:.1.1.' 1.' 1.3.3.1.1.1.,.1.3.1.1.3.,.1.,.1.3.1.,.1.,.,.,.1.,.,.] ,.3.3.,.3.,.,.1.,.] ,.3.,.,.,.1.,.1.3.3.1.3.1.1.1.1.1.1.1.1.,.1.3.2.1.1.2.,.3.1.:.1.1.1.1.1.1.R j r 7 8 8 8 8 q 8 8 e e e e e 6 e 6 e 6 e 8 0 6 0 0 6 6 = o.[.}.2X>X2XQ.>X}.+X3XnXAXSXBXSXSXAXSXSXZXSXBXZXSXSXSXAXAXMXyX-X=X:X=X=X:X:X{.x.T * 5 a a e e e 0 0 e e e 6 e 6 6 6 e 6 e u 6 6 6 0 u 0 6 6 0 0 e 0 0 q 7 q e ~ ] [ 1.1.1.1.3.1.1.1.3.[ 3.3.[ ] [ q./ N q 5 6 e e e e e 8 0 e 7 e 0 8 8 8 0 e 0 e 6 e 0 0 u e 0 0 0 0 0 0 0 0 e 0 0 0 0 0 0 e 0 0 e 0 e 0 0 0 0 e u e e 0 0 0 0 0 0 e 9 e q e m ~ 1.,.,.,.,.+.+.#.l.].}.:X:X*X>X:X=X:X=X=X=X:X=X=X=X}.{.S.x.4.1.:.:.-.:.:.1.1.1.1.1.1.1.1.1.,.1.1.1.,.1.3.1.,.1.3.1.,.1.3.1.3.1.1.2.3.1.1.,.1.3.3.1.1.1.1.1.3.1.,.,.1.1.1.3.1.1.1.1.,.1.1.1.1.3.1.3.1.,.1.1.1.,.1.1.1.3.] ] ` ] ] [ 3.3.[ / t e 0 0 6 0 0 0 0 y 0 u $ 0 u 0 0 0 0 0 0 0 0 0 0 e 6 u j ,. X}.>X2X>X>X-X2X3XhXnXAXAXAXAXZXAXSXAXZXSXHXSXAXAXAXAXcXvXqX~.Q.[.Q.}.Q.}.{.8.L ; ; 8 a e e a e a a 9 $ 0 u y 0 0 0 0 9 9 6 0 0 0 6 9 6 6 0 0 y y y y e a y ~ 1.] ] ` ` ] ] :.] [ ' 1.' ] ] [ 3.1.U n 0 6 0 0 0 0 9 0 0 0 0 0 0 0 0 0 0 0 0 0 0 0 0 0 0 e 0 0 0 0 0 e 0 0 0 e 0 0 0 0 0 e 0 0 e 0 0 0 0 0 0 0 0 0 0 e ",
"0 9 9 9 9 6 e m ^ 1.>.:.:.+.+.o.o.j.|.,X>X{.,X>X:X:X:X{.:X:X>X:X,X1X:X<X|.S.3.+.` ' 1.' 1.` ' :.1.' 1.' 1.' 1.' 1.1.1.1.3.1.1.1.1.1.3.,.3.,.1.,.1.3.,.,.3.,.1.,.,.1.,.1.,.,.3.,.3.,.] 1.,.,.,.1.1.,.1.1.1.3.,.1.1.3.,.1.1.1.1.1.1.3.1.1.1.3.2.3.2.1.1.1.1.R l e q 8 q t e q 8 e e e q 8 6 7 e 7 8 7 6 8 e 7 6 7 6 6 > X.XX>X>X2X>X>X>X>X2XiXnXAXVXSXZXBXAXBXBXAXSXSXDXSXSXSXAXnXnXyXQ.-X=X:X:X=X:X{.V.T - 5 a e 0 q 0 a 0 u 0 e 6 u 6 e e u 6 6 0 6 0 6 6 6 0 0 0 0 6 6 e 0 e 8 e t ^ 1.0.3.1.1.1.1.1.,.3.3.1.[ [ ] [ 3.[ / N y 6 7 5 8 e 7 e e 7 e 0 q 0 7 6 e 0 7 7 8 e e 6 q 0 0 0 0 0 0 0 0 0 0 0 0 0 0 0 e 0 0 0 0 0 0 0 0 0 0 0 0 0 0 0 0 0 0 0 0 0 e 9 e q e m R :.,.2.:.,.:.+.:.l.S.}.>X>X=X>X=X:X=X>X>X>X=X}.>X:X=X}.S.x.<.X.:.2.1.:.:.:.1.1.1.,.1.3.1.1.1.1.3.1.1.1.1.1.3.1.1.1.1.1.3.1.1.1.,.3.1.1.3.1.1.1.1.2.,.1.3.1.1.1.1.1.1.3.1.,.1.3.1.1.1.1.3.3.1.1.1.3.1.1.1.3.3.1.1.,.1.1.' ' ] ] ' ' ] 1.] T t t q 7 9 0 0 0 u u 0 y 0 0 0 0 u 0 e 0 0 0 0 0 e e e e i >.{.}.$X}.>X-X>X2X5XhXnXAXAXAXSXAXSXAXAXAXAXSXSXAXAXAXzXvXxX7X(./.Q.>XQ.E.}.|.8.K - ; 8 e u 0 e u 0 0 $ 6 0 $ 0 9 0 9 0 0 6 9 0 0 0 0 6 6 0 0 a u y 0 y y y n A 0.] ] ` ` ` ' ] ' ] [ ] [ ] [ ] [ 1.T k e $ 6 0 6 9 $ 0 6 0 9 0 0 0 0 0 0 0 0 0 0 0 0 0 0 0 e 0 0 0 0 0 0 0 0 0 0 0 0 0 0 0 0 0 0 u 0 0 0 0 0 0 0 0 0 u ",
"9 6 9 0 9 9 e M U 2.,.,.,.:.W W #.j.D.XX<X,X,X>X,X>X,X:X:X:X>X>X<X>X1X<X.XA.3.` ' ` ,.' ' 1.' ' ' ' ' 3.1.1.3.1.1.1.1.3.1.1.1.1.1.1.,.3.3.,.,.,.1.,.,.,.1.1.,.,.1.,.,.,.] ,.1.,.[ ,.1.,.,.,.1.3.3.3.1.1.3.1.,.1.1.1.1.3.1.1.1.1.2.1.2.3.3.1.1.1.1.2.2.1.1.R j e 7 q q 8 8 8 e e e e 8 8 0 q e e e 6 7 8 7 e 0 7 7 6 ; o..X}.>X2X2X>X2X}.2XiXnXAXAXSXAXZXAXBXSXSXAXSXSXSXSXAXAXMXMX3X/./.>X>X>X:X>X|.N.R - 5 a 0 e e e e e e u 6 e 0 e u e 6 6 e e 6 6 u e e e 6 e 6 a 6 a 6 8 5 e d T ] 1.1.1.1.1.1.1.3.1.3.3.3.[ [ [ [ [ / V t 5 7 6 0 e e 8 e 8 8 8 8 q e e 8 7 0 6 e 6 e 7 0 0 0 0 0 0 0 e 0 0 e 0 0 0 0 e 0 0 0 0 0 0 0 0 0 0 0 0 0 0 0 0 0 0 e 0 0 0 e 0 q 9 e N / 1.,.,.>.' W W +.V.].}.}.>X:X:X:X=X}.}.>X>X}.>X:X>X>X>XS.V.<.:.,.>.:.:.:.:.1.1.1.1.:.2.2.1.1.q.1.1.3.1.1.3.1.3.1.1.1.,.1.3.3.1.3.3.1.,.1.1.1.1.3.1.1.1.1.3.,.1.1.1.3.1.1.1.1.2.,.1.1.1.3.3.1.1.1.,.1.3.1.1.1.1.1.1.1.1.,.] ] ' ] [ 1.[ ] / n e 6 $ y 0 0 0 0 u 0 $ b $ b $ $ B $ $ B $ $ 0 0 0 0 a i >. X}.$X$X2X2X/./.iXhXnXAXAXAXAXAXAXAXAXAXAXAXAXAXAXcXzXnXcXqX/./.}.>X}.}.$X.X8.K - ; u 8 8 6 6 u e e 5 6 6 0 0 $ 0 0 0 9 0 0 0 0 0 e 0 0 y 0 b y 0 0 0 b 0 n ~ ] ] ] ] ` ` ] ' ] ] ' ] ] ' ] [ [ 1.T j q 7 0 7 0 6 0 6 9 0 9 u 6 0 0 0 e 0 0 0 0 0 e 0 0 0 0 0 e 0 0 0 0 0 0 0 0 0 0 u 0 0 0 0 0 0 0 e u 0 0 0 0 0 0 0 ",
"7 9 9 9 6 9 e z U 2.+.+.@.#.E E W g.D.XX<X<X>X>X<X<X<X<X,X>X,X<X,X>X,X1X.XA.>.W ` 1.1.1.1.1.1.1.1.1.1.] 1.' 1.1.,.3.1.1.3.1.,.3.3.1.3.,.1.,.1.,.1.3.1.3.,.,.,.1.,.3.1.,.,.3.,.,.1.,.1.,.1.,.,.[ ,.,.1.3.1.1.1.1.,.3.1.1.3.1.,.3.,.1.1.1.2.1.,.1.1.3.1.1.1.R l e 7 7 e e e q q 8 e e 8 8 7 8 7 0 e q 0 8 0 6 6 6 6 7 7 X..X}.4X$X>X}.>X}.$X5XvXAXAXAXAXAXAXAXAXAXAXAXAXAXAXAXMXMXmXdX2X2X<X,X<X<X>X.XN.Y - 5 a a 6 6 6 e 8 e e e 6 6 e 6 6 e 6 u 6 6 e 6 e 6 e e e 6 6 e e 0 e 7 8 8 V ` [ 1.0.1.1.,.1.1.1.[ 3.] [ [ [ q.q.~ M q 8 7 8 6 q 8 e 8 8 q e q e q 8 8 8 8 8 q 7 e 0 0 0 0 0 0 0 0 0 0 0 0 0 0 u 0 0 0 6 0 0 0 0 0 e 0 e 0 0 0 e 0 0 0 0 0 8 8 8 q 7 8 7 t M T :.+.+.W W R W +.l.]..X:XQ.>X=X,X:X>X:X:X>X:X>X>X<X<X,X|.Z.<.:.>.,.,.:.:.:.:.:.1.1.1.1.3.3.1.1.1.1.1.3.1.1.1.3.1.3.1.1.1.1.>.1.1.1.1.1.1.1.,.1.1.3.1.,.3.1.1.3.1.1.1.1.,.1.3.1.1.1.3.1.1.1.1.3.1.1.1.1.1.1.,.1.3.1.1.1.` ` ' ] ' [ [ 1.0./ j e 6 0 $ 0 0 0 0 0 0 b y b $ $ B $ $ y $ $ B 0 0 6 6 u k :. XXX$X$X}.$X$X2X6XhXnXAXAXAXAXAXAXAXnXAXAXAXAXAXAXzXnXvXhXeX+X+X$X4X4X4X4XXXl.L - ; a e e 6 e 6 6 7 6 $ 0 9 y y 0 0 0 0 0 9 0 b 0 e 0 0 0 0 0 0 y 0 9 9 0 e U ) ) ` ` ' ' ] ] [ ] [ ] 3.] [ ] [ 3.J t e 6 q e 0 6 6 6 6 9 0 $ 0 6 0 0 0 0 0 0 0 0 0 0 0 0 u 0 0 0 e 0 0 0 u e 0 e 0 0 0 0 0 0 0 e 0 0 e 0 0 0 0 u 0 0 ",
"a 0 0 e 7 7 8 N Y >.$.,.,.<.#.#.$.j.].XX<X>X,X<X<X<X,X,X{.{.,X,X,X,X>X,XG.Z.3.Q 1.3.1.,.,.3.3.,.1.1.3.,.,.,.,.1.1.1.1.1.1.1.1.1.1.1.1.3.,.3.,.1.,.,.' ,.,.1.3.,.1.,.,.3.1.1.,.1.,.1.,.,.1.,.,.3.3.1.1.1.1.3.1.3.1.1.1.1.1.1.1.2.2.1.3.:.,.1.3.1.1.1.1.1.1.( l 8 7 8 8 8 8 e e e e e 8 q 8 0 6 7 7 6 e 6 e 7 e 7 6 6 6 X._..X{.XX{. X.X[.$X@XhXnXnXnXnXnXnXnXnXnXnXnXnXnXnXAXnXmXvX5X[.}. XXXXX,XXX|.B.^ + ; a 0 e u u e u e e 8 e u 6 6 6 u 6 6 e u e 6 6 e e u e e i e a e e e 8 e U ] [ 0.1.3.3.1.1.1.1.,.3.[ 1.[ [ [ [ ( M t 7 8 q e 8 q e e e q e 8 7 8 8 q e 6 8 8 6 6 0 0 0 0 a 0 0 0 0 0 0 0 0 0 e 0 0 0 u 0 0 0 0 0 0 0 0 e e 0 0 0 e e e 8 8 8 8 8 e e 8 j H R >.<.,.#.o.#.+.>.x..X}.1X>X>X>X>X>X}.:X}.}.}.,X,X,X>XXXG.V.2.W :.1.:.:.:.:.:.1.1.1.1.1.3.1.1.0.3.3.3.1.1.:.3.1.1.3.1.1.1.1.3.1.1.1.,.1.3.3.1.3.1.1.1.1.1.3.3.1.1.1.3.3.1.1.1.1.1.1.1.1.,.,.1.1.1.3.3.1.,.1.1.1.3.1.1.1.1.] ' ] ] ] [ 1.] T k a 7 0 0 0 u $ b 0 $ $ $ $ b $ $ B B b $ b $ 0 0 0 6 8 i 2. X X X XXX XXX.X4XdXvXMXnXnXnXnXnXnXnXnXnXAXnXzXnXnXvXvXhX5X[.[.{.$XXXXX$X X2.C - ; a i 8 6 e 6 6 0 6 6 9 u y 0 9 9 0 9 0 0 a 0 a a 0 0 u 0 9 y $ 0 9 0 0 y ~ ) ] ] ` ] 1.] [ 3.' ' ] ] ' ' [ 3.1.T j a 8 8 e e y e e a 0 0 0 9 0 0 0 0 0 0 0 0 u 0 0 e 6 0 0 0 0 0 0 0 e 0 e 0 0 0 0 0 0 0 0 0 0 e 0 0 0 0 0 u 0 0 0 ",
"k k a k k a j V W d.a.a.s.a.$.y.a.j.{.}.>X:X>X<X<X,X,X{.D.S.D.D.G..X|.|.F.N.,.` :.,.3.,.3.3.3.3.2.1.3.3.3.3.3.3.3.1.,.1.1.3.1.1.1.1.3.,.3.] ,.,.,.1.,.1.3.,.1.' ,.,.1.,.,.,.3.,.,.3.,.1.,.,.1.3.,.3.,.1.1.1.1.3.3.1.,.1.1.3.1.1.3.3.2.1.2.1.1.1.,.1.2.1.1.R l r 8 8 q 8 q e 8 8 e e q 8 8 6 e e e e 0 7 e 0 6 e 0 6 7 Y C.).Z.).Z.).C.].|.$XgXhXvXvXvXvXvXhXvXvXvXvXvXlXvXvXvXmXhX$X_.|.F.|.|.|.|.Z.e.Y ; 5 a 0 e 6 e 6 8 e u e 6 6 6 e 6 e 6 e 6 6 6 e 6 6 8 e u 6 6 e 6 e e e t t J ) 1.3.1.0.3.1.3.1.1.[ 3.[ 1.] [ [ [ ~ V e 8 t j j n t n y t 8 8 8 q 8 0 8 7 e 6 e e e 6 e 0 0 0 0 e 0 0 0 0 0 e 0 0 0 0 0 0 0 0 0 0 a q 0 0 u 0 0 0 e y e e a j j j j j j j M T ' d.s.a.a.s.a.a.s.S.}.<X4X1X4X<X>X>X}.:X{.].{.D..X.X|.|.S.l.:.W :.:.:.:.1.2.:.1.1.1.,.1.1.3.1.[ 1.1.1.1.3.1.1.1.3.1.1.3.1.1.1.3.1.1.1.1.3.3.1.1.1.1.,.1.1.1.>.1.3.1.,.3.1.3.,.3.3.3.3.3.1.1.1.3.1.1.1.1.1.1.,.1.1.1.1.1.' ` ] ] ] [ 1.[ 1.~ n 0 6 0 9 0 0 b $ b u b $ b y B $ $ $ $ b $ b 0 0 6 6 7 u R Z.|.|.Z.|._.Z.S.XX5XhXnXvXMXnXmXvXvXvXvXnXMXnXcXnXnXvXhXgX4X].).].|.|.|.|.Z.2.C ; 5 a a e u e 6 e 0 0 $ 0 $ 0 9 y 0 0 0 0 a 0 y a e 0 0 0 0 $ 0 $ 0 9 0 0 e ~ 1.] ] ` ] ] [ ] [ 1.3.[ ] [ 1.] ' 1.T H j t t n n n n n a 0 9 0 6 0 9 0 0 0 0 e 0 0 0 0 e u 0 0 0 0 0 0 0 0 0 0 0 0 0 0 0 0 0 0 0 0 0 0 0 0 0 0 0 0 0 0 ",
"T Y T ^ Y U T :.d.F.S.S.D.D.S.S.n.{.,X>X1X>X<X>X<X,X{.S.s.s.a.l.j.d.d.a.d.<.,.W 1.,.3.,.3.3.,.3.,.,.3.3.3.,.3.3.3.,.3.3.[ 1.3.3.3.3.[ 1.3.,.1.,.,.1.,.1.,.,.' 3.,.' 1.] 1.[ ' 3.' 1.' 3.,.' ,.1.3.3.1.1.1.1.,.1.1.1.1.1.1.1.3.,.1.1.2.3.1.:.2.3.2.1.:.1.1.( j e 7 e e e q e e q 8 q 8 7 0 0 6 e 7 7 0 e e 6 8 q 0 6 5 k K L F K G K F P o.u.+XiXiXiXiXiXiXiXiXiXiXiXiXiXqXiXdXdX$X<.G G P T Y T T U C a - 5 0 0 6 6 0 e e e e e 0 e u e 6 e u e 6 6 e 6 u 6 e e e u e 6 e e e 6 8 t U ) ] 1.1.1.1.1.1.1.1.3.3.1.[ ] [ 1.q._ / ~ T J ~ ~ ! ~ ! A t 8 8 8 e 8 8 8 e e e 8 e 0 0 e 0 0 e 0 e 0 e 0 e 0 0 0 0 0 0 e 0 0 0 0 0 0 0 0 0 0 0 0 q e e e e U T Y T T T T H T ,.V.G.|.D.].].].S.S.{.>X<X>X=X>X>X>X}.{.v.j.a.y.s.j.d.s.l.d.4.>.` :.:.:.:.:.:.1.,.1.3.,.1.1.3.3.1.1.1.1.1.1.2.[ 3.3.3.[ 3.[ [ 3.[ 1.1.3.[ ] ,.3.3.3.] 3.3.3.[ 3.[ 1.,.3.1.3.3.3.3.1.3.3.1.1.1.1.3.,.1.3.1.,.2.3.,.1.1.1.1.' ] ] ] ] ' 1.3.1.~ t 8 q $ 0 u 0 $ b b $ b $ $ $ 0 0 u 0 b $ b $ u e 0 7 6 i k K C K K Y Y H D ` C.@XdXpXpXiXaXiXiXiXwXpXwXwXpXpXpXdX@X[.<.G G F P L I L L v a - 5 u 8 e 6 a e e 0 6 $ 0 0 0 u y $ 0 $ y e 0 y 0 a 0 0 0 0 y 9 0 0 0 e e j T [ 1.1.[ ] ] ,.[ 3.[ ] [ ' ] ] ] [ 3.` / / / ~ ~ ~ ~ ~ ^ ! e 0 0 0 0 0 0 0 0 0 0 0 0 0 e 0 0 0 0 0 0 0 0 0 0 0 0 0 e 0 0 0 0 0 0 0 0 0 0 0 0 0 0 0 0 u 0 ",
"1.-.-.1.:.W :.4.F.XX,X,X,X>X.X}.,X>X<X<X>X1X>X>X>X>X{.v.a.$.Q <.,.,.#.,.,.,.1.:.1.' ,.3.3.,.3.3.[ 3.[ ,.1.' 3.] 3.1.3.] 3.3.3.' 3.[ 3.,.1.[ [ ,.' 3.[ [ ] 3.,.1.3.[ 3.,.,.,.1.,.' 3.3.,.3.1.[ ,.1.1.,.1.3.1.1.1.1.,.1.3.3.2.1.1.1.,.1.1.3.2.1.1.3.2.1.1.1.Y j r 7 e 8 8 6 7 e q q 8 0 6 q 8 7 e 0 e 0 7 q e 8 0 0 6 ; 6 1 1 > 1 > 1 > 1 h O.E./.+X/.+X+X+X+X+X+X/./.+X(./.OX@X X[.G 1 > > 8 8 r 5 5 6 5 @ 5 0 6 6 e 6 6 e u e 6 6 6 6 6 6 6 6 6 6 8 u 6 e e 6 e e e e e a e a a t j U _ [ 1.1.1.1.,.3.2.1.3.[ 3.[ 1.[ 1.0.] _ ] [ [ 0.;.] 1.] ) n 7 r 8 8 8 e q e e 8 e e e e 0 u e y u e e y u a 0 0 0 0 0 0 0 e 0 0 0 0 0 0 0 q 0 0 0 0 e e e n ( 1.1.3.3.1.1.W ' V.S.XX<X,X<X<X<XXX}.,X<X>X>X}.:X>X:X:XD.j.#.#.#.#.<.#.#.#.:.,.] 1.1.:.1.:.1.1.1.1.1.1.1.3.1.0.1.1.3.3.3.1.1.3.3.[ 1.3.1.1.3.3.3.,.3.3.' 3.3.1.3.3.] ,.3.3.[ ] 3.3.3.1.3.1.1.1.3.3.3.3.3.3.3.1.1.1.1.1.1.1.1.1.1.1.1.1.3.1.1.' ` 1.' 1.1.3.1.~ t e 0 9 y 0 0 b $ $ b b $ b $ 0 0 0 0 $ b $ b 6 e 0 6 6 6 6 > ; ; ; > 8 * & S <.+X@X@X(.3X@X3X@X@X+X(.(.(./.^.OX@X}.P.G , > > > 1 1 1 8 8 8 @ 5 u 8 e e e e u 0 9 9 0 0 0 $ 0 y 0 0 0 0 0 e a 0 0 0 0 0 0 0 0 y 0 e a j ~ q.3.[ 3.' 3.[ 1.[ 1.] ' 1.] ] ' [ 3.] ' 1.3.0.[ ] ] 1.] ^ b $ 0 0 0 6 9 0 0 0 0 0 0 0 0 0 0 0 0 0 0 0 0 0 0 0 0 0 0 0 0 0 0 0 0 0 0 0 0 0 0 0 0 0 u 0 0 ",
">.:.-.2.` W ,.f.G.<X<X<X1X>X:X>X,X>X>X>X>X1X>X>X>XXX.XS.a.#.o.,.>.$.+.:.,.>.,.1.:.' ,.,.' 3.3.,.[ 3.3.,.,.3.1.[ ] ,.' 1.] 3.1.3.' 3.' 3.' ,.] 3.] 1.1.,.] 3.] [ ] ,.] 3.] [ 1.[ ] ,.] 1.] 3.] 1.' 1.1.1.1.1.3.1.3.>.1.3.1.:.3.1.1.3.1.1.1.1.>.3.1.:.1.1.1.T M a 8 e e 6 e e e 0 8 0 7 6 6 e e e 0 7 e 0 e 6 e 6 e 6 6 6 8 8 6 e e 8 ; > z +.I.$X2X2X2X+X2X2X+X+X2X2X2X2XQ./.4X$X].L 2 > 8 r 8 8 8 5 6 6 6 6 6 0 0 6 6 a e 6 6 e 6 e 6 e e e 6 6 e 6 e 6 8 e u e u e e u 0 a a 0 e j U ( 1.[ 1.1.3.1.1.1.3.3.[ 3.1.1.[ 1.[ 1.1.] 0.1.0.] 0.) 0.~ j 7 8 8 8 8 e e e e a e e 0 e e e 0 a 0 0 0 0 e e e 0 e e e 0 0 0 0 e 0 0 0 0 0 0 0 0 0 e e y e n ( 1.:.:.1.,.1.` <.x.S.,X>X>X>X4X1X<X>X<X4X>X}.}.}.>X:X>X|.v.$.#.o.#.,.,.,.,.:.1.1.,.>.,.,.1.1.,.1.1.3.3.2.1.1.1.3.0.1.1.1.1.[ 3.3.[ 3.3.3.3.3.3.1.[ 1.3.3.3.3.] 3.3.3.3.[ 3.3.3.3.[ 3.3.3.1.1.1.1.3.3.3.3.3.3.' 1.1.1.3.1.3.1.,.1.3.3.1.1.,.' ` ' 1.' ` 1.1.1.( a 8 7 y $ 0 0 $ u b $ $ b $ b $ u 0 0 0 y y y 0 0 0 0 6 6 6 8 5 6 7 7 8 : * H <.[.5X+X2X+X2X+X+X$X~.+X$X/./.+X+X$XXXc.G , > > 8 > 8 > 6 e 7 6 6 6 6 a a 6 a 6 0 0 0 0 y 0 0 9 y $ 9 0 0 0 0 e y 0 y 0 0 0 0 y 0 e e e e / 2.3.[ ,.3.' [ 3.[ 3.[ 3.3.[ 3.3.3.[ ] ] 1.3.[ [ 1.q.0.) ^ y 6 0 0 0 0 9 6 0 0 0 0 y 0 0 0 u 0 0 6 0 0 6 0 6 0 6 0 0 0 0 0 0 0 u 0 0 0 0 0 u 0 0 0 0 0 0 ",
":.:.` +.:.' ,.s.D.,X>X1X>X>X:X>X>X>X>X>X>X>X>X>X,X>X}.v.<.,.@.,.,.,.:.:.,.3.,.:.:.,.3.1.3.' ' 3.3.3.[ ] 1.[ ' ] [ ] [ ] ' ] ' ] ] ] ] ] ] ] [ ] ] ' [ ] ' ] ] ' 3.] ' ] ] ' ] ' ] [ ] [ ' ] ' ] 1.1.1.3.3.3.] 1.3.1.1.1.3.1.1.1.1.2.1.,.3.1.3.1.3.2.1.1.1.T j 8 e 6 e 6 6 e 0 0 0 7 0 0 6 e 7 6 e e e q q 6 e e e 6 6 6 6 e 6 0 a 6 6 ; m +.].<X>X>X2X>X>X>X>X>X>X>X>X>XW.[.4XXX].L > > 8 r t 8 8 ; 6 6 6 0 6 6 6 6 6 6 6 6 e u e u 6 6 6 u 6 e e u 6 e u e e e e e e 0 6 0 0 u e j U ` 1.0.1.1.1.1.1.,.1.1.1.1.1.[ 1.1.0.] 1.1.[ 1.] 0.1.0.1.( l 8 8 8 8 8 e e 0 6 0 e 0 e e u e e 0 0 b 0 0 0 u e u e e u 0 e 0 0 0 0 0 0 0 0 q e e e e e a e j ( :.:.:.,.,.,.Q ,.f.S..X}.>X:X1X>X>X:X4X}.}.}.}.}.}.>X>X{.v.p.#.Q #.,.>.:.:.:.,.1.:.:.:.>.,.3.1.,.3.1.1.1.1.3.1.3.[ 3.3.0.q.] [ 3.[ 1.[ ] [ [ [ 3.[ [ 1.[ [ [ 3.3.[ ' 3.[ ] 3.[ 3.[ 1.1.] ' ' ` 1.1.1.3.3.3.2.3.1.,.1.,.1.1.1.1.1.1.1.3.1.1.' 1.' ,.1.:.1.1.1.T a 6 9 u $ 0 0 y $ $ b b $ b $ $ b 0 0 u u $ y 6 6 u 0 6 u e u e 6 5 8 7 : : H 4.|.4X}.$X}.<X}.}.}.}.}.>X}.[.[.}.4X XZ.P > 8 e e 6 6 e u 6 6 0 0 6 6 0 6 0 6 e 0 0 7 0 0 0 y 0 0 0 0 0 0 0 y u 0 0 0 0 0 u 0 0 u 0 e e j T 3.3.[ ] ] ' ,.' 1.[ [ 3.] 3.[ [ ] 3.[ 3.[ 3.[ 0.] q.q.] ~ j 0 0 0 u $ 0 u 6 u $ 0 u 0 6 6 0 6 0 $ u 0 0 0 6 9 0 0 0 0 u $ 0 0 0 0 u 0 0 0 6 0 6 $ u $ 0 ",
"+.:.+.:.' ' <.s.D.>X>X1X>X=X=X>X>X>X>X>X>X>X>X>X>X,X.XS.<.+.+.:.>.+.:.` :.:.,.1.,.,.[ ,.] 3.[ 3.[ ] ' ] [ 1.' ] [ ' 1.] ' ] ] [ ] ] ] [ ] [ 1.[ [ ] ] ' ] 3.' ] ] [ ] ' ] [ ] [ ' ] [ ] ] ' ] ] ' ' 3.3.3.1.' 1.1.1.,.1.3.1.,.1.1.1.1.1.1.1.3.2.1.3.1.1.:.U j 8 6 0 6 6 6 0 e 0 0 7 6 6 6 8 6 q 0 8 e 0 e e q 0 0 e 6 6 0 0 0 0 0 0 6 5 M X.].<X2X>X>X>X>X>X>X1X>X>X1X>X*X>X<XXX].I 2 8 8 e e d 8 5 6 6 e e 6 6 6 6 6 6 u e 6 6 e 6 6 6 6 6 u e 6 6 6 u e e e u 0 0 6 6 6 u 6 $ 5 a U 1.1.0.1.1.1.3.,.1.1.1.1.1.1.1.1.1.1.1.] ] ] 1.1.] ] 0.0.) n 7 8 8 8 e e 8 e e 0 0 0 u 0 e b 0 0 0 e u 0 a y e e 0 0 e 0 0 0 0 0 0 0 0 0 0 e e e e y y e b M ( :.:.:.:.>.,.Q ,.f.b.:X=X=X}.=X=X>X=X}.>X>X}.{.:X>X>X,X.Xv.a.#.W ,.,.:.,.1.,.1.,.,.1.:.,.1.1.,.,.,.3.1.3.1.1.1.q.[ 0.1.3.1.1.q.] 1.[ ' 3.[ [ [ 3.1.[ [ 3.[ [ [ 3.[ 3.[ [ [ [ [ [ 3.] ] :.` ` _ ` ` 1.1.1.,.3.1.] ,.3.3.1.,.1.1.,.3.1.1.1.' 1.1.1.3.1.` ` 1.1.~ a e 0 u 0 0 u y u y u $ 0 0 u u y $ u 0 u 0 0 u e 8 e 6 6 0 0 0 0 6 6 7 5 5 H 4..X<X>X<X<X}.<X}.}.}.<X4X}.}.}.4X4X X_.L ; 8 6 0 0 0 0 0 6 0 6 6 6 0 u 0 6 0 e 0 0 0 0 0 0 0 0 0 0 y 0 0 0 u 0 u y 0 9 0 0 0 0 e u i 8 j / 3.3.,.[ 3.' 3.[ 1.[ [ 3.[ ] 3.[ 3.' 1.[ [ 3.[ q.[ q.3.] U e q 0 0 0 u 0 0 u 0 0 0 $ u $ 0 u 6 0 0 0 6 0 $ u 0 0 0 0 0 0 0 u y 0 9 $ 0 0 $ 0 0 u 6 0 u 0 ",
"+.:.,.Q Q W p.f.S.>X>X>X>X>X>X>X>X>X=X:X>X=X>X>X<X<XXXS.<.#.+.:.,.:.:.X.+.:.,.,.1.3.' ,.' ' 3.[ [ 3.3.[ ] [ [ ] ] [ ] [ ] [ [ ] 3.' [ ] ' ] ' ] ' [ [ ] [ ] [ ] ' [ [ ] ' 1.[ ] ] [ ] [ ] 1.] ' ` ` ] 1.3.1.1.1.3.1.1.1.3.1.1.1.1.,.2.3.1.3.1.1.1.1.1.1.] U j 8 6 6 0 6 0 u 0 0 0 6 0 e 6 e e 8 q 0 q 0 q 0 e e 6 6 6 0 0 0 0 0 0 6 9 6 M :.].<X>X>X>X1X<X1X>X>X>X1X>X,X{.}.4XXXF.I > > 8 j e e 8 6 6 e 6 u 6 e e e e 6 e 6 e 6 6 e u e e 6 e 6 6 e 6 e e e e 8 a a e 6 0 0 6 6 e e ~ ;.1.1.3.3.1.1.1.1.1.3.1.,.1.[ 1.[ 1.[ 0.1.1.0.1.0.1.0.] ^ j 8 e e e e e e 0 0 a 0 e e 0 0 0 e 0 u e 0 0 e e 0 0 u 0 0 0 0 0 0 0 0 0 0 0 9 9 9 e 0 e e e e n R :.:.:.,.,.,.Q { f.D.>X2X2X>X>X2X>X2X2X<X}.}.}.}..X>XXX.Xv.#.#.+.,.,.,.:.1.,.1.:.1.1.:.:.,.,.,.1.1.3.1.1.1.3.1.3.1.1.0.1.[ 0.[ 3.[ 3.1.[ 1.3.[ ] [ 3.3.] [ 3.[ 3.1.[ [ 1.3.] 3.3.[ [ 1.` :.1.` ` ` 1.1.1.3.3.1.1.1.] ,.1.1.1.1.1.1.1.,.1.1.1.1.1.3.] ` ` 1.1.T j e 0 0 y 0 y 0 $ 0 $ u 0 0 $ y $ 0 0 0 0 0 0 6 6 6 u e u 6 e 0 0 6 9 7 5 - H 2..X4X<X>X}.}.4X<X>X<X<X<XXX{.}.<X<X XC.K > 8 0 0 0 0 0 0 e 0 e a 6 6 6 e 6 0 6 0 0 9 0 0 y 0 0 0 y $ 0 y 0 y 0 0 0 0 y 0 u 0 u e e e 8 a T 3.3.] ,.' ] ' 3.' 3.3.] 3.[ [ 3.[ 3.[ 3.[ [ [ 3.[ [ q.] ~ n 0 0 6 0 $ 0 0 $ 0 0 0 0 0 0 0 $ 0 0 6 0 6 0 0 0 9 0 6 0 u $ 0 $ u $ y u 0 0 u 0 0 $ 0 0 0 0 ",
",.,.' ' ' Q ' s.n.>X}.>X2X>X2X2X4X=X:X:X:X>X>X>X1X,X<XZ.<.+.+.,.:.,.:.>.:.:.` ' ' ' 3.[ 3.[ 3.] 3.[ 3.] [ ] ' ] ] ] ] ] 3.' ] ] ' ] ] [ ] [ ] [ ] ] [ ] [ ] ] ' ] ] ] 1.] ] [ ] [ 1.] ] [ ' ] ] ` ` 1.,.3.1.[ 1.1.1.3.1.1.,.1.3.2.3.1.1.2.3.1.1.3.1.,.1.1.T j 8 6 6 0 0 9 0 0 7 0 7 0 6 6 e 0 0 8 8 0 e 0 q 0 8 6 e e 0 0 0 0 0 e 0 7 6 N >.|.}.>X1X>X>X1X>X>X1X>X<X<X>X}.>X4XXXF.L 1 7 8 t a 8 6 6 6 6 6 6 6 6 6 u 6 6 6 6 u 6 6 6 6 6 6 6 6 6 6 e e 6 0 0 u e a 6 e e 6 0 u 6 6 a ~ 1.1.3.3.1.,.1.3.3.1.3.1.3.1.1.1.] 0.1.1.1.1.0.0.] 0.1.1.( n 8 8 e e e e u 0 u 0 e 0 0 u 0 0 0 0 0 0 0 0 0 0 0 0 0 0 0 0 0 0 0 0 0 0 6 0 0 9 9 9 0 q e q q j T ( +.+.:.:.W Q p.f.{.4X2X2X2X3X>X2X4X2X>X>X}.}.>X>X>X}.{.n.<.#.W +.,.,.:.:.2.,.,.,.1.>.3.1.1.,.,.,.3.1.3.1.3.0.3.1.1.[ 1.q.1.[ q.[ [ [ 3.1.[ 3.[ [ ' [ ' 3.] [ ] ] 1.3.[ 3.[ ] 3.] 3.' 1.1.1.:.` ` 1.3.3.3.2.1.1.' 1.1.3.1.3.1.3.1.3.1.1.' 1.' 1.,.,.` :.` :.U b a 0 0 y $ u $ u 0 0 0 0 0 0 0 y 0 y 6 u u 6 u e e u 6 6 e 0 0 0 7 7 q 5 - N 2..X<X>X<XXX<X<X4X>X<X>X}.}.{.}.}.XX|.V.L > > 6 0 e u 0 0 0 0 u e 6 6 e 6 u e 0 0 0 0 0 0 0 0 0 0 0 0 0 y 0 0 0 0 y 0 y y 0 u 0 u e e e d T 1.1.' 3.' ,.' ,.[ 1.3.[ 3.] [ 3.[ [ 3.[ [ 3.3.q.0.q.q.] ~ a 0 0 0 $ 0 6 0 9 $ 0 0 u 0 0 0 0 $ u 0 0 9 0 6 6 0 6 0 9 0 0 0 0 0 $ u $ $ u u 0 0 0 0 6 0 $ ",
",.Q Q ,.Q Q p.s.v.}.Q./.2X2X2X1X2X2X>X=X*X:X:X:X>X>X<XF.#.@.,.:.>.:.:.:.,.>.,.>.3.3.3.3.3.3.3.1.3.3.3.[ 3.3.3.3.[ 1.1.1.3.3.3.[ 3.3.1.3.3.3.1.1.3.3.3.3.3.3.3.3.3.3.3.1.3.3.3.3.3.3.3.3.3.1.1.] ( ` 1.1.3.' 1.1.,.1.1.1.1.1.1.2.1.1.1.,.2.1.3.1.1.1.1.1.1.T j 8 $ 6 6 7 6 0 0 0 0 0 q 6 6 6 7 8 0 q q q e e q 0 0 0 6 6 0 6 0 0 b e 7 5 m X.].<X<X>X>X>X>X>X>X>X>X>X<X>X{.:X<XXXG.L 2 7 e t e t 8 5 8 6 6 8 e u 6 6 e e 6 e e 6 e u e 6 e u e 6 6 u 6 6 6 7 8 8 6 6 e 6 6 6 6 $ e i U ] 1.0.0.3.1.1.1.1.1.1.1.1.1.1.1.1.[ ] 1.] ] ] 1.1.;.0.0.^ t 7 7 7 5 6 6 5 0 6 0 q 6 0 0 6 0 0 0 0 0 0 6 e 0 0 0 0 0 0 0 0 0 6 0 0 0 0 0 0 e 0 9 0 0 q 8 8 j T R :.( W :.Q Q p.s.R.2X/.Q.+X-X2X>X+X+X}.>XXX}.}.XX>XXX.Xv.<.$.+.:.:.:.:.2.:.1.,.3.,.3.3.1.1.1.1.1.1.1.1.1.1.1.1.1.1.3.1.[ 1.[ [ 3.1.[ 3.3.1.3.3.1.3.3.3.3.3.3.1.1.1.,.] 3.3.3.3.1.] 1.1.1.1.1.1.1.1.3.] ,.[ :.' 1.1.1.1.1.1.1.1.1.1.,.1.,.1.1.,.,.,.` ` :.( U k e e 0 0 0 $ 9 0 0 0 $ 0 0 0 $ u $ u 0 e 6 0 6 e 6 6 e u 6 0 0 7 7 8 8 5 - H <..X<X<X<X}.<X<X<X<X<X<X4X4X<X<X4X4XXX_.L ; 8 u 0 0 0 e 0 0 0 e 6 0 6 u 6 0 6 e 0 0 9 u 0 0 0 0 0 0 9 0 0 0 u 0 0 0 0 0 9 0 0 9 8 5 ; 7 8 U 1.1.' [ 1.' 3.[ 3.3.[ 3.[ [ 1.[ 3.] 1.[ 3.[ [ [ [ [ 0._ ~ e 0 0 0 u 0 6 0 0 u y 0 $ 0 0 0 0 0 0 e q 6 0 0 9 9 0 0 6 0 u $ 0 0 0 y 0 9 y $ 0 0 u 6 6 0 0 ",
"p.#.#.<.<.t.p.g.R.+X/./.@X3X3X3X6X2X-XQ.Q.:X>X=X<X<X,XS.#.` ` :.:.1.2.1.:.1.1.1.1.1.1.] 1.1.] 1.1.1.;.1.] ] ] ] :.;.` 1.] ] ] 1.] ] ] ] 1.` ] ) ] ] ] 1.] ] ] ] 1.` ] ) ] ) ` 1.] ] ) ] ] :.` ` ( ` 1.3.3.1.3.1.1.,.1.3.,.1.1.1.,.2.3.1.2.3.1.1.1.3.1.1.] / M e 7 8 e q e b e e 0 q e 7 7 0 0 q 0 e e e q q e 0 0 6 0 0 0 0 0 0 0 0 6 9 M >.].<X1X>X>X>X>X<X}..X.X{.|.|.]..X X|.Z.P 8 8 8 j e e e 5 6 6 e e 6 6 6 6 6 u e 6 6 6 e 6 e 6 6 e 6 e 6 6 e u 6 6 5 6 6 e a e e u 0 6 i j K ) 1.1.1.1.1.,.3.1.,.1.3.1.1.1.1.1.0.1.1.1.1.1.0.] [ 1.0.( l q 8 8 8 8 8 a 8 e e 8 e e e q 0 e e t q e e e e e e e a e 0 0 9 6 0 9 0 e 0 e y e e t 8 i e t l R ,.>.@.,.,.$.#.t.g.W.3X(.(.!./.(./.(./.Q.}.}.XX}.}.,X<X.XV.>.:.W :.` :.-.:.1.` ` ) ` :.-.) -.-.:.) ;.1.] ) 1.;.;.1.;.;.;.1.) ] ) ] ] ] ` ) ) ) ] ` 1.` ` ] ) ) ` ] 1.] ) ) ] ` ` ) ` ` ;.1.1.1.1.` 1.1.1.' :.' ` 1.1.,.1.1.1.3.,.1.1.1.3.1.1.1.1.,.:.:.` ` ( U j j a a e e e u 0 0 0 6 $ 0 u 0 0 6 0 0 6 0 u e e 6 6 6 0 0 0 0 0 7 0 7 5 - V 2. X4X}.>X<X}.4X4XXX.XXXXXXXXX X XXX XZ.K 8 8 e 0 e 0 0 0 0 0 0 e 6 0 e 6 e 0 0 0 0 0 0 0 0 0 0 0 0 9 0 0 y 0 0 e 0 y 0 y y t 8 8 7 8 > w H ' ' ' ' [ ,.3.3.3.3.] 3.[ 3.3.[ 3.[ [ 1.[ [ q.[ [ q.q._ / n a a e a y e t e a e y e u e e b y q a e e q q y u e e e 0 9 0 0 $ 0 0 u $ 0 e a a a e a a a ",
"j.j.j.g.s.u.j.T.+XiXwXiXiXpXiXiXaX3X-X}.}.1X>X>X>X<XXXV.R P U U ~ ~ T ~ ~ T R R T R / ~ T R ~ ~ ~ ~ T T T ~ ~ U T T ~ T U ~ ~ Y ~ T ~ U ^ Y ~ T U ~ ~ Y ~ T ~ U ~ Y ~ T T T ~ Y T T ~ ~ T T U T / ` 1.3.3.1.' 1.1.3.1.1.1.1.3.3.1.1.,.1.1.1.2.3.3.2.1.1.1.( J H N m H N N V V m e e 6 e 8 0 7 0 8 q 0 q 0 e q 0 0 0 0 0 0 0 0 0 y 0 6 5 m X.].>X>X<X>X>X>X,X{.v.j.d.x.x.l.N.N.N.4.Y d 8 8 e a e 8 6 e 6 6 u 6 e 8 e e 6 6 e u e 6 6 u 6 6 6 6 u e 6 e 6 6 6 5 6 a m A V M M m M M N T :.1.1.1.1.1.1.1.1.1.1.,.1.1.1.[ 1.[ ] 1.] 1.] 1.1.0.1.] ) J N N N N N V M m V J N V N N V m m m V M V V N H N N m m a e 7 9 6 6 6 0 e e n m V N M N M V M K <.d.l.d.j.j.g.g.k.T.2XiXiXpXiXiXpXiXiX@X@X+X}.XX}.,X>XXX.Xj.R L K U Y T U T Y T Y T T U Y T T T U T Y ^ ~ ~ ~ ~ ~ ~ ~ ~ ~ ~ Y ~ ~ ~ ~ ~ Y T T T U T Y T ~ T T T Y T U U T T Y T T ~ U ~ Y T U U U T ( ' 1.1.] 1.] 1.] 1.1.3.1.1.1.3.1.1.1.1.' 1.' ,.1.:.1.1.:.( J M M M M m N A V m e 6 6 0 $ $ u 0 0 u 6 6 e u 6 u e 6 u 0 0 0 0 6 7 8 5 5 H 3..X4X<X<X}.<XXX<X.Xx.z.N.N.B.N.B.B.e.2.m u 6 6 0 0 0 0 e 0 0 0 0 0 0 6 0 0 0 0 0 0 0 e 0 0 0 0 0 0 0 y 0 0 y u 0 e a m M N N N z M l z H R ,.' ,.3.' [ ' [ [ [ [ 3.3.[ [ 1.[ 3.3.[ [ 3.[ ] ] q.1.[ ) V m m V m N B V V V M V N B V n V N V V m V V V B m V V m b 0 6 $ 0 0 $ $ 0 u n B V N N m B B ",
"R.R.n.b.R.P.E.Q.dXvXxXlXzXjXlXsXsXiX3X/.>X2X>X>X>X<X XN.P z j m n V m m m n M m m m M m M m m m M M m k M M M M n m k m M n k M M M M M M n n k M n k M M M M M n M m n n M M m M M n M M l z M T ( 1.3.1.' 1.1.1.1.2.:.1.1.1.1.1.1.1.1.3.1.3.1.1.1.1.1.1.) T T / / / ~ / ( ^ V k e e e 8 8 7 8 0 q q 0 0 7 e 0 0 0 0 0 0 0 0 y u 0 5 5 m +.].<X>X>X>X1X<X<X].y.E D P Y R R R R R k 7 7 e u e e 6 5 6 e 6 6 6 e 6 u 6 6 6 e 6 6 e 6 e 6 u e 6 e 6 u 6 0 u 6 5 u M U ) ( ( T ~ T U T ( 1.1.1.1.1.1.3.,.1.2.1.1.1.1.1.1.1.] 1.0.] 1.] ] 1.1.1.] ] _ T / / / / T T / / / / / / / / / / / / / / / / / / / / U M e 8 0 6 6 9 9 0 n V U ~ T Y Y T Y T :.x.S.S.S.].D.].R.W.+XiXmXnXxXnXlXlXlXlXiX3X$X>XXX>X,X>XXX].4.F k k k M n M M k m k k n k m M k n m k m m M m m m m m m m m m m M M n B k M k m M n M n k m n M m M m n M M M M M m n M k M m k m m M R _ 1.] 1.1.3.,.3.1.1.1.3.1.3.1.1.1.,.3.1.,.' ' 1.3.,.1.1.' / T T T T ~ ~ ^ ~ V a 6 $ 0 0 u 0 0 6 u 6 e 6 e 6 6 u u e 6 0 0 9 9 6 8 5 - H 4..X<X<X}.4X}.<X,XS.$.L K Y Y R Y Y Y A k 6 6 e 0 0 e 0 e u 0 e 0 0 e 0 0 0 0 0 0 e 0 0 0 0 0 u 0 0 $ u 0 0 0 y 0 0 b B ~ / / / T T T T T ' ,.3.[ 3.[ ,.[ ' 3.[ 1.[ [ 1.[ 1.] [ [ [ 1.[ [ q.0.[ 3.] ] / ~ ~ ~ / ~ ~ ~ ^ ~ / ~ ~ / ~ / ~ ~ ~ ~ ~ / / ~ ~ ~ ~ ~ ! m 9 0 $ $ 0 $ 0 9 a V ~ ) ^ / / Y / ",
"$X:X>X>X[.}.}.3XhXGXGXAXAXAXnXnXvXpX3X2X2X>X2X>X<X<X.Xd.g 8 5 7 7 7 7 7 7 5 5 8 7 7 5 5 5 5 ; ; 5 5 5 ; 5 5 @ 5 5 ; 5 ; 5 5 5 $ ; $ ; 5 5 ; 5 ; 6 5 5 $ ; $ ; 5 5 ; ; 5 ; 5 ; 5 $ 5 5 5 7 - - 7 U ` 1.3.2.1.1.' 3.3.[ 3.1.3.1.,.2.3.2.1.3.0.1.3.2.1.1.1.1.` _ ' 3.3.3.1.[ q.;.( n e 6 7 0 8 0 e 6 e e 0 e e 0 0 0 0 0 0 0 9 9 0 e 0 6 5 M :.].4X>X>X>X1X<X4Xv.G , % - 7 > > > > 5 > 5 ; 5 5 5 6 5 e 6 e 6 e 6 u 6 6 e e u 6 6 e u 6 6 e e 6 6 0 6 e 6 0 0 6 5 a A ) q.q.3.2.1.;.1.1.1.1.3.3.3.3.1.1.1.1.3.1.3.1.1.[ 1.] 1.1.1.] 1.] 0.1.[ 1.3.0.3.[ [ q.3.q.3.2.3.q.3.q.3.3.3.q.3.q.3.3.3.q.q.3.3.q.0.1.( J a q 0 9 6 0 0 7 n A ( ] ` ' ,.:.1.,.4.|.XXXX,X,XXX<X$X4X6XmXMXGXMXAXAXnXMXnXfXiX2X}.,X.X>X.XXX_.,.d > 5 5 5 5 ; ; 5 ; 5 ; 5 ; ; 6 ; 6 ; 6 ; 5 5 6 $ 6 $ 6 5 6 5 5 5 6 5 5 9 6 5 5 5 6 5 ; 6 5 5 5 5 5 ; 5 ; 6 5 ; ; 6 5 7 6 u 6 ; 6 6 6 j U R ` ` 1.3.3.3.1.1.3.1.3.1.3.>.1.1.1.3.,.,.1.1.1.' ' ,.2.2.1.1.1.1.1.1.1.q.) ~ b 6 $ 0 $ 0 0 0 6 0 6 e u u 6 e e 6 0 0 0 0 9 6 7 8 5 - H 2..X4X<X<X}.<XXXXXc.G > X * ; > 5 + ; 5 5 6 6 0 0 0 0 0 0 0 0 6 0 0 0 u e 0 e 0 0 u 0 0 0 0 0 0 0 0 0 0 y y u 0 y 9 n ~ ] 0.q.[ 3.[ [ ' ,.3.[ [ ,.3.3.,.3.3.' 3.[ 3.[ [ 3.[ 1.[ 1.[ [ q.[ [ [ [ [ q.0.] [ 1.1.] ] 0.] ] 1.[ 0.] [ 0.] 1.] 0.] ] [ ] ] ] [ 0.;.( A a y b y u 0 0 0 m ~ 1.q.q.1.0.1.1.",
">X>X}.>X}.E.+X3XvXGXAXAXAXAXAXnXnXsXiX3X>X2X>X>X>XXX.X4.g 7 - 9 9 5 q q e 8 8 8 8 8 8 8 7 8 7 7 8 5 6 ; ; 5 8 ; 5 8 7 ; 5 > 5 5 ; 7 5 ; 7 6 ; 5 7 > 5 5 ; 5 6 ; 5 8 5 5 ; 7 7 5 6 ; 5 ; 5 > : r U ( 1.2.3.3.[ 3.,.3.1.' 1.1.1.,.3.1.1.3.1.1.1.1.3.1.1.1.1.] ] ] 1.1.3.[ 1.0.] ^ j 7 6 6 e 8 e 6 e 6 e 0 0 0 0 0 0 0 0 0 0 0 0 0 0 e 0 6 M X.].<X>X>X>X>X<X1XS.E g & - : : : 7 > > 7 7 ; 7 6 e 8 8 0 7 0 6 u e e 6 6 e 6 6 u e 6 u e 6 6 6 e e 0 0 6 e u 0 6 $ a A -.m.q.q.q.3.1.1.1.q.q.1.3.3.1.1.1.2.3.1.1.,.1.3.1.1.] 1.[ 1.1.1.1.1.1.1.] 1.0.[ 1.0.[ ] 0.[ ] ] 0.] 0.[ ] 0.] [ 0.[ ] 0.[ 1.0.1.0.[ ] ] V q 7 0 0 9 0 9 6 n U ) 1.2.:.:.>.:.:.<.|.XXXX<X<X<X<X$X2X5XmXMXGXnXAXAXAXnXnXfXqX+X>XXX}.>X,XXX|.:.1 - ; ; ; 5 5 ; 5 ; ; ; ; 5 ; ; ; 6 6 @ 6 5 6 ; $ 6 6 6 $ 6 $ 6 5 $ B $ B $ $ 6 9 5 5 ; 5 5 ; 5 ; 5 ; ; 5 ; ; 5 5 5 ; 5 6 6 ; ; 6 6 6 d U R ] ' ' ] 1.3.3.1.3.1.1.1.3.1.1.1.1.3.1.1.' ` ` ` ` 1.,.,.1.3.2.3.3.] 1.q.1.^ a 6 6 6 0 0 $ u 0 0 6 u e 6 6 e 6 6 0 0 e 0 7 7 0 6 5 - K 2..X<X1X>X<X}.<X<XC.P 2 X * 5 8 7 ; - 5 5 5 6 0 0 0 0 u 0 e 0 0 0 0 0 0 0 0 e 0 0 0 e 0 0 0 0 0 0 e 0 0 b 0 b y $ y b ! ) 0.q.[ [ [ ' ] ' 3.3.,.3.,.3.3.' 3.3.[ 3.3.[ 3.3.' ] 3.[ 3.[ 3.] [ 3.[ q.[ [ [ 0.3.1.0.1.0.[ 0.0.[ 1.[ q.[ [ 3.0.0.3.0.0.] q.0.[ 0.] ) ! e 0 0 0 0 0 0 $ m ~ 1.0.2.q.3.3.q.",
"2X>X}.>X}.Q.+XqXvXAXSXZXSXSXAXAXnXsXiX+X2X2X2X>X2X>X.X4.f 8 5 7 7 0 e a e e e q e e e 8 8 8 8 u 8 i e e 8 8 8 8 8 8 8 8 e 8 8 u 8 8 e 8 8 8 8 8 8 u 8 e 8 e 8 8 8 8 6 i u 8 u 8 8 8 e 8 8 e 8 r H _ 1.3.3.3.[ [ [ 3.1.1.1.1.1.1.2.1.>.3.2.1.3.2.1.1.1.1.[ 1.] ] ] [ 1._ ] 0.] ^ j 5 e e 6 6 e 6 6 6 0 0 0 q e 0 0 0 0 0 0 6 0 0 0 0 7 6 m :.|.<X>X<X>X1X<X<X].+.h - 8 8 8 8 8 e 8 8 e e e e e e 8 7 0 6 e 6 6 6 e u 6 e 6 e 6 6 6 e 6 e 6 u u 6 0 0 0 0 u 6 5 a A -.w.3.1.3.0.[ 1.3.1.3.1.1.1.1.3.1.1.1.3.1.1.1.3.1.1.1.1.1.[ 1.] 1.] 1.1.1.] ] ] ] [ ] [ [ [ ] ] [ [ [ ] ] [ [ ] [ ] ] ] ] ] [ ] ] ] ] ( J 8 7 7 0 0 0 6 6 n U 1.1.-.` :.( :.+.<.].XX>X,X,X<X<X}.$X5XvXGXAXAXAXZXAXnXnXxX@X%X}.XX,X>XXX X|.,.> > - 6 5 5 5 5 8 6 6 5 6 6 6 ; 6 6 ; ; 6 6 6 6 6 $ 6 0 0 6 6 6 6 $ $ $ $ y $ $ y 5 5 6 5 6 5 7 6 5 5 5 5 5 8 8 5 5 5 8 8 6 i 6 8 u > a H ( ' ] ' 1.3.3.3.1.1.3.1.1.3.1.3.1.3.3.[ 1.` ` W ( ` ` :.1.,.3.,.3.' ` ] 0.;.~ b 6 $ 0 0 u 0 0 u 0 0 6 0 u 6 6 6 u e 7 0 0 0 9 7 6 5 - N 4.|.4X:X<X>X}.4X4XZ.L g O 5 8 a u 6 7 6 $ 6 0 0 0 0 0 0 0 e 0 0 0 e 0 0 0 0 0 0 0 0 0 0 0 0 0 e 0 0 0 0 0 0 $ b u $ b ~ ) 0.[ ] _ ] ' ' ' ] 3.[ [ ' ' [ ,.[ [ 3.[ [ 3.' [ 3.3.[ ] [ 3.[ [ 3.[ q.[ [ 0.[ 0.[ [ 0.[ 1.3.[ [ 0.1.0.[ 1.0.1.[ [ [ [ 1.[ [ 0.3.[ 1.) B 9 9 9 9 6 0 6 $ n U 1.q.0.1.1.0.1.",
"2X-X>XQ.}.Q.+XqXxXAXBXBXSXSXAXAXnXjXiX3X>X2X>X>X>X<X X4.d > 5 6 0 e e y j e e e e t 8 u i e 8 e e u e 8 8 e 8 e u 8 e u u 8 8 8 u e 8 8 i e e e e u e 8 6 6 8 e u 8 8 8 8 e 8 8 e 8 u 8 8 > 7 j U ( 1.3.3.3.[ 3.,.3.[ ' 1.1.1.3.1.1.:.1.3.3.1.:.1.] 1.1.3.3.q.3.0.1.[ [ [ 0.) / j 5 8 6 6 6 6 6 e u 0 0 0 u 6 e 0 0 0 e 0 0 0 0 a 0 6 5 k >.S.<X<X>X>X<X<X<XS.o.g : 7 8 8 e 8 e t e e 8 e 8 i e e 6 6 6 6 6 e 6 6 6 e u e 6 e 6 6 6 e u e e 6 6 0 0 0 0 0 6 5 a A ;.q.3.3.q.3.] 3.3.1.1.3.3.1.1.1.1.3.1.1.1.,.1.1.1.1.] 1.1.1.1.1.1.1.1.1.] 1.[ [ [ [ ] 3.3.3.3.] [ 0.[ q.3.] 0.[ [ 3.[ [ 3.1.1.] [ 0.] ) V 7 5 0 0 q e 0 5 n U -.1.:.:.:.+.:.:.d.].XX>X>X>X<X2X>X2XiXsXAXAXNXAXSXAXAXnXpX@X+X}.>XXX>XXX.X|.>.> - 7 6 e 8 8 8 6 6 6 6 e u 6 u 6 u 6 u 6 6 0 0 0 u 0 0 0 0 0 u 6 $ B $ B b b $ u 8 6 6 6 6 6 6 0 e e 8 8 6 8 6 6 e 6 e e u u e e a 6 j H _ 1.] ` 3.3.3.] ,.1.1.1.1.1.3.1.1.1.3.3.,.1.1.:.' ' ,.,.3.3.3.3.1.` ` ` 1.;.^ n 6 6 u u u 0 u y 0 u 0 0 e 0 6 0 0 0 0 0 0 0 7 7 7 5 - H 2..X<X>X}.>X}.4X4XC.L d - q a a e 6 6 9 6 9 6 0 0 0 0 0 0 u 0 0 0 0 6 e 0 0 0 0 e 0 u 0 0 0 0 e 0 0 0 u $ $ u 0 y $ b ! ) 0.3.] 1.[ [ ' [ ,.,.[ ,.3.3.' [ 3.' [ 1.[ [ 3.3.[ [ 3.3.[ 3.3.[ [ ] [ 0.[ [ 3.[ [ q.[ [ [ [ [ 3.[ [ 3.0.[ [ [ q.[ [ 0.[ q.3.1.1.0.[ ) V 5 6 9 0 0 6 6 5 a U ` q.3.3.q.[ 3.",
">X>X>X:X}.Q.+X3XxXAXZXSXSXCXAXAXnXpXiX-X2X>X2X:X>X$X.X<.d 6 9 9 9 9 e b e e e e a e e e e e a e e e e i 8 e u 6 e 8 8 8 8 e e e 8 8 e e 6 6 8 u 8 8 8 e i e 8 6 e e e 8 i 8 e e 8 e 8 e 8 8 8 d U ) 1.1.3.3.3.3.3.3.3.[ 1.,.1.1.,.1.3.1.1.1.1.3.3.3.3.,.3.3.q.q.q.[ 1.0.[ ] ) ( j 5 8 8 6 e 6 e 7 6 6 e e 6 0 6 q 0 0 0 0 0 0 0 0 6 6 5 m +.].}.>X>X>X>X<X4Xv.o.g - 7 8 t e j e e e t e 8 e e e e e e 0 8 6 u 6 e 6 6 6 6 e u 6 6 e 6 6 6 6 e e 6 0 6 a u 6 5 a ~ ;.w.2.3.2.3.] 1.3.1.] 1.1.1.3.3.1.,.1.3.1.1.1.1.,.1.1.] 1.] 1.:.' 1.1.0.[ 1.1.1.q.[ 0.3.3.3.3.q.[ 3.3.[ [ q.[ q.[ q.q.0.1.q.3.q.q.0.0.1.U 7 7 0 q e a 0 9 k U ( :.:.-.>.:.:.>.a.|.,X,X<X<X<X4X2X2XiXvXGXAXZXSXSXAXAXnXjXqX+X}.}.}.}.<XXX|.>.8 7 5 e e e 8 e u 6 6 i e 6 6 e 8 e e 6 u u 0 0 u u 0 u 0 0 u 0 0 $ B $ $ $ b b $ u e e u u 0 0 0 u e e u u e e u u e 6 u 6 e 8 u u 7 j U ( 1.] ] 3.3.1.1.] 1.1.,.3.1.1.1.3.1.3.2.3.3.,.,.,.3.3.3.3.3.4.,.1.` ` ] 1.-.^ n u 0 0 0 y 0 u 0 0 0 0 0 q 0 e 0 q 0 0 0 0 0 9 0 6 5 - H <.{.<X>X<X<X<X}.<XV.G d - e a a 0 6 6 0 0 6 0 0 0 0 0 0 0 0 0 e 0 0 e u 0 e 0 u 0 0 e 0 u 0 0 e e 0 0 0 b y y y 0 $ u ~ ] q.[ ] 1.[ 3.[ 3.[ 3.3.[ 3.3.3.3.' 3.[ [ 3.[ [ ] [ 3.[ [ 3.] [ [ [ 0.[ [ 3.[ ] [ [ [ [ q.[ [ 0.[ 1.[ [ [ [ 0.[ [ 3.[ [ 0.1.1.1.1.3.] ) V 5 6 6 0 e 0 6 5 k A ) 3.0.3.3.3.q.",
"2X>X}.:X}./.2XiXlXAXCXDXDXDXCXVXzXsX3X2X>X>X>X>X2X4X X>.f 8 5 9 9 e e a e q e a e e e e 6 8 6 e 8 8 e e e 6 e 8 8 e 8 e e 8 e 8 e 8 e u 8 e 8 e e 8 e 8 8 e e 8 6 8 e u 6 e 6 u e 6 u 7 6 e 8 d H ( 1.1.q.q.3.q.d.q.3.3.3.3.3.1.1.1.1.1.1.1.1.1.3.3.3.1.3.q.q.[ 1.1.1.[ 1.] ] ^ j 7 5 6 > 6 8 6 0 6 6 6 6 6 6 6 0 6 e e 0 0 0 q 0 e 7 6 k :.].>X>X>X>X<X<X4XS.I g - 8 e e e e 8 e e 8 8 8 e e e e 5 7 6 6 e 6 e 6 6 6 6 6 u 8 6 e 6 6 6 e 6 6 e 0 e u e e 8 5 a U ) 3.2.3.3.1.1.1.2.1.1.1.1.1.1.1.1.1.1.3.1.3.1.1.1.1.1.1.] 1.1.1.1.1.1.1.1.1.1.1.1.3.1.] 3.1.] 3.] 1.3.[ 1.[ 3.3.q.[ 3.q.3.1.q.1.q.0.1.] V 7 5 q e e a 0 5 j T ( :.:.:.:.:.:.2.<.].>X<X<X>X2X>X>X2XiXvXAXSXAXSXSXSXAXGXkXyX(.=X:X>X>X+X[.].X.1 ; 5 e e e e u e e e e e u 0 a 0 e e 6 0 0 6 0 0 0 y 0 b 0 0 0 0 $ $ $ $ $ B $ | e 6 0 0 0 0 u 0 0 0 0 0 e e 6 0 0 u 0 0 a e 6 a e u k ~ ] 1.1.] 1.1.1.1.1.1.1.1.1.1.2.1.1.1.3.3.1.3.3.3.3.2.2.3.3.>.3.3.1.' :.1.1.;.^ M 8 8 e u 0 u 0 0 0 0 9 0 0 9 0 0 0 0 9 e 0 9 7 7 7 - : H <..X>X>X>X>X<X<X<Xc.L d 5 e e e e 0 0 0 6 9 0 0 0 0 0 u e 0 0 0 0 0 0 0 0 0 0 0 0 0 0 0 0 0 0 6 u e e q 6 6 q q 9 $ a ~ ] q.3.] [ 3.[ 3.' 3.[ 3.[ 3.[ 1.3.] 3.[ 3.[ 3.' 3.] ] 3.[ 1.[ [ q.] q.[ 3.[ [ 3.3.[ 3.[ [ [ 1.[ 3.[ [ 3.3.[ 3.] [ 1.[ 1.1.1.3.3.1.1.] ( N 7 5 8 e e e 6 5 j U ( 0.q.3.3.q.3.",
">X=X=X>X>XQ.2XdXvXAXCXSXSXDXSXnXzXuX;X-X=X>X=X2X>X$XXX<.f 1 6 9 9 e e e e e e e e e 6 8 6 e 6 e 6 e 6 6 e u 6 e 6 6 u 6 e 8 6 u 6 6 6 6 6 6 u 6 6 8 u 6 6 6 e u 6 e e 6 6 e 6 e 6 7 8 e e 7 7 a J ( ;.1.q.2.q.q.q.3.q.3.3.[ 1.3.1.1.1.' 1.1.1.1.1.1.3.1.3.3.3.3.0.[ [ 1.1.1.] ) j > 7 8 5 6 6 6 6 6 6 e 6 6 e 8 0 6 6 e 0 q q e 0 7 7 5 M -.].>X>X2X>X>X<XXXn.I f - e e e 8 e e 8 e e 8 e e e q e e e e e u 6 e u e 6 e 6 e 6 6 u 6 e e u e e e e e 8 e 8 8 - j U ) 3.3.3.1.1.] 1.3.,.1.1.1.3.3.1.,.3.2.,.1.1.3.1.1.1.1.0.1.1.1.1.1.1.1.1.,.1.,.1.] 1.1.,.1.3.] 1.3.1.1.1.1.[ 0.1.[ 1.1.[ 3.1.1.1.[ 1.1.` V 7 8 e q 8 e q 5 j Y ( ' 2.:.:.>.-.:.4.].XX2X<X>X>X2X+X2XiXvXGXAXBXSXSXAXAXAXlXiX-X=X=X/./.-X+X|.>.1 ; 5 e e e 6 8 e u e 6 u e 0 0 e u e u 0 0 u 0 u 0 u $ $ u 0 0 u $ ^ ^ $ $ $ $ $ u 6 u 0 u 0 0 0 0 u 0 0 6 u u 0 0 0 0 0 0 0 u 0 e e n ^ ] 1.;.1.1.0.1.1.1.1.1.1.1.1.q.1.1.q.3.2.3.2.3.2.3.3.3.3.3.3.,.3.,.1.1.1.1.:.^ j i 8 u e 0 0 0 u 0 0 9 0 9 y 0 9 0 9 0 9 0 7 7 0 7 : - J 2..X4X>X<X>X<X<X<XC.I d - 0 b e 0 0 e 0 0 0 6 6 0 0 0 0 0 0 0 0 e 0 0 0 6 a 0 0 0 0 0 0 q 0 6 e e e 8 8 8 e e 7 7 5 t T ] q.1._ ' ' ' [ 3.3.3.[ ] 3.3.[ [ 3.[ [ 1.[ [ 1.3.[ [ 3.1.[ 1.1.[ [ [ [ [ 3.3.[ ] 3.[ [ [ [ [ 3.] 3.3.[ ] 3.[ [ [ [ [ 1.3.,.1.1.1.1.1.( A 7 8 8 8 e e e 5 j U ) 1.2.3.0.3.2.",
"2X2X}.=X>XQ.2XiXlXnXCXSXDXSXSXVXlXsXyX-X/.Q.-X/.3X4X[.6.3 > 5 0 e 9 e e e e e e e u 6 6 6 u 6 6 i 6 6 0 6 6 6 u 6 6 e 6 u 6 6 e u e 6 e 6 6 6 e 6 e 6 e 6 6 6 6 6 u 6 6 u 6 e 6 u 8 6 8 8 6 7 a J ( ) 1.[ 1.1.1.] ] 1.3.1.] ' 1.' 1.1.1.1.' 1.' ,.1.1.1.1.1.1.0.[ [ ] 1.1.[ ;.) l 7 7 8 8 8 6 8 6 6 6 u e 6 8 8 e 8 8 8 > 8 8 > > > : : z o.].<X>X>X>X>X<XXXC.I g & 8 q e 8 8 e 8 e e 8 e e 8 e e 8 e u e e 6 u e 6 u e e 6 e 6 6 e e u e 7 6 6 8 8 8 8 8 8 - e U ( 1.3.1.1.1.1.1.3.3.2.1.1.1.2.1.3.1.:.1.2.3.2.1.2.2.1.1.1.1.1.1.1.2.:.1.2.1.1.3.1.3.1.1.1.1.1.1.3.1.1.3.1.1.1.1.0.0.1.1.1.3.3.0.1.1.] ( N r > > - ; 8 8 - f P R @.+.:.-.+.+.+.<.].}.<X>X<X4X>X}.2X5XxXAXBXSXSXSXSXSXAXcXpX(.-X/.-X(.;XoX[.>.1 1 5 6 e e 6 u e e 0 0 0 e e e e e 6 u 0 0 u 0 0 0 u u b 0 0 0 0 $ $ $ $ B $ $ $ 0 0 u 0 0 0 0 0 0 0 u 0 0 u 0 0 0 0 0 0 u 0 0 u u e k ^ 1.1.1.1.0.;.1.1.1.1.1.1.3.1.2.0.q.1.q.1.3.3.2.3.2.2.3.3.3.2.3.3.3.3.2.2.3.1.T j 8 i u e 0 0 6 5 6 7 6 6 9 9 7 7 7 5 0 5 - : : : : * * S $..X<X>X>X2X<X<X<XC.I g 5 9 e 0 0 0 0 0 0 0 9 0 0 0 0 0 0 0 e 0 0 0 0 e 0 0 0 0 0 7 0 0 0 6 6 7 e e q q 8 7 9 5 7 7 j T ] q.[ ` [ ' [ ' [ [ [ 3.3.' [ 3.[ 3.] 3.[ 1.[ [ [ ] 3.[ [ [ 1.[ 1.[ [ [ ] ] ] ' [ ] ] ] [ ] ] [ [ ' ] ] [ 3.3.3.3.3.3.3.3.1.1.1.1.3.' ( N > > > > 8 > > ; f K +.:.1.2.,.:.>.",
">X=X:X:X=X+X2XiXvXAXSXSXFXFXAXVXVXkXuXuXiXiXiXiXiXdXdXz.3 > 5 9 0 9 q y e e y e e e e 6 e e e u 6 6 u 6 6 e e 6 e u 6 6 e e 6 6 6 e 6 6 e u 6 e u e 6 6 u e e 6 e e 8 6 e 6 e 6 6 6 8 8 6 8 e a M A U U ~ U ~ V U T ( 1.] ] ' ' 1.` 1.' ' 1.1.` ' 1.' 1.1.3.3.1.1.1.] 0.1.1.] ) U N z N M z m N N C m m m C m m m z m K R R R R W R I Y @.l.].>X>X>X>X>X}.4Xn.o.j * 8 j e e 8 e e e 8 e e 8 8 e e e e 8 e 6 e 6 6 e 6 6 6 6 e u 6 e 6 6 6 6 a n N N N N z N M K T ` ,.1.1.1.1.:.1.2.1.:.:.:.1.3.1.2.1.3.1.1.1.:.3.>.1.1.1.1.1.1.,.1.3.1.1.,.:.1.1.1.1.' ' 1.1.,.1.1.3.1.1.1.3.1.3.1.3.1.[ 0.0.1.[ 1.1.1.` o.W R R R I W W I +.<.a.g.d.l.l.l.l.l.j.{.<X>X>X2X1X2X+X+XdXvXAXSXZXSXSXSXAXAXzXkXpXpXyXyXyXuXfX%X7.< ; 6 e e e e e e e e u 0 a 0 u e e e e 0 0 0 0 0 0 0 $ 0 0 u 0 0 $ $ ^ $ B $ $ ^ 0 0 0 0 0 0 u 0 0 u 0 0 0 0 0 0 u 0 0 0 u 6 a e e e a N V A A ~ A U ~ A ^ ) 1.1.1.q.3.3.2.q.3.3.2.3.3.3.3.3.3.2.3.3.>.3.3.3.3.3.2.1.( Y N H K m N N B m m M m N N B m m B M U ( R W T I E E I #.j.>X<X>X>X>X>XXX<XC.L j - 0 y 0 0 0 u 0 0 6 6 0 0 0 0 0 0 0 0 0 0 0 0 0 0 0 0 0 0 0 0 7 0 0 6 0 e a M N m m m N N m H ( ] 1.' ' ' [ ' [ 3.' 3.[ [ 1.[ [ 1.[ 3.' 3.[ [ 3.3.[ [ 3.[ 3.[ 1.[ [ 1.[ ' 3.[ 3.[ 3.,.' 1.] 3.[ ] [ ] 3.3.] [ 1.] [ ] 1.1.1.3.3.1.1.,.2.,.I R I +.+.o.+.W @.<.l.V.x.V.x.N.c.",
"2X>X>X>X=X>X3X5XxXAXCXSXSXSXSXSXVXVXzXzXlXlXlXvXvXmXhXP.3 < 5 0 9 0 e y y e e e e e 0 u e 6 6 6 6 6 e 6 6 e u 6 e 6 u e e 6 e 6 e 6 6 6 e 6 6 u 6 6 e u 6 6 u e 6 e 6 u 6 6 e e 6 6 8 e 8 e 8 e a k k j j a a j n n U ` ` ` ] ` ] ' 1.` 1.` ` 1.] 1.] 1.1.1.1.[ 1.[ ] 1.3.1.1.] ) ( ( ( ^ ) ( ( ( -.^ -.( ( ^ R X.R W <.S.S.|.S.].].].].).].XX>X>X>X>X>X}.4Xc.o.g - 7 e e e 8 8 e 8 8 e 8 e 8 e 8 u e e 6 6 6 e 6 e e 8 6 e u 6 6 e 6 e 6 6 j T ( ) ( ) _ ( ( ` ( ` 1.3.1.1.1.' 1.3.1.1.1.1.1.2.1.1.1.1.1.1.1.1.1.3.1.1.2.1.1.,.1.1.:.1.>.3.1.1.1.' :.1.1.1.1.:.,.1.1.1.1.3.1.1.1.[ 3.1.1.3.0.3.3.3.3.>.<.N.|.|.].].|.|.].{.].].].].].].].{.].].].}.>X1X>X2X4X>X+X2XiXvXAXSXAXSXSXSXSXAXZXnXzXxXzXlXzXAXvXhXH.< < ; q e e 0 e a 0 u e e a 0 0 e 0 y b $ 0 0 0 0 0 $ u b $ B $ $ $ $ $ B $ ^ $ $ 0 0 0 0 $ 0 u 0 0 0 0 0 0 0 $ u 0 0 0 u 0 0 0 0 a e a e b b u b a a j k k U 1.1.0.q.3.2.2.q.3.2.3.2.3.2.3.2.1.1.2.3.3.3.2.1.1.1.1.1.1.-.-.:.) ( -.( ) ) -.) -.-.-.^ -.-.` ` d.F.|.|.|.].{.S.{.{.{.>X>X>X>X>X<X<X<XC.I d - q e e u e e e 0 6 6 0 e 0 0 0 0 0 0 0 0 0 0 0 0 0 0 0 0 0 0 0 0 e e 7 e M ^ ( ( ( ) ) ( ` ' _ ] _ ] ' ] [ 3.3.3.[ 1.1.[ 3.] [ 3.[ [ 3.[ 1.[ 1.[ q.[ ] 1.[ 1.[ 1.[ 1.[ ] 3.' 3.' [ ' 1.3.] [ 1.] ' [ ] ] ' ] 3.1.' ] 1.,.1.3.:.2.,.>.d.V.S.D.].]..X.X{.{.{.{..X{.{..X{..X{.",
">X>XQ.}.>X=X>XiXlXnXSXCXSXCXCXSXSXSXVXVXVXAXVXzXzXvXvXE.3 1 5 0 0 9 e e e e e e e e 0 e e u 6 e 6 8 u 6 6 6 e 6 6 6 6 6 6 6 e u 6 6 e u e 6 e 6 e 6 e 6 e 6 8 6 6 6 6 e 6 e 6 u 6 8 6 6 u 6 6 6 0 e 0 u e e 6 u e j U ) ` 1.' 1.' ' ' 1.] 1.1.] 1.] 1.] 1.1.] 1.0.[ 1.1.3.0.[ [ ] ] ) 1.:.;.1.:.-.1.1.;.:.2.1.( :.,.,.c..X{.{..X.X}.{.{.{.}.}.<X4X>X>X>X<X<Xn.I g * 0 e e 8 e e 8 e 8 8 e 8 q t 8 e e 6 u i e e u 6 u 6 6 6 6 e 6 u 6 6 6 e a ( [ [ ] 1.1.] ] 1.1.1.3.3.3.3.1.2.1.2.3.2.3.3.1.1.2.1.2.1.2.1.2.1.1.1.1.2.2.3.1.1.:.1.2.:.:.3.,.1.:.1.,.1.,.,.1.1.] 3.1.3.1.3.1.q.1.0.3.0.1.1.3.1.0.3.3.<.<.x.,X,X.X}.}.XX,X{.}.XX}.{.}.{.,X{.}.}.}.>X>X>X>X>X>X2X}.2XdXvXAXSXBXSXSXSXSXSXAXAXAXAXVXzXVXAXnXfXH.< = ; 8 e e e 0 0 0 0 e 0 0 0 e y y b $ b 0 u 0 0 0 0 b $ $ B $ B $ B $ $ $ $ $ $ $ 0 u 0 u 0 0 0 u 0 0 0 u 0 y y u 0 0 0 0 u u 0 0 u 0 u u u $ | u u 0 0 a A ;.1.2.2.3.q.2.q.1.q.q.3.3.3.3.2.0.2.3.3.3.2.3.3.1.1.:.1.1.1.:.1.:.2.:.` :.-.:.-.:.:.:.:.>.:.>.,.N..X.X.X{.:X:X:X{.W.}.1X2X>X>X>X}.}.<XC.L g - q a e e e e 0 0 0 0 0 0 0 0 0 0 e 0 0 0 0 e 0 0 0 0 0 0 0 0 7 7 0 6 7 t M ) ] ) ) ] [ ] ] ] [ [ ' [ 3.[ [ 3.[ 1.1.[ [ 3.[ [ 3.[ 3.1.[ 1.[ 1.[ [ [ ] 0.[ 3.[ [ [ 1.1.[ 1.' 1.' ' 1.1.' ' ' ,.' 3.' 3.' 3.1.[ 1.' 1.1.1.1.1.3.2.3.>.,.s.C.XXXXXX}.>X}.>X}.}.>X>X}.<XXX}.>X}.",
"2X>X}.:X}.+X3X3XsXAXAXSXCXCXNXCXSXCXSXSXGXHXSXAXAXnXvXI.3 < 5 7 9 e e e e e e e e e 6 6 6 6 6 e e 6 e 6 e 6 6 e e e 6 6 6 e 6 6 u e 6 6 6 e 6 6 6 6 6 6 6 6 6 6 u 6 6 e e 6 e 6 6 e 6 u e 6 6 8 7 6 6 6 5 ; 5 5 e a V ) ] 1.1.' ' 1.1.] 1.1.1.1.1.] 1.1.[ 1.] 0.3.1.1.0.1.1.[ 1.` ] 1.1.1.1.1.1.1.1.2.1.1.1.1.2.>.<.<.V.XX<X<XXXXX<X>X<X>X2X}.>X}.>X>X>XXX<Xc.W f - q e e e e 8 e q e q e 8 8 e 8 e e e e e e e e e 6 6 u e 6 e e 8 8 e 6 e k ) 2.q.q.3.0.3.3.3.3.3.2.3.3.1.1.3.3.2.2.3.2.2.1.3.2.3.2.0.1.1.0.2.2.1.1.1.:.1.:.>.:.:.2.:.1.>.2.1.,.1.:.,.1.1.1.1.1.1.1.3.1.1.1.3.1.1.3.1.1.q.0.1.3.3.2.,.<.c.1X4X<X<X>X,X<X}.>X,X<X<X>X>X>X}.>X<X>X>X>X>X>X>X>X2XQ.$XdXlXAXSXBXSXSXSXSXSXSXSXBXAXAXVXAXAXnXxXr.< < ; 6 q e e 0 u e a e u b 0 0 u 0 0 b $ $ u u y $ b $ b $ $ $ B $ $ B $ $ B $ B u b y 0 y 0 0 0 0 0 $ y y u 0 $ 0 0 0 0 0 e u a 6 u 6 6 u 6 $ $ $ 6 6 6 a A ;.2.1.q.3.0.1.1.0.2.1.1.2.3.2.3.1.1.1.2.3.3.1.1.1.:.-.1.1.1.1.1.1.1.:.` :.:.:.:.:.-.:.:.1.:.3.4.V.XX,X<X<X>X>X>X>X>X>X1X4X>X>X2X>X4X4XC.L j 5 0 e e e 6 0 e 0 0 0 6 0 0 0 e 0 0 0 0 0 0 6 0 0 0 6 0 0 0 7 0 7 0 7 7 t m ) 0.[ q.[ q.[ 3.3.[ [ [ [ [ 3.3.[ ] ] [ 1.[ ] 1.1.] ] ] ] 1.[ [ [ ] [ [ [ [ [ 0.[ 1.1.[ [ 1.' 1.' 1.,.' ] 1.3.' ] 3.' 1.,.1.3.,.3.1.1.1.:.1.2.1.1.1.1.:.,.a.c.4X1X<X<X<X2X>X<X2X<X<X>X<X1X>X1X>X",
"2X>X>X}.=X>X2X5XvXAXSXSXCXCXCXSXSXSXFXFXCXFXSXSXAXnXmXK.3 > ; q e 9 e e e e e e e e 6 e 6 e 6 u e u 6 e u 6 6 e 6 u 6 e u 6 6 e 6 e 6 e 6 u e 6 e u e 6 e u e 6 e e 6 6 u 6 6 6 6 6 6 8 6 6 e u 6 6 6 6 6 6 6 6 0 a U ] ] ' 1.1.] 1.1.[ 1.1.1.1.1.1.1.] 0.1.;.1.0.1.1.3.1.0.1.1.) ( 1.1.1.1.;.1.1.1.1.;.2.1.1.>.>.3.<.j..XXX<X4X4X}.<X<X<X<X<X<X}.>X>X<XXX4Xn.I f - e e e e 8 e e t e e 8 8 e e e e 0 6 a 6 u e e e e 6 8 6 6 6 7 e u e 6 a M ) 1.[ 3.3.3.3.3.3.3.3.3.3.3.2.1.1.1.3.1.3.1.1.1.1.1.1.1.1.0.1.1.1.1.1.1.1.:.1.1.,.:.:.:.:.:.:.,.1.:.:.1.:.1.1.1.1.1.3.1.1.3.1.1.[ 0.[ q.1.1.3.3.1.1.1.3.,.,.j.<X<X<X<X<X>X4X<X<X<X<X<X<X<X>X1X<X>X>X>X>X>X-X1X1X2X+X$XdXvXAXSXSXSXSXSXSXSXSXSXSXSXSXSXSXSXcXxXr.< = 5 0 0 e 0 e e 0 e 0 0 0 0 0 0 0 0 $ b $ b u $ b $ b $ B $ $ $ B B $ $ $ B $ $ b $ u $ y u y u 0 0 u u 0 $ b u 0 u 0 0 u 0 e e 0 6 6 0 u $ $ $ 0 6 6 u b A ;.1.2.3.1.3.0.1.1.1.2.1.2.1.1.1.2.1.1.2.2.3.2.1.1.:.:.:.:.1.1.1.1.1.:.:.:.:.:.2.:.:.>.:.>.:.>.4.V.XX<X,X>X>X,X>X>X>X:X2X>X>X>X>X<X}.<XC.I d - 0 a e e 0 e e 0 7 0 0 0 0 u 0 e 0 0 e e 0 e 0 0 0 0 e 0 6 0 6 0 7 6 6 q M ( 1.0.] ] [ 3.[ [ [ [ [ [ [ [ ' ] ] ] 1.[ [ 1.' ] 1.1.' 1.' ] 1.[ 0.] 1.] 0.1.[ ] [ ] [ 1.] :.' 1.' ' 1.1.' ' 1.' 1.' 1.' 1.' 1.3.1.,.1.1.1.,.1.1.,.:.:.$.a.S.<X<X<X<X>X>X>X>X>X>X>X>X>X>X>X>X>X",
">X>X}.}.Q.>X2XiXlXAXSXSXSXSXCXSXSXDXCXDXSXDXFXSXSXAXvXP.3 < = 9 9 0 e e e e a e u e 6 6 6 e e 6 6 6 6 6 6 6 e u 6 e u 6 e e 6 6 e 6 6 6 e 6 u 6 6 6 e 6 6 e 6 e 6 6 u 8 6 6 u e u e 6 6 e u 6 6 6 6 6 0 u 0 6 6 e e V ] 1.1.1.1.1.1.1.0.1.1.1.[ 1.1.0.1.1.] ;.1.1.1.1.q.1.1.1.[ ` ( ` 1.1.;.1.1.1.1.2.;.1.1.1.2.:.,.,.x.{.>X>X<X<X}.<X<X<X<X}.>X<X<X>X}.XX<XC.o.d - 8 e e e 8 e 8 e 8 8 e 8 e 8 e e e e e 6 u e e u e 8 e 6 8 6 i 6 u e 0 a N ) 1.3.1.0.2.3.1.1.3.3.3.1.1.3.2.,.3.1.1.1.q.1.1.0.1.1.0.1.1.1.2.1.1.1.1.1.1.:.2.:.:.1.,.:.2.:.:.,.:.:.:.:.1.1.:.:.1.1.1.1.1.1.1.0.[ 1.3.1.1.q.q.1.q.1.1.2.<.j.<X<X<X<X>X<X<X<X>X4X<X>X<X2X>X>X2X>X2X1X>X>X>X2X>X>X}.2XdXvXAXSXNXSXSXSXSXSXSXDXSXSXCXSXCXSXZXfXr.3 < 5 8 q e e 0 e 0 e e 0 e 0 0 0 0 0 0 0 y 0 0 0 $ b b $ $ b B $ $ $ $ $ B $ $ $ $ b $ b u y y u y y 0 0 0 u 0 0 0 0 0 0 e e e u u e 6 u $ $ B B u 0 0 u b U 1.1.q.1.0.1.1.2.0.1.1.1.2.1.2.1.1.2.2.1.2.1.1.1.1.1.:.' :.:.3.2.2.:.1.:.1.:.:.2.:.>.:.:.>.( ,.>.C.XXXX<X>X>X>X<X>X>X>X4X>X=X}.2X>X<X<Xc.L d - 0 e 0 e 0 e e 0 9 0 0 0 0 0 0 u e 0 0 u 0 0 0 0 0 0 6 6 6 6 6 0 q 7 7 e N ` ] 1.] 3.] ] [ ] [ [ [ 3.[ ] ' ] ] 3.1.1.1.3.1.1.' 1.] ] 1.1.[ ] 1.] [ [ [ ] ] [ [ 1.] 0.] ' 1.` ' ,.` ' ' 1.1.' :.] 1.' ' 1.1.,.1.' 1.1.1.1.1.2.,.1.1.,.a.c.<X<X<X>X>X>X>X>X}.>X>X>X>X>X}.>X>X",
"2X>X>X:X>X>X2XiXlXAXSXSXCXSXCXCXFXCXCXCXCXCXSXSXAXnXhXI.3 < - 5 0 9 q u e e e e e e e 6 6 6 6 6 6 e e u e 6 6 6 6 6 e 6 6 6 e u 6 6 e u 6 6 e e e 6 e u 6 6 6 u e 6 6 e e 6 6 e e 6 e 6 e 6 6 8 0 u 0 6 6 6 6 6 a e ~ 0.1.1.1.1.3.3.0.2.0.0.0.q.0.1.1.0.0.1.1.1.2.1.1.3.q.2.1.1.1.' ] 1.1.1.1.1.1.1.-.1.1.-.;.2.>.,.$.x.{.XX>X<X<X<X<X2X>X2X<X<X>X>X>X2X<X4Xn.I g * e e e e e e 8 e e e 8 e e e 8 e e e e 0 e e e 6 e e 6 8 8 8 8 8 8 e e a V ) 0.[ 3.3.1.1.3.1.3.3.3.,.1.1.1.1.2.1.1.q.1.1.1.1.0.1.1.0.0.2.0.1.0.1.2.1.:.2.:.:.1.1.>.:.>.:.:.1.1.:.:.1.1.1.1.1.1.1.[ 1.[ 1.1.1.0.1.[ 0.1.[ 1.1.1.1.3.>.<.v.<X<X1X>X<X>X>X<X>X}.2X>X>X>X4X>X<X>X>X>X>X2X>X>X2X2X+X+XiXvXAXSXZXSXSXSXSXSXSXSXSXSXSXCXCXSXnXtXr.< = ; 8 e e e a 0 e u 0 a 0 y u 0 u y 0 0 u 0 0 0 $ $ $ b y $ $ $ $ B $ B B $ B $ b $ b $ $ 0 0 $ 0 u $ 0 0 0 u $ 0 u 0 u u u e e e 0 e 6 $ B $ $ 0 6 0 a b ^ 1.0.2.0.1.1.1.0.1.1.1.1.2.1.1.1.0.1.1.1.1.1.2.3.1.3.1.1.:.1.1.3.3.:.:.:.:.:.:.:.:.:.:.:.:.+.,.<.C.XX,X>X,X>X>X<X:X1X>X4X1X>X>X>X>X<X<XS.L d - 0 e 0 e 0 e u 0 0 6 6 0 e 0 0 0 0 0 0 0 e 0 0 0 6 6 0 e e e e 0 0 0 7 j V ( ] ] [ ] ' [ ] ] [ [ [ [ [ 3.[ [ 3.3.3.3.3.3.3.3.1.3.3.3.] 1.1.[ 0.0.[ 0.[ q.] 0.0.0.] 1.[ 1.' ,.,.,.1.1.,.1.' ] 1.] 1.1.1.1.' 1.` 1.' ' 1.1.3.1.:.:.,.,.a.S.,X<X>X>X>X:X>X=X>X>X>X>X2X>X>X=X>X",
">X+X>X=X>X/.4X5XhXAXSXSXSXSXSXSXSXCXSXSXCXSXAXSXAXMXvXP.3 = @ 5 7 7 6 6 e 7 e e e 6 0 0 e u e e u 6 e 6 u e 6 6 6 e 6 e u e 6 8 u e 6 6 6 6 6 6 u 6 6 6 u e 6 e 6 e 6 6 6 6 6 6 6 e 6 6 6 6 6 6 6 6 6 u 6 e 0 6 0 a U 0.0.1.2.3.3.1.1.0.q.1.1.0.1.q.0.1.1.1.) 1.1.1.1.2.3.1.1.1.] ` 1.1.:.] ;.1.:.1.1.1.1.1.:.:.,.,.$.j.{.XX<X<X2X<X>X<X<X>X}.>X>X}.>X>X<X<Xn.E d - 9 e e e 8 8 e e 8 8 8 q e e 8 8 8 e 6 u e e e i u e e 6 6 8 8 8 e 8 5 a m _ 0.1.1.1.3.1.1.1.1.3.2.3.3.3.1.3.3.3.0.1.0.0.2.3.0.1.0.2.1.0.2.0.2.1.2.1.2.:.2.:.>.3.:.3.1.:.3.3.,.,.:.:.1.1.1.3.1.2.3.1.3.1.1.1.[ 0.3.1.1.3.1.3.3.3.3.>.<.j.<X<X>X>X>X4X>X4X4X>X>X>X>X2X>X>X>X>X>X>X>X>X1X>X>X2X+X2XiXvXAXSXSXSXSXAXSXSXSXSXZXAXNXAXCXSXnXfX=.< = - 5 5 6 9 9 0 6 6 0 0 e e 0 a y u u 0 0 0 0 0 b $ b $ b $ b B $ $ $ $ $ $ $ $ b $ $ b u 0 0 y $ u 0 u y u y y 0 0 u 0 e e u e 6 a 6 u $ $ $ B $ u 0 0 b ^ 2.1.3.0.1.0.0.1.0.0.1.0.0.1.2.0.1.2.1.1.2.3.1.3.1.1.1.1.1.1.3.,.:.,.1.:.:.1.:.2.:.>.2.+.>.:.,.<.c.,X,X>X>X>X>X>X>X>X>X>X2X>X>X>X}.<X4XC.L g 5 0 e e 0 u 0 u 0 6 0 0 0 0 0 a 0 0 0 0 0 0 0 0 6 e 6 e e 6 6 ; 5 e 5 5 r N _ ] 3.] ] 3.] ] [ ] ] ' ' [ [ [ 3.3.3.1.3.3.3.3.1.3.3.3.1.1.1.0.0.[ 0.0.[ 0.0.[ 0.[ 0.[ 0.3.,.,.,.:.,.,.,.,.1.3.1.1.1.1.,.1.1.1.' 1.1.1.:.1.1.1.1.1.1.3.,.a.S.<X<X<X>X>X:X2X>X>X>X2X2X>X>X2X>X>X",
"2X>X:X>X>X=X2XdXhXAXSXSXDXFXDXSXCXSXVXVXVXSXSXSXAXMXbXH.3 = ; 5 7 6 6 6 e 8 8 5 7 e e 6 6 0 6 6 e e 6 6 6 6 e 6 e u 6 e 6 6 6 6 6 e 6 8 e u 6 e e 6 6 e e 6 6 6 6 u e 6 u e e 6 6 6 u e 6 e u e 0 0 0 0 e u e 6 6 e U 0.1.1.3.1.1.1.[ 0.1.0.0.1.0.0.1.0.1.1.;.1.1.1.1.q.2.3.3.3.] 1.` :.:.] :.` :.:.-.2.:.-.:.:.>.,.,.j..X>X<X<X<X<X>X2X>X$X4X}.>X<X>X>X<X<Xc.I g * 8 q e 8 e e 8 e e e e 8 e e 8 u 8 e a 6 e u 6 6 6 e 8 8 6 > 8 7 7 5 5 i M ) [ 1.[ q.1.3.2.1.1.3.3.3.1.1.:.2.1.1.2.3.1.1.q.0.q.q.0.q.0.0.0.0.0.2.1.2.1.:.1.2.3.2.>.2.>.:.>.3.2.3.2.2.3.q.3.0.1.1.q.1.3.[ q.[ 3.1.3.1.0.1.0.3.2.3.3.,.a.j.>X<X<X<X>X<X>X>X>X$X$X4X>X>X>X1X1X<X2X>X4X>X2X>X>X2X}.2XdXxXGXSXSXSXSXSXSXSXAXAXAXZXAXVXVXAXcXfX=.< @ = $ 6 6 6 6 6 7 6 0 0 0 0 0 0 9 0 0 0 u u $ 0 $ b $ b $ b $ $ $ B B $ $ B $ | $ b $ $ 0 0 0 u $ b 0 0 0 u $ 0 0 0 0 0 e u e 0 u 6 6 e B $ $ $ u 0 6 u a A ;.0.0.1.0.1.1.0.2.1.1.2.1.1.1.1.0.1.2.1.1.1.1.1.1.,.,.` 1.1.,.1.1.1.1.1.:.:.:.:.:.:.:.:.:.-.,.>.c.,X<X>X>X>X>X,X>X>X>X1X>X>X>X>X<X<X<XC.I j - 9 a e 0 0 0 0 0 0 6 0 0 0 0 0 0 0 0 0 0 0 e e 6 6 6 6 7 ; 8 5 5 5 5 - 8 M ( 1.[ [ [ ] ' ' 1.[ [ ' [ [ ] 3.] 3.1.[ 1.1.' 1.1.,.1.,.1.,.] ] [ 0.[ [ 0.[ 0.] 0.] [ 0.1.[ 1.,.` :.1.' ` ,.1.1.1.1.3.,.1.1.1.1.1.1.1.1.' 1.1.3.,.3.>.' ,.a.S.<X<X,X>X}.>X>X=X>X>X=X}.>X>X>X>X*X",
">X>X>X=X>X}.2X3XvXAXAXSXSXSXSXSXSXSXVXzXzXzXAXzXAXvXhXP.S 3 d M m M z m k j 8 7 7 0 e 6 6 6 8 e 7 6 6 6 6 6 e u e 6 u e 6 6 6 e 6 6 6 e 6 6 u e 6 6 6 6 6 e 6 e 6 e e u e 6 e e 6 6 6 6 6 6 0 6 6 e e u e e 8 6 0 6 A 1.) ) ` ( ` ( ) ) ) ) _ ) ( _ ] ) 1.1.` ] 1.1.3.3.3.3.2.1.' 1.,.1.' 1.1.[ 1.:.1.1.,.3.3.3.,.>.,.j.{.}.4X<X4X>X>X>X2X<X}.>X$X>X:X>X,X<Xv.E g - 7 a e 8 e e e e e e e e e e e e e e 6 e e e 0 e e e e 8 6 e 8 j a a 8 k V ( 1.1.1.1.1.1.1.1.1.1.1.1.:.:.1.:.1.1.1.1.] ( ` ) _ ) ) ) ) ) ;.) 1.) ) -.( -.-.+.:.R :.-.-.W ` R ` _ ` ` ` ] ) ) ] ] ] ] ] ] [ 1.1.1.1.0.1.3.1.3.3.0.>.,.a.j.>X4X<X2X>X<X2X>X<X$X}.}.2X>X>X>X>X>X>X>X}.>X>X>X2X>X}.2XiXlXAXSXBXSXSXAXZXAXAXAXAXzXzXzXAXnXcXeXL.4 < f k m M m n a a a e e e 6 0 0 0 0 0 6 0 0 0 0 $ $ $ $ $ $ ^ $ $ $ $ $ B $ B $ b $ b $ $ $ B $ $ $ B $ ^ $ $ B $ $ $ $ $ $ $ B B $ $ $ B $ $ $ 6 0 6 u a B ^ -.-.;.^ ;.;.;.-.-.;.;.;.;.1.-.1.;.1.1.:.1.1.1.1.1.1.' 1.' ,.1.,.1.1.1.` ,.1.:.:.>.:.:.,.:.,.a.V.,X,X<X>X>X>X>X>X>X>X1X2X>X=X>X>X<X4XV.I f - 0 0 0 6 u u 0 0 6 0 0 0 0 0 0 0 0 y 9 0 e e u e 0 6 e a u e j i j e r l U ( 1.] ' 1.[ ] ] ] 1.[ ' ' ] _ _ ` _ ` _ ` _ ` ( ' _ ( ` ` ] ] ( _ ] _ _ ] ) ) _ _ _ ) ) _ ) ` W _ ` _ W ` _ Q _ ` ` ` ] 1.1.` 1.1.1.1.1.1.1.1.3.3.3.1.' :.a.v.4X4X<X>X2X}.2X:X>X>X>X}.>X>XQ.>X2X",
"2X$X>X>X>X-X4XiXvXAXSXSXSXSXSXAXAXzXkXkXlXsXpXxXpXhXgX[.O.o.I R +.R X.-.R H 8 - 7 6 7 8 e 6 8 8 6 e e e e 6 6 6 6 e 6 e 6 e u 6 e 6 u e e 6 6 e 6 e e u 6 e 6 u 6 6 6 6 6 6 6 u u 6 e e u 6 e 6 6 e 6 e e e e 6 7 6 m ~ ~ T T T / J T T T J ~ ~ T T ~ ~ ^ ( ) 1.1.1.1.3.2.2.3.:.1.3.3.3.1.3.,.3.1.1.1.1.3.3.,.>.,.3.@.x.{.}.}.4X>X<X2X<X2X>X2X}.>X>X>X:X<X<Xn.I d O 6 0 e e 8 e e q 8 0 0 e e e e e e e e u i e u 6 6 6 u j n n M M V N N K T ] 1.1.1.1.1.1.1.1.1.1.1.1.1.2.1.2.1.1.` / U U U U ~ U U U U T U U U U U T T U U U U T U K U U Y U Y U U U T / T U ~ ~ ) ] ] ] ] [ 1.1.[ 1.1.3.0.1.3.3.3.>.<.P.5X5X5XeXiXqXqX5X3X$X>X+X}.>X>X>X2X}.>X>X2X>X>X=X>X>X}.2X5XvXAXSXSXSXBXBXAXAXcXlXlXsXlXsXlXsXhXdXP.O. .o.X.-.X.R Y U B k u e 0 6 0 7 6 6 $ 0 6 0 u 0 $ ^ $ $ | $ $ $ B B $ | $ $ $ $ $ b $ b B $ y $ B $ $ $ $ $ $ B ^ $ ^ $ $ | $ $ $ $ B $ B $ B $ 0 u $ 6 u m ^ ~ A ~ ~ U A A U U ~ A U T T Y T Y ( ) 1.1.1.` ' ' 1.' 1.:.,.,.,.' ,.' ,.,.>.,.,.,.>.>.+.:.,.,.c.XX,X>X,X>X>X>X>X>X>X2X1X>X>X>X>X<X4XC.L d @ 6 0 6 0 0 0 0 0 9 u $ 0 0 0 0 0 0 u 0 0 a 0 0 e e 7 k n B N M m N m z U T ` ] [ ] ] ' ' 1.' ' ] ' ' _ _ _ ( ` / / T / ! T T ! ! / J ! U ~ ! ~ T T ~ T ! ~ T J ~ ~ / J T J J K T J U J J T U T ( ` ' :.,.,.1.,.1.3.,.3.3.1.3.3.3.' $.g.P.5X5X3X3X@X3X;X3X3X-X2X>X-X>X>XQ.>X",
"+X+X>X>X>X=X3X3XvXAXSXSXBXSXSXSXAXkXwX(././.@X3X;X3X+X}.E.R.C.].].].].|.N.1.j - 6 7 6 e e e e 8 6 8 8 8 8 6 e 6 6 e e 6 u 6 8 6 e 6 6 6 6 6 6 6 u 6 6 e e 6 e 6 6 u 6 e u e 6 6 e e 6 u e 6 6 e e e e e e e e 6 7 0 e j e t t t t t t t j t e j t t j r q M ` ] 1.1.:.>.,.3.1.2.,.1.3.,.,.3.3.,.3.3.,.,.3.,.3.,.,.>.,.x.{.}.4X}.2X>X>X2X}.2X>X>X>X:X:X:X>X<Xk.E d X 5 7 8 q q e e e q e e e e e e e e u e e 6 6 a 6 6 u M ^ ( ^ ) ) ) ^ ( ) ) 1.1.1.1.:.1.1.1.1.1.:.1.1.1.:.2.1.1.;.K l t e i j t t e j d a t a a j e j a j a a n e a j a j a j t t a j t j t q b J / [ ] ] ] 1.[ ] 1.[ 3.1.1.1.1.[ 1.2.9.[.hXvXcXcXcXZXnXxXhX6X+XQ.}.>X}.>X=X}.>X>XQ.>X}.>X>X/.Q.2X5XvXGXSXBXAXSXZXAXnXlXpXiX(.@X3X@X3X@X+X}.R.c.).].].Z.|. Xe.^ a 5 6 0 6 6 6 6 0 u 0 u 6 0 0 $ ^ $ ^ $ $ $ $ $ $ $ $ $ B $ B b $ $ y $ $ $ B B $ B $ $ $ $ $ $ $ ^ $ B $ B $ $ B $ B $ $ $ $ 0 u 6 6 0 a a a b a a k a b a a a a a k j j j d z ( ] 1.1.` ` 1.' ,.,.` 1.,.1.1.' ,.1.' ,.,.,.,.:.>.,.+.:.<.A.,X>X>X>X>X>X>X>X>X>X2X>X>X>X>X>X4X<XV.L d - 6 0 0 6 0 6 0 0 0 0 9 0 y 0 0 0 0 0 0 0 0 0 0 6 6 0 M ^ ^ -.-.) ( ( -.` ` ` 1.' ' ' ] ' ' ' ' ' ,.' ' :.:.3.] ` N t t t b n t t n n t t t t t t t t t t t t t t t t 8 t t t t r t t t t t 8 j J _ 1.,.1.,.1.1.,.,.1.3.3.1.3.3.2.' >.h.oXvXvXvXlXvXlXvXmXgX3X2XQ.>X=X-X2X>X",
"+X2X>X>X>X>X3X3XxXSXSXSXBXSXSXSXzXjX;XQ.}.Q.>X>X>X}.$X>X}.}.<X}.XX}.4X4X|.4.n - 5 6 6 6 8 8 8 8 8 8 e 6 8 6 e 6 6 u 6 6 e e 6 6 u 6 e e u e e 6 e e 6 6 u 6 6 6 e e 6 e 6 6 6 e 6 6 e 6 6 e 6 e e 6 e 6 5 e 6 8 0 7 q 8 8 8 q q q 7 q 8 7 8 7 8 8 8 7 8 7 n / 1.2.>.1.,.1.1.:.:.3.>.,.3.,.,.[ ,.,.' ,.,.,.3.,.,.,.<.,.j.[.}.<X2X>X>X2X4X$X>X>X>X>X:X:X=X>X<Xv.E g X 5 7 0 e 0 e 0 8 0 0 0 0 0 e e e e e 6 6 e u 0 0 6 6 N ^ 1.1.1.1.1.1.1.1.1.1.1.:.1.2.1.1.1.1.1.:.1.:.1.;.1.1.1.1.z 8 e 7 8 7 5 7 8 7 7 7 7 > 5 8 8 q q 0 e q e 9 e 9 0 q e 0 q 0 q 8 7 7 7 - q M ( q.] ] [ [ [ 0.[ [ 0.1.3.1.1.q.1.2.7.`.vXAXDXDXZXZXAXAXvXdX2X}.+X>X2X=X>X>X=X>X>X>X-X>X=X>X=X>X6XvXAXSXCXCXSXZXAXzXjXwX(./.}.}.}.}.}.}.$X}.}.>X}.}.}.4X4X_.2.k @ 6 e 6 6 0 0 0 0 0 0 6 6 u $ $ $ $ B $ ^ $ $ B $ B $ $ $ B $ b b $ B B $ $ $ $ $ $ | $ B $ $ $ $ $ $ $ B $ $ B $ $ $ B $ B 0 6 6 6 0 0 6 6 0 0 0 6 6 0 6 5 6 6 7 7 8 e 7 7 k / 1.1.1.' ` ` ` 1.' 1.1.,.' ,.1.1.' ,.1.:.,.,.>.:.:.W ,.<.V.,X>X,X>X>X>X>X>X>X>X>X>X>X>X>X<X}.$XC.I f 5 6 0 u u 0 u 0 0 0 0 0 0 0 0 y y 0 0 0 0 0 u 0 u 6 u B ^ ;.0.1.1.1.1.1.1.1.1.:.1.1.1.' ' ` 1.' ' ] ' ] ` 1.[ [ ` M t q w q y q q q q q e q 7 7 7 7 7 : 7 7 7 7 7 7 7 7 q 7 q q 7 q 5 q q 7 - t H R 1.1.1.1.1.,.1.1.,.' 1.1.3.3.3.1.@.H.^.MXGXGXVXVXAXnXMXhX5X2X}.2X>X>X>X+X",
"+X+X2X=X-XQ.2XiXxXAXSXZXBXBXAXAXzXjXiX/.:X:X>X1X<X<X}.$X<X}.>X>X}.}.>X4XG.2.l * 5 7 0 0 e 8 8 e e 8 8 e 8 8 8 6 6 6 u e 6 6 6 u e 6 6 6 e 6 e e 6 6 6 e 6 6 u e 6 e 6 u e 6 u 6 6 6 u e 6 6 e 6 0 e e q e 8 7 0 7 0 8 8 8 8 e q q 8 7 8 8 8 7 7 8 8 7 7 5 j ( ) 3.,.,.1.:.1.,.:.3.,.,.1.,.' ,.' ' ,.,.' ' 3.' ,.,.,.,.x..X}.2X>X>X2X>X>X>X4X>X=X>X=X*X:X:X1Xn.o.f & 5 8 6 q e q q 0 0 0 0 0 e e u e 6 6 u e e 6 6 u 6 6 B ) ) 1.1.1.;.1.1.1.1.:.:.1.1.1.1.:.:.1.:.:.1.:.1.-.1.1.;.-.m 8 7 5 7 7 7 7 7 7 7 8 5 8 8 0 q y 0 0 y 9 9 y 9 y y 0 y 0 q q q q e 8 7 5 t N _ q.[ ] [ 1.[ [ [ 1.1.3.1.1.1.1.1.<.9.`.nXAXDXDXDXDXSXGXmXgX2X}.2X2X2X2X>X2X>X2X>X2X>X2X2X>X=X2X3XlXAXAXCXSXBXZXAXnXpX7X/.>X>X}.>X>X}.>X>X}.>X}.>X}.}.2X4XS.>.a @ 7 e e u 6 a 0 a 0 0 0 0 6 $ $ $ $ B $ $ $ $ $ $ $ $ $ $ $ B $ B $ $ B $ $ $ $ B B $ $ $ B $ $ $ B $ $ $ B B $ $ $ B $ $ b 0 u u 0 6 6 0 a 0 0 0 6 0 u 6 6 6 6 5 e 8 8 8 > n ( [ 2.1.` ` ' ` ' ' :.` ,.:.1.' ,.,.,.' :.:.,.:.>.>.` ' p.v.>X:X>X>X>X>X}.>X>X>X<X>X>X>X>X>X$X$XC.R d @ 0 0 u u 0 0 0 0 0 0 0 0 0 0 0 0 y 0 0 0 0 0 e 6 u 7 m -.;.1.2.1.1.1.:.1.:.1.' ' 1.' ' ' ` ' ` ' ' ' ' ' 3.3.3.] M 7 q y y q q q y q y q q q r 7 7 w 8 w 8 w 8 7 7 q q q q q q q q q q q q - r J / 3.1.,.1.,.1.3.,.1.1.,.] ] 3.q.] >.7.OXnXAXAXVXVXAXAXMXvX5X2X/.>X:X-X>X+X",
"2X2X>X>X>X2X2XiXvXAXSXDXZXSXAXAXzXpXiX+X>X>X>X>X>X>X>X<X}.<X>X,X>X>X<X1X|.4.z * ; 7 6 6 8 8 e 8 e 8 8 e 8 e e 6 e 6 e 6 6 e 6 e 6 6 u e 6 6 6 u 6 e u e 6 e 6 e 6 6 6 e 6 6 e 6 e 6 e 6 e u 6 6 e 0 7 0 e 8 0 e 8 e 7 e 8 e q q q q 8 8 8 7 8 8 7 8 8 7 7 j / 1.2.3.:.1.:.1.,.:.1.,.,.,.,.' ' ,.[ ' [ ,.,.' ,.,.p.' #.j.{.$X<X2X2X>X>X2X2X=X1X1X>X>X*X*X,X1Xv.E d & 5 8 e e e 0 q e 0 0 0 0 e 0 e 0 0 6 e e e u a 6 0 7 B ^ 1.0.1.1.1.1.1.1.:.1.1.1.:.1.1.1.1.1.1.1.1.:.:.1.1.1.1.-.N 8 8 7 8 7 8 7 7 8 7 5 7 8 7 7 e 9 9 e 0 9 0 0 0 0 9 9 9 0 9 e q 9 q 8 7 5 w N / q.3._ [ [ [ 1.] 1.1.] 1.3.1.1.:.5.7.OXcXAXDXDXZXZXSXGXvXgX2XQ.}.>X>X>X>X>X2X>X2X>X2X>X>X-X+X2X6XlXGXSXCXCXAXNXAXkXjX3X@X}.>X>X}.>X>X}.}.>X>X}.>X}.}.2X4XZ.>.a - 7 e e e e e u e u 6 6 6 0 $ ^ $ $ $ $ B $ $ ^ ^ $ B $ B $ $ $ $ $ $ $ $ B $ B $ $ B B $ $ B B $ $ $ B $ $ $ $ B $ $ $ b $ 0 $ 0 0 0 0 0 6 0 6 6 0 6 6 6 6 5 e 8 8 u 8 8 > n ( ] 3.' ' ` ` ' ' ' 1.,.` ' ,.` ' ' ' ' ,.,.Q :.:.:.' ,.,.j.>X>X>X>X>X>X>X>X>X>X2X>X>X2X}.<X}.$XC.X.f 5 0 a 0 0 0 u 0 0 0 $ 0 y e 0 0 0 0 0 0 0 0 0 u e 6 8 m -.;.0.-.;.:.1.1.:.' 1.,.1.' ' 1.1.` ' 1.1.' ' ' ' ,.3.3._ N t q q y q y y q q w q q 7 q 7 7 q 8 > 7 8 7 7 7 7 8 e q t q e q q q 7 q 7 w J _ 3.,.,.:.:.:.3.>.1.,.] ] ] ] 1._ @.7.^.nXAXAXCXVXSXAXGXhXiX2XQ.-X>X>X>X=X",
"2X2X>X>X+X$X@XiXcXAXSXBXBXAXAXAXzXxXiX/.>X}.>X>X>X>X>X>X>X>X>X>X>X>X<X1X].d.g O 5 7 7 6 8 e 8 8 8 8 e 8 8 8 e 6 6 6 6 6 u 6 e 6 e 6 6 6 6 u 6 6 6 e 8 6 6 6 e 6 e u 6 e e 6 6 6 6 e 6 6 e 6 6 0 e 7 q e q 0 8 q e 6 8 q 8 q 8 q 8 8 8 7 7 8 8 7 8 8 8 7 7 j ( ] >.:.:.:.>.:.,.,.:.,.1.,.' ,.' ' ,.,.' ' ' ' p.{ ' ' Q f.{.>X>X>X>X>X1X>X>X=X=X:X:X=X1X1X:X<Xn.E 2 & 5 8 e q q e 0 7 q 0 u e 0 e e e e i e u e e e 0 0 0 m ) 1.1.0.] 1.1.1.1.1.1.1.:.:.:.:.1.1.1.1.:.1.:.1.-.2.2.1.( N 8 8 7 7 7 7 7 7 5 8 5 7 7 7 7 e e 0 9 y 9 y 9 y 0 0 9 0 9 e 9 e e q q 8 5 q M _ q.[ ] [ ] ] 1.1.1.1.1.1.,.2.3.:.6.r.'.cXAXDXZXBXCXAXnXhX6X2XQ./.=X}.=X=X}.Q.>X>X=X>XQ.>X}.=X3XiXlXAXVXVXCXVXNXzXnXpX7X/.}.}.>X=X}.:X}.>X>X}.>X>X}.}.2X4X_.-.j - ; u e 0 e e 6 a u 6 6 u u $ $ | $ $ B $ $ $ $ $ $ B $ $ $ $ B $ B $ $ $ B $ $ B $ $ $ $ $ $ $ $ $ $ $ B $ $ B $ $ $ B $ b 0 0 0 u 0 u u 0 0 0 u 0 0 6 6 6 6 6 6 u 8 i e 8 j ( ] 3.' ` ` ` ' ` ' ' ' ' ' ' ' ,.' ,.,.,.#.,.,.,.#.` ' <.c.}.>X>X>X>X>X>X>X>X>X>X>X>X2X}.4X}.$XC.X.f ; 0 e a 0 0 u 0 0 0 u y 0 0 0 u 0 0 0 0 0 u 6 6 6 u > C ^ 1.1.1.2.:.1.:.:.1.1.:.1.` 1.' 1.` ' 1.' ' ' ' ' 3.3.3.] M t q y q y q y e q y e 8 8 8 8 q 8 7 7 8 8 7 7 8 8 q e q e q q q q q q q 7 r H _ 1.' ,.>.,.,.:.1.1.1.] ] _ [ ] ) @.7.^.cXAXZXCXVXVXAXGXlXiX3X/.>X=X>X=X>X",
"$X>X>X2X>X+X@XdXcXSXDXZXBXSXAXAXnXjXiX+X2X>X>X>X>X}.>X>X>X<X>X>X>X>X<X4X|.4.l - ; 7 8 e 8 8 e e e 8 8 8 e 8 8 e e u e 6 e 6 e 6 u 6 e e 6 e 6 e 6 u 6 6 u e 6 6 e 6 6 6 e u 6 e 6 u 6 e 6 6 e 6 e 0 0 e e q 8 0 q 8 q 8 8 q e q 8 q q 8 8 7 8 8 q 7 8 7 7 t ~ 1.2.,.:.:.,.,.,.:.,.,.` ,.,.,.,.,.' ' ,.' ' ,.[ ' { { ' j.{.}.<X2X2X>X=X2X>X>X>X>X=X1X=X:X1X1Xn.E 2 * 8 e e e 0 0 e e e e 0 e e e e 0 e e e 6 e e u 6 6 7 m ( 1.1.1.1.] 1.1.:.:.2.:.1.:.1.1.:.1.1.:.2.1.1.:.:.:.1.1.:.N 8 0 7 7 8 8 7 6 8 7 8 e 7 7 0 e 9 0 y 9 0 0 9 9 0 9 y 9 y e e e q q e 8 5 w V ) [ [ ] ] ' ] ] ] 1.' ,.,.,.,.,.:.2.7.'.cXSXSXBXSXAXAXnXmXgX2X}.>X>X2X>X>X2X>X>X2X>X>X>X>X+X2X3XaXvXGXSXSXSXSXAXAXnXjXiX(.>X>X}.}.>X}.>XQ.>X>X}.}.>X>X<X4XS.>.k + 6 8 e e 0 e a a a 6 6 6 6 B B $ $ $ $ B B $ | $ $ $ $ B $ $ $ $ B $ B $ $ B $ $ $ $ B B $ ^ $ | $ $ ^ $ $ $ B $ B $ $ b y u 0 0 0 0 0 0 0 0 u 0 0 0 u 0 6 6 e e 8 8 8 e 7 n ( ] 3.[ ` ` _ ' ' W ` ' ' ' ,.' ' ,.Q ' ' ' ,.#.,.,.W ,.p.c.:X>X>X>X>X2X}.>X>X2X>X2X>X}.>X$X$X$XL.L i @ 6 u 6 0 0 6 0 0 0 0 0 0 0 0 0 0 0 0 0 0 0 u 6 8 6 6 k -.1.1.:.:.:.:.:.:.:.,.` :.:.1.:.1.' ` ' ' ' ' ' ' 3.3.3._ M q q q y y q q q y e y 8 8 q 8 8 7 8 7 8 8 q 8 q 8 8 q e q e q e y e q q 7 t J / 2.,.,.:.:.,.1.1.1.1.1.] ] ] ] ) >.7.'.nXAXSXCXSXSXSXAXxXiX+X+X-X>X>X:X=X",
">X>X2X<X$X+X+XdXcXGXSXAXAXAXAXnXvXlXdX3X>X2X>X>X>X>X}.<X,X>X>X>X>X,X>X1X|.<.g O - - 7 7 7 7 e 8 6 6 7 6 e e 6 6 6 e 6 0 6 6 u e 6 e 0 e 6 6 6 6 6 e e 6 6 e e 6 6 6 u 8 6 e 6 u u e 6 6 6 e e 0 0 q q e 0 q e e 7 7 0 e 8 0 q q q q 8 8 7 0 q 8 q 8 8 7 7 n / ] 3.,.,.,.>.:.@.` :.:.+.,.' ,.,.' ' ,.#.' #.,.' ,.Q Q Q j.&X=X}.2X+X}.+X+X}.2X>X>X-X2X2X}.2X4XP.o.3 * 7 r 7 7 7 7 5 7 6 7 6 6 q 6 6 7 6 6 e 8 8 8 8 6 6 5 m ` 1.1.] 1.] 1.:.1.1.1.:.:.:.:.:.1.1.3.1.1.1.1.1.1.1.2.1.;.m e 8 8 8 7 9 7 8 9 7 7 7 7 0 7 e 0 0 9 0 0 0 9 y 0 y 9 0 9 e q q 0 0 9 7 5 t J / [ [ [ [ 0.{ ' ' ,.,.' ,.:.1.,.#.@.7.Y.nXAXAXSXAXAXGXMXmXgX5X2X>X>X>X<X2X<X1X2X<X>X<X2X>X2X2X3XdXvXnXAXGXGXGXGXnXnXlXdX3XQ.>X:X}.>X>X}.}.>X}.>X}.>X}.>X4X).>.i O ; 5 5 8 7 7 0 p a $ b b $ $ $ B $ $ $ $ B $ B $ B $ $ $ B B $ B $ $ | $ $ ^ $ $ ^ $ B $ $ $ $ ^ $ $ $ B B $ B $ $ $ b $ $ 0 0 $ u u 0 0 0 0 0 0 u 0 0 0 0 6 6 6 8 8 e 8 8 j ( 1.1.] ] ' ' ' ` Q ' W ' ` Q Q ' Q ' #.Q ' #.W ,.Q W ' #.v.}.+X}.+X}.+X>X}.2X>X}.2X}.}.+X$X$X$XP.L < O 5 6 6 5 7 5 5 5 5 $ 6 9 5 5 5 7 9 0 6 0 0 6 6 6 6 ; m -.:.:.:.:.>.:.:.:.:.1.1.:.:.,.1.` ' ' :.[ ' [ [ [ 3.3.0._ M e q e y q e y q y q e e 0 7 e q 7 7 8 7 0 8 7 q 8 0 q e 0 e 0 q e q q q 9 t J ) 2.3.3.,.:.:.>.,.1.1.3.' ` _ ' ` @.h.^.xXnXAXVXGXGXAXGXvX5X3X+X2X>X>X>X:X",
"4X4X4X4X4X$X$XdXvXAXSXAXAXAXnXMXvXhXdX5X5X2X2X<X>X>X}.>X>X>X,X>X:X{.>X6XG.,., . X * - = ; ; > 5 5 5 7 0 6 6 0 0 6 6 e 6 e 0 0 0 0 u 6 0 e u e u 6 u 6 6 6 u 6 6 e 6 6 e 6 6 6 e 6 6 e 6 u 6 6 6 e 0 q 0 e q 0 q 0 e q 0 e 0 q 0 q 8 e e q e e 6 0 e 0 7 7 j / 1.2.,.>.,.1.,.:.W +.:.W +.W W W W W W W #.W W Q Q Q Q Q j.:X/.+X/.+X+X/.Q.Q./.+X2X2X2X2X+X+X/.u.G = % & - - * - - - - - - - @ @ - - 5 ; 6 - 5 ; 6 6 ; ; 8 m ( :.1.1.1.1.1.1.1.:.1.1.1.1.:.1.2.2.2.1.1.1.1.2.1.2.1.q.0.J a 8 7 7 8 q 0 7 7 0 0 0 9 0 0 9 0 0 y 9 y 9 y 0 0 0 0 0 0 9 0 e e 9 0 7 5 y V ) ] [ [ ] [ ' ' ,.' :.:.Q ` W W W +.&.`.xXnXnXAXAXGXMXMXmX6X4X<X<X4X<X<X<X<X>X<X<X<X<X<X<X4X$X$XdXvXMXGXAXGXGXMXMXnXsX5X+X>X=XQ.>X}.}.>X>X}.}.>X>X:X>X2X4Xc.+.1 X O - + @ @ @ 6 u a u $ $ b B $ $ $ $ B $ $ $ B $ $ $ B $ B $ $ B $ $ $ $ $ $ $ $ $ $ $ $ B $ $ $ $ B $ $ $ $ $ $ B b y b $ 0 0 0 0 y 0 u 0 u 0 0 0 0 0 0 0 6 6 6 e e u 8 6 j ) 1.q.3.] ' ' ,.Q W ` W Q Q ,.W W W W W Q W W Q W Q W W o.k.+X+X/./.+X+X/.+X+X+X+X+X/.+X+X/.$X%XL. .< O + - - * - + O + + @ O + + + @ @ 5 $ $ 6 6 6 6 ; 6 ; C R 1.1.1.,.:.:.:.:.:.` 1.1.' ' ' :.' ' 1.[ [ 3.3.q.3.q.1.1.m e e y 0 y e y e e e e q e e 6 0 0 e q 8 e e 0 q q q q e q q e q e e e q 7 b V _ 3.3.2.1.1.1.3.1.:.:.3.[ _ ` ` ` $.h.OXvXnXnXVXGXGXMXMXmXdX2X+X2X>X>X>X1X",
"{.{.{.{.{.[.[.+XdXnXnXnXcXlXvXlXsXpX5X3X2X2X2X2X<X>X>X}.{.>X>X{.:X}.>X1X].d.D , d j g z z z j a 6 5 7 7 8 e 0 6 6 e 0 0 0 0 0 0 0 e 0 e 0 e 6 6 e 6 e 6 e 6 e 6 6 6 6 6 6 e 6 e 6 e u e e e 6 6 e 0 e 6 e 0 e q e 0 e q e q q 0 e q e e 0 q e q e e 0 0 5 e ( ;.3.1.1.,.@.,.:.+.,.<.3.a.a.a.,.<.a.<.p.,.p.<.,.p.{ { t.v.4X@X@X3X%X+X5X+X3X2X3X5X5X5X5XdX3X5XI.O.S , r g z M M k z M k M k M M k M M k k e 8 a j a a j j U ( ` 1.1.1.] 1.1.:.1.1.:.:.1.:.1.1.1.:.:.( ( ( ( ( ^ ;.) ( N 8 8 7 q q 8 9 9 0 9 0 7 0 0 0 0 0 y 0 0 0 u y 0 0 y 0 0 y e e 0 q q q 0 9 q V ! ) / _ ) _ _ T I ' ,.d.,.<.a.,.<.&.7.I.fXxXvXnXvXvXnXmXhX5X}.E.{.W.{.{.{.{.{.{.{.{.{.{.{.{.R.}.%XdXvXxXvXnXnXlXxXvXfX3X+XQ.}.>X>X>X>X:X>X>X>X>X}.}.}.}.4X).<.K i k k k k k n k b a u $ $ $ $ $ $ $ $ B $ B $ $ B $ $ $ $ $ | $ $ $ ^ $ $ ^ $ $ $ $ $ B $ B | $ $ ^ $ $ y y $ $ $ B $ $ $ b u 0 0 0 0 0 0 0 0 0 0 0 u 0 $ 0 u 6 8 u u e 6 6 M ) 1.1.3.1.' ' ' ' ` ,.a.,.a.,.p.,.p.a.p.a.p.p.p.p.p.,.p.$.P.3X@X3X2X3X2X2X3X2X3X2X2X3X4X@X%X5X%X`.O.c f k l l l l j j k k k n k b k n M b a a b b b p a b k K ( ` :.:.:.1.:.1.:.:.:.:.,.,.1.:.:.1.` ( _ T _ _ _ ` ) ) ( M e e 9 y y 0 9 9 y y e e 0 q q e q e e q e e e q e 0 e 9 e e 0 0 e e e e 9 e B ~ ( / ( _ ( W R W ,.4.d.3.p.3.>.d.d.L.oXhXvXxXkXlXmXzXmXaX@X[.E.W.{.W.D.&X",
"k.c.j.c.j.h.x.E.%XwXjXdXpXiXiXiXiX3X3X2X2X2X>X>X}.>X>X>X>X>X>X>X>X:X>X>X.XD.l.<.<.4.2.2.<.<.1.K j e 8 8 e 6 7 0 e u 0 0 0 0 0 e 0 0 0 6 0 6 6 e e 6 6 e u 6 6 e u e e 6 e u 6 6 6 e 6 6 6 6 6 e e e q e e q 0 0 q q e 0 q 0 e e e e e q e q 0 0 q q q 9 9 n ^ ] 2.,.,.,.:.,.,.>.l.V.C.V.V.V.v.S.c.c.V.c.S.V.S.v.v.v.v.:XdXdXhXhXfXhXhXhXgXhXhXhXhXsXhXfXhXhX%XP.g.#.p.a.4.4.8.2.w.8.2.w.w.4.8.w.8.2.1.( U K V K U U T Y ( ( ` 1.1.` 1.1.1.` 1.1.1.2.1.1.1.:.1.:.^ U N N m m M V V M t 8 7 q q 8 8 9 9 7 0 9 0 9 9 0 9 q 0 0 0 y $ y 0 y 0 0 y $ 0 0 e q 0 e 7 9 8 M M V N M M N H D D ' x.V.S.A.A.V.S.n.P.#XdXhXdXpXpXpXsXgX5X[.n.l.j.j.j.j.j.j.j.j.j.j.j.j.j.j.j.n.E.+XsXpXpXpXiXpXiXdX@X@X+X>X=X}.>XQ.>X}.:XQ.}.>XQ.>X>X}.<X.X].g.>.<.2.4.2.2.2.;.B a 0 0 B $ $ B $ B $ $ $ $ B $ $ $ B $ B $ $ $ $ B $ $ $ $ | $ $ ^ $ B $ $ $ $ $ $ B y $ $ $ B $ $ b $ b $ 0 0 0 u u y u $ 0 0 u 0 0 0 u 0 6 0 e e e u i 8 M ^ 1.1.[ ' ' ,.Q ,.,.f.V.A.S.A.S.S.V.S.S.A.A.D.v.v.v.v.S.c.$XdXhXiXsXaXaXfXaXaXaXaXaXaXaXaXaXgXdX#XI.9.4.2.d.4.s.3.p.4.2.8.e.w.e.e.8.w.2.-.^ A A Y ^ A U A T R ( >.:.:.:.:.:.:.:.1.' ,.` :.' ` :.1._ J H n J J J H J V B b e e y e 9 y y e e 9 e 9 e q 0 e 0 e e q e q 0 0 e q e e 9 e q e e e e q 9 q n N V N M N K U J J d.V.F.S.V.V.V.A.c.R./.dXiXpXsXuXyXuXaX@XE.k.j.j.j.j.j.j.",
"a.p.p.p.<.#.s.j.E.%X@X@X@X(.+X-X$X+X2X}.>X}.>X}.}.}.:X}.:X}.,X>X>X>X>X>X>X.X].S.].F._.|.S.|.B.R k 8 5 8 6 6 6 6 a 6 0 0 0 6 u e e 0 0 0 6 e 6 e u 6 6 e 6 6 e u 6 6 e u 6 6 6 u u e 6 6 u 6 6 6 7 0 e q 0 e q e e 0 q e e 6 0 q q 9 q e 0 q q e e 0 0 0 5 n ( ) :.:.:.>.:.+.>.d.Z.|.|..X{.{.{.{.D.{.].{.{.{.].].{.].[.5XvXmXnXnXnXnXvXnXnXvXvXvXvXnXcXnXMXMXhX%X[.k.S.|.|.|.|.F.|.|.F.|.|.|.|.|.|.Z.B.w._ ( ( ( ) ( ` ) :.:.1.1.:.:.1.,.' 1.1.1.1.:.1.1.' 1.3._ K M t t j t j j t e 8 7 7 9 7 q 9 7 9 0 9 0 7 0 0 9 9 y 0 y 0 0 0 0 y 0 0 0 0 0 9 e 9 e q 0 0 7 q a e a w t 7 t r r , _ Z.G..X{.]..X|.{.{.+X5X@X@X@X3X3X(.3X[.n.a.<.<.p.<.a.<.a.a.<.a.a.#.a.a.p.a.f.c.[.3X@XyX3X;X+X3X3X/././.>X>X}.>X>X>X>X}.>X>X}.}.>X}.>X>XXX.X|.P.Z.|._.Z.]._.N.A a $ B $ y $ B $ B B $ B $ y b $ b b $ b $ $ $ B $ $ $ $ $ $ $ $ B $ $ B $ $ $ B $ $ B B $ B $ B $ $ B b y 0 0 0 0 0 0 0 0 u 0 e 0 0 0 0 6 6 6 0 u u e e 8 n ( ] 3.[ ' ' ' ' ,.a.D..X.X{.{.{.{.{..X{.{.{.{.{.{.].{.{.[.6XmXmXmXvXMXvXmXvXvXvXvXvXnXvXmXnXvXvXfX#X X_.|.G.G.F.G.G.G.|.|. X|._.|. X XZ.N.1.R -.-.-.) -.-.-.-.,.>.1.:.:.,.:.:.:.:.,.,.` ' ' 1.1.,._ H t w y t n b n n y y e e y e 0 9 0 y y e e e 9 e e 0 q q e q q 0 q q e 0 e 9 e 9 e 9 e e e q 9 e y b b t q e t n j g p.|..X|.D.D.].].].Q.+X@X3X;X(.;X-X-X2X[.j.y.#.y.#.t.t.t.",
"W W ` Q W Q Q s.v.[./.}.}.+XQ.}.}.Q.}.{.}.Q.:X{.{.}.}.:X:X>X>X>X>X>X>X>X>X,X<X<X<X4X<X<X4X4X X+.k 5 5 7 9 6 6 7 6 0 0 0 0 e 0 0 0 0 0 0 e u 6 6 6 e 6 6 e 6 6 6 6 e 6 6 6 e 6 e 6 6 e 6 e e 6 e 0 e q 0 0 q 0 e e q 0 e e q e q e e 0 e 0 e 0 e e q 0 7 5 j ^ ] 1.2.:.:.:.X.>.l.|.4X<X<X<X<X>X4X<X<X<X<X<X>X<X4X<X4X2XgXMXGXGXGXSXAXAXGXAXAXAXAXAXAXAXAXGXGXvXdX%X4X<X4X4X4X4X4X4X4X4X4X4X4X<X4X4XXXG.B.q.3.1.,.2.1.1.1.1.1.,.,.1.] ` 1.1.' ' 1.1.1.1.1.1.1.3.R H r 5 5 5 - 5 - 7 8 8 q 7 9 0 9 q 0 q 9 0 0 0 9 9 0 0 0 0 0 y 0 0 y 0 0 y 0 y 0 e e e e q 0 0 0 e q q 9 5 5 - 7 - & & Q Z.,X,X<X<X<X<X<X4X$X}.+X}.+X/.+X+X+X].x.' W W W W W Q W W W W Q W W W Q ' 3.f.S.$X/./.Q.Q.}./.+X~.Q.}.=X}.=X:X}.}.>X>X}.}.:X>X}.>X2X>X>X<X<X<X4XXXXX4X4X<X|.Y a $ $ $ y $ $ $ $ $ $ $ $ $ $ b $ $ b $ b $ B $ $ $ ^ $ ^ B $ $ B $ B $ $ $ B $ $ $ $ $ $ B $ y $ $ $ $ y 0 0 0 0 0 0 0 0 0 e 0 0 0 0 0 0 0 6 6 0 e e e 8 m ( 1.q.3.' ` ` W p.j.{.4X4X<X<X<X<X<X<X>X1X<X<X1X>X1X<X4X3XbXMXMXMXGXGXGXHXGXGXHXGXGXGXGXGXGXGXnXcXfX5X$X<X<X1X,X1X1X4X1X4X6X4X4X6X4X4XXXF.l.` 2.2.2.>.2.1.1.2.:.1.:.:.,.:.:.:.:.:.` ,.` ,.' ' ' ,./ M w 5 9 q q 9 9 9 q q e q 9 9 e y y e 9 9 y 0 e e q 0 e 0 0 0 e e e 0 e q e e e e e e e e e e q e q e q 5 9 5 7 7 : 8 w.XX<X<X>X,X,X>X>X>X2X+X/.Q.W.Q.W.Q.>Xv.t.Q E W W Q Q Q ",
"' ' ' ' _ Q _ { v.{.>X}.>X>X,X{.:X,X:X>X:X{.,X}.>X{.>X}.}.>X>XXX>X,X>X>X>X1X<X<X1X>X>X>X<X<X].R k 5 5 7 0 6 6 6 0 6 0 e 0 0 0 0 0 0 0 6 0 6 6 6 6 6 u e e u e 6 e u e 6 e u e 6 6 e u e 6 6 6 6 e e e e e 0 q q 0 0 q q 0 e 0 0 e q q q q q e q 0 0 q 0 5 b / ] 1.2.>.:.1.+.>.d.].XX4X>X>X>X=X>X2X>X1X:X>X2X>X2X2X2XOXpXnXAXSXSXZXSXSXZXAXAXZXSXSXZXDXSXSXAXlXiX3X+X>X2X>X>X<X<X<X<X<X<X<X<X>X,X<XXXF.m.' ` 1.1.3.1.1.:.1.1.` :.1.` 1.1.' ] 1.1.` ] 1.' 1.1.,._ H t 5 7 8 q 8 8 8 8 e q q 0 9 7 7 0 7 0 9 7 7 0 0 0 0 0 0 0 0 0 0 0 0 0 0 0 0 9 0 e 9 e e 0 0 e e 0 0 7 9 5 7 7 7 : : ` A.,X>X,X,X>X>X>X}.}.>X>X}.>X<X4X+X$X|.V.3.' ' ,.' ,.' ,.3.,.,.,.,.,.' ' _ { M.D.>X$X}.}.>X{.>X>X+X}.Q.>X>XQ.}.>X>X}.}.>X>X}.}.>X>X<X>X}.>X>X}.2X>X}.+X}.}.).K a $ B $ $ $ B B $ $ $ B $ $ b $ b $ b b $ $ $ B B $ ^ $ $ $ $ $ $ $ $ B B $ $ B B B B $ B $ $ B y y $ y $ 0 0 0 0 0 0 0 0 0 0 0 0 0 0 0 6 0 6 7 0 0 e 0 7 n ( 1.3.3.' ' ' ` t.f.D.1X<X2X:X>X:X>X=X=X:X:X=X:X*XQ.=X}.-XhXMXGXFXFXSXSXFXSXFXSXSXSXHXCXFXAXAXnXcXdX+X$X,X,X,X,X:X,X1X4X4X<X4X4X4X<X4XXXZ.d.@.+.,.,.,.:.2.:.:.1.:.:.:.:.:.:.:.:.:.` :.#.' ' #.1.3.` N t 7 9 9 q q 9 e e 9 e y 0 y 0 e 9 e e y 9 e 0 q q e e q q e q q q 8 e 0 e 9 9 e q 9 e e e q y e y q y 9 9 9 9 0 7 r 3.XXXX:X=XW.:X:X>X-X-X>X>X>XW.*X*X:X>XA.f.p.Q ' ' ' _ ' ",
"' ,.' [ ' Q ' p.v.XX>X>X>X>X>X>X:X>X>X>X>X>X:X}.}.,X:X>X>X>X>X>X>X>X>X>X>X>X>X1X<X<X>X}.}.}.].R k 5 5 6 7 0 7 0 0 0 0 0 0 0 e 0 e u 0 e 0 0 e u e 6 e 6 0 0 6 6 6 e 6 6 6 e 6 6 6 e 6 6 6 e e 6 6 q 0 q q e e 0 q e e 0 q e q e 0 q e 0 e 0 e 0 q e e 7 5 b ~ ] 1.>.,.:.,.+.<.d.|.<X}.>X>X>X>X>X>X>X>X>X>X=X>X>X>X$X+XpXnXAXSXSXSXZXSXAXAXZXSXSXZXSXZXZXAXnXxXwX@X2X2X>X>X>X}.XX}.>X>XXX>XXX>XXXXX.XV.m.` W :.1.,.1.:.:.:.:.` :.` ' ` ' ] ] 1.' 1.] ' 1.' 1.2.` H t 5 7 q q 8 8 e e e e q q 0 9 0 q 9 0 0 0 9 0 0 9 0 0 y 0 y 0 0 0 y 0 y 0 y 0 0 e 9 0 e 9 0 e q 0 q 9 9 9 q q 7 : 7 ' G.,X>X{.:X:X>X>X}.}.>X}.>X>X>X5X4X4X.XB.p.' 1.,.,.,.3.3.3.,.3.3.,.3.3.,.Q { m.D.<X$X2X}.}.}.<X2X2X>X}.>X>X>X}.>X}.>X>X}.>X>X>X}.>X2X>X>X>X}.>X>X>X}.}.}..XC.Y a $ $ B B $ $ $ $ B $ B $ b $ b $ b $ $ b B $ $ $ $ $ $ $ $ B B $ B $ $ $ B $ $ $ $ $ y $ $ B $ $ y y y b 6 0 0 0 0 0 0 0 0 6 0 6 0 6 6 6 6 6 6 e e u 0 9 m ( 1.3.3.' [ ' Q p.f..X<X1X>X}.=X}.:X*X}.W.=XW.:X*XW.Q.Q./.aXMXVXGXVXSXSXSXSXFXSXVXVXSXSXSXVXGXAXvXeX+X[.:X:X:X,X:X:X:X>X<X>X<X}.4X<X<XXXS.d.,.:.:.,.,.:.:.:.` :.:.+.:.+.:.` +.` +.,.` ` ` ` ` ' 2.( J j q q 9 9 y y e y y e 9 e 0 y 0 y 0 0 y e e 0 0 0 0 0 0 0 0 0 0 0 0 0 0 0 e 0 e 9 e 9 e e y e e q q 9 9 e e 9 7 7 r 2.|.{.:X{.}.Q.>X:X}.>X2X>X=X=XW.:X:X1XD.f.p.Q ' ' ' ' { ",
",.,.,.,.,.W ,.s.S.XX,X}.,X>X>XXX{.}.>X}.}.}.}.}.>X{.,X>X>X>X>X<X>X>X>X>X<X>X>X4X2X<X>X}.}.XX_.R j 5 7 e 6 0 0 0 0 0 0 0 0 0 0 0 0 0 0 e 0 0 e 0 u 0 6 0 6 e 6 0 e 6 6 a 6 6 0 6 e 6 e 6 e 6 6 6 e e q 8 e e e q e e e q q e 8 e e q q e q e e q e e 8 8 5 n ^ ` 2.:.+.2.,.:.$.g.].>X<X<X>X>X>X>X>X>X}.<X}.2X}.>X2X}./.pXzXSXSXAXVXVXVXSXVXNXAXBXZXNXZXAXAXnXcXiX3X2X2X4X>X>X>X>X>X}.2X<X>X>X>X>X>X{.D.d.#.Q ,.,.,.,.' ` :.W ` ` ' ' ' ] ] 1.] ] ' 1.[ ] [ [ 2.` H r 7 7 q e e e e t e e q e e 0 q 0 e q 0 0 0 0 0 q 0 y 0 y 0 0 $ u y 0 0 y 0 9 0 0 0 0 y 0 0 0 0 0 9 0 9 0 0 0 7 : , ,.G..X,X:X,X>X>X}.>X>X>X>X>X{.XX}.2XXX].V.p.+.' >.,.,.,.,.,.1.1.,.,.1.1.,.' ,.x.D.,X<X<X<X>XXX<X<X<X>X>X<X>X>X>X>X}.}.}.<X<X<X}.>X<X>X}.>X>X<X}.>X}.}.>X}.}.].P a 7 6 6 6 6 6 6 6 6 6 6 6 6 0 0 0 0 0 $ $ 0 0 e 6 6 6 e e 6 6 u 6 6 i e 6 e u 6 6 6 6 6 6 8 e 8 6 6 6 6 6 6 6 6 6 e 6 8 6 6 8 6 e 8 6 6 6 6 6 6 6 e i e > n ^ 1.1.] ] [ [ Q p.f.].<X<X<X:X}.Q.{.:X}.}.>X>X:X>X=X}.:X;XpXMXFXAXVXSXFXSXCXCXFXVXVXzXVXVXVXAXGXxXwX+XW.:X:X:X:X:X=X}.>X>X>X>X>X>X>X>X{.S.d.#.Q ,.,.,.,.:.:.:.` ( :.:.:.` :.' :.` ` 1.` ` ` ' [ 2.` J j 9 6 9 9 e 0 y e y e y e 0 0 0 0 y 0 0 9 0 0 0 e 0 0 0 0 q 0 e 0 0 0 0 0 0 0 0 q 0 e e q e e e e q 9 q e y 9 7 7 8 2..XXXXX}.}.>X>X}.>X>X<X>X>X:X:X*X>X1XD.f.,.' ,.' ' [ [ ",
",.<.#.,.#.W ,.,.S.<X<X,X>X.X>X<X>X>X}.<X>X}.>X}.:X}.>X>XXX}.<X}.>X>X>X>X>X>X4X>X4X>X>X}.XX>X].R k 5 5 e 6 7 7 0 0 0 0 0 0 0 0 0 u 0 0 0 0 0 0 0 e 0 e 0 6 e 0 0 e u 0 0 0 0 0 u u 6 6 6 e u e 6 e q e e 0 q 0 e 8 q e 8 e e q e 0 0 e 6 0 q 0 8 0 q q 8 5 n ^ :.:.:.+.:.>.+.,.a.|.,X}.<X<X}.<X>X>X>X2X}.<X}.}.2X>X>X/.pXnXVXVXVXVXVXVXSXNXVXSXAXVXNXNXAXAXnXxXiX3X2X2X2X>X>X>X>X>X>X>X>X>X}.>X>X>X{.S.l.,.+.Q #.#.,.#.#.#.:.` ` ] ' ] ] [ ] ' ] ] [ ] ] ' ,.3._ H t 7 q q e t e a e e e q e q 0 e q e 0 0 e q q q 0 0 0 0 0 y 0 y 0 y 9 0 0 y y y 0 y 0 $ y 0 y y 9 y $ y 9 0 7 7 : : ,.G..X>X,X{.{.}.>X>X>X>X>X>X}.>X}.<X4X].c.<.W :.:.1.1.1.1.,.,.,.,.,.,.,.Q W <.x.S.XX>X}.<X>X>X<X<X<X}.}.>X<X<X}.<X<X}.}.}.}.<X>X<X>X>X<X>X>X}.<X}.>X}.}.<X}.Z.L j 5 6 6 6 6 6 6 6 6 6 6 6 6 u u 0 0 0 u b 0 u 6 0 e e 6 u e e 7 6 6 6 6 6 7 6 6 6 e 6 6 7 6 5 6 6 6 e 6 7 7 8 6 7 6 6 6 6 6 e 6 5 6 6 7 6 6 6 6 6 e 8 8 8 k ) ] 2.] [ [ 3.' ,.s.{.<X1X>X>X}.{.Q.}.:X>X>X>X>X>X>X>X>X2XsXnXVXSXFXSXFXCXFXCXVXFXVXFXVXVXVXGXGXxXqX/.W.D.*X,X:X:X{.>X}.>X}.>X=X>X>X>X{.A.a.' ` Q ' ' ` +.' ` :.:.:.:.:.:.:.1.` 1.:.` :.1.1.` 1.1.) V j 7 6 9 e 9 e e e 9 0 0 0 0 0 0 0 0 0 e e 0 q 0 0 0 0 0 0 0 0 0 0 0 0 q e 0 0 0 0 0 6 0 0 e e e 0 e 9 e e q 0 7 6 d 2.|.XX<X>X}.>X}.>X>X>X<X>XXX:X:X:X,X<X{.s.p.Q ' ,.3.[ ] ",
",.,.,.,.,.W #.a.F.,X,X,X,X<X<X<X<X<X<X4X4X<X4X<X<X<X<X<X>X>X>X>X>X>X>X}.>X<X1X>X>X<X>X<X>XXXS.I j > > 8 7 6 7 7 0 7 0 0 0 0 0 e 0 0 0 0 0 0 0 0 0 e 0 6 6 u e 7 e 8 7 6 6 8 7 8 5 8 8 6 > 7 6 8 8 6 8 8 7 8 7 7 7 6 8 8 6 8 7 7 7 e 7 8 e 7 7 7 8 7 8 7 - t R ` ,.:.+.,.,.o.#.g.].<XXX<X<X>X>X}.>X$X<X2X}.<X}.>X:X:X-XiXnXSXSXSXVXVXSXSXVXNXGXFXzXAXAXzXnXvXlXiX-X/.2X=X=X>X>X>X>X>X>X>X>X<X>X>X>X.Xv.j.#.W E Q #.,.#.,.,.` ' 1.1.' ] ] ' ] ] 1.] 1.] ] ] 1.2.` H t q q e e e e a e e e e e e e q 0 q e 0 q e q e 0 0 0 0 0 0 0 $ b 0 y 0 0 0 u y $ 0 0 0 0 0 0 0 y 0 y e 9 9 9 7 : > +.G.XX,X,X,X:X<X<X,X<X<X<X<X<X<X<X<X4X.Xx.,.E ` :.:.,.1.,.1.,.,.1.1.,.1.:.W ,.x.D.XXXX,X,XXX,X,X<X>XXX}.XX<X,X<X<X<XXX}.}.>XXX}.>X<X>X>X>X<X>X>X>X}.4X<X>X<XZ.L d - ; 6 6 ; 6 ; 6 6 6 6 6 $ b 0 0 y 0 u $ 0 u e 6 6 6 8 ; 6 ; 7 8 ; ; > 7 ; 8 6 > ; 8 7 > ; > > 6 > 5 8 > 6 6 ; > > 8 > ; 7 ; > 7 > 5 6 > > 8 ; ; > 8 8 7 k ( :.3.' ' 3.' ' <.f.D.<X4X<X>X}.{.{.:X:X:X>X<X1X1X>X>X>X2XiXMXAXSXSXFXFXFXFXSXVXFXzXMXzXVXVXMXGXvXiX/.Q.:X:X:X>X:X:X}.>XQ.:X>X>X>X:X>X{.c.s.#.Q #.' ,.#.W Q ,.:.:.:.:.:.1.1.1.1.1.1.1.,.1.1.1.1.2.] V b 7 6 6 0 0 0 0 9 y 0 9 e 0 0 0 0 0 0 0 0 e 0 0 0 0 e 0 0 e 0 0 0 0 0 0 0 0 0 e 0 0 0 e e e 9 e q q q e e e q 7 > r 2.{.XX}.>X>X>X>X>X>X<X<X>X>X}.>X,X,X1XG.f.<.+.' 3.[ [ [ ",
",.#.,.$.,.W :.d.A.XXXXXX,XXX,X,XXXXX$XXXXXXX}.4XXX}..XXXXXXX<X>X>X>X>X<X>X>X>X2X4X}.4X>X<X<X].W z > > d r i u i 6 u 0 0 7 6 0 0 0 0 0 0 0 e 0 0 e e u e 8 i 8 u 8 1 i > > 1 8 1 i > 1 8 > 1 1 8 > > > 8 1 > , 8 8 1 > i > > 8 , 1 > 2 8 > 1 r > i > > > : j Y ` ,.@.+.,.,.o.#.g.D.XX<X}.}.<X>X<X<X}.}.}.2X}.<X>X>X>X-XpXzXVXFXVXVXVXAXSXVXzXVXGXzXzXzXnXMXvXpXiX;X/.>X>X2X>X>X>X>X>X}.>X>X>X>X>X>X,Xb.g.#.#.#.#.Q #.Q #.#.,.` ' ` ] ` ] ` ] ` ' ` ' ` ] ` ] 1._ H t q 7 e e e e e e e e e q q e e e q 0 e q 0 0 0 0 q 0 0 0 y 0 y 0 0 0 y 0 y $ 0 y 0 0 0 y 0 y 0 0 0 9 9 q 0 7 8 : : :.G.XX>X{.}.:X<X<X<X,XXX<X4X,X<XXXXXXXG.V.<.W @.,.,.1.,.1.1.1.1.1.' ,.,.@.+.>.N.F.XXXX<X,XXX,XXXXXXX X.X.X XXXXXXX}..XXX<X<X}.}.}.}.<X,X>X>X}.<X>X>X>X>X>X}.].I f = > i 1 8 1 8 > 6 6 6 6 0 u $ 0 u $ b 0 0 0 u 6 e e 8 8 8 1 > 1 8 1 > > > 1 > > > 1 > > 8 1 > 8 1 1 > > 1 > 1 8 1 > 8 1 1 8 1 > 1 > 1 > > > > 1 8 1 1 > z R ` ,.' ' ,.' Q p.j.{.4X4X<X,X:X}.}.:X,X<X>X>X>X>X>X:X>X2XhXnXVXFXSXSXSXFXSXFXzXzXzXbXzXzXzXmXMXhX3X2XW.*X*X:X:X>X>X:X>X:X=X>X=X>X>X:X{.S.s.#.Q #.#.,.#.,.,.,.:.1.) :.) 1.1.1.1.1.1.1.' 1.1.1.1.3.^ V n 7 6 9 0 0 0 q 0 e 0 e 0 0 0 0 0 0 0 0 u 0 0 0 0 0 0 0 0 0 0 0 0 e 0 0 0 0 0 0 0 e 0 q q 9 e e 0 e q q e e e 9 5 d 2.|.XX}.4X}.>XXXXXXXXX}.XXXX.X.X.XXX,XF.f.<.` ,.' ,.3.[ ",
",.,.<.#.#.+.,.a.N.F.F.|.|.|.|.G..X|.|.|.].]. X|.|.[.].].XXXX>X>X>X1X>X4X4X1X2X>X4X1X>X>X<X<XD.$.F f j h z h z k k a 0 6 0 9 6 0 0 0 0 0 0 0 0 0 e e e u d d j f f j f d f f f d f f d f d d f f 3 g f 2 f d d 3 g f 2 g f d 3 d f 3 d g f 3 d 3 f 3 2 2 , h I #.$.@.#.<.,.#.<.g.|.<X}.<X4X>X<X}.>X<X>X<X>X}.>X>X>X>X/.iXnXSXSXVXVXAXSXSXVXzXzXzXzXzXbXzXlXhXsX3X2X2X>X2X>X>X>X>X>X>X>X2X}.<X}.>X>X.XS.j.y.#.#.#.#.#.#.#.Q :.` W ( ` ( _ _ _ ( _ ( ` ( _ _ ` ` / V j 8 q e e e e e a e e 0 e e e 0 q q e 0 8 q e 9 0 0 0 y 0 y 0 y 0 0 0 0 y 0 0 y 0 u y y 9 u y 0 y 9 y e 9 e e 8 : > :.|.,X,X>X}.{.<X<XXX{.S.].XX.X.X|.D.F.Z.N.<.:.:.:.>.3.3.1.1.:.,.:.:.2.,.,.:.<.l.S.|.|.XX|..X.X.X.X.X|.S.Z.].|.|.|.].]..X<X<X}.}.{.}.>X>X,X>X>X>X>X<X}.<X}.XX].E z g f g h h k g f i 8 6 6 0 0 u 0 0 $ 0 0 0 u 0 0 e a u i f f f g f g f f 3 f d 2 f f d f f f f 2 f f d f f f g g f f f d f f d f f d f d f f f f d g g f F ` [ p.#.' p.p.' p.j.].1X4X>X,X}.{.:X{.:X>X,X>X:X>X>X>X>X3XpXnXVXSXSXFXFXFXFXFXzXzXlXsXlXlXsXvXhXsX3X2XQ.:X:X:X>X>X:X>X:X>X>X>X:X>X=X>X{.n.j.y.t.p.a.t.,.,.s.3.1.` ( ( ` ` ) _ ( ` ` ) ` ( _ ] ] ] ( V k 7 6 $ 0 0 0 q 0 e 0 0 0 0 0 0 0 0 0 0 e 0 0 e 0 0 0 0 0 0 0 0 6 0 0 0 e 0 0 0 0 0 0 e e 0 q e 0 q e e e e 7 9 > i 2..XXX}.<X<X<X}.}.{..X{.].].D.D.G.G.G.S.f.3.,.,.' 3.3.3.",
"#.,.,.,.,.:.W W W T R I I I I I Y I I I I L I G I I o.a.XXXXXX>X}.2X>X>X>X>X>X4X4X<X>X<X>X}..X_.l.a.d.l.4.l.N.N.2.C 6 0 0 0 0 0 0 0 0 0 0 0 0 0 0 e u 8 m 1.e.N.l.8.l.l.g.l.g.g.g.l.g.g.h.g.g.g.g.d.g.s.l.l.s.g.g.g.a.a.g.d.a.a.a.a.a.a.<.g.a.a.a.a.a.a.a.a.c.V.C.V.c.C.C.c.v.S..XXX<X}.}.<X<X>X>X<X>X}.>X<X>X>X>X>X-XpXzXCXAXVXVXNXAXHXAXkXjXuXiXyXyXuXaXaX3X3X-X>X>X>X>X>X}.>X>X2X>X>X>X>X>X>X>X>X{.{.n.v.v.v.v.v.c.v.a.T z l M M M M D l M M M M M M M l M j t e 7 q e t e e e e e e q q 0 q 0 e 0 e q 0 0 e 0 y 0 y 0 0 0 0 $ y y 0 0 0 0 y 0 0 $ y 0 0 $ y 0 0 0 e 0 e q 9 7 : > ,.|.,X<X{.}.>X<XXX{.g.E I R R L L I L W @.,.$.:.$.>.:.,.1.,.1.>.:.:.:.,.,.,.+.W W R R I R T I R I R R I P R I R I I +.j.XX<X<X>X1X>X>X>X>X<X}.>X>X>X<X>X>X}.{.c.d.2.<.a.<.4.l.2.,.v 8 e 0 0 u 0 0 y u u 0 0 0 0 0 6 i d K 2.<.a.a.<.l.a.g.a.<.a.a.a.4.a.a.g.a.g.a.d.l.a.a.a.l.<.l.a.a.a.a.d.l.a.a.a.l.a.l.a.a.l.d.a.a.a.d.l.V.V.A.A.A.A.A.A.S.b.,X<X<X>X>X:X*X:X{.:X>X1X>X1X1X>X>X>X2XpXMXVXHXVXVXVXzXFXzXkXuXyXyXiXiXiXiXiX5X3X=X=X{.:X:X>X=X>X>X>X:X>X:X>X:X>X>X:X{.D.v.v.n.v.D.S.A.F.2.K M j M M M M M M M M M N m m m m m n j i e 6 6 6 0 0 u 0 9 0 0 0 0 0 e 0 0 0 e 0 0 0 0 0 0 0 0 0 0 u 0 0 e 0 0 u 0 0 0 q 0 0 0 e q 0 e 0 e 9 e e 0 0 7 5 d >.|.XX<X<X}.}.}.}.].l.I I I I I P I T W W ' ,.,.,.3.1.1.",
",.,.,.,.,.#.' I S r r w 8 2 d > 8 1 2 > 1 1 , 1 , , 2 o..XXX<X>X>X<X>X>X>X>X1X2X>X4X4X>X<X<XXX<X}. XXXXX X X<X X_.R 6 6 0 0 0 0 y 0 0 0 0 0 0 0 0 0 6 i L Z. XXXXXXXXX$XXX$X XXXXXXXXXXXXXXXXXXXXXXXXXXXXX<XXXXXXXXX}.XXXXXXXXXXXX.X{.XX.X.X.X.XXX.XXX.X.XXX.X.X.X.X.X.X{..X{..XXX>X<X<X>X4X>X>X>X}.2X}.<X>X}.<X>X:X-XiXzXCXSXVXAXNXSXSXVXkXyX/.-X-X/.;X3X3X3X-X-XQ.>X}.>X2X2X>X}.>X>X>X>X}.>X>X>X,X<X>X{..X.X{..X.X.XXXd.K r - 7 r 8 8 r w w t 7 t 8 r 8 r 8 e 8 8 8 q e e e e e a e q e 0 e 0 q q e q q q e e 0 9 y $ 0 0 y 0 0 0 0 y 0 y y 0 y 0 0 b y 0 y 0 0 y 9 9 0 q 0 q 8 > > 1.F.,X>X,X>X}.<X}.].<.2 2 2 2 r > 8 , h R o.,.:.,.,.:.1.1.3.>.3.,.:.:.,.,.,.` P g r r > , , 8 2 r > d r , r 2 d 2 3 S #..X<X4X4X<X>X>X>X>X>X>X>X>X>X}.>X>X}.}. XXX.X X.X.X X X|.Z.R 6 e a 0 0 u 0 y u 0 0 0 0 0 9 6 e d R |. XXX X.XXX<X X XXX.X.X.XXXXXXXXXXXXX X XXXXXXX.X X XXXXXXXXX XXX XXXXX.XXXXXXXXX XXX XXXXXXXXX.XXXXX.X,X.X.X,X,XXX,X,X<X1X>X,X>X{.,X}.:X:X>X>X>X>X>X:X:X2XhXnXFXVXCXVXVXVXzXkXlXyX;X;X;X-X;X@X-X3X3X>X=X:XQ.>X=X>X>X:X>X}.:X:X>X:X>X:X>X,X,X{.{..XXX,XXX.X,X3.z t 7 8 8 t e e 8 e e i e r d 8 8 j e e e 5 6 6 0 0 e 6 q 0 q 0 0 e 0 0 e 0 0 0 0 0 e 0 0 e 0 0 e 0 0 0 0 0 0 a e 0 0 6 0 0 0 0 0 q 0 q q q q e e e 0 7 5 d 2.|.XXXX}.>X<X}..X].#., , 2 r , r , r g K W 3.,.,.1.1.3.",
",.,.,.$.,.' ' R M 7 7 , 7 > 7 5 > > > > 8 > > > > > 3 o. X}.<X<X>X>X>X<X2X>X1X<X4X<X>X4X>X}.}.<X<XXXXXXXXXXX<X X_.Y 5 0 0 0 0 0 0 0 0 0 0 0 0 0 0 6 8 i Y |. XXX$XXXXX<XXXXX}.XX}.XX$XXX}.XX<X}.XX<X}.<XXX}.<XXX}.<XXX<XXX>X}.}.>X}.XX}.}.XX}.XX}.}.XX}.,XXX>X}.,X>X>XXXXX,X>XXX>X>X<X}.>X}.>X>X>X>X<X<X>X>X>X>X>X=X-XpXMXSXFXVXVXVXSXAXzXpX(.Q.T.=XQ.Q.-X=X2X=XQ.}.=X>X>X>X>X>X>X>X>X>X>X<X>X<X<X<X>X>X,X{.:X,X{.{.,X<Xs.D w & 7 7 7 r 7 8 8 7 8 8 8 7 e 7 7 e 8 q 8 e e e e e 0 e 0 0 7 0 q 0 e 0 e 0 e 0 0 q 0 0 0 0 0 y 0 0 0 y 0 y u $ $ y 0 0 y $ 0 0 0 0 0 9 e 0 0 0 0 0 7 - > 1.|.XX>X>XXX}.<XXX].$., = - - > : - - d T +.>.,.,.1.,.>.1.,.:.1.1.>.:.,.,.3.@.K j : : 8 > > 8 8 > 8 7 > 7 > 8 8 : > g @..XXX<X<XXX>X>X>X>X>X<X}.<X>X<X>X<X}.<X<XXX<XXXXXXXXX4XXX_.I ; e u 0 0 9 0 $ 0 9 0 6 0 0 0 6 8 i Y |.XX<X>XXXXX<X}.,X}.XXXXXXXXXXXXXXXX<X,X<XXXXX}.,X>X<XXXXXXX,X<X<XXXXXXXXX}.XX}.XX<X,X<XXXXXXXXX>XXX,X,X,X,X,X,X,X,X,X1X<X<X1X>X>X>X:X:X>X,X>X>X1X>X>X>X>X2XsXnXSXVXVXFXzXVXFXlXuXyX-X=X/.=X-X=X-X=X2X>X}.:X:X>X>X>X>X:X:X}.>X=X>X>X=X:X>X:X:X{.,X>X,X>X,XXXXX2.l q 5 7 q 8 q q q 7 8 8 8 8 8 8 8 8 8 e e u 0 0 0 6 0 6 0 0 0 0 0 0 0 0 e u 0 0 0 0 0 0 0 u 0 e 0 0 0 0 0 0 0 6 0 0 0 e 0 0 0 0 0 0 e 0 0 0 0 e e e 0 7 > d ,.|.XX}.4X>X<X<X.XS.E > = > > : r 7 : g T W >.,.1.,.1.1.",
",.,.,.,.,.,.` T M 7 9 q 7 0 7 0 e 6 6 6 6 ; 8 ; 6 > f o..XXX<X>X>X<X>X>X>X1X2X4X1X4X>X<X>X<X}.}.XX<X}.}.XXXX4XXXF.R 6 e e 0 e y y 0 0 9 0 0 $ 0 6 6 6 > Y |. X<XXX4X}.XX}.$X>X>X}.>X}.2X}.=X}.>X>X>X>X}.>X>XQ.:X}.>X}.:X>X}.>X}.}.>XQ.>X>X:X>XQ.}.>X}.}.>X=X}.=X=X>X>X:X>X>X>X>X>X>X>X>X>X}.>X>X>X}.>X>X>X4X>X>X>X:X-XpXzXSXSXCXVXVXVXFXVXpX/.W.*X*X&X*X=X:X>X=X=X:X>X>X>X>X>X>X$X>X>X>X}.>X<X>X<X,X>X,X:X:X}.{.>X{.>X<Xd.H 8 - 7 8 8 8 8 8 7 q 0 q 7 e 7 6 6 6 8 0 7 0 e 0 7 9 0 0 6 0 0 0 9 e 0 e e q 0 e e q 9 0 9 y 0 y 0 0 0 y 0 y $ b b 0 y 0 0 y 0 y 0 0 0 y 9 0 0 0 9 7 8 > > 1.|.XXXX}.}.}.$XXX X,.> : - 5 7 7 6 + d K R :.>.1.1.:.2.>.:.:.>.1.1.:.1.,.>.W K j 5 7 8 8 8 8 0 8 7 7 7 6 8 e 8 5 > g o.XX<X>X}.}.XX>X>X>X>X}.>X>X>X>X>X>X<X<X4X}.<X<X<X<X4X4X}.].R ; 0 0 u 0 0 0 0 0 0 0 0 0 0 6 6 6 1 I |.XX4X}.}.>X>X>X<X>X}.>X>X>X}.>X>X>X>X}.>X}.>X}.<X}.>X}.>X>X>X>X>X}.>X}.>X>X}.>X}.>X>X>X>X}.>X>X>X>X>X,X:X>X,X1X>X,X>X>X1X<X<X>X>X>X>X,X>X:X,X,X:X>X>X>X>X2XpXnXAXVXVXVXVXzXMXlXyX;X=XQ.=X=X=X}.:X>X>X>X=X:X:X>X>X>X>X>X>X{.>X>X}.:X>X>X>X=X>XQ.:X:X>X>X,X,X,X2.M e 7 9 q q q 9 q q 7 0 8 8 8 8 8 e e e e 8 0 6 u 0 6 6 6 e 0 e 0 0 0 0 0 0 0 0 e 0 0 0 0 0 0 0 0 0 0 u e 0 0 0 0 0 0 0 e 0 0 e 0 0 9 0 9 0 0 9 9 e 9 0 - r 2..X}.<X>X<X>X}. XZ.o.= : 7 7 5 e 7 5 l T W 1.1.1.1.3.1.",
"$.,.,.,.>.,.` R M 9 q 0 9 0 0 7 6 6 6 6 6 6 6 e 6 > 2 I .XXX4X>X>X2X>X<X>X<X<X>X>X>X>X}.>X<X<X<X>XXX<X>X}.XX4XXX|.X.e a a u 0 9 0 0 0 0 0 0 0 0 6 6 8 8 K |.XX$X}.}.}.}.>X}.}.}.}.Q.=X}.>XQ.2XQ.>X}.=X}.Q.>X=X>X=X>X=X}.}.=X}.=X}.:X>X}.=X}.>X>X=X>X=X:X>X:X>X:X>X:X=X>X:X:X=X:X>X>X>X>X>X>X>X>X>X<X<X>X<X}.<X>X>X:X-XiXnXSXVXVXVXVXAXSXzXsX-X*X&X*X:X:X:X>X2X>X>X2X2X>X>X>X>X>X>X>X>X<X<X>X>X<X<X>X>X>X,X:X:X:X{.:X,X<Xl.K t 5 7 7 q 7 7 8 8 8 7 8 0 q 6 6 0 7 8 7 7 0 q 0 0 0 0 0 0 7 7 0 q q q q 0 0 q q 0 e e 0 0 0 0 0 y 0 0 0 0 0 b $ $ y 0 0 0 0 0 0 0 0 0 0 y 0 9 0 q 0 8 - = :.|.XX<XXX}.}.4XXX|.2.> > > e e e 9 + t K R :.:.1.2.:.3.3.,.1.3.,.3.>.1.,.2.` Y j # 7 0 0 8 8 7 8 0 7 6 9 e e j 8 > j ,.XXXXXX{.{.>X<X,X>X>X<X>X<X<X<X}.}.}.<X>X>X<X2X>X<X<X4X{.).L ; 7 0 0 0 0 0 u 0 0 0 0 0 0 0 0 i i o.|.<X<X}.}.>X>X>X2X>X>X>X>X>X>X}.>X:X>X>X}.>X=X>X}.>X>X>X>X:X>X}.}.>X>X>X>X=X>X}.>X>X}.=X}.>X}.>X}.>X>X:X:X:X:X:X:X:X,X>X<X1X>X,X,X>X:X>X>X:X:X1X>X>X>X>X>X3XhXnXAXSXVXFXVXVXVXzXsX3X=X=XQ.=X=XQ.Q.:X>X>X>X>X=X}.>X=X>X>X>X}.:X{.>X:X>X:X>X:X}.:X:X>X>X>X<X1X,Xd.M y 0 9 e e q y q e e e 0 8 6 7 8 8 6 6 6 6 6 6 7 0 e u 6 e 6 0 0 0 e 0 0 e e 0 0 0 0 0 0 0 e 0 e 0 0 0 0 0 0 e 0 0 e u 0 0 0 0 0 0 0 9 6 9 9 9 9 9 0 7 : , ,.|.XXXX>X}.<X}.XXS.` > - 8 e 8 e 8 7 j T Q ,.1.1.3.1.1.",
",.,.,.,.,.` W R M 7 0 0 7 0 0 0 7 6 6 6 6 6 6 5 6 > d o. XXX4X<X2X>X4X>X>X2X>X4X4X>X}.>X}.>X}.>X<X}.>XXX}.}.4XXX].R 8 e 0 y y 0 y 9 0 0 0 0 0 0 0 6 8 1 Y |.XX<X<X$X4X}.}.}.>X}.}.>X>XQ.}.>X=X}.}.}.=X:X>X=X:X=X=X:X=X=X=X>X=X>X=X=X=X:X:X=X=X=X=X:X:X:X=X=X:X=X=X:X:X}.>X>X:X>X,X>X:X>X>X>X2X>X>X>X>X<X>X<X>X>X>X=X=XpXzXSXVXVXVXVXVXGXVXsX;X:X:X:X*X:X=X>X:X>X>X>X>X>X>X>X>X>X>X>X>X>X>X>X>X}.>X<X>X,X:X}.>X:X,X{.XX<Xd.K e 5 7 8 7 8 8 8 8 q 8 0 8 6 0 7 6 6 9 7 7 0 q 0 0 9 0 0 0 9 9 0 q e e 0 q e e 0 9 e 9 0 e 0 0 0 0 0 y 0 y 0 y y 0 0 0 0 0 0 0 0 0 u 0 0 0 9 9 0 0 7 7 - > >.|.XX4X}.}.}.$XXX|.>.d > 8 e e 0 9 $ a K R 1.:.1.:.1.1.1.,.1.:.1.,.1.,.,.3.` K j 5 7 8 q 8 e 8 0 9 6 7 0 0 q a 7 8 h +. XXXXXXX}.}.>X>X>X>X>X>X>X>X>X>X4X<X<X>X<X>X<X<X>X4X<X}.c.L - 7 0 0 0 0 u 0 0 u 0 u 0 0 0 e 8 d o..X$X4X}.}.>X1X1X1X>X2X>X>X>X>X>X>X=X>X>X>X=X>X:X>X>X>X>X>X=X:X>X>X>X>X>X>X>X>X:X>X>X:X>X>X=X>X>X>X,X:X>X:X1X,X:X:X1X:X1X1X<X1X>X:X>X>X:X>X:X>X>X>X>X1X:X>X2XfXnXSXAXVXVXVXzXVXkXuX;X=X*XW.=XQ.=X}.Q.>X>X>X>XQ.:X>X>X>X>X>X}.{.=XQ.:X:X}.>X>X:X}.>X>X>X>X<X<X,X4.M e 9 0 9 y e e e e e q e 7 e e 6 u e e 6 6 6 6 6 e 6 6 6 u 0 6 0 0 0 6 0 u e 0 0 0 e 0 0 0 0 0 0 0 0 e 0 e 0 0 0 0 0 0 0 0 e 0 0 9 0 6 9 9 9 0 9 9 0 9 : 8 2.|.XX<X<X>X>X>XXXC.W ; - 8 0 8 8 7 5 g T W :.1.1.3.1.1.",
",.,.>.>.,.1.` R n 7 9 7 0 9 7 0 6 6 6 6 7 6 8 8 5 > d R |.,X4X<X>X>X1X>X<X>X4X>X>X<X}.>X>X}.<X2X}.>X>XXX<X}.<X}.Z.Y ; q 0 0 y 9 0 0 9 9 9 0 $ y 0 0 7 8 K _. X4X>X}.}.}.>X}./.}.=XQ.>X>X=X>X}.=X=X=X>X=X=X:X=X>X=X>X:X>X:X=X=X:X:X>X:X=X=X:X=X:X>X=X:X>X=X:X=X>X:X=X=X>X:X=X:X,X>X>X>X>X>X}.>X>X>X}.<X<X}.<X<X}.>X>X-XsXzXSXSXAXVXVXFXSXVXsX(.:X*X:X:X:X:X:X=X>X}.>X}.>X=X2X>X>X>X>X}.>X>X<X<X>X>X>X>X<X>X:X,X:X{.>X}.,X4.M t 5 7 8 8 7 7 7 8 8 8 0 8 e 7 0 6 6 6 0 7 0 q 0 0 e 0 0 6 0 0 0 e e e q 0 e e q q q e 0 0 y 0 y 0 0 0 0 0 0 $ y 0 0 0 0 0 0 0 0 0 0 0 0 0 0 0 0 0 0 e : > 1.|.XX$X}.}.}.<XXX|.,.2 7 e e q 0 7 6 j Y :.2.:.>.2.1.1.,.1.1.,.,.3.1.,.1.3.W U j - 0 0 q 8 q 8 8 6 7 6 0 0 0 0 7 > g +.|.XX,X,X>X>X>X>X}.>X>X}.>X4X}.>X>X>X>X}.4X4X>X>X4X<X<X}.n.L - 5 7 9 0 0 0 9 0 6 6 9 0 0 0 6 8 1 I |.XX4X>X:X2X>X2X>X>X1X>X=X2X>X>X>X=X1X:X>X>X>X>X>X:X>X>X>X>X>X>X>X>X=X>X:X>X>X>X>X>X>X>X>X>X:X>X>X>X:X>X:X:X:X:X>X:X,X<X<X1X>X>X,X>X>X1X:X:X<X<X>X>X>X>X>X2XfXnXVXAXFXVXFXzXVXlXuX;X=X=XQ.Q.Q.{.Q.Q.}.>X>X>X:X}.=X:X:X>X:XW.:X{.:X}.:X}.:X}.>X:X:X>X>X1X4X<X,X4.n e # 9 y 9 0 e e q e e e e 8 e 8 e 8 e u 7 6 7 6 6 6 e e 6 6 e 0 0 e u 0 0 0 0 0 0 0 u e 0 0 0 0 0 0 0 0 0 0 0 e 0 0 0 0 0 0 0 0 0 9 0 9 6 9 9 9 9 7 5 : 8 >..XXX$X>X>X>X$X.XS.X.: = 8 7 0 e 7 - j T ` >.,.1.>.1.0.",
",.,.>.,.,.:.W R M 7 0 9 9 9 9 6 6 6 6 6 6 ; u 6 ; i d R  X<X$X4X4X>X<X>X4X4X4X<X>X>X>X}.>X}.>X}.<X}.>X}.}.<X<X}.c.L + 5 9 9 $ # 5 9 # 6 5 5 5 5 5 5 ; ; L ]. X<X}.}.+X}.>X}.}.=X>XQ.Q.>X>X=X:X>X:X}.=X:X:X:X>X=X:X:X>X:X:X:X>X>X:X>X1X>X>X1X>X>X1X>X>X>X1X>X>X:X>X1X>X>X<X>X<X<X<X<X<X<X4X<X<X<X<X4X<X<X<X4X<X<X>X>X2XiXnXAXAXAXVXAXAXAXnXxX+X}.>X:X,X>X:X}.:X>X<X>X>X>X>X=X>X>X>X>X>X>X>X>X>X>X>X>X>X,X>X:X,X:X:X>X:XXXa.l 7 & & : - - 5 7 5 7 7 0 0 q e e e e 0 7 7 0 e 0 e e 0 0 e 9 9 e e 9 e e 0 q e e e e 0 0 0 y y 0 y 0 0 0 0 0 0 y 0 0 0 0 0 0 0 0 0 0 0 0 0 0 7 0 7 7 > > > $.|.XX}.}.}.}.$XXX|.,.1 > 6 5 6 6 9 5 k U :.2.1.2.1.1.1.1.1.1.:.1.3.,.3.,.3.+.K j 5 7 0 9 0 7 7 8 6 0 7 0 8 8 0 7 8 f -.|.XX<X4X4X<X<X<X>X>X>X>X>X<X>X<X>X>X<X<X>X>X2X<X<X<X4X[.c.F O - 5 $ 5 $ 5 5 $ 5 ; - 5 - 5 - ; > P ]..X}.}.Q.>X>X>X>X>X2X>X>X2X>X>X>X>X>X:X>X>X>X>X>X>X>X1X>X>X>X<X>X>X>X<X<X>X1X>X>X>X1X>X>X<X>X<X>X>X1X>X1X,X:X1X,X,X1X<X<X1X<X,X>X,X<X,X,X,X>X>X>X2X>X>X>X2XhXnXGXAXAXAXAXAXAXnXpX3X+X+X>X>X2X2X2X4X4X>X>X>X>X,X>X>X>X>X>X:X}.:X}.:X:X>X:X>X>X:X:X1X:X1X1X<X,X,.j 7 # 7 9 7 7 7 5 5 e e e e 8 8 e e 8 e e 6 6 6 0 u u e 6 e 0 0 e 0 0 e u 0 0 0 0 0 0 0 e 0 0 e 0 0 0 e 0 0 6 a 0 0 0 0 0 0 0 0 0 0 7 9 7 7 9 7 6 6 7 5 ; > >.|.XX}.<X<X>X}..XZ.:.> 5 7 0 8 q 8 5 l T ` 1.1.1.0.1.0.",
",.,.3.,.:.:.` T M 7 7 0 6 6 6 6 6 5 u 6 6 6 6 6 6 i d X.F. XXXXXXX X.X.XXX{.}.}.<X2X>X}.>X>X}.>X}.>X>X<X>X>X<X[.c.I > 7 7 6 8 > > 7 8 > 8 8 1 8 i 6 8 3 I ]. X<X>X}.}.>X}.>X>XQ.>X>X>XQ.>X}.Q.}.}.}.}.{.[.:X}.{.}..X:X}.}.>X,XXX>X,XXXXX<XXX>X>X>XXX>X>X>X>X>XXX>X>X>X>X>XXX>XXX,X>X.XXX XXXXXXXXXXX}.<X<XXX,X>X}.}.}.5XhXvXnXvXvXvXvXvXvXdX+X}.,X:X,X.X}.}.}.<X<X<X4X>X>X>X>X2X>X>X>X>X<X2X}.<X>X>X>X>X,X:X:X:X:X>X>X>Xa.D r : : 8 > 8 8 > 7 7 7 q 0 8 e e e q 0 0 0 e e q e e q q e e 9 e e e 0 q 0 e 9 e 9 e 9 9 0 0 0 0 0 0 y 0 0 y 0 0 0 e 0 0 0 0 0 0 6 6 0 e i j a d d f d 1 2 $.].XX4X}.}.}.<XXX|.>.8 ; 6 6 5 6 6 7 a K -.1.2.1.2.:.-.:.:.1.1.,.1.1.,.1.3.,.T j + 6 0 0 e e 0 e 0 7 7 0 6 e 7 7 8 j R |. XXX<XXX X.X{..XXXXXXX>X<X<X}.<X<X>X>X<X>X<X<X>X<X<X:Xc.I > 8 8 8 > i ; > > ; 8 8 > 8 > > 1 2 G S..X}.}.}.>X=X=X-X>X>X=X>X>X>X>X1X>X>X>X>X,X>XXX>X>X>X.XXX,X>X.X>X>X>X.X,X,X{.XX>X}.}.XX>XXX>X,X,X,X,X,X:X,X,X,X,X,X,X,X,X.XXXXX,XXX.X,X.X.X,X>X>XXXXXXXXX$X5XvXvXnXvXvXvXnXvXvXhX3X}.}.}.2X}.<X}.4X4X<X1X>X>X<X<X<X>X>X>X{.:X}.:X:X>X:X>X>X:X>X:X:X>X>X,X,X.X<.h > > 8 i a i 8 8 7 8 5 e 8 8 e e e 6 u 6 e e e 7 e 6 6 0 6 0 e 0 0 0 0 0 e 0 0 e 0 6 0 u 0 0 0 0 0 0 0 0 0 0 0 0 e e 0 e 0 0 0 0 6 6 6 e 8 i i i e i 1 > 3 >.].XX}.}.<X}.<XXXZ.X.= ; 7 0 q e q 7 n J ` 1.] ] [ 1.1.",
",.,.,.,.,.1.R R M 5 9 6 6 6 6 6 6 6 6 6 6 6 6 6 6 6 a T B.B.B.C.Z.Z.Z.z.c.].[.<X}.2X}.>X}.$X>X}.}.2X}.>X>XXX<X}.{.6.F K K K L K P K K L L F P K P P P G $.].XX>X>X}.>X}.>X>X>X>X>X>X2X>X=X>X>X}.{.{.].].D.].S.].].].].D.].].D.D.].D.D.D.D.D.D.].D.S.S.D.D.D.D.D.S.D.D.].D.S.S.S.S.V.Z.V.B.V.V.Z.C.S.].].|.].].].].].].$X%X%X%X5X%X%X5XdX5X$X[.].{.S.].D.].S.].XX,X4X<X>X}.>X>X}.>X>X2X}.>X>X>X>X>X>X>X>X>X:X:X,X,X>X1X4Xc.+.P K P H K P L K z 8 8 q 8 e e e e e e 0 q e e e e e e e e e e 9 e 9 q 0 q e e e 0 e 0 0 9 0 $ y 0 y 0 0 0 y 0 0 0 0 0 0 0 0 0 0 6 5 0 k C Y L F P F F P G a.].>X<X}.}.}.$X}.|.:.1 > 6 5 9 7 6 5 a z Y ( ( R ( R ( ( ( 1.1.1.' ] ' 1.3.Q P j 5 6 e e 7 0 e 6 0 7 0 0 0 q 7 q 8 j T e.Z.B.Z.Z.Z.V.l.v.].{.>XXX<X}.}.<X>X<X<X>X1X<X>X<X<X<X}.n.$.F F G K F K F F K K K F K K K G G G O.].[.}.Q.Q.{.>X>X>X>X>X1X>X>X>X1X>X<X>X].D.S.S.D.S.D.S.D.S.D.S.D.S.D.S.D.S.D.S.D.S.D.S.S.D.S.S.D.S.S.S.S.D.G.D.D.S.F.S.C.N.A.V.Z.Z.V.V.A.V.F.|.].G.|.|.|.{. X$X%XdXdXeXdXdXdX5X5X$X[.].].R.R.].].R.{.,X>X>X>X>X>X>X<X<X1X>X}.:X}.>X>X>X}.:X>X:X:X:X:X>X:X>X>X:Xs.I K F L Y L L P F z 8 e 8 0 8 8 6 e e 6 e 8 6 e 0 0 0 e 0 e 0 u 0 0 e 0 0 0 0 0 0 0 a 0 0 0 0 0 0 e u 0 0 6 0 0 0 u e 0 0 0 0 0 0 6 5 u z K L L G G L F F G j.{.XXXX<X}.4X4X XZ.( > ; 8 e q e e q n V ~ ( ^ ! ~ ^ ^ ",
",.,.,.,.>.1.` T j 5 6 6 6 6 6 6 6 6 6 6 6 6 6 6 6 6 a m ^ ^ -.X.R -.R K +.z.].<X<X}.}.}.}.}.>X>X>X}.>X>X}.>X}.}.}.n.g.g.a.a.g.g.g.g.g.g.g.g.g.g.g.g.g.u.x.}.>X<X4X}.>X>X>X2X>X>X>X>X>X>X>X>X>X}.R.x.x.l.x.x.x.j.l.x.l.V.l.x.l.N.V.x.l.V.N.V.l.V.V.N.V.x.V.l.x.x.V.x.x.N.V.x.m.d.1.( T R R R R T R :.d.x.x.l.c.j.j.l.j.x.c.c.C.S.C._.C.C.C.Z.x.x.l.x.l.V.j.l.V.]. X4X}.>X}.}.>X>X>X>X>X>X}.>X>X>X>X>X>X>X>X:X:X>X,X>X<X4X].j.s.a.a.s.a.l.j.<.R d q 8 8 e e e e e e e e 0 e e e e e e e e e e e e e e q 0 9 e e 9 0 0 y y u 0 0 0 y 0 0 0 0 0 0 0 0 e u 0 0 7 5 @ e C >.l.g.a.u.a.g.y.u.R.[.>X>X}.}.}.4X}.|.>.> > 6 6 6 6 6 5 8 j k M z N m N N m H ) ' ' 1.' ' 1.3.` U j 5 7 7 6 7 e 6 7 e e 0 7 7 q 0 7 8 d m U ~ ^ R ) :.R L ,.c..X,X>XXX}.4X}.<X}.<X>X>X>X<X>X<X<X}.{.k.y.<.a.g.<.g.8.a.8.a.l.<.g.a.a.a.a.a.k.{.}.}.:X}.=X=X>X>X=X>X=X>X>X>X>X>X>X.XS.x.l.l.l.l.l.l.l.d.j.d.l.d.j.d.l.j.d.l.l.l.l.l.j.l.l.l.l.j.j.f.d.f.f.M.f.m.m.d._ T ( W T ( ( / ` 3.d.N.N.d.l.l.l.x.c.c.).C.P.Z.R.).]._.).c.h.g.h.g.g.g.h.j.c.XXXX>X>X>X,X<X<X<X<X>X:X:X,X:X:X,X>X:X:X,X}.:X:X:X>X,X:X{.v.g.<.<.g.g.9.g.d.<.I j 7 0 7 8 8 7 8 e e 6 7 e e 0 0 0 0 0 0 0 6 0 0 0 0 0 0 0 e 0 0 0 0 e 0 0 0 0 0 0 0 0 0 0 0 0 0 0 0 0 0 0 0 u 7 ; d L >.g.g.g.g.g.g.g.u.n.}.}.4X$X<X}.XX XF.+.; ; 8 0 0 e q q q b B B B B B B m ",
"3.,.,.3.,.3.,.T M 7 6 6 6 6 6 6 6 6 6 6 u 6 6 6 $ 6 $ 6 6 ; ; ; ; - O . f +.P.4X2X}.>X}.2X}.Q.>X>X}.>X>X>X:X}.>X}.}.XXXXXXXX<XXX<X4XXX<X<X<X4XXX4X$X<X<X<X4X1X2X4X4X>X2X>X}.>X2X>X>X>X>X>X>X>X{.j.a.,.$.$.,.$.,.,.$.,.@.,.<.,.,.,.,.#.,.$.,.,.,.,.,.<.,.,.#.,.#.,.,.#.,.,.,.:.W d & & & - & & & : S I #.#.#.<.#.o.W o.W o.Q o.+.@.W o.+.+.o.W +.W o.+.+.#.#.d.C.{.XXXX}.}.}.>X:X}.>X}.>X>X>X>X>X>X>X>X>X:X:X:X:X:X:X1X:X,X,X,XXXXXXX XXX<X XN.j 7 0 0 0 e e e e e e q y e y e e e e e e e q q 0 q q 0 e q e 0 0 q 0 y 0 0 9 0 0 0 0 y 0 0 0 0 0 0 u 0 0 6 6 6 ; a -.Z.4X$X4XXX4X<X<X<X4X4X4X2X}.}.}.>XXX|.>.> ; e 5 6 5 5 ; 5 ; ; > ; > 5 ; > > r ( ' ' 1.' ] ] 3.` K t - 7 q 8 7 6 e e e 7 e 8 6 8 5 e 7 5 5 ; + o - - - * % h g.{.4X4X<X<X}.<X<X<X<X<X>X>X>X<X<X<X>X>X,XXXXXXX,XXXXXXXXXXXXXXX}. XXXXXXXXX}.XX<X4X}.2X>X>X}.>X2X=X>X>X>X:X>X>X>X>X{.s.<.+.#.$.+.#.#.#.Q #.#.,.Q ,.#.#.+.#.Q #.,.,.+.#.#.+.#.,.+.#.#.Q W #.' Q ,.W P r - - - - - - - w H T ' W R W o.R W +.o.X.o.o.o.o.o.o.o.o.+.o.o.o.o.o.o.o.o.a.S.{.>X,X>X>X,X,X<X1X<X>X:X:X>X:X:X:X>X,X:X>X>X:X:X:X>X:X>X,X{..XXXXX$XXXXXXX|.d.l 0 7 0 6 7 9 7 0 0 0 8 8 0 e 0 0 0 e 0 0 0 0 0 0 0 0 0 0 e 0 u 0 0 0 0 0 0 0 u 0 0 0 0 e 0 0 0 0 e 0 0 0 0 0 6 ; f 2.Z.4X4X4X<X<X4X}.4X4X<X4X4X4X<X}.$X.XZ.-.; ; 8 7 0 9 7 0 9 0 q q q q 7 0 0 ",
",.3.3.,.,.4.` R z 6 6 ; 6 6 6 6 6 6 6 6 6 6 6 6 6 6 6 6 6 5 5 ; 5 5 5 O g @.].$X<X2X}.>X}.}.>X>X}.-X}.=X}.=X>X}.}.>X>XXX,X<X4X<X<X<X<X4X<X4X<X4X<X<X4X<X<X2X4X1X>X>X>X>X>X>X>X>X>X>X>X>X>X>X>X{.j.<.@.,.:.@.` +.+.:.+.:.:.+.:.#.' ,.,.,.:.' #.,.#.` :.Q ,.+.#.,.,.+.:.#.#.,.` R t - : - - 5 5 7 7 l L +.:.o.#.<.#.o.#.+.#.o.+.#.+.+.+.,.,.+.+.:.+.` :.+.:.+.<.S..X<X<X<X}.>X>X}.>X}.>X>X>X2X>X>X>X>X>X,X:X1X:X1X:X:X:X:X1X,X<X,XXX4X,X<X<X Xl.k 7 0 q q e e e e e 9 e e e e e e e e e 0 0 0 e e 0 e e q 0 e q e e 0 0 0 0 y 0 y 0 0 0 0 0 0 0 0 0 0 0 6 6 6 ; - p -.C.4X<X}.4X<X4X<X$X4X>X2X>X}.}.+X4XXX|.>.> > 6 6 5 5 6 6 6 6 8 8 5 7 6 8 8 8 t T ] ' ' _ ` ] ,.` T j 5 7 q 8 e e e 5 e e 6 8 6 e 8 e e 6 5 5 - - - 5 5 5 O z 6.].4X<X<X}.<XXX}.<X<X>X>X<X>X<X<X>X<X<X<X<X<X,X<X<X,X<X<X,XXX<X4X<X<X<X<X<X<XXX<X}.1X>X2X>X>X2X>X>X>X>X>X>X,X>X>X:X{.j.,.+.W :.:.W ` +.` W W W W W W W W ` W +.W +.W +.W #.W +.+.W W #.Q W W W ` R U r & - 5 5 - 5 - , H ( 1.` W ` ` ` W +.` +.+.+.:.o.+.+.:.X.+.+.o.:.+.o.:.W o.a.S.{.>X>X>X.X>X>X<X<X>X>X:X,X>X,X>X>X:X:X:X:X>X>X:X>X:X:X>X>X>X>X}.4X$X<X4X4X].d.g 7 0 7 6 0 6 0 0 7 6 0 0 q 6 0 0 0 0 0 0 e 0 e u e 0 0 0 0 6 0 0 0 0 0 0 0 0 0 0 e 0 0 u 6 0 0 0 0 0 0 0 0 e 5 - k >.].4X4XXX$XXX>XXX}.}.>X}.}.}.<XXX}.XXC.X.> - 8 0 0 0 9 q 0 0 7 0 0 0 0 0 9 ",
"3.,.,.<.3.3.1.T z 7 8 6 6 6 6 u 6 6 6 6 $ 6 6 6 6 0 6 6 0 0 6 6 6 a e ; z 2.].4X<X}.>XQ.Q.>X>X+X+X=X>X>X>X>X}.>X>X:X}.>X}.>X>XXX}.>X:X>X}.XX>X>X>X}.>X}.>X>X>X>X>X>X>X}.>X>X>X>X>X>X>X>X>X>X>X].j.<.W :.,.,.:.+.:.:.+.:.+.:.` ' ` +.` ,.` #.` ` :.` :.W +.,.+.:.+.+.:.:.:.:.` R M 7 8 e q 8 8 8 t H I ,.,.+.#.,.,.>.>.,.>.>.,.,.>.,.>.>.,.>.,.,.>.,.,.,.,.,.a.Z.XX4X<X<X}.>X>X>X>X>X>X>X>X>X>X>X>X>X,X:X:X:X:X,X1X:X1X1X>X>X<XXX<XXX}.,X<X.Xl.f 7 0 e e e e q q e e e e e e e e e e e e q e 0 q 0 e 0 q 0 q 6 e q 0 0 0 0 0 0 0 0 y 0 0 0 y 9 0 e u 6 e 8 8 ; + a X.B.$X<X}.}.}.XX}.}.}.}.}.}.}.}.}.$X}. X>.> ; 6 6 6 6 8 e e i i 8 8 8 8 8 8 8 j / ` ` ' ] ' ] 2.' U j - 7 e 7 7 6 7 e 6 e 6 e 6 6 e e 6 7 e 8 e 8 e q q q - F a.].}.XX}.<X}.<X}.<X>X<X<X>X<X>X>X<X<X<X<X,X<X<X<X<X<X<X<X<X<X<X<X<X<X<X<X<X<X<X<X>X>X2X>X}.=X>X}.=X>X:X>X>X>X>X>X>X{.x.,.W +.:.:.W ' W W :.W +.` +.+.` ` W W ` +.W :.W +.` +.+.` W W W ` W W W 1.` / t 7 q e e e e 8 t U ( 0.] 1.1.:.:.1.:.:.:.1.1.:.:.1.1.:.:.:.:.1.1.1.:.>.+.#.a.S..X>X,X,X,X>X{.>X<X>X,X>X>X,X>X,X:X,X:X:X:X,X:X:X:X:X:X:X:X,X>X>X>X}.2X}.XXR.a.j 5 7 7 9 7 9 7 7 0 0 7 7 0 0 0 e 0 0 0 0 u 0 0 0 0 0 e 0 0 0 0 0 e 0 0 0 0 0 0 0 0 0 e e 0 0 e 0 0 0 0 0 0 6 6 O d >.Z.4X}.}.{.}.{.}.[.}.}.}.}.}.$X4X}.XX_.:.; 5 8 0 0 0 0 0 0 q q 0 e q e 9 0 ",
",.3.,.3.,.,.` R j 5 6 6 6 u 6 7 6 6 6 6 u 0 6 u u 6 6 6 $ 6 0 0 0 u 6 - z <.|.4X2X}.Q.>X}.=X=X}.>X>X}.=X>XQ.>X=X}.>X>X=X:X>X:X:X:X=X>X:X}.>X:X}.>X:X}.>X=X>X=X>X>X=X:X}.2X>X>X>X>X>X>X>X>X>X>X.Xx.2.W :.1.:.` :.:.:.' :.' :.` :.,.` :.` :.` ` ,.` 1.' ,.` :.:.:.:.:.` +.:.` ` ( j 7 8 q q q q 8 t H R ,.,.+.+.,.$.,.,.>.,.,.>.3.3.>.3.,.,.,.,.,.>.:.:.>.+.+.4.S..X<X<X,X}.}.>X}.}.>X>X>X>X>X>X}.:X1X:X:X:X1X:X,X:X:X:X:X>X>X>X<XXX}.}.}.<X|.d.j 7 0 7 e e e e 0 e e e 9 e e e e e e e q 0 e e q q q 0 e e q e q e 0 0 0 y 0 y 0 0 0 y 0 0 u 0 0 0 6 6 e u e 6 O a +.V.4X4X}.>X}.>X>X}.2X>X2X2X}.}.}.<XXX|.:.1 ; ; 6 6 e e u e e 8 a 8 u u 8 i e j / ] ` ' ] _ ' 3._ U j 5 7 e 0 e 6 e 6 7 e 6 6 e 6 6 6 0 e 0 7 6 7 8 q e 0 O N a.].XX<X<XXX<X}.<X}.<X<X>X<X>X1X>X>X<X>X<X<X>X<X>X<X>X<X<X<X<X<X>X4X<X<X>X2X>X>X2X<X>X>X2X=X2X>X2X>X=X>X=X>X>X>X>X,XG.x.<.W :.,.:.:.W :.:.` ` :.,.` ` :.' ,.,.W ,.,.+.:.W :.:.:.#.:.,.` ' W ` ` 1.) ( j 7 7 0 0 e q q t ! ) 1.1.` 1.1.1.1.:.] :.1.1.:.1.1.1.1.:.:.1.1.1.1.1.[ +.W a.D..X,X>X>X>X>X,X>X<X>X,X,X:X:X>X:X:X>X>X:X,X:X>X:X:X:X:X:X=X>X:X>X>X2X}.>X<Xn.a.g 7 9 7 7 6 6 6 0 7 0 7 0 0 e 0 0 0 0 0 0 0 e 0 0 0 0 0 e u 0 0 0 0 0 6 a 0 e 0 0 0 0 0 0 0 0 0 0 0 0 e u e 6 5 + g >.C.4X}.}.[.{.[.}.>X}.{.}.}.}.}.4X}..XZ.X.> ; 8 7 9 9 7 7 0 0 0 0 e q e y y ",
",.3.3.,.3.d.1.T k ; 6 6 6 6 6 6 6 6 6 0 6 6 6 6 6 6 0 0 6 0 0 6 0 e 9 @ k <.|.4X<X2X}.>XQ.>X>X2X>X}.Q.>X>X>X>X}.}.=X>X=X=X>X=X>X>X=X:X=X>X=X>X=X>X>X>X>XQ.>X>X>X>X>X>X>X>X>X>X>X>X>X>X}.>X>X>X{.x.4.` :.:.:.:.:.:.:.:.:.1.:.' :.:.' 1.:.` :.1.' :.` ' 1.` :.:.+.` @.:.+.:.:.( ( n 5 7 q 0 9 0 7 d N Y 2.+.+.:.,.3.,.1.,.>.>.1.>.1.:.,.1.,.+.2.:.:.>.>.:.:.W <.S..X4X<X<X>X}.:X>X}.>X>X>X>X>X>X>X>X1X>X>X>X,X>X>X1X>X:X>X>X:X>X>X>X.X}.XX}.].a.k 6 0 q e e e 0 0 9 e y 0 0 q e e y e 9 e q 0 q 0 e 0 0 q e 0 e 0 0 0 0 0 0 y 0 0 0 0 0 0 0 0 0 0 0 7 6 0 6 e 6 - d +.V.4X2X>X>X>X>X>X2X<X<X2X>X}.+X}.}. X X2.> > 6 6 6 6 8 e e e 8 e i e 8 8 e u j / ' _ ] ' _ [ ] _ T j $ 7 0 0 e e e 8 e e 6 0 u 0 0 7 6 e e 6 8 7 0 e b 9 * z 4.].XX<X}.<X}.}.XX<X<X>X>X<X>X<X>X>X>X1X<X<X>X1X<X>X>X<X>X>X<X>X}.4X>X4X>X>X2X<X>X2X>X>X>X>X2X>X2X}.=X>X:X>X>X>X,X:XG.x.p.' :.,.,.,.` ,.:.,.` ' ,.,.` ,.' :.,.:.,.:.>.:.+.:.:.+.+.,.,.` #.,.#.' 1.` ( n 6 0 0 9 0 0 q j U ) 0.[ ` ] 1.1.1.1.:.1.1.:.:.1.' 1.1.' :.1.1.2.:.1.:.:.+.a.F.XX<X<X1X<X<X<X,X<X>X,X>X,X:X>X,X,X>X,X>X>X>X:X:X:X}.=X:X:X=X:X>X=X}.}.:X>Xb.<.g 7 9 7 q 9 6 0 7 6 9 6 7 0 6 0 0 0 0 0 0 e 0 0 0 0 e 0 0 0 0 e 0 0 0 0 0 0 0 0 0 0 0 0 0 e 0 0 0 0 0 0 0 0 u 7 - f @.c.XX}.Q.Q.{.}.}.}.[.Q.}.}.}.4X}.}. X].X.> ; 8 7 0 0 0 0 0 0 0 0 q 0 0 $ y ",
",.4.<.3.3.3.1.R k ; ; 6 6 6 6 u 6 6 u 0 u 6 6 u 6 6 6 0 6 0 0 0 0 9 0 # z <._.4X<X}.>XQ.>X>XQ.>X+X>X>X>X>X>X}.:X>X>X:X:X>X:X=X:X=X:X>X>X>X>X=X>X>X=X=X>X=X>X>X2X=X>X=X>X>X>X=X>X>X>X2X>X>X,X>X{.x.4.+.+.:.:.1.:.:.1.:.:.:.:.1.` ` ,.:.` ` ' ,.,.,.,.,.,.:.,.,.,.:.,.,.,.:.:.:.( t 5 9 9 7 0 9 6 e N T :.:.R :.>.>.>.,.:.1.1.:.:.>.:.:.,.>.:.>.:.>.,.,.1.:.@.<.Z. X4X<X}.}.}.}.:X>X>X>X2X}.>X>X>X>X>X>X>X>X>X<X}.>X>X>X:X>X,X>X>X>X>X{.}.}.].l.z 7 0 q 0 e e 0 6 9 e e q e q 0 q q q e e 8 0 e e e q e q e q q 0 9 9 0 y 0 0 0 0 0 y y 0 0 0 0 0 0 0 6 6 6 6 ; - j X.C.4X4X>X4X}.2X<X>X2X2X>X>X>X>X>X4X}.|.>.1 ; ; 6 6 6 8 u i e 8 u e e 8 u 8 8 j ( ] ] _ ] [ ] 1.` U n - 0 e e 6 6 6 e 6 6 e 6 e 6 0 8 e 6 6 e e 6 e 0 e 9 + D 8.].4XXX<XXX<XXX}.<X>X<X>X>X<X>X<X>X>X<X<X>X>X>X,X>X,X<X>X>X>X<X>X>X>X}.>X>X>X>X>X>X>X>X>X=X>X=X>X>X>X>X>X>X>X>X>X1X.Xx.<.:.' ,.:.:.,.:.,.` ,.:.` ,.,.,.:.:.,.,.,.:.,.,.:.>.:.:.,.` #.,.` ' ' ,.1.:.^ k 6 9 0 0 0 0 q y J ) [ 0.] 1.] 1.:.] ] 1.:.' 1.] ` 1.,.' ` 1.1.1.1.2.1.1.W s.|.,X<X4X1X4X1X<X<X<X>X>X.X>X>X>X>X>X,X>X:X:X,X>X:X{.:X}.{.=XW.=X>X>X=XW.:X>Xn.#.g 7 7 9 7 9 7 0 6 6 5 9 7 0 e e 0 0 0 e 0 0 0 0 e 0 0 0 0 0 0 0 0 e e 0 0 0 0 0 e 0 0 0 0 0 0 0 0 0 y 0 a e a e - j >.V.$X}.{.}.W.}.}.}.}.}.[.}.}.}.}.XX XZ.-.: ; e 0 7 0 0 0 0 e 0 0 0 0 0 b $ ",
"3.3.,.,.3.3.,._ j ; 6 u 6 6 6 6 u 6 0 u 6 6 6 6 6 u 0 9 0 $ 0 0 0 0 0 - z >.|.4X<X<X>X=X>X}.>X}.>X2X}.>X>X>X>X>X>X=X:X>X>X:X>X>X>X>X>X>X=X>X>X>X=X>X=X>X>X>X>X>X>X>X>X>X>X>X>X>X>X>X>X>X>X<X>X.Xx.4.:.:.:.,.1.1.:.:.:.:.:.1.1.' ` 1.1.` W 1.2.3.,.3.>.3.,.>.,.,.,.,.:.2.2.1.:.^ j 5 6 6 0 9 6 9 t N R :.,.( +.:.>.1.1.:.1.1.2.1.1.1.1.2.-.:.:.:.:.2.:.>.,.+.4.|.XX4X<XXX}.<X>X>X>X>X>X>X<X>X>X>X=X>X>X>X>X>X2X+X}.+X}.>X>X:X>X>X>X.X}.{.}.].l.z 7 0 0 0 0 7 0 9 5 9 q e e 0 e q q e 9 e q e 0 e 0 e 0 0 q q 0 e 0 0 0 0 0 y y 0 0 0 0 0 0 0 0 0 0 6 0 6 6 6 ; * i :.C.$X4X}.4X>X}.4X>X4X$X>X2X4X2X>X2XXX.X>.> > i 6 6 e e e 6 e e 8 8 e 8 i e 8 j ( ' ' 1.' ] [ 1.` ~ j 5 7 e 6 6 6 6 6 6 6 6 6 7 6 0 u 7 8 6 6 7 0 0 0 e 9 o N <.].XX<X4XXX<X<X<X}.>X>X<X2X<X>X>X<X<X4X<X>X>X>X>X>X}.<X>X,X>X>X}.<X>X<X>X>X>X>X>X>X>X>X>X>X>X+X>X>X:X>X>X:X:X:X:X,X{.x.d.+.,.>.:.,.` ,.` ,.` ,.,.,.` ,.1.:.,.,.+.:.+.,.:.>.:.+.:.,.:.+.#.,.,.' 1.` ^ n 6 7 9 0 0 7 0 j ! _ 0.1.] ] 1.1.:.1.:.1.1.1.:.] 1.1.1.` W 1.2.1.1.2.2.,.+.d.|.,X1X<X1X1X4X<X<X,X>X>X>X>X>X>X>X>X:X>X>X}.:X>X,X}.}.}.}.}.}.=X=X:X*X:X:X1Xn.#.t 5 9 9 5 5 6 9 9 9 5 7 7 0 e e 0 0 0 0 0 0 0 e 0 0 0 0 0 0 0 0 e u 0 0 0 e 0 0 0 0 0 u 0 0 0 0 0 9 0 0 0 0 6 6 - g >.c.}.}.}.}.}.}.XX}.}.}.}.}.}.}.}.$X.XZ.+.; ; 6 0 0 0 0 0 0 0 0 0 0 q 0 $ b ",
",.3.3.3.,.3.,.R M ; 6 u 6 ; 6 6 6 5 5 $ 6 6 6 6 6 $ 0 0 6 0 0 0 0 e 0 $ M >._.4XXX$X}.}.$X}.}.}.>X}.>X}.=X>X>X2X>X>X>X<X>X<X>X>X1X<X>X<X>X>X>X}.>X4X>X<X>X4X>X<X1X<X<X>X<X<X<X<X<X<X<X<X<X<X<X|.V.4.` :.2.2.,.1.:.:.:.:.:.:.:.:.1.1.,._ W 1.3.3.>.3.3.2.2.>.3.2.>.2.2.1.2.2.1.1.j 5 9 9 9 7 6 9 d N R :.>.R ` 2.:.:.2.2.1.1.1.1.2.1.2.>.( R 2.1.1.2.2.:.:.>.2.|.XX4X4X<X4X<X4X4X<X4X<X<X2X>X}.>X:X2X+X+X/.+X/./././.+X/.2X>X:X,X>X>X{.XX}..Xl.j ; - - - - 5 - 5 @ 9 0 0 q 0 e 0 e 9 e e 0 e q q q e q e 0 e e q 9 0 0 0 0 0 0 0 0 0 0 0 0 0 6 5 5 ; ; - - ; * O d X.C.4X<X2X}.>X2X>X>X$X4X<X4X$X4X<X4XXX X2.i 7 e 6 6 6 e e u e e u e e e e 6 6 j / ' ] ] [ [ [ 3._ T k - ; 5 5 5 5 6 5 6 7 6 7 6 0 6 6 0 u 6 e 0 0 0 0 0 9 - K d. X4X<X4X<X4XXXXX<X}.<X<X<X>X<X<X}.<X<X<X,X>X.X,XXX>X<X,X,X>XXX}.XX}.<X<X}.}.<X>X>X}.<X}.}.>X}.}.<X}.>X<X>X,XXX,X>X.Xx.3.:.` ,.,.` ,.:.#.:.,.,.` ` ,.` ' ,.' ' 1.:.:.:.:.,.:.1.,.:.1.1.' 1.,.,.1.] ( n 6 9 0 0 9 0 9 e ~ ) 1.[ ] 1.] 1.1.] 1.] :.:.1.] 1.1.3.` ( :.1.2.2.2.3.2.>.d. X,X4X<X<X,X<X<X,X,X<X<X<X>X>X>X>X.X>X>X}.>X=XQ.Q.Q.Q./.2XQ.Q.:X>X:X:XQ.>X>XW.t.d * * O - * - - - - 6 0 0 0 0 6 0 0 0 0 0 e 0 u 6 0 0 0 e 0 0 0 0 0 0 0 0 0 e 0 0 e 0 e 0 0 0 0 6 5 5 @ - - + * O 3 +.c.}.}.}.>X$X4X$X4X4X4X4X4X$X4X4X4X X|.-.; 5 e 0 0 0 0 e q 0 e e 0 e e b b ",
">.3.3.,.3.,.' ` U j M N M m k B m j e 6 6 6 u 6 6 0 u $ 0 0 0 0 0 a e 9 a L >.N.l.l.g.g.8.h.z.{.}.>X>X}.>X}.}.:X}.].n.S.S.C.R.S.S.S.].R.S.].n.].].S.S.S.n.].].S.n.].S.n.D.S.b.D.D.S.S.D.S.D.D.S.d.d.W :.,.3.>.:.1.:.:.1.:.1.1.' 1.1.,.` T T ! / / J ! T T / U T T T U T T T U J b 5 7 9 6 9 6 9 e V R :.:.+.:.2.:.,.2.1.3.1.1.2.2.1.1.1.( R T U ~ ~ U Y U U ( 2.m.N.N.N.l.l.l.g.l.{.<X>X>X>X}.>X}.$X@XdXeXdXfXwXqXqXeX3X4X2X>X}.>X}..X>X}.{.S.o.L P L L L Y R U M e 7 9 0 9 e e q e 0 0 q e e 0 0 e e e 0 e e q 0 0 9 e 0 0 0 e 0 0 0 0 0 0 0 a K L L L L L L L o.<.].4X$X4X>X>X<X<X}.R.k.g.g.g.g.g.l.l.8.R 1 8 u e e e e e u e u e e 8 e 8 8 i j / ] [ q.[ [ [ 3.] / J j n n n n M M M t 8 q e 6 7 0 6 e 6 6 6 e 0 e 6 0 6 @ n ( 4.N.N.l.l.l.l.l.x.[.<X<X<X2X<X>X}.<XXX{.v.v.v.c.c.v.n.v.c.v.n.S.c.v.v.v.c.c.n.c.S.c.v.n.c.S.v.S.v.n.v.C.n.v.S.V.S.V.m.,.:.1.,.:.,.,.' 1.:.:.,.` ,.` :.,.,._ T U U U T U U U T U U U T J J T T T U V b 9 0 $ 0 0 9 9 n ! ) 0.[ ) 1.] 1.1.1.:.1.1.' 1.1.' 1.2._ T T T T U T U T U R 3.l.V.l.N.l.d.l.x.c..X<X,X<X>X>X>X>X>X3X5X5XiX5XiX3X3XiX3X3X=X:X>X>X=X:X>X>X{.k.I K K K K P K K K j 8 8 q e e 0 0 e 0 0 u e 0 0 0 0 e 0 0 0 a 0 0 0 0 0 0 0 0 0 0 0 0 0 0 6 0 a b C L K L K L L L o.g.].4X>X>X>X2X<X}.}.).l.l.l.z.l.l.N.e.2.^ 9 y $ $ y $ B e a 0 0 e 0 0 e b $ ",
"3.3.,.3.,.3.1.,._ Y R / ^ ( T ( ) J M a 6 6 6 6 6 0 9 0 6 6 0 0 9 b 0 0 e d C U K K U L K K o.n.$X2X>X>X>X:XQ.{.}.n.a.a.g.d.l.a.l.g.g.d.l.g.l.l.s.d.j.d.l.l.a.g.g.d.d.s.l.d.d.s.s.d.d.d.d.d.d.d.d.4.` 1.3.3.3.1.1.:.:.:.` 1.1.:.] 3.3._ J l t n b n n b n e n n j j n e j n b y q 7 7 9 6 9 9 6 e H R 1.1.( :.:.1.1.:.:.2.1.:.1.:.:.1.2.) T M n n n n n n j M A ~ U U U K K F F I c.<XXX}.XX}.}.>X+XdXfXvXnXcXcXcXcXxXhXdX3X>X}.}.}.>X{.}.XX].S.Z.C.S.S.C.C.|.N.+.N 7 0 0 e 9 e e 0 q e q 0 q e q q 0 q q q 0 0 9 0 0 0 0 0 0 0 0 0 0 e 0 0 0 k 4.S.n.n.n.n.n.C.k.P.].4X>X>X}.2X$X<XXXg.I L F K C K Z K U k 8 8 e e u e 6 e e e e e e 8 8 e e 8 j ( ] [ [ [ [ [ [ ] ` / ~ ~ / / T J / ( J n t e 6 6 6 6 6 6 u e 6 6 0 0 0 7 5 e m K Y Y Y K U U K R S.XX}.4X<X>X<X>X}.{.j.y.a.y.a.a.a.<.a.<.<.a.<.a.<.<.a.a.a.a.a.<.a.a.<.a.<.<.,.a.<.d.a.<.a.<.a.a.d.p.<.` :.>.:.` ' ,.` ,.,.` ,.:.W ` ,.3.T J j j j j n n j j j j n j n b n t b n b e 0 9 0 9 0 0 0 e ! ] 1.[ ] 1.1.1.1.] 1.` 1.1.1.' :.1.1.` P l r d d j d d r j H J T K K T T P R $.S.,X>X}.>X>X>X>X2XaXsXvXvXvXlXlXlXsXhX6X2X>X=X>X:X>X>X>X}.W.n.k.c.k.c.c.C.Z.g.P k ; 6 6 6 a 0 0 0 0 0 0 0 0 0 0 0 0 0 0 6 0 0 0 e 0 0 0 0 0 0 0 e 0 e 0 0 a C 8.B.c.C.).c.c.n.k.k.}.4X>X>X>X<X<X}. X$.I L K Y K U Y Y Z m 0 $ b B y $ y e 0 0 b e b y e y $ ",
"3.,.,.,.3.3.,.1.` W ` ` ` ^ ( :.] T k 8 6 u 6 6 6 6 6 0 9 0 0 7 0 0 0 e e u u a a i i i 8 i S k.}.>X>X>X}.>X<X>X{.c.$.1.>.,.,.,.:.,.,.,.,.,.>.:.>.>.>.>.,.,.,.,.>.,.,.,.,.' 3.,.,.,.,.,.3.,.,.,.3.,.` :.,.2.1.,.:.:.:.:.1.' ' :.' 1.3._ J t q q q q q e 9 e e e e q e e q e e q 9 9 9 9 6 9 9 6 e N R 1.2.W :.1.>.1.:.:.1.1.3.1.1.1.1.2.) U j q 9 0 y 0 0 0 e e a e a a i e > d z l. XXX}.}.}.}.}.@XhXcXAXAXSXSXAXAXcXcXfX5X2X}.}.>XXX>X}.>X{.}.{.}.XX.XXXXX<X|.>.N - 0 e e e e e q q 0 e q 0 0 e 0 e 0 e 0 e e e 0 0 0 u 0 0 0 e 0 0 6 0 6 6 k V.XX}.[.}.[.[.}.}.}.}.4X4X>X4X}.<X4XXX$.S d i i a a i a a u ; 6 e 6 6 e 6 e 6 e u e 6 i i e 8 6 j / [ 3.[ [ [ [ [ ] ' _ _ ] _ ] ) ( ) ] J t 8 8 8 6 6 e e 6 6 6 e 0 0 6 0 7 5 e a a j e e a a e a z x.{.<X>X<X>X<X<X}.].g.#.$.,.+.$.$.#.$.#.:.@.,.$.,.$.,.,.,.,.,.,.$.,.,.,.2.,.,.>.,.,.>.1.,.,.,.,.,.>.,.` :.:.:.:.` +.:.Q ` ,.` ,.` ` ,.2./ N t 8 0 q 9 q 0 9 q 0 q 0 0 0 q e 9 0 0 0 9 9 0 0 7 0 q j ~ ) ] 0.] ] 1.1.1.1.1.1.1.[ 1.1.` 1.2._ J r 8 7 8 8 8 8 7 7 8 8 t q e t 8 8 h P V.,X,X<X>X>X>X>X2XsXlXMXMXAXnXzXnXnXvXaX/.=X>X>X>X=X>X>X>X}.[.{.[.{.{.[.}.XXC.R z - 0 e 0 0 0 0 0 0 0 0 0 0 0 0 0 0 e e 0 0 e 0 0 0 0 0 u 0 0 0 0 0 0 6 6 a C C.$X[.XX[.}.}.}.}.}.:X4X1X>X}.}.[.XX.XO.h d u u a a a a a u 6 b $ $ $ $ y 0 0 e e 0 e 0 e y b ",
"3.[ ` 1.,.1.,.' 1.1.1.' 1.] ` 1.2.T j e 6 6 6 6 6 u 6 0 0 6 0 6 0 0 u e 6 5 5 - @ - - - - * f g.[.>X2X>X>X>X<X>X{.l.+.W R W +.+.+.+.+.+.X.` +.+.+.` W X.:.+.` +.` ` W ` ` Q ` ' Q ` ` ` ` ` W ` ' ' ' ,.' ' ` :.:.1.1.:.1.1.1.` ' 3.3.( J t 7 q q q 9 9 7 9 7 9 q 9 9 q 9 0 q 0 9 9 6 6 6 0 9 6 e V R 1.1.( :.1.2.:.1.1.,.1.1.1.1.1.2.0.( U e 9 0 9 9 9 9 9 0 0 7 # 5 @ ; - - > f a..X}.}.XX}.}.}.@XfXnXSXSXSXSXSXSXAXnXsX5X2X}.>X>X>X>X>XXX>X<X<X<X4X<X<X4X4X.X<.z - 7 0 0 q q 6 e q 8 0 8 e q e q 0 7 q 8 6 7 e e 0 0 e e 0 0 6 e u 6 7 0 0 v _.4X4X4X4X4X4X4X4X4X4X4X>X4X<X2X<X<XXXo.f > - ; 5 ; 5 ; 5 5 6 6 6 8 6 6 6 u 8 e e 6 6 8 6 e e i j ( [ [ 3.[ p.[ [ ] 1.1.q.1.1.q.0.] ] ] J j t 8 e e 6 6 e u 6 e 6 0 6 e 0 0 7 7 8 5 5 - 5 + - $ - f g.{.<X>X}.<X1X<X>XR.a.W W o.W :.W W :.+.+.+.:.+.+.:.+.+.W +.+.` ` W +.:.+.,.+.:.+.` ' ' +.:.:.` :.W :.:.:.:.:.:.,.` ` ,.` ' :.:.` ' 1.3./ M 7 5 5 5 9 7 9 7 7 9 7 9 5 9 9 7 6 9 9 $ 7 9 9 0 9 0 q e J ) 0.1.] ] 1.] ' 1.] ] 1.1.] ] ` 1.3._ H r 7 - : : 5 - - 5 : 5 - 5 - - 5 * r F x.XX<X<X>X>X>X>X2XsXzXGXGXGXGXAXAXMXMXaX-X2X=X:X=X>X>X=X2X>X1X<X<X<X>X<X<X4X].+.h - 6 e 0 0 0 0 0 0 0 e 0 0 0 u 0 0 u 0 0 0 0 0 0 0 u 0 e 0 0 e 0 0 0 6 9 k Y |.4X4X4X4X4X4X4X<X2X>X>X>X>X2X}.{.XX.XX.3 ; $ $ $ @ 5 5 5 $ 6 $ $ b y $ B 0 0 0 0 0 0 0 0 $ B ",
"3.,.' 1.,.1.1.,.1.' 1.' 1.1.` 1.1.J j e $ 6 u 6 6 6 6 u 6 6 e e 7 u e u 6 6 6 6 6 6 6 6 5 ; f <.{.<X>X>X>X>XXX>X].j.o.:.:.,.,.:.:.+.,.:.:.1.:.:.:.:.:.:.:.:.:.1.' 1.,.1.' ' ' ' ' ' 1.' ` 1.' ' ' ' ` 1.' ' 1.:.` 1.' 1.1.1.' ' ] [ 3._ J t 7 9 q q 9 7 7 9 0 7 q 0 7 0 0 0 9 9 6 6 9 0 0 0 0 9 8 C R 1.1.` :.1.3.3.1.1.,.1.3.1.1.` 1.1.) V a 0 0 9 e 9 9 9 0 9 0 9 e e e 8 > 2 3 s.XX[.}.}.}.}.$X@XpXkXAXAXZXZXZXAXAXcXfX5X2X}.>X>X>X>X>X>X>X,X<X>X>X>X,X<X4X].a.z O 0 e e 8 0 8 7 6 8 8 e 8 e 7 8 7 0 6 e 7 e e 6 e 6 0 0 6 0 u 6 e 8 6 6 a C C.}.$X}.>X$X>X}.$X}.}.4X$X2X<X>X$X<XXX@.f > 5 7 e 8 8 e 5 6 6 6 6 6 6 6 e 6 u e e 8 6 e i 8 e 8 j _ ' 1.[ 3.[ [ [ ] [ [ 3.] [ 3.[ [ ] 0.! n 8 q e 7 6 6 6 e e 6 0 u 0 0 6 6 0 e e 7 0 0 0 7 0 7 5 k l.{.}.>X>X>X>X4X>X].g.W :.:.,.` :.:.+.:.,.,.:.:.+.:.:.:.+.:.,.` :.,.:.` 1.:.:.:.:.:.:.:.:.:.:.:.:.:.:.` :.` 1.' ` ,.:.,.` ' ' 1.' ' 3.3./ M t 7 q 8 7 0 0 0 0 9 6 0 9 0 7 9 9 9 0 0 $ 6 6 0 0 7 9 a U ) 1.1.] ] ] ] ] 1.] 3.[ 1.1.] ' 3.2._ H r 7 - 5 7 6 ; 7 7 7 7 7 8 7 8 5 8 f F V.XX,X>X>X>X>X>X3XsXlXGXGXAXAXAXVXGXMXsX/.>X=X=X>X>X=X>X>X4X>X2X>X4X<X<X<X4X|.@.h - 7 e 0 0 0 0 0 0 0 0 0 0 0 0 0 0 0 0 0 0 0 0 0 0 0 0 0 0 0 0 0 e 0 6 7 a Y _.4X4X4X>X>X>X4X>X>X>X:X>X>X>X}.[.+X XX.f a $ u y $ b $ y 9 0 0 0 $ $ B $ $ $ b $ 0 0 0 0 $ $ ",
",.' ` 1.1.' ` 1.1.,.:.1.1.' ] 1.' U j 8 6 6 6 6 6 0 6 0 e u 6 u 6 e 6 e e 6 6 6 6 0 6 6 e 7 j g.W.>X<X>X>X>X>X{.{.j.' 1.:.>.,.1.:.1.:.,.,.>.:.1.,.:.1.>.:.1.2.:.,.1.3.,.3.[ 3.] [ ] ' 3.,.[ 1.1.1.1.:.' ,.` 1.1.1.1.1.1.' 1.1.] [ 3.3.` J q 7 7 7 q q q 0 0 0 9 e q 0 e q 0 e 0 0 9 e 0 9 0 0 0 8 V ( 1.1.:.:.1.1.1.3.1.1.1.1.1.:.] 1.0.( U j q q 0 0 9 9 0 9 0 e 9 e e i 8 8 1 f g..XXX>X[.}.}.}.@XpXkXAXAXZXZXZXZXNXnXlX5X2X2X>X>X>X>X>X>X>X1X1X>X>X>X>X>X4X].<.z - 7 e q 7 8 8 6 e 6 7 e 5 6 6 e 7 e 8 8 6 e 8 8 8 6 0 7 6 6 8 6 6 6 6 6 a L _.XX}.$X$X}.}.$X}.}.$X>X>X}.$X<X<X4X X,.h 6 5 0 u e 8 e e 6 6 e 6 e 6 6 6 6 6 e u 8 e 8 6 e 8 8 j / ] ' 3.{ 3.[ [ ' ] 3.[ [ _ ] [ [ q.] J j t 8 8 e e 6 6 6 u 6 6 e 6 6 a e e e 0 0 e 0 0 0 e 0 e z j.[.>X<X>X>X>X4X>XR.s.+.1.3.1.,.:.:.:.:.:.:.:.:.:.1.,.:.1.:.:.:.:.` ,.,.' :.` :.,.' :.:.:.,.:.:.:.:.:.:.` :.` ,.,.` ,.` ' ,.[ ,.,.] q.3.( N 8 8 8 q q q 0 0 0 0 0 0 0 0 0 9 u $ 0 9 0 0 9 0 7 0 0 a ! ) 0.[ ] ] ] ] ] [ [ ] [ 1.[ [ ' 3.3._ J r 7 7 7 5 6 7 7 7 0 9 q q q q e 8 g z N.<X,X>X>X>X>X>X-XsXzXGXAXVXVXSXVXVXzXaX;X=X:X>X>X:X=X>X2X>X2X<X2X>X>X2X<X4XS.W z - 0 e e 0 0 u 0 e 0 0 0 0 0 0 0 0 0 0 0 0 u 6 0 0 0 0 0 0 0 0 0 0 0 6 7 j R ].$X>X2X2X}.2X>X>X>X>X}.:X>X>X}.{. X XX.d u $ u u b $ b $ 0 0 $ 0 $ B $ $ y b $ b b 0 $ y $ B ",
"1.,.` ,.,.1.1.' ` ,.1.' ' 1.1.1.] J k 5 $ u 6 6 6 6 0 u e 6 6 e u e 6 6 e 6 e 6 e 0 0 0 0 5 d g.{.<X<X>X>X>X>X,X].j.W ,.,.,.,.,.,.1.,.,.1.1.2.,.:.1.1.1.1.,.1.1.1.1.1.1.3.3.[ [ [ 3.1.[ [ [ 1.3.1.' 1.1.` ,.,.:.1.:.' 1.1.1.' ] ] 3.q._ J t 7 0 8 8 7 0 8 q 0 e q q e e q 0 q q 0 9 9 0 9 0 0 $ e V R 1.1.:.1.1.3.1.,.1.3.3.1.] ] ) 1.1.( V y e 0 9 e 0 y 9 0 9 e y e a i i i d f g.XXXX}.}.}.}.}.@XpXlXAXZXVXZXVXNXNXzXfXiX2X}.>X>X>X>X>X>X>X>X>X>X>X<X>X>X4X].<.D * 7 e 6 7 6 e 8 8 8 8 6 8 8 8 e 6 e 8 8 8 8 5 8 e 8 8 e e 8 8 6 u 6 5 5 a L Z.$X}.$X$X}.}.$X$X}.}.$X$X}.>X>X<XXXXX+.g > 7 0 e a e 8 e 6 6 6 6 e 6 e 6 e 6 6 6 e 8 e e e e e j ( [ 3.[ 3.{ [ ] ] ' [ [ ] [ ' [ q.] 0.J j 8 8 e 6 6 6 u e 6 6 6 6 6 0 6 0 a u a 0 u e e 0 0 y 8 z g.{.}.>X>X}.>X<X>X].g.W ,.,.1.:.1.:.1.:.,.:.:.,.:.:.1.:.:.:.:.:.,.:.,.:.:.,.:.:.1.:.:.:.,.:.:.:.:.:.:.:.,.` :.:.:.,.1.' ,.[ ,.[ [ 3.3.w.( M t 7 8 8 0 0 0 0 0 0 0 0 0 9 6 0 9 0 0 0 0 0 0 9 0 7 7 e ~ ) 0.] ] ] ] [ ] [ [ [ 3.[ ] ' ` 3.3._ U 8 5 7 7 6 0 7 0 0 7 0 7 8 e 7 7 5 d F c.XX>X>X1X>X>X=X;XsXzXGXFXVXSXVXSXVXnXsX-X:X=X:X:X=X>X>X>X2X<X2X>X>X>X>X4X4X].o.z ; 0 0 e 0 0 0 0 0 0 e 0 0 0 0 0 0 0 0 0 0 0 0 0 0 0 0 0 0 u 0 0 0 e 5 7 j L ].}.2X>X>X>X2X2X>X:X>X:X:X}.{.}.[.XX XX.f $ b $ y $ $ $ b $ 0 u y $ $ $ b b $ b $ y y u y b $ ",
",.` ` 1.,.,.` ` 1.,.1.' 1.[ ] 1.] U j 6 6 6 6 u 6 6 0 6 6 u e u 6 6 e u 6 6 e u 6 0 0 e e 5 g 8.{.>X4X<X>X>X>X{.D.x.@.:.:.,.,.1.,.>.:.:.1.,.1.,.2.2.:.2.1.2.1.,.1.1.1.1.[ 3.[ 3.3.[ [ 3.[ 3.] 1.' ' 1.1.1.1.' 1.1.' 1.[ ] 1.1.` _ [ q._ J 8 7 7 9 8 q q 0 e q q e 0 0 q q e e 0 0 0 e 0 6 0 0 9 q V / 1.1.;.1.1.[ 3.[ 3.[ 1.' ] ` ] ] 1.( V t q q e 9 e 0 9 0 0 e e e e e 8 > 1 2 g..X}.}.}.}.}.$X@XwXcXAXAXNXNXCXNXVXzXxX3X2X+X>X>X>X>X,X>X>X,X>X>X>X>X>X>X1Xn.$.h O ; 6 5 6 7 5 > 5 5 5 ; 7 5 ; ; 5 5 5 5 ; 8 5 ; ; 6 ; ; 6 ; 6 5 ; 6 5 @ i F C.}.$X}.}.$X}.>X$X}.4X}.}.}.4X}.<X<XXX@.k 7 8 e e a e e e 6 e e 6 u 6 e 6 u 6 e 6 8 e u 8 8 8 8 j / ' 3.[ 3.3.3.3.[ ] [ ] [ ] [ [ ] q.] J n 8 8 8 8 8 6 e 6 6 e e 6 a 6 0 0 6 0 0 0 e e a 0 u e e z z.{.>X}.}.>X>X4X}.].g.+.1.3.,.:.:.:.:.:.:.:.>.1.,.:.:.:.:.1.:.:.:.` 1.:.` 1.:.1.:.:.:.:.1.:.:.:.1.:.:.1.:.:.,.1.1.1.' 1.[ ' [ ' ' [ 3.2./ M e 8 8 q 7 0 0 0 0 0 0 0 0 0 6 0 0 0 0 0 9 0 7 9 0 0 0 j ! ) q.0.] ] [ [ 0.[ [ [ [ 1.] ] ] [ 2._ H d 5 7 6 6 7 7 0 7 6 7 7 5 5 5 9 ; d K N.XX>X>X=X>X>X>X-XuXzXGXAXVXVXSXVXVXnXpX-X=X=X>X>X>X>XQ.>X2X1X>X2X<X>X1X<X4Xn.W j * 6 7 7 0 7 0 6 6 6 6 6 0 7 0 6 6 0 7 0 0 7 0 9 6 6 0 6 0 0 7 6 0 7 5 7 j L S.2X>X-X2X=X>X>X>X}.:X>X>X:X:X{.{.XX|.X.f b b y $ b y b $ b y u 0 B $ y y $ y $ b $ u $ y $ $ ",
"' ` ` ,.,.1.` ,.1.' 1.' ' 1.] 1.1.T j 7 6 u 6 6 6 u 6 6 0 0 6 6 6 u e u 8 6 6 e u e 0 0 0 7 j l.].4X<X>X<X>X>X{.D.f.:.1.,.,.,.1.,.,.,.3.1.1.1.1.3.1.1.3.1.1.3.1.1.1.,.1.1.[ [ [ [ 3.] 3.[ 3.[ 1.] ' 1.,.' 1.1.1.:.1.' 1.[ [ [ 3.] [ [ _ ! t q 7 8 8 q e e q e 0 e q q e e q 0 9 9 y y $ $ $ y $ q M / 0.0.1.[ 0.3.3.] 1.[ 1.] ` ] _ ] [ ( J a e 9 e 0 9 0 0 9 0 0 0 8 8 6 8 > 2 f g.XXXX}.}.}.<X}.@XpXkXAXAXZXNXNXCXVXcXfX5X2X}.>X>X>X>X>X>X=X>X>X>X>X:X>X<X>XS.#.h X - 7 5 5 ; 5 5 ; ; 7 5 5 5 ; 5 ; 5 7 ; 5 ; 7 ; 5 ; 6 ; ; 5 ; ; 6 5 ; @ u F ).$X}.+X}.$X+X}.+X}.>X>X}.>X}.<X<XXX X@.g 7 7 0 a a e q e 6 6 e 6 e u e e 6 e 6 u 8 e e 8 8 e 8 j R 1.] 3.{ 3.[ [ 1.[ [ 0.] ] ] [ [ 1.0.J j 8 8 8 8 6 6 e 6 6 6 6 e 6 e 0 0 0 a e 0 e y a 0 e y e z x.[.>X>X}.>X>X<X}.W.s.W 1.,.1.,.:.:.:.:.:.:.:.:.:.1.:.:.:.:.:.:.:.:.:.:.:.1.:.:.:.:.:.2.:.:.:.:.:.:.:.1.:.1.,.1.,.:.' ' ' ` ' ` ' 1.1.] U m t 8 8 8 q q 0 0 0 0 0 0 0 0 0 0 0 6 0 9 0 0 0 9 0 7 9 a ~ ) 0.[ ] [ ] [ ] ] ] [ [ ] 3.] ] ] 3.` U 8 7 7 8 e 8 8 e 8 7 7 5 5 5 5 5 - d D x.XX<X<X=X:X1X=X;XsXzXVXVXVXVXSXVXVXMXiX-X:X=X:X1X=X:X>X>X1X>X2X>X>X1X2X<X<Xv.o.g * 5 7 7 6 6 6 6 6 6 6 6 6 6 6 7 0 6 6 6 6 6 6 6 6 6 0 6 7 6 6 6 6 8 5 - t I S.2X>X=X>X=X-X>X=X:X:X{.:X:X:X}.{. X X+.d u 0 y 0 0 $ u y B $ $ $ $ B B $ $ $ $ B $ | $ $ ^ $ ",
"1.:.` 1.1.1.:.` 1.' :.1.:.1.] 1.] J k 7 $ 6 6 6 6 6 u 0 6 u 6 a 8 e 6 6 6 e 6 e 0 0 0 0 0 5 g <.{.4X4X>X}.<X>X{.].f.#.' 1.,.,.,.,.1.] ,.,.3.1.3.2.1.>.3.3.1.1.1.3.1.1.1.,.3.3.1.1.[ [ 3.3.' [ 3.1.' 1.1.1.1.' 1.' ` ] ' [ [ _ _ _ [ [ / J y 7 q 8 e q q e e q q 0 0 e q 0 0 e 0 0 y y b y b b $ e V ( 1.1.[ [ [ 1.[ 1.] 3.] ] ] ] ) ] 0.( U e e e e 0 0 9 e e a e j j j j j d f h l. X X[.}.}.}.2X@XiXkXAXAXZXzXZXAXZXnXsXiX2X+X>X>X>X>X:X>X1X:X>X>X>X1X>X>X<X].a.F > d k j j j k j j k k j k k j j k j j j k j j k j k k j k k j k p k d a k o.].2X2X2X2X2X+X+X+X}.[.[.].[.].].|. X|.:.z 7 5 e 0 e e 0 e 6 6 u 6 6 6 6 6 6 e u 6 e 8 8 e u 8 8 d ( [ 3.[ [ [ 3.[ 1.[ [ [ ] ] [ [ [ q.[ J t t 8 e e 6 e 6 u e e e u 6 0 0 y 0 0 a e 0 u 0 e 0 u e z l.{.}.}.>X>X>X<X}.].g.W 1.1.1.1.:.:.:.:.:.:.:.:.:.:.:.2.:.:.:.:.:.:.:.1.:.:.:.:.:.1.,.:.:.:.:.:.:.:.:.:.:.1.` ,.' 1.' 1.' ' ` ` ` ` 1.] U n 8 8 8 8 q e e 0 0 0 0 e 6 0 0 7 0 0 u $ 0 0 0 6 0 7 7 a U ) 0.1.[ ] [ ] [ ] ] 0.] ] ] _ ` ] ] / H 8 8 8 8 8 8 e e i e j j j j j j d f F N.<X>X>X:X>X=X>X-XsXkXGXGXAXVXGXFXAXMXaX-X=X=X:X1X:X=X>X>X>X>X>X>X>X>X>X<X4XS.@.z 8 a M M n n n n n n n b n n n n k b n n n n n n n n b n n n n n n j j w H W ].2X3X-X6X1X2X2X>X>X>X,X,X:X}.}.{. X XX.d u 0 u 0 0 y $ y $ $ $ B $ $ $ $ B $ $ $ $ $ $ $ $ $ ",
"1.` ` ' ,.' ` ,.,.,.1.' ,.1.' 1.1.J n 9 6 6 6 6 6 u 0 6 e 0 u 6 6 u 6 e 6 6 u 6 0 0 0 0 0 5 k <.{.4X<X<X>X>X>X.XD.j.W 1.,.,.3.3.,.,.3.3.3.3.1.1.1.1.3.1.1.3.1.1.,.1.3.1.1.[ 3.3.[ ] 3.[ 3.[ [ 3.] 3.' 1.` ' 1.1.] ] ( ( _ T T / ~ / ( J m e q q q e e e e 0 0 0 0 0 0 0 0 0 0 9 0 0 b $ b $ b $ e V / 0.1.] [ 0.3.[ [ ] ( / ( / ^ ^ / ( ~ m a q 9 e 0 0 0 q a C U T L L L L L L I k.XX}.<X}.$X>X>X+XiXfXvXvXxXxXxXxXlXsXdX3X2X}.>X>X>X>X1X>X>X>X:X:X>X>X>X>X<X:Xk.O.S K R L I L I I I Y I L I I I L I I L I L R I L I I I I I L I R Y I L L X.&.+XiXiXiXiXiX3XdX@XoXP.g.l.l.l.l.l.N.4.L j 8 7 e e e e e 7 6 u 6 e e 6 6 u 6 6 6 6 e u 8 8 8 e e j ( ' 1.[ 3.{ 3.1.[ [ 1.[ [ ] ] 1.0.3.q.J j 8 8 8 8 6 6 6 e 6 6 6 6 0 0 e u 0 0 0 0 e e 0 0 e e 6 z l.{.>X}.>X}.>X4X}.].g.W ,.,.1.,.1.:.:.:.:.,.:.:.:.:.:.:.:.:.:.:.:.:.:.:.2.:.:.1.:.>.:.,.:.:.:.:.:.2.:.:.` :.,.:.1.1.' ` R T T T / ( / T V k e 8 8 8 e 0 0 0 0 e 0 0 e 0 0 0 6 6 9 0 6 0 6 0 0 0 8 y ~ ) 1.[ ] ] ] ] ] [ ` _ ) / / / T ~ ( J z e 6 8 8 8 8 8 i j U U Y T R Y T L I E C.<X>X>X=X>X=X1X-XaXsXmXlXlXmXlXmXlXsXaX-X:X=X=X=X>X=X>X>X>X1X>X>X1X>X<X4X6X.Xg.o.F L X.Y R R R X.R R R R R X.Y R R R R X.R R R R R X.R R X.R R X.R R T P I y.}.3XaXaXiXiXiX5X5X~.R.j.x.V.C.x.V.B.B.L j i u 0 y $ b u b $ B y $ B B $ B $ $ B $ ^ $ $ ^ $ $ ",
",.` :.,.1.,.:.` ` ,.1.,.' 1.1.1.] J k 5 $ 6 u 6 6 $ u 0 6 u 6 6 6 e u 6 6 e e 6 6 0 0 q 0 6 g l.].4X<X}.,X>X>X,X{.d.,.' ,.3.,.' 1.3.1.,.3.1.1.,.,.1.1.1.1.2.1.,.1.1.3.1.3.[ 3.[ 3.[ [ 3.] 3.[ 1.,.1.1.1.,.,.1.1.1.' J j n t t n y j b t t q q e 0 e q q e 0 0 0 0 0 0 0 q 0 0 0 0 0 $ b $ b $ b 0 V ^ [ 0.] ] q.q.1.[ T j j a a j y j n y y e 0 0 0 0 0 7 5 m 2.Z.|.Z.S.).C.S.).n.[.$X}.>X}.}.}.2X$X2X@X3X3XiX@X3X@X3X3X2X$X4X>X>X>X>X1X>X>X>X>X1X>X>X>X>X>X1X>X{.].D.S.S.S.S.].C.S.].S.n.].S.S.S.S.].S.S.S.].S.].).S.].).].).].).).].].].).].oXfXvXxXnXxXnXvXnXpXY. ., j m z z z z M j 8 7 6 e e e 6 e e 6 e e 6 u 6 e e 6 6 e 6 8 e e e 8 8 i j / ] [ 3.3.3.[ [ 3.[ 1.[ [ 1.[ [ [ q.[ J n t 8 8 6 e 6 6 6 e u e 6 0 0 e e 0 0 u 0 0 e y u 0 e 6 z j.[.}.>X}.>X>X4X}.{.l.W 1.1.1.:.:.:.:.:.:.1.:.:.1.:.:.1.:.:.:.,.:.1.:.:.:.:.:.:.:.1.,.:.1.:.:.:.:.:.:.:.1.:.` :.1.` ( H j j j j j j j k e i 8 8 q e 0 7 0 0 0 0 0 0 0 0 6 0 0 0 0 6 0 0 6 9 7 0 8 a V ) 0.1.] ] ] ] [ ] T M n b t t a j j t i 8 6 6 6 8 8 8 7 N w.V.F.S.S.C.C.C.S.n..X,X>X>X>X>X>X:X>X-X;X3X3X;X;X3X;X3X-X-X:X=X:X1X=X>X>X=X>X>X>X>X<X>X>X>X<X<XXX{.].S.Z.S._.].Z._._.Z._.].Z._.F._._.Z._.|._.Z._.S._.S._._.Z._._.]._.Z.].).D.n.[.gXmXmXlXbXvXvXvXeXI. .d z z z z z v z a u 0 0 0 0 b $ b $ $ B $ $ $ $ $ $ B $ B $ $ $ $ $ ^ $ ",
",.:.` ,.3.1.' ` 1.,.1.:.' 1.] 1.] U n 6 5 6 6 6 6 0 6 u u 6 u e 6 u e u 6 e u 6 e 0 0 6 0 7 k a.|.<X4X<X<X<X}.XX].f.,.,.,.3.3.,.,.1.3.1.1.1.1.3.1.,.1.3.,.2.3.1.1.1.1.1.3.[ 3.] 3.[ [ 3.[ 3.[ 1.3.3.1.3.1.1.1.1.1.` J 7 7 q q 8 q 8 e q q 7 0 q e 0 q 6 0 0 0 q q 0 0 0 0 0 0 0 0 0 0 0 $ b $ $ 0 A ( 1.0.[ [ [ [ 1.0.J a 7 6 5 9 7 0 0 0 0 0 0 0 e 0 0 6 - v e.|.4X$X XXX$XXXXX<X}.<X}.4X}.}.>X}.<X2X}.4X}.}.2X}.2X>X$X>X>X>X<X>X>X>X:X,X>X>X>X>X>X>X>X:X>X>X>X>X>X<X<X>X>X<X>XXX<X>X>X>X<X>X<X>X>X<X}.<X>X<X}.4X}.<X}.}.4X}.}.}.>X$X}.}.>X$X3XlXnXVXVXVXGXGXGXkXU.Z o 9 n y q e 8 8 6 6 7 0 7 e e e 6 e 6 6 6 e 6 6 6 e 6 e 6 6 a 6 e e 8 e e j / ] 3.3.[ 3.3.1.1.] [ ] [ ] ] [ [ 0.[ J n 8 q e 8 6 6 e 6 6 6 6 6 6 e e e 0 0 y e 0 a e 0 e y u z l.[.>X>X}.+X>X4X>X].d.+.,.3.:.:.:.:.1.:.:.:.:.:.:.1.:.1.:.:.1.:.:.:.:.:.:.:.:.:.:.,.:.:.:.:.:.1.:.:.:.:.:.:.,.,.1.` ( z 6 i 7 e 6 e 8 8 8 8 a 6 6 6 6 0 6 0 0 0 0 e 0 0 6 0 0 0 0 0 $ 0 0 0 0 0 7 a ! ) 0.] ] ] ] [ [ 0.J e 8 e 6 6 7 6 e 8 8 6 6 8 6 8 6 > ; K Z..X<XXX<XXX.X}.}.}.}.}.<X>X>X>X=X=X>X=X=X=X=X>X1X=X=X>X=X>X:X:X=X:X=X>X1X:X=X>X>X>X>X,X>X>X<X}.>X<X}.}.<X}.$X<X}.4X4X}.}.<X>X<X}.4X}.$X<X}.}.XX}.4XXX<X}.$X>X}.$X>X<X$X}.}.>X+X5XhXnXnXAXAXAXAXAXxXr.} O 6 e i 8 8 8 i 6 u $ $ $ $ $ y $ y $ $ B B b $ b $ $ $ | $ $ $ $ $ ^ $ ",
"1.` ` 1.,.1.' :.' ,.' 1.1.3.1.1.[ J k 7 $ 6 6 u u 6 6 6 e 6 e 6 6 e 6 e 6 6 e 0 6 0 0 e 0 7 k <.{.4X<X}.}.,X>X.X|.f.' ,.3.,.3.[ 3.3.3.[ ,.1.3.1.1.3.1.1.1.1.1.1.3.2.,.1.3.3.3.[ [ ] 3.[ 3.[ ' 3.[ 1.1.1.1.1.1.1.1.) H t 7 q 8 q q 0 q e q e 0 e q 0 e 0 0 0 e u 0 0 0 e 0 0 0 0 0 0 u 0 y $ b $ e N ^ 1.[ ] [ q.0.[ [ J e 6 6 6 0 0 0 0 e 0 0 0 0 0 0 0 ; - m N.|.4X4X}.}.}.<X}.>X>X}.}.}.}.$X<X2X}.}.>X>X>X<X}.>X>X>X>X>X>X}.>X>X>X>X:X>X>X>X>X>X>X>X>X1X>X>X>X>X>X}.>X>X>X>X>X>X>X>X>X>X>X}.>X>X>X>X>X>X>X>X>X>X>X>X>X>X}.}.4X>X>X>X>X2X>X+X(.lXAXSXVXVXVXAXGXrXU.} o 9 y y q 8 e 8 7 7 0 7 8 e 7 7 e e 6 e 6 6 e u e 6 6 e 6 6 7 6 e 8 e 8 8 j ( [ ] 3.3.3.[ [ [ [ 3.[ [ ] [ 1.0.1.0.J j 8 8 8 8 e 6 6 e e 6 u e 6 0 e u e b 0 e 0 0 e u e u e z l.}.$X}.}.}.}.2X>X].g.W ' 3.,.1.:.:.:.:.:.:.1.:.:.:.:.:.:.:.:.:.:.:.:.1.:.:.:.:.:.:.:.:.1.:.:.:.:.:.:.1.:.,.` :.' ' ` m 7 8 8 e i 8 u 8 e 8 6 6 0 6 6 e 6 0 0 0 0 u 0 0 0 0 6 0 0 $ u 9 0 9 7 0 7 a T ) q.1.] [ [ ] ] ] T e e u 6 6 0 6 6 6 8 5 8 6 8 e 6 6 > v B..X4X<XXX{.>XXX}.}.<X>X>X>X1X:X>X>X>X>X>X1X>X>X=X:X>X=X>X=X:X=X:X=X:X=X=X=X:X>X1X:X>X>X<X>X>X>X<X>X>X<X<X<X}.4X<X}.}.}.4X>X2X}.<X}.<X<X>X$X4X4X}.}.>X}.<X<X$X>X<X$X2X}.2X2X>X+X3XvXMXAXAXAXSXSXGXtXU.} O $ a e u 8 u 6 u 0 B $ B B b $ $ y b y $ $ $ b $ b $ B $ $ $ B $ ^ $ $ ",
"' 1.` ,.,.:.1.` ` ,.,.:.1.1.] 1.1.J n 7 6 6 6 6 6 6 6 6 e u 6 u e u 6 6 6 e 6 e 0 0 0 0 0 5 d d.{.4X<X<X<X>X>X.X].f.:.' [ 3.3.3.[ 1.1.3.,.3.,.1.1.2.1.3.1.1.,.1.1.1.1.1.1.3.,.3.3.' [ 3.3.[ 3.3.[ 3.1.3.1.1.1.1.` ` N 8 t q q 8 q e q q q 0 0 0 q e q 0 0 0 0 0 e 0 0 0 0 0 0 0 0 0 y 0 u b b u e B ( ] ] ] [ q.q.0.0.V e 6 6 6 6 0 0 0 0 0 e 0 0 0 0 0 6 - m e. X4X<X}.}.}.XX}.<XXXXX4X}.}.<X}.}.}.<X<X>X>X<X2X<X>X>X>X}.<X<X>X>X>X>X1X>X>X>X>X>X:X:X>X>X>X>X>X>X>X>X>X}.>X>X>X>X>X>X2X>X>X>X>X>X>X>X<X>X>X}.>X>X}.}.2X>X>X}.2X>X$X}.>X>X}.2X3XlXVXVXVXVXVXAXHXkXU. .o y y y e e 6 7 0 0 6 6 e 8 e e 6 e 6 6 6 6 6 6 6 e 6 6 e 8 e e i 8 e 8 8 j _ ' [ 3.3.3.3.[ 3.] [ [ [ 1.[ [ 1.0.[ J j 8 q 8 6 6 6 0 u 6 6 6 0 6 a 0 e y e 0 e 0 u 0 0 e e e z l.}.>X>X}.}.>X2X}.R.d.+.,.3.1.:.1.:.` ,.` :.:.:.1.:.:.:.1.1.:.:.:.:.:.:.1.:.1.:.:.1.1.1.:.:.:.:.1.:.:.` :.' 1.' 1.` R M e 6 8 8 8 e e 8 8 u 6 6 a 6 e 6 e 6 0 0 0 0 0 6 0 6 6 0 0 0 6 9 0 6 8 7 q e U ) 1.1.] ] ] [ [ [ ! e 8 8 7 6 6 8 u 8 6 u 6 6 8 6 6 > - F V..X<XXXXX}.{.>X}.,X>X>X>X>X:X:X=X1X>X=X:X:X>X*X1X=X=X1X:X=X:X:X*X=X:X:X:X:X1X>X>X>X>X>X>X>X>X>X>XXX>X>X>X>X>X}.4X}.}.4X$X>X}.>X$X>X}.}.4X>X}.<X>X>X}.<X>X>X$X>X4X}.}.<X>X>X>X/.3XvXnXAXSXSXBXZXDXtXr.} O $ e e e e e 6 u u $ $ y $ $ $ y b y $ $ $ b $ $ u $ $ $ $ $ $ B $ $ $ ",
":.` ` 1.,.1.` :.1.1.' 1.1.' 1.1.] U n 7 $ u 6 6 6 6 u e 6 6 6 e 6 e u e u 6 6 6 e 0 0 0 0 9 k 8.|.4X<X<XXX<X>X{.].j.` ] ,.3.3.3.3.3.[ ,.1.3.,.1.3.:.1.1.3.2.1.1.1.,.1.3.[ 3.] [ ] 3.] 3.[ 3.] [ ,.3.1.1.3.2.1.1.1.) V 8 7 q 8 q e q 0 e q e q q 0 e e 0 q 0 0 0 0 0 0 0 0 0 0 0 0 0 b $ $ $ y $ q V / 0.] ] [ [ [ ] [ V e 0 $ 6 6 0 9 7 0 0 0 0 0 0 0 e 6 - C N.|.4X$X}.}.}.<X}.}.}.}.}.}.>X}.>X<X>X>X>X<X}.>X>X>X>X}.4X>X>X>X>X>X>X>X:X:X>X>X>X>X>X1X>X>X>X>X>X>X>X>X>X>X>X>X>X>X>X>X}.>X>X>X>X>X>X}.2X>X>X>X2X>X>X>X>X>X2X>X}.>X}.2X>X$X>X+X;XlXVXVXVXNXVXAXGXkXU.c o q y b e e 0 0 0 7 0 7 8 e 5 8 8 8 6 u e 6 e 6 e u 6 6 8 8 e e e 8 8 8 8 t R ] [ [ 3.[ 3.3.[ ] 3.0.[ ] [ [ [ 0.1.J j r 8 e 8 e 6 6 6 e 0 u 6 6 6 e e 0 u e e 0 y a e e u 8 z l.[.+X}.>X}.>X4X>X].g.W ' >.:.:.:.:.:.1.,.,.:.:.' ' ,.` :.1.' 1.,.` ,.1.:.,.:.:.1.1.:.:.:.:.,.:.' :.,.,.,.` ' ' ,.1._ N 5 a u e e 8 8 e e 8 a 6 6 6 6 0 e u 0 0 0 0 0 0 6 0 0 6 6 0 0 0 6 0 0 8 8 e U ) 0.1.] ] ] ] ] [ ~ e 8 a 8 u 6 6 6 e 8 8 8 8 6 8 e > > N B. X4X<X<X}.}.XX>X.X>X>X>X>X=X>X>X:X:X:X=X>X:X:X=X:X:X=X:X:X:X:X=X1X:X=X:X=X=X>X:X>X,X>X>X>X>X>X>X>X>X>X<X}.>X>X}.>X<X}.}.<X<X>X>X>X>X>X}.>X>X>X>X>X>X>X>X>X<X}.}.2X}.>X2X>X=X=X3XxXAXZXBXBXBXDXSXtXU.} @ 0 a e e e 6 6 6 0 $ B $ $ B B $ $ $ b y b $ b 0 0 B $ ^ $ B $ $ $ | $ ",
",.` ` ,.1.1.' :.:.1.1.,.1.1.1.1.] T k 6 5 u u 6 6 u 0 6 u 6 u e u e 6 e 6 6 e e 7 0 0 0 0 6 j l.{.4X<X<XXX<X<XXX].l.,.1.3.3.3.] ' [ 3.,.' 1.,.1.1.,.1.1.1.1.3.3.1.1.1.1.1.] 3.[ [ 3.[ [ 3.] 3.3.1.1.1.1.3.1.1.1.1.] J t e q q e 0 0 q e 0 q e q e q e 0 0 0 0 0 0 0 0 e 0 0 0 0 0 0 0 0 6 0 0 9 e V / 1.[ [ [ ] 3.[ 0.J e 9 $ 9 9 0 9 6 0 0 0 0 0 0 0 6 6 ; m l. X<X<X}.}.}.>X}.XX>X}.}.>X}.}.<X<X>X<X<X>X>X<X<X<X>X<X>X>X<X>X>X>X>X>X>X>X>X>X>X1X>X>X>X>X>X>X>X>X>X>X>X>X>X>X>X1X>X>X>X>X<X>X>X>X>X>X>X>X>X>X>X>X>X>X=X>X>X}.+X>X>X2X$X>X>X/.;XlXVXSXAXVXVXSXGXkXU.} O 9 y y e q 8 q 7 7 0 0 e 6 0 7 e 8 6 6 6 6 u e e e e 8 8 e e 8 8 8 8 8 7 j / ' 1.[ 3.3.3.[ 3.[ ] 3.[ ] ] 1.1.q.0.J t 8 8 8 8 8 6 6 6 u e e 6 6 0 e a 0 0 b 0 0 0 u 0 e e u z g.}.>X>X}.2X>X4X}.].g.+.,.3.:.:.:.:.' :.,.` ' 1.:.` ' 1.' 1.` 1.:.:.:.,.` ` ` 1.' 3.:.1.1.1.1.:.1.' 1.' 1.` ' 3.3.' ( M 7 6 6 i 8 6 6 8 e 0 6 6 6 6 6 0 0 0 0 0 0 0 0 0 6 6 6 0 0 0 6 6 6 0 7 7 6 a J ) 1.[ ] ' ] [ ] 1.U r a e 6 0 6 6 u e 6 e 8 8 8 6 8 ; = N V. X<X>X}.}.{.>X}.,X>X>X<X>X,X:X>X:X:X:X:X>X1X=X>X:X:X:X=X:X1X=X:X=X*X:X:X*X:X,X,X>X1X,X>X,X>X,X<X>X<X<X,X>X>X>X>X>X<X>X>X>X>X}.}.>X>X}.>X>X>X>X>X>X>X>X>X>X>X>X$X>X>X>X>X>X>X=X;XlXAXAXNXBXDXDXSXtXU.} O $ u e e u 6 6 6 u $ B $ B $ $ $ B 0 $ u 0 0 u 0 0 0 u 6 u 0 u 0 0 $ B ",
"1.` ' ,.,.' 1.` ,.' 1.' ' 1.1.' ] J a 7 5 $ 6 6 6 0 6 u e 6 e 6 6 6 e u e 6 u 6 0 0 0 9 0 7 f <.].4X4XXX<X}.}.}.{.l.W ' ' ,.,.' ' 1.,.] ,.1.,.1.1.1.1.3.1.,.1.1.1.:.' 1.,.3.3.3.3.3.3.2.3.[ 3.1.1.1.1.1.3.1.1.1.;._ J 8 8 q q e q q 0 q e q 0 0 0 0 0 0 0 0 0 e 0 e 0 0 u y 0 0 0 0 0 0 6 0 u 6 8 V ( q.0.[ [ q.3.[ 3.J e 0 6 6 $ 6 9 6 6 6 7 5 7 7 7 5 ; O z l. X<X<X}.}.}.XX>X}.<X<X<X<X>X<X<X<X<X<X<X<X<X<X<X<X}.<X<X<X<X<X<X<X<X<X<X1X>X>X1X,X>X<X>X>X<X>X<X>X>X,X>X<X<X<X>X,X>X>X>X>X>X>X}.>X>X>X>X>X>X>X>X>X>X>X>X2X>X>X-XQ.-XQ.=X=X/./.;XlXAXVXAXAXAXGXHXkXU.} . 9 y q 7 8 7 5 7 5 7 5 7 5 7 7 7 6 6 8 8 e e 8 8 e 8 8 6 7 e 8 7 8 8 8 7 t / ] ] ] 3.' [ 1.[ ] 3.3.] ] [ [ 1.3.1.J j r 8 8 8 6 6 6 e 6 6 u 6 e 6 0 0 0 a 0 0 a 0 y 0 a 0 e z l.[.}.>X>XQ.>X2X}.{.s.W ' ,.,.1.:.:.:.` ` ,.' ' ' ' ' ] ' 1.:.' 1.' ,.` ' 1.:.1.1.3.,.3.1.1.1.,.1.1.1.,.3.,.[ [ 3.] ` N 7 7 6 6 8 8 8 e 6 0 6 0 0 0 0 0 6 0 0 0 6 0 0 6 0 6 6 $ 6 6 6 6 7 6 6 5 5 a T ) 0.1.] ] 3.] ] 1.J t e e 6 6 e e e 8 6 7 ; 5 6 ; 5 ; - F B..X<X>X}.}.}.{.}.>X>X>X>X<X>X1X1X>X1X,X:X1X:X1X1X:X:X,X1X:X:X:X:X1X>X,X1X>X>X1X>X,X,X<X>X<X<X<X<X<X<X>X<X>X>X<X<XXX<X>X>X>X>X>X>X}.>X>X>X>X>X>X>X>X:X>X>X>X>X=X}.}.-X=X=X=X=X-X3XvXMXAXAXCXBXZXAXtXU.}   $ e e 7 6 6 6 6 6 $ $ $ $ $ b $ $ 0 0 0 0 0 0 u 0 0 6 6 6 7 6 6 6 $ $ ",
":.` ' 1.,.1.` :.1.' 1.` 1.1.1.] ] J j 6 $ u 6 6 6 0 u 0 e u 6 u u e e u 6 6 6 6 0 0 0 0 0 5 f l..X4X<X<X}.<X4X}.].j.#.` Q ,.' ' ' ' ' ' ' 1.,.1.1.1.1.1.1.1.1.3.' 1.' ' ] 3.,.3.[ 3.3.:.1.3.3.1.[ 1.1.1.1.1.1.1.1.) J e 8 q q 9 e q q e 0 e q 0 0 0 0 0 0 e 0 0 0 e e 0 u 0 7 9 0 7 7 0 6 0 6 7 q V ( q.q.3.q.q.2.3.2.U e e 7 6 0 6 6 6 0 7 @ - * * * - O . f d.|.<X<X}.>X.X>X>X>X2X<X<X<X4X<X<X4X<X4X<X<X4X<X<X4X<X<X<X<X<X<X<X<X<X<X<X<X<X1X<X<X1X<X<X4X1X4X<X<X<X<X4X<X<X<X<X,X}.,X1X,X<X>X>X>XXX>X>X>X>X>X>X>X>X+X>X:X-X2X/.Q.Q.Q.=XQ./.Q.(.vXGXAXAXAXAXGXHXcX'.}   # 5 - * * - - O * & & * - * * * - ; 8 8 8 e 8 u e 8 8 8 5 7 7 - ; 5 : 7 t T ` ] ' 1.[ 3.3.3.] ] 1.1.] 1.[ 1.0.1.J t r 8 8 5 e 6 e u e 6 6 e 6 e 0 u e 0 0 y e e 0 e 0 0 8 z l.{.>X}.>X>X>X4X}.n.f.' ' ` :.+.+.:.+.W W ` ' ' ' ' ' ' ' ' ' 1.` ,.:.1.' ' 1.,.3.2.2.3.1.2.3.1.2.2.2.3.2.3.0.2.3.[ ] m 7 8 6 e 6 e e 6 e 7 0 6 0 6 0 0 0 6 0 0 0 0 0 a 0 0 6 5 5 6 5 5 5 5 5 : - 8 V ) q.1.1.1.1.] 3.1.J e 8 e 6 6 6 i 6 ; 5 @ + + * + - * * h C..X<X<X:X}.{.,X>X<X<X<X<X<X1X>X,X1X>X<X<X<X<X,X1X>X<X<X>X<X<X<X1X,X>X<X1X1X1X<X<X<X<X1X<X4X<X<X<X<X<X<X<X<X>X<X<X>X<X>X<X>X>X}.>X>X>X>X>X>X>X:X>X,X:X>X:X>X=X=XQ.Q.=X=X=X=XQ./.(.vXMXGXMXVXAXAXGXxXr.x   o 5 5 $ 6 ; $ 5 6 $ $ $ $ $ $ $ b $ 0 6 0 0 u 0 0 6 6 6 6 $ 5 5 - $ $ ",
"1.:.` 1.,.:.1.` :.,.1.,.' 1.1.1.] U k 5 6 6 6 u 6 6 6 6 6 6 6 e 6 e 6 6 u e e 6 0 0 0 0 0 5 j d.].<X4X}.<X}.$X}.{.c.a.,.,.3.4.p.3.s.3.2.,.1.,.3.,.,.,.,.1.3.1.1.1.] 1.1.3.3.1.` ( ( _ ( ` ( ` ( ` ( ) ( ) ] ) ( ^ ( V e q e 9 0 9 q q 0 q e 0 0 q 0 0 0 0 0 0 0 u e 0 a 0 6 6 0 e b a b a a a a j V / 1.] ) _ _ ` _ ` H e e 6 0 0 0 6 $ a j k j j l j j g d F l.|.<X}.}.>X}.>X}.}.:X{.}.XX{.XX}..X}.{.{.XX.X.X{.XX.XXX.X.X}..XXX.X}.XXXX,X{.{.,X,X{.{.,X.X:X{.{.>XXX{.,X{.}.{.{.W.b.:X>X>X,X>X>X>X>X>X>XXX>X>XXX>X>X>X>X2X>X3X;X;X-X-X-X-X-X-XyXxXnXcXZXnXAXnXAXcX0X..; y M j j j j j j j j j j j j j j j i 8 7 7 8 e 8 8 8 e i a d j j j t t t M / ' ] 1.[ [ 3.3.] ,.1.1.] ' 1.1.1.3.1.J j 8 7 8 8 6 e 6 6 e 6 6 6 e u 0 e e e 0 u 0 e e u 0 y e z l.[.}.>X>X}.>X>X}.].x.p.p.p.p.,.<.4.3.,._ :.] ' ' ' ' ] ' ' ' ' ` ,.:.1.1.1.' ` ( ` ` ] ] ] ' ] ] ] ] ] ' ] ] ] _ ( / V 7 8 6 8 8 6 e 8 8 6 0 6 0 0 0 $ 0 0 6 6 0 6 0 e 0 0 6 6 6 u j a a e 8 8 r j J / ] ` / ` ( _ ( ` H j i e 6 6 6 6 e e i j k k k k j d g I B..X<X<X:X{.>X>X<X<X,X{.:X,XD.{.{.{.{.{.,X{.:X{.:X{.{.{.:X:X:X&X{.:X{.{.{.{.{.{.&X{.{.{.{.{.{.{.{.{.:X{.{.{.].{.{.W.{.>X1X>X>X>X}.>X:X>X:X>X:X:X:X:X>X:X:X>X>X>X-X-X-X;X-X-X-X-X3XlXzXzXzXzXnXnXnXtXU.| $ b m m n m m M n M ;.B B B Z B B B a 6 6 0 0 0 0 0 6 u u a a a u a ^ $ ",
":.` ` ,.,.1.` :.,.' 1.:.,.' 1.1.1.U n 7 6 u 6 6 6 6 6 u e 6 6 u 6 6 e 6 a 6 e 6 0 e 0 0 0 5 j 8.{.4X4XXX<X<X<X}.}.S.j.V.x.V.A.V.C.V.M.d.3.3.3.,.3.,.1.,.3.3.3.3.1.1.' 1.3.1.) U M U K U U U U U U U A U U A U U U U m e 0 9 0 y e e e 9 e 9 0 0 0 0 0 u e 0 0 e 0 0 0 0 0 0 0 a B V V V V V J V J V J J V J J J H H H j u 0 0 9 6 0 7 5 n U -.>.2.>.>.>.1.@.<.c.{.<X>X>X}.>X>X>X>XR.v.k.c.c.c.c.c.c.n.c.c.c.c.c.c.c.c.C.S.c.C.v.C.c.n.c.v.c.c.c.v.n.c.v.c.c.v.c.v.v.c.c.v.v.n.c.j.j.].{.>X>X>X>X>X>X>X,X,X>X>X<X>X>X>X>X/.3X3XaXaXaXaXaXaXsXaXsXpXpXxXpXjXpXjXxXwXoXL.-.;.1.1.1.,.+.1.:.:.:.' 1.,.,.,.>.` K e 8 8 e e e 8 5 i z N K H H H J J H T ` ` 1.[ 3.3.3.1.1.1.1.[ 1.' 1.1.,.3.1.J t 8 7 8 e 6 6 6 6 6 u 6 6 6 0 0 0 0 y 0 b 0 a 0 0 0 0 6 z g.{.}.>X}.>X>X}.}.{.D.v.A.M.c.x.V.V.V.d.,.,.' ' ' ' ' ] ' ' ' ' ' 1.,.,.3.1.) T T H T U T U U U U T T U U T U T J T T j 7 e 7 6 e e 0 6 0 0 6 0 0 0 0 0 0 0 0 0 0 0 u 0 u 0 6 u a M A A V J U H V J U U T T J J J J J U n e 0 6 6 9 0 6 6 k U -.2.1.2.2.2.2.>.a.C.{.<X<X>X,X.X>X>X>XD.j.k.j.v.v.j.v.v.c.j.v.v.v.v.j.v.v.v.j.v.j.j.v.v.j.j.v.v.v.v.j.j.v.v.j.j.c.v.j.c.j.v.c.j.c.j.n.b.{.>X>X>X>X>X>X>X:X>X:X>X:X>X:X>X=X:X=X6X3X6XaXaXaXaXaXaXaXaXaXsXuXuXsXpXhXhXqXI.9.>.1.2.2.2.2.1.2.2.2.2.2.2.2.2.2.;.;.C 6 6 6 0 6 6 6 6 b m C A A A A ^ ^ ",
",.:.` 1.1.' :.1.:.1.1.' 1.1.' 1.] J n 7 $ 6 6 6 u 6 6 6 u e 6 e u 0 u e 6 6 6 0 6 0 0 0 9 6 d l..X<X<X}.<X}.>X}.}.{.n.S.D.D.].|.|..XA.d.,.1.1.,.3.1.3.3.1.1.] ,.1.' 3.1.1.] T M d j a j a j a j k a k b b k b n n b e 0 9 y 9 0 0 9 e e e e 0 0 0 0 0 e 0 0 0 0 0 0 0 0 $ $ u b ! ( ( / ( ( / ) / U M e e n j t a i j e 7 9 $ 0 6 6 5 5 M ( N.S.F.S.S.S.S.k.].].XX<X<X>X>X{.>XXX{.c.a.g.a.<.l.<.a.<.<.d.8.<.d.d.d.d.4.<.d.4.4.d.<.<.d.<.d.a.<.<.a.<.a.a.d.<.a.a.a.a.a.a.a.a.<.<.a.s.S.{.XX>XXX>X>X>X>X>X>X>X>X,X>X>X}.2X/.;XsXlXMXlXzXmXzXlXlXsXiXiX@X@X3X3X@X3X@X+X].C.Z.B.Z.A.C.S.S.A.C.S.S.S.C.C.Z.N.N.( 8 > 8 7 e 6 6 ; j V Y ` ( ( ( ( / ( _ ` 1.1.,.3.[ 3.' 1.' 1.1.' 1.] 1.3.3.1.J t r r 8 e 6 6 e 6 e e e 0 e 6 0 0 a 0 0 0 0 0 b 0 e 0 e z l.}.>X}.>X>X=X>X:X>X{.D.{.D.].].].|.].C.d.,.' ' ' ' 1.1.' ' ` 1.1.1.,.[ 1.1.( Y M j j j a k k j k n j j j j j j j j k i 6 7 6 7 e 5 6 7 7 0 7 0 6 0 6 0 0 0 0 0 0 9 0 0 6 6 ; e k T ^ ( ( ) ( ( ( ^ U M l j j j j j a k e 8 6 6 6 6 6 6 6 n ) B._.F.Z.F.S.F.S.].{.<X<X1X<X,X,X>X,X:Xj.a.a.s.a.a.a.a.a.a.a.a.a.a.a.a.a.a.p.y.p.p.t.a.a.a.p.y.t.p.a.a.a.a.a.t.a.a.a.$.p.a.a.a.a.a.a.s.j.].{.1X>X>X>X>X>X}.=X:X=X>X:X=X>X:X:X=X6XaXbXmXbXmXbXmXzXmXbXyX;X;X;X;X;X2X3X@X[._._.].Z.Z.Z.|.F._._.F.Z.S._.Z._._.Z.e.( ; 5 u 6 u 6 u 6 n A -.) :.-.-.;.;.",
"1.:.` ,.,.,.' ` ,.,.' :.' 1.' 1.1.J n 7 6 6 6 u 6 6 6 e e u e u 6 6 6 6 6 6 e 6 0 0 0 0 0 7 j 8.{.4X<X<X}.<X}.}.}.{.>X{.{.>X>X<X1X,XS.f.,.,.3.3.1.,.1.,.3.[ 1.3.,.3.3.2.q.' Y i - - @ ; 5 ; - ; $ 5 5 $ 9 5 6 $ 6 $ 0 9 $ 0 $ 9 9 0 e 9 e 0 0 0 0 0 0 0 0 e 0 0 0 0 u 0 6 $ e m / q.q.q.[ [ 3.3.] V j o @ 6 5 5 # 5 9 $ $ $ $ $ $ 6 - 5 M :. X<X4X4X4X4X<X<X<XXX}.<X<X<X>X>X>X.X.Xj.#.+.+.>.+.+.-.+.,.:.-.:.-.:.:.:.-.:.>.-.:.:.-.:.-.:.:.+.:.+.X.:.:.+.+.+.+.:.:.+.+.W :.:.+.+.o.#.c.{.,X>X>X>X<X,X>X,X>X>X>X>X>X>X}././.yXlXzXGXVXVXFXGXVXAXvX(.Q.Q.+X=X>X>X=X$X>X>X,X<X<X<X1X<X<X4X1X<X<X<X4X<X4X<X<XXX4.1 > > e 6 7 7 5 d K W 3.2.3.3.3.1.3.1.1.,.' [ 1.[ ,.3.1.1.' 1.1.` 1.1.1.3.3.J g 8 8 8 8 7 6 e u 6 6 6 u 0 0 e 0 e e 0 0 e e u e u y e z l.{.>X}.}.=XQ.>X>X2X1X1X<X<X>X4X4X<X<X].j.,.' ' ' 1.:.:.` ,.,.1.,.' ' 1.' 1.( A n 7 $ @ 5 $ $ 5 5 @ $ 5 5 $ 5 5 5 5 9 5 6 ; 5 5 5 6 7 6 0 7 9 6 6 0 6 $ 0 6 6 6 0 u 9 9 9 $ - i M ( q.2.3.3.1.1.1.;.H j 5 - 5 - - - 5 ; 5 5 6 6 6 6 6 ; ; A 2. X4X4X4X4X4X1X4X1X4X4X4X1X<X<X<X>X,X].s.#.#.W Q +.#.' Q Q :.Q Q +.W W W W W W W W W W W W W W W W W W W W W W W W W W W W W W W +.W #.a.j.{.<X>X>X>X:X:X>X:X=X:X>X=X>X:X>X}./.aXbXmXMXGXFXMXmXMXMXbX;X=X=X=XQ.Q.Q.Q.Q.}.4X6X1X4X4X4X4X4X4X4X4X4X4X4X4X4X4X X_.-.u 6 6 0 6 6 $ 6 B Y 2.3.w.q.2.0.0.",
"' ` ` ,.1.1.' :.' 1.1.1.1.1.1.1.] J k 6 5 6 6 6 6 6 u 6 6 6 e 6 u 6 a 0 u 6 u e 6 0 0 q 0 7 f g.].4X4XXXXX<X}.}.{.>X,X}.>X:X>X<X<X,XA.f.<.' 3.] 1.1.1.1.1.,.3.' ' [ [ 3.2.) T j 5 8 6 6 6 6 6 6 6 u 6 6 6 6 $ 0 6 6 0 9 9 0 y y e 0 0 e 9 0 0 e e 0 0 0 0 0 0 0 0 0 0 0 $ 9 e n ( q.[ [ [ [ [ 0._ J a 5 7 0 7 7 6 6 6 9 0 9 9 $ 9 6 5 5 N 1.|.<X>X1X<X<X>X}.>X>X>X>X>X>X>X>X>X>X.Xg.@.:.:.:.-.2.2.:.:.2.:.:.2.1.1.:.1.1.1.1.1.1.1.:.2.1.1.1.1.:.1.:.:.2.2.:.:.:.1.:.1.1.:.:.` ` ,.,.v..X>X>X>X,X}.>X>X>X>X>X>X>X>X+X>X2X(.yXkXVXSXVXVXCXVXVXVXlX;X}.:X:X:X*X>X:X:X>X>X>X>X>X,X>X,X>X1X,X>X1X<X<X<X<X<XXX X<.> > 8 5 0 7 7 - j K ` >.,.>.:.1.1.,.,.,.,.1.,.1.' 1.,.1.1.1.] ] :.' 3.3.3.,.J t 8 7 8 8 8 6 6 6 e 6 6 0 6 0 0 a u 0 u 0 0 e y e 0 e u z l.W.}.>X=X>X:XQ.Q.>X=X2X>X:X>X>X>X4X<X].g.#.' 1.:.:.` 1.:.` ' ' ' ' ' ' ' 1.) U a 9 6 5 5 $ 6 5 $ 5 6 $ 6 7 6 6 6 6 6 7 e 8 e e e e e 0 q 8 0 0 0 0 0 9 0 0 9 0 0 $ u 0 0 6 5 8 M ` 2.2.3.3.1.1.1.1.K j 5 - 5 8 8 8 6 6 6 6 6 6 6 6 6 5 + B 2. X4X<X4X4X4X4X4X<X4X<X4X<X1X<X<X<X.X.Xl.#.+.,.1.,.' ,.,.,.,.,.' 1.,.' ' ` ,.` ' ' ` ,.` ' ,.` ,.` ` Q W ' ` Q :.` :.:.` +.:.1.:.` ` #.<.D.{.1X>X>X>X>X>X>X>X>X>X>X>X}.>X=X>X/.iXlXzXFXFXzXFXFXVXFXbX-X=X=X=X=X=X}.:X:X=X>X1X>X1X>X>X>X>X>X>X1X>X>X<X<X<X4X X|.>.; ; 6 0 u 6 u ; M Y -.2.2.2.1.0.0.",
":.:.` 1.1.' ' :.1.' ` 1.1.' 1.] ] U n 7 6 0 6 u 6 6 6 u 0 u 0 6 6 6 u e 6 6 6 e 6 e 0 0 0 6 j 4.|.<X4X<X>X}.}.}.}.}.:X>X:X>X>X>X>X,Xv.s.,.:.1.1.1.] ] ,.1.1.1.] 3.1.1.3.1.:.U a 5 u 6 u 6 e 8 u 6 u 0 0 0 a 0 0 u 0 0 y 0 0 y y 0 0 0 0 0 0 0 y 0 e 0 0 e 0 0 0 0 0 0 u $ $ a n ( 1.q.[ [ [ 3.3.` V a 5 5 e e 6 6 0 e 0 0 0 $ 6 6 6 5 5 N :.].>X>X>X>X>X>X}.}.>X>X>X>X>X>X}.>XXXXXj.,.1.:.2.:.1.:.2.2.1.1.1.2.1.1.2.2.;.2.1.2.;.2.1.1.2.1.2.1.0.1.2.1.1.1.2.1.:.1.,.1.3.:.:.:.` ` $.S.XX,X>X>X>X<X>X>X>X>X>X>X>X<X>X+X}.(.uXkXNXVXCXNXCXNXBXNXlX;X>X>X*X:X:X1X1X1X:X:X:X,X>X,X>X>X1X>X>X>X>X>X}.<X<X<XXX.X<.r > 6 8 5 5 5 ; k P +.>.3.,.1.1.,.,.1.,.,.3.,.' [ 3.[ 1.1.,.1.] ' 1.1.1.3.1.J j 8 7 8 8 7 0 e 6 e 6 6 6 e 6 0 0 0 0 y 0 e e e e 0 0 0 z l.[.>X:X>X>X>XQ.=X2X>X2X=X>X>X>X>X4XXX].g.,.` ,.:.` :.` ' ,.,.` ' 1.` ' ' 1.( ~ b 9 e 6 6 6 6 6 5 e 6 6 6 6 6 6 6 e 6 a e u e e e e e e e e 0 0 e e 0 0 0 0 0 e 0 0 0 e e 6 - j z ( 2.1.1.' 1.1.1.) U j 5 - 5 8 u e i 6 e u e 6 6 6 6 5 + C 2..X<X4X<X<X<X4X}.4X>X4X4X1X>X>X<X<X,X.Xs.#.#.,.,.,.,.1.,.3.,.3.,.1.1.,.,.,.,.:.,.,.,.1.,.,.,.1.,.:.,.` ' 1.:.1.:.,.1.:.,.,.,.:.1.1.+.#.s.n.XX,X<X>X>X:X>X:X>X>X=X>X>X>X=X>X:X-XiXlXzXGXVXVXVXVXVXVXlX;X+X=X}.=X=X:X}.=X>X=X2X=X:X>X>X=X>X=X>X>X>X>X>X}.>X<XXX_.-.; 5 e e 6 $ 6 ; k Y ) :.:.:.:.:.:.",
"' :.` 1.,.:.1.` 1.,.,.:.1.1.1.1.1.J j 0 $ 0 0 6 6 0 6 0 6 6 u 0 e u e 6 e u e u 6 6 0 0 0 6 d l.{.4X<X<XXX>X}.}.:X:X>X>X>X>X2X>X>X,XD.f.<.1.' 1.1.1.,.,.1.1.' 1.' ] ,.] 1.` ^ k 7 e i e e u i e i e e u 0 0 0 b y 0 u 0 0 y $ u y 9 y 9 0 0 0 0 0 0 0 0 0 0 0 0 0 0 0 0 0 $ 0 n ( 1.3.3.3.[ [ q.] V n 9 6 e e 6 u e 0 0 0 9 9 6 6 9 5 5 M :.D.>X>X>X}.>X>X}.>X<X<X>X>X}.{.>X>X,X.Xd.$.:.2.1.:.1.:.:.1.1.2.;.2.1.1.2.0.0.2.0.0.2.0.0.0.1.1.1.2.1.;.2.1.2.:.2.1.:.1.3.>.>.1.1.-.W +.,.V..X,X>X>X>X>X>X>X>X>X>X>X>X>X>X>X-X/.yXkXNXSXVXCXNXBXNXVXlX;X>X:X:X:X:X=X:X:X>X1X:X1X>X>X>X>X>X>X>X>X>X<X1X<X>X<XXX X2.f 7 6 6 e e 8 - j K :.3.>.1.,.1.1.,.,.,.1.' ,.1.,.1.,.] 3.] 1.' 1.] 1.1.q.1.J j 8 8 e 0 6 6 6 6 6 6 u e 6 0 0 a a 0 0 e y u 0 u a 0 0 z g.{.>X>X>XQ.=X>X>X=X=X>X2X>X-X>X>X2X}.R.g.,.' ` ` :.:.1.' ' ' ,.` ' ' ` ` 1.) ~ a 9 7 8 8 e 8 u u 6 e 8 6 i i 8 6 6 6 6 6 e 8 q e e e e 6 u e y e u e e e 0 e u 0 0 0 u 6 6 5 8 M ` q.1.:.1.1.:.1.` U l - 7 8 e 8 8 8 6 6 6 6 6 6 6 6 ; + C 2. X<X<XXX<X<X<X<X<X<X>X<X<X1X>X<X<X,X|.g.#.:.:.1.,.:.,.,.,.,.>.,.,.,.,.:.1.,.1.1.1.,.,.1.:.,.,.,.,.,.,.,.,.,.,.:.,.,.1.,.:.:.:.,.,.,.<.s.S.XX,X>X:X:X*X>X>X:X>X>X>X=X>X>X>X>X+XyXlXVXFXVXVXVXVXVXVXlX3X/.>X+X}.}./.>X>X>X>X>X>X>X=X>X}.}.>X=X}.Q.>X>X>X}.}. X|.>.> 6 u u 6 u 6 u k Y :.1.:.:.:.:.:.",
"1.` ` 1.,.1.` ,.,.' ' 1.1.1.1.1.] T j 7 $ 0 $ 6 6 6 0 u e 0 6 6 6 0 0 6 6 6 e 6 e 6 0 e 7 7 j d.{.4X<XXX>X>X}.:X>X>X}.:X>X>X>X>X>X,XD.j.,.' ,.] 1.' 1.` ' 1.1.' ' 3.] 3.1.) ^ j ; e i u e u 6 u u e u e u 0 u 0 y u y y y 0 0 0 0 9 0 0 y 9 0 0 0 y e 0 0 0 0 0 0 0 0 0 6 $ e j ( 3.3.3.q.[ [ 3.] V a 5 5 u e 6 6 0 0 0 0 6 6 7 7 6 5 5 N @.F.>X>X>X{.>X}.>X>X<X>XXX}.:X>X,X>XXX.Xg.+.,.:.:.2.1.1.1.2.2.2.1.1.1.2.1.0.2.0.0.0.0.0.2.1.2.1.1.1.1.1.1.1.2.2.1.2.:.1.,.1.1.:.:.1.+.+.<.C..X<X>X<X>X>X<X>X>X>X>X>X>X2X>X2X}./.yXlXVXSXVXCXBXBXFXzXlX;X=X:X1X:X:X:X:X>X>X>X1X>X:X>X>X>X>X>X>X<X<X4X>X1X<X<XXX|.,., : 5 7 7 8 7 - j K +.<.>.,.1.1.,.,.,.1.3.,.[ ,.1.' 3.' 1.' ] 1.1.] ] 1.3.1.J j r 7 8 7 7 0 u e 6 e 6 0 6 a e 0 a 6 a 0 e 0 a 6 6 a 0 z l.{.}.>X>X=X>X=X>X=X2X=X>X=X>X>X<X4X4Xn.j.#.` ,.:.:.:.1.' ,.' 1.` ` ` ` ' 1.( ~ b 7 8 u i 8 8 e 8 e i e 6 u 8 e e 6 0 6 6 6 7 8 e 8 6 e 6 0 0 e e e 0 e 0 e 0 0 u e 0 a 6 5 ; 8 M ( 3.3.1.1.1.1.1.) U j 5 - 6 6 8 i 6 6 6 6 7 6 6 6 7 5 - V 4..X<X<X4X<XXX4X<X>X>X<X<X<X>X<X<X<X,XXXg.$.+.,.,.,.1.,.1.,.:.:.1.:.,.1.1.,.1.1.:.,.,.,.:.,.1.1.3.>.,.,.>.,.3.1.,.>.,.,.,.,.>.>.,.1.' <.a.D.{.>X>X{.:XQ.>X>X>X1X>X>X2X>X>X>X>X-XiXlXVXGXVXVXAXAXVXVXlXyX+X}.+X}.+X}.=X}.-X>X>X=X=X}.=X>X>X=X>XQ.>X}.>X$X}.}..XZ.>.; ; u 6 6 6 6 ; k T ( 2.:.:.,.:.:.",
",.` ' ' ,.1.:.:.1.,.,.:.1.' ' 3.] J j 0 6 0 u 0 6 u 6 6 6 6 u 0 6 u 0 u e 6 8 6 e 6 6 e 8 5 f 8.|.4X<X>X<XXX>X>X>X=X:XQ.2X>X>X>X>X{.b.j.<.,.1.,.1.1.1.1.1.' ' 1.] ] 1.' 1.) ( k ; 8 6 6 8 6 8 e e e e e 0 0 y 0 0 0 0 y y $ y y 0 y 9 y 0 0 9 0 0 0 0 0 0 0 0 0 0 0 0 0 6 5 8 n / 0.q.[ [ 3.3.3.` V n 5 e e e e 0 0 e 0 0 7 6 5 6 7 5 ; M :.S.XX.X>X>XXXXX}.}.XX}.>X}.XX{.>X.X>X.Xs.$.:.2.2.1.1.1.1.1.1.0.1.2.0.;.0.2.;.0.0.0.0.0.;.0.1.0.1.0.2.0.2.1.1.1.:.:.1.:.1.1.>.1.:.1.R W <.F.<X<X,X<X<X>X<X,X>X<X<X<X<X<X>X}.}./.aXvXVXAXAXAXAXVXVXVXvX3X1X:X:X1X:X1X1X1X:X:X1X>X1X1X>X<X>X>X1X<X>X>X>X>X>X<X}.{.$., - ; 7 7 5 5 - g K W ,.3.3.,.1.3.1.3.1.,.1.1.,.,.3.,.1.1.1.1.1.] ] 1.1.3.0.J t r 7 e 7 0 7 8 0 6 6 6 6 6 6 q u 6 e 0 e e e 8 e 6 8 e h z.{.>X:X}.>X=X>X2X2X=X2X-X>XQ.+X}.2X>XR.g.<.Q ,.:.:.,.,.,.,.,.` 1.' ` :.' 1.( U e 6 e 8 e 8 8 i i 6 e e e e e u e 6 e 6 6 6 0 u 6 6 6 6 e 6 0 0 0 0 0 0 0 0 0 0 0 6 6 6 8 7 5 d M ` q.3.1.' 1.1.1.` U j - : 8 e 6 6 6 6 ; 8 6 5 6 6 6 - - C 2. XXX<X}.<X<X<X<X<X<X>X<X,X,X>X<X<X>X.Xs.' ,.,.,.:.' ,.,.1.:.1.>.:.3.>.:.:.1.[ 1.1.>.:.1.1.1.1.3.:.:.1.1.1.1.[ 1.:.3.,.1.1.,.[ ,.,.+.#.a.c..X>X>X>X,X>X>X>X>X<X1X>X>X>X>X>X>X2XaXbXnXGXzXGXAXAXAXGXxX@X$X+X$X}.}.2X+X}.}.>X>XQ.}.>X=X>X=X>X>X>X>X2X}.>X>X$XXXC.+.> > 8 6 6 @ ; ; j Y ( :.:.2.:.1.:.",
",.1.` ,.3.' 1.` ` ' 1.:.1.1.1.1.] J j 8 7 0 6 6 6 6 u 6 6 6 e 6 0 6 0 6 6 6 6 e ; 8 8 8 ; ; g a.{.4X<X<X<X}.>X=X}.>X/.>X2X-X>XQ.}.}.R.j.#.,.:.:.:.:.' :.' ` ,.' 1.] ' 1.1.` R j ; 8 8 e 8 8 8 8 e 8 6 u 0 0 a e 0 y y 0 y 9 y 9 0 0 9 y 0 y 9 y 0 9 0 0 0 0 0 8 0 0 0 7 6 $ q M ( q.q.3.3.3.p.[ ] V b 9 7 a e 6 6 e 0 8 7 7 ; 5 6 5 - 7 z ,.S.,X>X>X,X<X>X>XXX,X>X>X,X,X,X,X,X,XXXl.$.:.1.:.1.2.2.1.1.1.1.1.2.0.1.2.0.0.0.2.0.0.0.1.1.1.2.1.1.1.1.1.2.1.1.1.1.3.>.3.1.,.,.1.:.W +.,.S.XX,X<X<X,X<X<X<X,X<X<X,X<X<X4X,X>X}.iXvXnXAXnXAXnXAXnXnXvX6X>X,X:X,X1X,X,X,X<X1X<X>X>X>X>X>X>X>X<X>X<X2X<X>X>X4X<X.X$.2 = ; > > > = : d P +.>.,.:.1.,.1.,.1.1.1.,.3.,.,.3.1.1.1.' 1.' ' 1.[ 1.3.1.J t r 7 8 8 7 8 6 e e 0 e e 6 e e 6 e e 6 8 8 8 8 > > 7 > h g.}.}.>XQ.:X>X=X=X>XQ.=X=X-X/.+X+X2X$XT.u.#.#.W ' #.' ,.,.,.' ' 1.` ` :.,.,.) ! t 7 8 8 8 8 8 8 7 e 8 8 u e e 8 u 8 0 0 9 6 6 u 6 6 0 6 u e 0 0 e u 0 0 6 0 e e e e 8 8 8 > - r z _ 3.3.3.1.1.1.1.^ U j - 5 ; 8 8 6 6 ; 5 5 5 > 7 5 8 - - K 4.|.,X,X<X,X,X,XXX>X,X,X,XXX<X<X<X,X,X|.d.,.,.,.,.,.:.,.3.1.1.1.3.0.1.1.[ 0.q.0.1.1.1.1.[ 0.0.0.1.1.[ 0.3.0.[ q.1.1.1.0.1.1.1.1.1.' :.,.<.A.G.,X<X>X>X,X,X,X,X,X>X<X>X,X,X,X,X$X6XhXMXMXnXAXGXAXMXGXvX5X$XXX}.4X}.XX$X<X>X>X:X>X>X-X=X>X>X>X>X>X>X$X>X>X2X}. X].o.> > 8 8 > > ; ; k T :.2.:.:.,.:.:.",
"' ' ' ,.3.,.' 1.,.,.,.:.' ,.` ,.1.J j 8 9 0 9 6 6 5 e e u e 6 6 0 6 0 6 8 i 1 d i i i i d 8 h g.].4X4X}.}.2X$X}.+X+X2X-X-X6X-X/.2X+XR.k.<.@.$.+.$.+.,.#.,.' ,.' 3.' 1.1.1.` ( j > > 8 i i i 8 u e e e e e 0 0 e 0 0 0 y y 0 0 9 y 9 0 9 0 9 0 0 y 0 y 0 0 0 q e e e 0 0 0 5 e m / 3.[ 3.[ 3.[ q.] V j 7 6 e e 0 0 6 0 0 e e 7 7 7 7 > : H W D.,X,X,X,X<X,X,X,X,X,X<X,XXXXX.XXXXXXXd.,.,.1.:.:.2.1.1.1.1.;.1.1.;.1.1.0.0.0.;.0.1.0.0.1.1.;.0.;.;.1.1.1.1.1.1.1.3.3.1.1.,.:.:.:.+.,.a.V.|.,X,X,XXX,X,X,X,X,XXX,X.XXX,X<X,X}.%XdXvXvXvXvXvXxXvXvXgX2X:X:X:X:X,X:X:X,X,X,X>X1X>X>X1X<X1X>X>X>X4X<X>X4X<X<XXX].<.3 2 2 2 r 2 r : g I Q ,.,.1.:.,.1.1.' 1.1.,.1.1.,.1.,.1.1.1.1.1.1.] 1.1.q.q.J j r 8 8 8 0 0 8 e 6 7 e 6 e e e e 6 u i i d i 1 i i 2 i S j.W.>X>X:X=X:XQ.Q.Q.Q.-X/.-X-X/./.2X+XT.j.$.#.#.Q ,.' [ p.' #.` ,.` ` :.:.1.) / M 8 8 r 8 8 8 8 8 8 6 8 8 8 e 6 e 6 6 6 6 6 0 8 0 6 6 e 6 e 0 0 e 0 0 0 0 6 e e 8 e 8 8 r 8 7 r z ( 2.1.1.1.1.:.1.;.U j 7 - 5 i 6 i 8 6 8 5 8 8 8 7 8 > - H 4.F.XXXXXXXXXX,XXXXXXX,XXXXX,X,X,X.XXXG.f.#.#.' 1.,.,.,.1.] 1.1.] ] 0.1.) ] ] ] 1.1.0.;.] ] [ ] 1.1.) ] ] [ ) ] ] 0.] 0.1.0.1.1.1.3.` #.,.V.G..X.X,X.X,X.XXX.XXXXX.XXXXXXXXXXXXX3XhXvXvXnXnXnXvXnXvXhX$X}. XXX X}.}.XX}.>X>X}.:X>X:X>X2X>X=X=X2X>X>X}.$X}.<X.X_.@.> 2 g d i i i d z ` 3.:.:.:.1.:.:.",
"] :.' ' ,.[ ,.` ,.' ` ,.,.:.' 1.1.J j 7 5 6 6 6 6 6 6 6 6 6 e 6 6 0 7 5 k L :.2.8.8.4.w.4.4.l.S.{.4X<X}.>X}.>X2X4X5XaXgXgXgXgXgXgXgX2X}.].V.C.A.V.V.c.V.m.d.>.` 1.1.3.' 1.) ( U N K C C C C K V n a 7 5 9 0 e 9 0 0 y 0 9 9 y y 9 y 0 y 9 y 9 0 y 0 0 0 0 b m A T ~ ~ ~ ~ A ~ ^ _ q.[ [ 3.3.[ q._ V b 7 7 u 0 6 6 6 6 k C V V V K H H V T +.s.j.j.x.j.j.j.j.j.j.j.j.j.j.x.x.j.x.M.d.,.:.1.1.2.1.1.2.R Y N N A V V V C V B V V C B N V V V V C C V M V V C V H K ( ' >.' 1.1.1.,.<.,.M.V.V.j.c.j.V.v.c.j.C.c.j.c.V.c.j.x.g.L.I.`.~.Y.`.Y.`.I.Y.I.k.v.j.j.v.f.f.j.j.n.:X,X1X>X>X>X>X4X4X>X<X>X<X2X>X>X<X}.}.S.y.#.,.>.>.2.,.$.>.,.>.' 1.:.:.] ' ' 1.1.1.3.,.[ ,.' ,.1.' ' 1.' 1.1.1.q.3.3.J j 8 7 8 8 7 0 8 7 8 q 8 e 7 6 6 6 5 k L :.8.4.<.2.2.2.2.g.n.W.>X=X>X>X:X=X=X2X3X6X6XaXhXhXgXgXdX+XE.).v.v.v.V.A.V.V.s.#.` ' :.:.` :.1.' ] / J U J U J K K N a 6 8 8 8 e 6 6 0 6 6 6 6 7 6 0 6 6 0 6 0 0 7 0 0 0 0 0 0 a A U K V V V N H H U ' 2.3.1.1.1.1.1.) T j - ; 6 8 e 8 8 8 j C K K A U U K K R >.M.V.x.V.x.f.j.x.j.x.j.x.j.c.j.j.c.M.V.,.,.,.,.,.,.' 1.` / T J V V B V B J J J J B V V V B V V B V V V B V B J B B ! ~ ) [ 0.[ 3.' ,.` ' d.V.V.x.c.j.j.c.j.c.c.x.x.x.V.j.x.c.x.P.E.oXY.~.Y.Y.Y.Y.Y.I.P.c.x.x.x.j.j.j.v.b.{.*X>X>X>X>X>X>X=X>X>X>X2X}.<X<X}.}. X_.>.>.4.<.>.2.2.2.4.4.3.:.1.:.:.:.1.",
"1.' ' ' ' ,.` 1.' ,.,.` ` 1.1.1.] J j 8 9 6 6 6 6 6 e 5 e 6 e 6 9 6 6 + k >.Z. X.X X XXX.X X.X}.}.<X>X4X>X+X>X>X3XgXhXvXmXmXmXmXmXmXdX@X[.{..X.X.X.X|.G.S.s.3.1.1.1.1.1.1.` ` ( ( ( ( ( ) ( ) / V b 7 5 9 0 e e 9 0 9 0 y 0 0 0 y 0 0 9 0 0 y 0 9 0 0 0 9 b B ) 1.1.;.0.0.1.1.1.3.3.q.3.3.3.3.[ _ J b 7 0 0 0 6 7 0 6 N ( ( ( ` ` ) ` ` W ` ,.$.,.<.#.t.p.#.<.<.#.t.p.#.p.,.<.,.3.,.1.:.:.1.1.1.:.-.T H > 8 a a e j e a e a a i a a r r 8 d 8 a r d 8 d 8 8 8 l T ' 2.[ ' ,.,.' ,.,.3.d.a.,.p.<.<.,.<.p.<.,.a.p.,.p.<.<.$.$.&.6.6.*.5.7.6.7.%.&.<.y.t.t.t.t.Q Q p.v.D.>X>X2X>X4X>X>X<X>X>X>X<X>X>X<X<X<X<X}.].{.].]..X|.|..XF.V.<.' ` ' ` :.' ] ` ' ' [ ,.1.1.' [ 1.1.1.] 1.] ] 1.[ 3.3.H t r 7 8 8 6 7 e 0 0 e 7 0 0 e 6 5 - z >.Z. X X X X.X.X].{.{.[.:X>X:X=X=X=X>X3X6XbXmXmXmXvXmXmXmX5X+X}..X.X.X,X,X,XG.A.,.Q ,.:.` :.:.,.1.3.[ ] ' ' ` ] ' ] R k e 6 8 u 6 6 u 6 6 6 6 6 0 6 6 6 6 6 6 6 0 0 0 0 0 0 7 7 n ) ) ) ( _ ( ( T ( R 1.:.1.1.1.1.1.1.) U j : 5 ; u 8 8 u 8 N :.) ` :.) ` :.:.1.,.>.<.a.<.,.<.<.,.p.,.a.p.,.p.,.p.p.3.p.,.#.' ,.` ' 1.,.` T M t w 8 t y t t q y w b q e t b q a y t q b y t y t q q y ! ) [ 0.] [ ,.' ' ` p.d.s.p.,.p.,.,.p.,.p.p.<.p.,.p.<.<.<.<.6.7.6.&.7.7.*.*.7.6.<.<.<.<.<.a.<.$.g.v.W.>X>X>X>X>X=X>X>X>X>X>X>X>X>X$X<X<X4XXX|.|. X X|.|. X.XZ.N.4.:.:.:.:.:.:.",
"' ' ' ' ,.3.' 1.,.,.' ,.' ' ,.' [ J j 7 9 9 7 0 6 6 6 6 6 7 6 e 5 6 5 + z @.S.<XXXXXXXXXXX}.XX}.}.<X$X>X>X>X$X2X3XhXnXnXnXnXMXnXmXmXlX5X2X}.>X,X,X,X,X,XF.d.>.' 1.1.1.1.1.) ` ) :.` ;.1.-.1.;.^ V j 5 7 7 0 e 9 0 9 9 0 0 0 9 0 9 0 0 y $ y $ y 0 y 0 0 $ b ^ ;.1.;.1.1.0.1.1.1.3.q.3.3.3.3.[ 3.] V n 7 8 q 0 6 7 7 8 N ) ` ] ] ] ' ] :.` :.,.,.#.,.,.,.#.,.#.' ,.#.' #.' ,.,.#.:.:.1.:.1.1.1.1.1.1.Y M 7 7 8 8 8 8 8 8 6 6 e e 6 8 8 8 7 8 8 8 8 8 7 8 8 > - t U ( 3.3.>.3.3.,.,.' ,.,.,.,.,.,.,.,.,.>.,.,.,.,.,.,.,.,.,.@.,.@.@.>.>.>.@.>.>.,.#.Q #.Q ,.Q #.W p.j.D.XX>X>X>X2X2X>X<X>X2X<X>X1X4X<X4X>X4X}.}.XX}. XXXXXXX<X|.l.,.W Q :.` ' ] ] ] ` 1.' ' 1.1.,.,.] 1.' 1.] ] 1.[ 0.q.[ J t t 7 w 8 8 8 8 7 q q q 8 q 0 7 9 * z 2.|.4X}.XX}.XX}.XX}.}.}.:X>X=X:X=X>X2X3XsXMXMXAXnXnXnXnXvXfX3X+X>X>X,X,X,X,X,XA.' Q ,.:.:.:.:.1.] [ [ ] ' 1.1.' 1.] ( n e 6 6 6 6 6 0 0 6 6 6 6 6 u 6 6 6 6 6 6 6 9 0 0 0 0 0 6 n ) 0.1.] ] ] ' ' ' ` ,.3.1.1.1.1.1.1.-.U k - : 8 8 i 6 8 u C ) ` 1.` 1.:.` 1.:.:.:.,.@.,.,.,.#.#.,.#.,.,.#.,.:.,.,.,.,.#.,.' ,.1.,.' ' ` T l 7 7 8 8 8 q 8 t q e q e e 8 8 e q e e e e e e q e q q n ! ) [ 0.[ [ [ [ [ ] q.3.>.:.:.:.:.:.1.3.[ 3.,.] 1.,.' 1.:.[ 1.:.>.@.>.>.>.>.>.:.>.:.:.:.2.,.,.o.a.v.D.>X,X1X>X>X>X>X>X>X>X>X>X}.>X<X4X}.$XXX}.XXXXXX XXXXXXXF.V.<.:.' ,.` :.:.",
"' 1.' ,.' ' ' ' ' ' ' ,.` 1.:.1.] J j 0 5 0 0 0 q 0 6 7 e 8 8 e e e 7 + g @.].4X4X<X<X<X<X<X<X<X}.4X<X>X>X}.}.>X5XsXMXVXNXVXVXVXGXnXlXiX3X:X,X>X:X,X<X,XS.p.,.1.1.1.1.:.:.` ` ` :.1.:.1.1.1.1.1.V j 5 8 9 0 e e 0 y 0 y y 0 y 0 0 0 0 0 b 9 y 0 0 0 0 0 6 m ^ ;.2.0.1.;.;.;.0.1.1.[ 3.1.1.3.3.1._ V y 5 8 e 0 7 7 8 7 N ( ] ] 1.] 1.] ] 1.' 1.1.,.' 1.,.' 1.' 1.1.1.1.,.' :.1.1.:.1.1.1.1.1.1.1.1.-.( M : - 8 8 8 8 8 8 6 6 5 7 5 7 7 > > 8 > 5 > 7 > 8 6 8 - j H ( 3.,.3.[ 3.,.' ,.' ,.,.,.,.,.,.3.[ ,.,.3.,.,.2.,.3.,.1.,.1.1.:.:.1.:.2.:.:.` ` ' ' ' ` ' Q Q p.v.D.XX>X>X>X<X<X>X>X>X>X1X>X4X>X>X>X<X}.4X$X<X<X4X4X}.}.4X|.l.,.W ` ' ' ] ] ' ` ' 1.' 1.1.' 1.] [ ] ] ] ' ] ] [ 1.q.] J t w 7 8 7 7 8 8 q 0 e 0 0 0 0 7 7 X h $.{.4X<X}.>X}.}.>X:X}.>X:X>X:X=X>X=X>X3XsXMXFXVXSXAXAXnXnXxXiX+X>X>X>X,X,X,X&XA.#.Q ,.:.:.` ` ,.' [ ' ' ] ] ] 1.] 1.` N a 6 6 a 6 6 6 6 6 6 6 6 6 6 6 6 6 6 6 0 6 0 u $ 0 0 6 6 n ( 1.0.1.[ ] ,.] ] 1.1.1.1.1.:.1.1.1.-.U j - : ; 8 6 6 e e V ` ` 1.1.:.1.:.:.:.:.:.:.,.,.` ,.:.,.` 1.,.:.,.:.:.' ,.` ,.` ,.:.,.,.' 1.,.` J M - 7 8 7 8 8 q e q q 0 q e q q e q q q q q q q e e 0 7 e ~ ) 0.[ [ [ [ [ [ ] [ 1.] :.1.:.:.1.] ] [ ] ' ] ] ' ' ' ' ] [ 1.1.] ' 1.1.1.' 1.] 1.:.1.,.,.1.` ,.x.D.,X1X>X<X>X>X>X>X>X>X}.>X>X<X>X}.}.<X>X$X$X}.<X$X}.}.<XD.l.3.W +.` :.:.` ",
",.' ' ' ' ,.,.` ' ,.,.' ,.W ,.1.1.J j 7 9 7 0 q e q e e 8 e e e e e 0 O z +.n.4X}.<X}.2X>X>X>X>X>X}.<X>X>X>X>X2X3XsXAXCXNXNXCXVXAXzXlXiX-X=X>X=X>X>X<X,XG.d.,.] ;.1.1.1.:.` ` :.] 1.:.1.1.1.1.1.J j 7 9 7 0 9 9 0 0 0 0 0 0 0 y y 0 0 y $ y 0 0 y 0 0 0 $ b ^ 0.0.1.;.1.1.;.1.1.1.1.1.1.3.1.1.1._ J t 7 7 e q 6 6 7 8 m ) ' 1.[ ] ] ' 1.' 1.1.' [ [ ] ] ' ' 1.' 1.' 1.] 1.' ] 1.,.' 1.1.1.1.1.0.1.;.T M > 5 8 8 8 8 e 7 9 7 7 6 8 8 6 ; 5 8 6 5 7 e 5 7 7 5 - t H ( 3.3.,.3.' [ 3.' ' 1.3.[ 3.1.3.3.1.1.3.3.1.1.3.,.3.1.1.:.1.1.1.' 1.1.` :.] ' ' ' ` ` ` ' Q W p.c.D.>X>X<X2X>X>X2X>X>X>X2X<X>X>X<X<X2X4X>X<X2X}.4X}.}.<X4X].x.,.W W ' ' ' ` ] ] ' ' ` ' ' 1.' ' ] ] 3.] ' ] 1.1.1.q.q.H l 8 7 7 7 7 7 8 q q q 0 7 0 7 9 5 X h a.W.1X4X}.:X>X>X}.:X>X:X:XQ.>X=X=X>X2X3XvXGXSXVXSXAXAXzXnXsX3X+X>X>X>X,X,X,X.XA.#.#.#.:.:.:.:.,.' _ ' [ ' ] ] [ ] 1.( m a $ 6 u 6 6 6 6 6 6 6 6 6 6 6 6 6 6 6 6 6 u 0 0 6 0 $ 6 n ) [ q.1.1.] ] 1.' 1.1.1.1.1.:.1.1.1.( U j - - 8 8 6 5 5 i A 1.' 1.' 1.:.:.:.:.` :.1.' :.,.' ` ' 1.1.` ` ,.1.' ' 1.` ,.,.` ' ,.1.,.' 3.` U n 5 8 8 8 q 9 e q e q e q q e e q e e q 0 q q e q q 9 7 e ! ) q.q.[ [ [ [ [ 3.1.1.1.1.1.] 1.1.' ] ] ] [ [ ] [ _ ] ] [ ) [ [ ] ] ] [ ] [ [ 1.1.1.1.1.1.1.,.3.c.D.<X,X>X>X>X>X}.>X>X>X>X2X>X}.>X<X<X}.4X}.}.2X$X>X}.>X,X].l.3.:.` ,.` ` ` ",
"' ' ' ,.' ' ' ,.,.' ' ' ' :.,.' ,.J j 7 6 7 0 q 8 0 8 7 7 8 8 8 q 0 7 + z @.S.<X<X>X>X>X>X<X>X>X<X>X>X>X>X}.>X2X5XpXnXVXVXSXVXVXAXnXkXiX;X2X:X>X>X}.<X<XS.<.>.' 1.1.1.:.1.` ` ] :.1.1.1.1.1.1.;.V a 6 7 0 0 9 0 9 y 9 0 y 0 0 0 $ y 0 0 y 0 0 0 0 0 0 0 6 b ^ 1.1.1.1.1.;.2.;.0.1.1.1.1.1.1.3.1._ J b 5 8 e e 7 6 6 7 V ( ` ] 1.' ] 1.' 1.' ' 1.' 3.,.] 1.1.' 1.] 1.' 1.' 1.1.' 1.' ] 1.1.;.1.1.1.` R m - > 8 8 6 7 e e 7 6 6 6 5 5 6 7 6 7 6 6 6 5 6 6 7 7 7 e U ( 3.,.,.' [ ,.' 3.' ,.3.3.3.3.3.3.1.,.1.1.,.1.3.3.1.3.1.1.1.:.1.1.` 1.` :.1.` ` ' ' ` ' ` ` ` <.V.D.>X>X>X2X<X<X2X>X4X>X>X>X>X2X>X>X<X}.4X}.<X4X}.4X}.<X<X].d.#.Q ` ' ] ] _ ' ` 1.' ' ' ' ' ' ' [ ] ] ] ' ' ] 1.1.1.] J r r w 8 q 8 7 8 8 e e e e q 0 0 $ * z <.R.4X>XQ.>XQ.:X>X=X>X=X:X>X:X:X:X=X-XiXlXGXCXFXSXSXAXAXnXfXiX3X>X>X,X>X>X,X.XA.#.Q :.` :.:.:.` [ ' ' [ ' [ ] ' ' [ ( m a 5 6 0 u 6 6 6 6 6 6 6 6 6 6 6 6 6 6 6 6 $ 0 0 0 9 6 6 n ) 1.3.1.1.] ] ' 1.' 1.:.:.1.1.1.:.1.) U j - : > 8 i ; 6 e N ` ` 1.1.` ` 1.:.:.:.:.:.,.` ,.' 1.,.` ' ,.' ` 1.` 1.' :.` ` 1.' ,.' 3.,.] ( T n 5 7 8 8 q q q e q q 0 e 0 q q e q q e e q e q 0 e q 7 n ~ ) q.[ [ [ [ [ [ ] [ ] 1.1.1.1.1.] :.] ] _ [ ] ] [ ] ] ] [ [ ) [ ] ] [ [ ] ] 1.1.1.1.1.1.3.,.W p.V.D.,X<X>X>X>X>X>X>X>X>X>X>X<X>X>X>X}.<X}.}.4X}.>X}.}.}.XX].x.,.+.:.` ,.:.:.",
"' ' ' ' [ ' ,.' ,.' ,.,.' ,.:.:.' J j 7 7 q 9 q q 9 7 7 7 8 7 7 7 8 7 * h $.].4X}.>X}.<X>X>X>X>X>X>X>X>X>X>XQ.2X3XsXnXVXNXVXNXAXGXzXkXyX@X2X2X}.>X}.>X<X].a.,.:.1.1.1.1.] ] ' 1.1.1.1.1.1.q.2.] J j 7 7 e 9 e e 0 y 9 0 e e 0 0 0 0 0 0 0 $ y 0 0 0 0 $ 6 n ^ ;.0.1.1.;.;.1.1.1.1.1.1.,.1.1.1.3.) V t 5 8 q 8 8 6 6 5 N ) ` ] ] 1.[ ' ] ] ] 1.] 1.' 1.' ] 1.] 1.] 1.' ] ' 1.' 1.' 1.' 1.[ 1.1.1.1.) / m 5 7 8 7 8 8 7 0 7 9 6 7 8 6 5 e 8 5 6 7 6 7 6 6 7 7 5 r J ` 3.,.[ ' ,.[ ' ' 1.3.,.2.1.1.1.1.1.3.1.1.1.1.1.1.1.1.,.' 1.1.1.1.1.1.` ] ` :.` ` ` ` ' ` W Q ,.c.D.>X>X<X4X>X<X1X>X>X>X>X>X<X>X<X1X>X>X<X<X>X}.4X<X}.4X4XD.j.,.W ` ' ' _ ' ' ] ' ' ' ' ' ' ' ] ] [ ' ] ] 3.1.[ q.3.3.J t r r 7 w r 7 e q q 8 e e e q 8 5 X h y.W.4X>X>X=X:X=X>X=X:X=X>X:X>X=X=X=X2X3XlXGXSXCXSXVXVXAXnXpXiX2X>X>X>X>X:X>X.XA.t.#.Q ,.,.` ,.` ,.' ' ] ' ] ' [ ' ' ` m a 6 6 u 6 6 6 6 6 6 6 6 $ 6 6 6 6 6 6 6 0 0 0 0 0 0 6 $ n ` [ q.3.] 1.] 1.' ` 1.1.1.1.:.1.:.1.) T j - : > 8 i ; 6 i N ` ` ` ,.` ' 1.1.` 1.:.:.:.' ,.` 1.' ' 1.` 1.' ' :.` 1.` 1.,.1.' ,.,.' ' ,.` U k 5 5 e 7 7 q 0 0 q q q e q e q 0 e e q 0 q q e 0 q 9 9 y ! ) q.[ [ [ [ [ [ ] 1.[ ] 1.1.1.] ] ] ] ) [ ] ] ] ] ] [ ] [ ) [ ) ] [ [ ] [ [ ] [ 1.[ 1.1.1.3.` 3.A.D.1X>X>X1X,X>X>X>X>X>X>X<X>X>X>X}.>X$X}.$X>X}.$X}.}.}.<X].l.2.:.` ,.` ,.` ",
"' ` ' ' ' ` ' ` W ` ' ` ` W #.,.' H l 8 5 7 q 7 7 7 5 5 - - 5 5 5 - + X h #.S.<X4X>X>X>X>X>X2X>X}.>X+X>X+X>X-X>X3XsXzXVXVXVXCXVXVXzXlXuX(.+X+X/.2X+X$X}.].<.,.,.1.1.1.1.' ' ` ` :.1.1.1.2.1.2.) H j 5 7 0 e e e 0 0 0 0 e e 0 9 9 0 0 7 0 0 0 0 0 0 0 6 6 b ^ 1.2.1.;.1.1.;.1.1.1.1.1.1.1.3.1.1.` J n 7 8 q 8 8 5 7 8 m ) ] 1.] ] 1.] 1.1.` ' 1.] 1.] 1.1.' 1.' 1.' 1.' 1.] 1.] 1.] ] ] 1.1.0.] 1.1./ M 5 5 8 e 6 7 0 0 0 7 6 0 8 5 6 7 5 e 6 7 5 6 7 6 6 6 - t H ( 3.,.3.[ ,.3.1.1.1.' [ 1.1.1.,.1.1.1.1.1.,.1.3.1.,.1.1.1.1.1.` 1.1.` 1.:.1.' 1.` ` ' ` ' ' W p.V.G.>X>X>X>X2X>X<X>X>X<X>X1X<X<X>X<X<X<X2X2X<X$X<X4X}.}.4X].l.#.W W ' ' ' ' ` ` ' :.' ` 1.` ,.,.] ' 1.' ' ' ] 1.3.3.[ H t 7 7 7 : 7 7 7 7 7 7 9 7 7 q 5 5 X h $.{.4X>X>XQ.>X>X:X>X:X:X=X=X=X:X>X-X2X3XsXAXSXCXSXVXAXnXnXpXiX+X>X:X>X>X>X>X{.v.#.#.#.` :.,.:.,.' ' _ ' ] ' ] ' ' 1.( N u 6 6 0 e e 6 6 6 6 6 5 0 0 6 6 6 6 6 6 0 7 u e 6 6 6 6 n ) ] 0.1.1.' ' ` ' ,.,.:.:.1.1.1.1.1.) J g - : 5 8 8 5 6 e K ` ' 1.' 1.,.' 1.,.1.1.1.:.1.` 1.1.1.' ' ,.' 1.:.' ,.' 1.1.' ' 1.' 1.1.1.3.) U M 5 5 0 6 5 7 0 e q 0 e 0 q 0 q q q q e e q 0 q q q q 9 B ! ) [ [ [ [ [ [ [ ] [ ] 0.1.1.1.] ] ] [ ] [ ] ] ] ] ] ] ] [ [ [ [ ] ] 0.] ] [ 0.] 1.1.[ 0.1.,.W ,.V.G.,X<X<X>X>X>X>X>X>X>X>X>X<X>X<X<X<X>X4X}.<X$X>X2X}.}.<X].x.,.W +.` :.W ,.",
"Q Q Q #.,.Q Q #.Q Q Q #.#.#.,.,.' P g r 8 r r 8 8 r 8 : : : - : : : : * h +.S.4X>X$X>X>X>X2X2X+X+X;X3X/.2X/.-X-XyXpXVXVXNXCXVXVXVXAXkXuX7X(.(.(.;X+X@X$XR.6.>.,.3.,.,.,.[ ,.1.` ` ' 1.3.1.3.3.] H r 8 8 q e e e e e 0 e e e 8 0 e e e e e 0 0 0 0 q a 6 6 n ^ ;.1.1.1.1.1.1.1.1.1.1.3.1.2.1.3.1.( J l 7 8 8 8 8 8 8 8 H ` ] 1.1.] :.] 1.:.1.1.1.] 1.1.1.` :.] ] 1.1.1.1.] ] :.] 1.1.1.] 1.;.;.1.;.;.^ B 7 6 8 6 6 7 0 9 0 6 0 7 5 5 8 e e 7 6 7 8 8 7 7 0 6 5 t V ( 1.1.] 1.] ] :.:.' 1.1.1.:.1.:.1.1.1.1.1.3.1.1.1.1.,.1.' ` 1.1.:.1.1.1.` ' ` ' ` ` ' ' ` ` Q 3.V.S..X,X>XXX}.<X>X>X<XXX>X>X>X<X>X>X>X}.<X4X$X>X>X<X}.}.4X].c.p.#.#.,.,.,.,.,.,.,.,.,.,.#.,.,.>.,.,.,.,.,.,.,.3.2.p.3.P l , : : 7 : 7 8 , 7 8 8 > 8 8 , > = S $.W.4X>X}.:X>X>X>X-X-X/.-X/././././.;XyXlXGXCXSXSXVXVXAXAXkXpX@X;X+X/./.+X2X$Xn.O.#.#.,.#.,.,.<.,.' ' ` ' ' ' ' ' 1.( M a 7 6 a i e 8 8 e e e e e 0 6 e q e e q 6 a e e e e e e n ( 1.q.3.1.1.' ,.' ' :.:.1.:.1.:.1.1.` U l > : > 8 i 8 7 i C ) ' ` 1.:.` 1.` 1.:.:.:.1.` ' :.` ` 1.` ` ` :.:.` ' ` :.` ` ` ' 1.1.` :.1.( U k 6 8 6 6 6 7 0 0 q q q q 0 q q 0 q e q 0 q q e q q q 9 B ! ) [ [ [ ) ] ] ) ] ] ) ] ;.] ) ) ] ) ] [ [ ) ] ] ] ] ] ] ] ] ] ] ] ] ] ] [ ] 0.[ 1.1.1.1.1.1.,.3.M.G.,X,X,X>X,X,X,XXXXX,X.XXX.XXXXXXXXX}.}.<X2X>X}.$X}.2X<XR.j.<.#.,.#.,.,.#.",
"a.s.p.a.a.p.a.a.s.a.a.a.p.a.s.s.p.Q P D h z D z D h h l h h h h g S h S G O.R.4X>X>X>X>X>X>X2X2XyX(.(.3XyXyX7XyX7XkXkXNXNXVXBXCXVXVXrXuX7XyX(.yX7XqX3X@XoXk.g.<.a.d.s.d.f.d.>.` ` :.1.1.3.1.1.( H l l j j l j j j n k n j j j j j k j j j j j n k a k k a N ( ;.1.1.1.;.;.1.1.1.1.1.1.1.3.1.3.1.' T N j t t t j j t j V ) ^ ) ^ ) ( ) ) ( ) ) ) ) ^ ) ) ^ ) ) ) ) ;.^ ) ) ^ ) ) ) ^ ) ) ) ) ) ) ) ^ A B i q 7 6 6 0 0 6 6 9 6 6 e 8 6 5 5 e 6 8 8 5 6 6 7 7 @ e V T ) ` ) ` ` ` ` ) ` ) ` ) ( ) ) ( ` ( 1.1.1.1.1.,.1.1.1.1.:.1.1.] :.1.` :.1.' ' ` ' ` ` ` ' ' 3.x.Z.|.D.].].].].].G.].|.].|.].].].|.]..X}.XX4X<X2X2X}.4X<XXX].j.s.s.a.a.a.s.a.a.a.a.a.a.a.s.a.s.a.a.a.a.a.a.a.d.s.p.p.Q P S D S D S D h D D z S D z D D h S G y.R.4X>X=X>X=X>X:X-X-X;X(.yX3X;X;X;XyXyXzXVXCXCXCXAXVXVXAXzXzXiX7XiXiXqXiX5X3XE.u.$.y.$.a.y.a.s.a.<.,.` ` ] ] ] ] 1.( m k j a k j j j j j j j j j j j k j j k j k a j j j j j j V ) [ 3.3.' ] ' ` 1.` ,.1.` :.1.1.1.1.' T M j r r d j d d j N ( ( ( ( ( ( ( ( ( ( ( ( ( ( ( ) ( ( ( ( ) ( ) ( ( ) ( ( ( ) ( ) ( ( ( ) ( ( C k 8 ; 6 6 7 0 0 0 e 0 e q e e 0 e q 0 q 0 e 0 q e q q 9 y ! ) ) ) ) _ ) ) ) ^ ) ) ( ( ( ( ( ( ) ) ) ] [ ] ] ] ] ] ] [ ] ] ] [ ] ] ] ] ] ] [ 1.[ 1.1.1.[ ,.p.M.F.|.G.G.D.].D.].].D.|.D.|.|.].G.|.].{.XXXX}.>X$X>X}.$X}.].c.s.$.a.a.<.a.a.",
"v.v.n.v.v.v.v.v.v.n.v.v.v.A.D.A.A.x.s.<.,.,.>.<.,.,.$.,.,.$.$.,.$.$.#.$.y.j.W.<X<X>X>X>X>X2X2XiXpXpXpXpXjXsXjXpXjXkXVXVXCXCXCXCXAXVXzXkXjXuXsXsXjXuXpXfX3XE.P.c.v.c.v.A.S.N.m.[ ' _ 3.1.1.1.3.` U K H K J H P J K J J K J J J H H H H H H H J K J H K K H T ) 1.1.1.1.1.1.1.1.1.1.1.1.1.1.2.1.1.1.( T J V m J U J V V A A A V A V C V K V V C U V C A V C A V K V V C A V K A V C V A A V A A A A B n b u 0 0 $ 9 6 9 6 0 6 0 6 6 0 9 7 6 7 0 7 0 7 7 6 8 5 ; 8 j V K K H K J K K U K U V C C C C C U U R ] 1.1.1.3.1.,.1.1.1.' 1.1.:.1.1.` ` ` 1.` ` ' 1.' ` :.,.a.f.x.x.f.x.x.j.x.x.x.x.x.x.x.x.j.c.j.S.].XX<X>X$X4X}.$X<X}.XX].n.v.C.n.C.c.c.n.C.c.c.c.C.S.c.v.c.C.c.v.S.c.C.S.C.C.C.l.a.<.,.#.>.<.#.>.,.<.,.<.<.2.#.$.$.$.y.k.W.>X>X>X}.=X>X>X-XiXpXsXuXsXsXsXjXpXjXzXSXSXVXCXVXNXVXSXVXAXkXjXjXxXjXlXhXgX4XT.h.k.c.x.c.c.v.x.d.>.' ` 1.] 1.] 1.) T J J J U V J J U J J J J J J J J J V J U ! U V J J J V J ~ [ 0.q.3.[ ] ,.,.1.:.:.1.1.1.1.' :.:.` ( T C N z H K V N H N N V C V N C V V C V C V V C V V C C V C C V C V V C V N C C V C N C C C V m k a 6 6 ; 5 6 6 6 0 0 q e q e 6 e 0 q e 0 q q e 0 e 0 8 8 e V V J J J J J V V A V V A V V C V N K Y / ) 1.] ] ] ] [ ] [ _ [ [ [ ] [ [ ] [ 0.] 1.1.3.1.3.1.' 2.f.V.V.M.x.V.x.x.x.V.x.V.x.V.V.V.V.x.x.c.S.XX<X}.4X}.}.}.}.[.].P.c.c.c.x.c.c.",
">X,X<X<X<X<X<X<X<X<X<X<X<X<X<X,X,X<X,XXXXX>XXXXX>XXX,X.XXXXXXX,XXXXXXX.XXX<X2X<X>X>X>X>X>X$X3XmXMXMXMXGXAXMXMXnXVXFXHXAXSXCXCXCXSXSXGXVXGXnXVXMXMXGXMXvXhX5X$X}..X,X.X>XXXG.Z.w.' [ 1.[ 3.] 3.1.' ' ' ] ,.[ [ [ ,.,.[ ,.,.,.' ,.:.` :.1.` ,.` ` :.1.1.] 1.1.1.1.0.1.1.1.1.1.] 1.1.1.1.1.3.3.3.3.2.1.1.1.1.1.1.1.0.1.] V e e 6 7 e 6 e 8 8 8 8 8 7 e 7 e 8 6 e 8 8 8 e 6 e 7 7 e 6 6 8 8 e q 6 6 6 6 9 6 7 6 0 6 6 6 0 0 0 0 9 6 0 7 6 6 6 0 7 6 7 6 6 6 6 e 5 7 8 7 8 8 8 8 8 8 > 8 8 8 8 7 8 5 7 5 7 j H ' 1.1.3.3.1.3.[ 1.' 1.' 1.] ] :.' 1.' ' ' ' ' ' ] ' ' ,.' ,.#.#.#.#.W #.Q W Q W ` Q o.Q W Q #.g.n.XX>X>X<X<X}.>X<X$X<XXX}.XXXXXX,X<X<XXX,X<XXX,X>XXXXX<X,X<XXX<XXX<X,XXXXX,X<X>XXXXXXXXX,X,X,XXXXXXXXXXXXXXXXX,XXXXX>X>X>X>X>X=X>X>XQ.=X3XhXMXMXMXMXzXMXzXnXMXVXFXSXSXSXVXVXSXSXAXAXAXnXMXAXMXMXMXmXhX+X}.}.}.[.>XXX}.D.V.p.,.` ] ] 1.1.] ] ] ] ] 1.] 1.] 1.` 1.[ 1.[ 1.1.] [ 1.1.] [ ] ] 0.] ] 0.] [ ] [ [ [ 3.[ 3.] ' ' 1.' ` 1.' 1.1.] 1.' ' ` ` 1.` ` ' ` ` 1.V > ; 7 > 5 ; 8 ; 7 ; 5 7 ; ; 8 ; 5 7 5 7 5 ; 5 7 ; 8 7 ; 5 7 5 6 7 5 7 5 ; ; 6 5 6 6 6 6 6 e 0 0 0 0 e 0 e e q 0 e q 0 e 0 e q q e 0 q q q e q e q e e e e 0 0 6 e e 6 8 8 7 8 l J ] ] 1.] ] ] ] ] ] ] ] [ ] [ [ ] ] ] [ [ ] ] 1.[ ,.,.,.,.] ,.,.,.#.,.,.,.,.,.#.,.,.,.,.,.<.,.,.a.c.}.XX<X}.}.}.+X}.}.}. XXXXXXX}..XXX",
"<X<X<X<X<X<X<X>X<X<X<X<X<X<X,X<X,X<X<X<X<X<X<X<X<X<X<X<X<X<X<X,X<X<X,X4X2X<X>X4X4X>X>X>X>X>X3XhXMXAXnXAXGXMXAXGXAXFXVXSXCXSXSXCXSXSXSXVXGXFXGXAXVXGXMXMXlXiX2X$X>X,X,X1X,XG.Z.p.` 1.' 1.1.,.3.] 3.,.1.1.3.,.3.,.3.3.,.3.,.,.,.,.' ,.,.' ,.,.,.1.:.1.1.1.1.,.1.1.1.1.1.1.1.[ 1.1.1.3.3.1.1.,.1.3.1.] 1.1.1.1.1.1.q.1.1.V e 6 5 5 6 5 5 6 5 6 5 6 6 5 6 5 7 6 6 7 7 6 7 6 6 5 6 5 6 6 6 7 7 6 7 6 7 6 6 6 0 0 6 6 6 0 0 0 6 0 9 6 7 0 7 0 7 9 7 0 0 6 6 7 6 7 6 6 6 ; 7 8 8 ; 7 7 ; 6 6 5 ; ; ; ; 5 ; 7 j U 1.1.1.3.3.3.3.1.1.1.' 1.' 1.] ] ' ] ` ] ' ` ' ' ' ' ' ' W ,.,.#.Q W Q Q W W Q Q W Q Q Q +.#.#.a.v.XX<X4X<X<X2X<X>X<X}.>XXX}.<X<X<X>X<X<X<X<X4X<X<X<X<X<X4XXX<X4X<X<X<X<X<X<XXX<X<X<X<XXX<X<XXX,X<X,X,X,X,X<X,X,X>X<X>X>X2X>X>X>X>X=X>X=X3XvXMXMXzXMXVXzXMXGXAXVXAXSXCXVXCXNXSXSXSXAXGXAXGXGXAXGXGXmXhX(.+X$X}.}.}.<X<X{.S.<.:.:.1.1.` [ 1.] ] 1.[ [ 3.0.1.1.[ 3.3.[ 3.1.0.[ 3.[ 0.0.[ ] q.[ 3.0.] 0.q.[ [ q.[ [ 3.' 1.1.' ` ,.:.' 1.' ' 1.' 1.1.1.1.1.1.' 1.] 1.:.M ; 5 ; 5 ; ; 5 ; ; ; ; 5 ; ; 7 > 5 ; ; 5 ; ; ; ; 5 ; ; 5 ; ; ; ; ; ; ; 5 ; ; 5 6 6 6 6 6 6 6 6 0 6 e 0 q q q 0 q e e e q 0 0 q 0 0 q 0 e 8 q 8 e 7 q 8 q e 7 0 6 6 7 6 5 7 7 8 M U ] 0.] [ ] ] ] ] ] [ [ ] [ [ [ [ [ [ ] [ ] 1.1.[ [ 1.,.1.,.' ,.Q ,.#.,.#.,.#.,.:.:.,.,.,.,.' $.a.c.XX<XXX}.}.}.}.}.}.}.}.}.}.}.{.}.}.",
">X>X>X>X>X>X>X1X>X>X<X,X>X<X,X<X<X,X<X,X,X<X<X,X<X<X,X<X<X<X,X>X>X>X<X<X>X>X1X>X>X>X>X>X>X>X3XvXAXAXAXAXVXAXVXVXAXVXCXNXCXVXBXSXCXNXSXSXVXVXSXSXFXAXAXMXlXiX;X>X:X:X,X:X<X.XA.s.` ' ' ] [ ,.[ ,.' ' ,.' ,.,.' [ ' ,.' ,.' ' ' ' ' ' ' ' ' ' ` ,.:.` 1.' 1.' 1.3.2.3.1.[ [ 0.] ] ] 1.[ 3.[ 3.3.] ] ] ] ] ] ` ) ] 3.1.] V 8 6 5 6 6 6 6 6 e 7 6 6 6 8 6 8 6 6 6 6 6 7 6 6 8 6 6 e 6 7 6 6 6 6 0 6 6 9 6 0 6 0 0 9 $ 0 0 0 0 $ 0 0 7 6 0 7 6 6 6 6 6 6 6 6 6 6 6 6 6 8 6 ; 6 6 > 8 6 ; 6 5 6 6 5 6 5 5 8 z U 1.1.1.] ' ' 3.1.' ' 1.' 1.' ' ' ` ` ' ' _ ` ' ' ' ' 1.' ' ' Q ' ,.,.,.#.,.,.,.,.#.,.' ' ,.#.#.a.n.,X<X<X4X4X>X4X<X<X<X<X>X>X<X>X<X:X1X>X<X}.4X}.<X2X>X<X}.4X}.XX}.<XXX<XXX<X<X<X<X<XXX<X}.,X}.XX>XXXXXXX,XXXXX}.}.}.}.}.>X>X>X>XQ.:X}.:X;XvXzXVXzXVXzXGXVXVXzXAXFXSXVXSXCXCXSXSXVXSXAXSXSXAXAXGXMXMXhX(.+X>X>X<X<X}.<X|.S.a.W :.:.;.1.1.[ ] ] [ [ [ 3.[ [ [ 1.[ [ 3.[ [ [ [ 1.[ [ 1.[ ] q.[ [ [ [ [ [ [ [ [ q.3.[ ] [ ' ' ,.` ' 1.' 1.1.' :.] ` ' :.' 1.[ ,.3.1.` V 5 6 5 5 6 8 8 5 8 8 6 8 8 5 6 6 ; 8 6 8 8 8 6 8 8 6 8 8 5 e 6 7 e e 6 7 e 6 6 6 7 6 6 6 e e 0 6 e e 7 e 0 e e q 0 q 0 e e q e e q e e q 0 0 8 0 e e 0 e e 6 6 0 7 6 6 6 5 7 8 M T ) ] ] ] ] ] _ ] ] ] _ ] _ ] ] ] [ [ [ [ ' 1.[ 1.3.' ' [ ' ,.' ,.Q ,.:.' ' ,.' ,.' ,.1.,.,.>.,.s.C.XX<X<X}.>X$X}.2X}.}.}.{.}.}.[.}.[.",
":X>X>X>X=X2X>X>X>X:X>X>X>X>X,X>X>X,X:X>X>X<X>X>X<X>X,X>X>XXX>X>X>X<X>X>X}.>X4X>X>X>X>X>X>X>X;XxXAXAXAXAXZXAXZXZXVXVXAXZXVXCXBXSXCXCXBXCXCXSXSXSXCXSXGXVXlXiX;X-X*X1X:X1X,XG.A.d.Q ` ' ] 1.[ ,.[ ' ' ' [ ,.' ' p.' ' ' ' ' ' ,.' ' ' ' ' ` ' ' ' ' ' ' ' ' ] 1.[ 3.[ ] [ ] ] ] ] ] [ [ 3.[ 3.[ 3.] ] ] ` ] ` ` 1.3.3.' V i 6 5 6 6 6 6 6 6 6 7 0 6 6 6 6 6 6 6 6 6 6 6 6 6 6 6 6 6 6 6 6 6 6 6 6 0 6 6 0 0 0 6 6 u 0 9 0 6 0 0 7 0 0 7 6 0 7 0 7 6 6 6 6 6 6 6 6 6 ; 6 6 6 ; u 6 6 6 6 6 u $ 5 u 6 ; 8 k U 1.1.' ' ' [ ,.' ' ] ' ' ] ] ' 1.` ` ' ' ' ' ` _ ] ' _ ' ' ` ' ' :.,.' ' ,.' ' ' ,.,.' ,.,.' ,.a.v.{.,X}.>X>X>X<X2X<X>X>X2X>X>X>X>X>X2X>X>X2X>X>X>X2X>X2X>X>X}.}.}.<X}.}.<X<X4X}.<X<X>XXX>X}.>X,X}.>X,X,X}.}.>X<X}.>X>X}.>X2X=X>XQ.>X>XQ.3XvXVXVXVXVXVXzXVXVXVXVXAXSXSXCXNXCXNXSXSXSXSXSXSXCXSXSXAXMXhX(./.Q.}.}.}.2X<X.XS.a.W :.1.1.] ] ] [ [ [ [ [ [ [ [ [ [ [ [ [ [ [ [ [ [ [ [ 3.[ [ [ [ [ [ [ [ [ [ [ 3.[ [ [ ' ] ] ' ] ' ' ' ' ' ' ' ' ` ' ,.' ' ' ,.,.,.` :.K 8 6 ; 6 6 6 6 5 8 7 6 6 6 ; 8 8 6 6 6 8 5 7 6 6 8 6 6 6 6 6 6 6 7 5 8 6 6 6 6 6 u 6 6 6 6 6 0 6 e e q q 0 e 0 q q q q e q 0 q e q q 0 q e 0 q q e 0 0 0 0 0 6 6 0 6 6 6 7 7 8 M T ) [ ] ] [ ] _ [ ] _ _ [ ] ] [ ] [ [ [ [ ] [ ] 3.,.' ' 3.,.' ,.' ,.` ,.:.,.' [ ,.' 1.1.' 1.1.,.a.c.}.<X<X}.}.}.>X2X}.>X}.}.}.}.}.>X}.",
"=X>X=X}.>X>X>X>X>X>X:X>X>X>X>X<X>X>X1X>X<X<X>X>X>X>X>X>X>X>X>X>X>X>X>X>X2X>X>X>X>X>X>X>X>X2X3XxXAXZXZXAXSXSXAXZXSXVXZXZXSXBXZXDXCXCXSXSXSXCXSXSXSXSXAXGXvXiX;X=X*X1X:X:X<XG.A.d.Q ' ' [ ' [ [ ' ' [ ' ' { ' ' ,.{ { ' ' ' ' ' ' ' ' ` ' ' ' ' [ ' ' ,.' ' ' ' [ [ [ [ ] [ ] ] ] [ ] [ ] ] [ [ [ ] ' ] ` ] ] ] ' 3.1.` H e 7 6 6 6 0 0 6 0 6 0 7 6 6 6 0 0 6 0 6 6 6 0 6 6 6 6 6 0 6 6 0 6 6 0 0 6 0 0 0 0 7 0 0 0 0 0 0 0 6 6 0 0 6 7 9 7 0 6 0 0 6 6 0 0 6 6 6 6 6 6 6 6 6 6 6 6 6 6 < 6 6 6 $ 6 $ 8 j U ' 1.` ] 1.] ' ' 1.1.1.' 1.1.,.' ' ] ` ` ' ' ' ] ' ` ' ` ' ' ' ' ' ,.' 1.' ' ,.' ' ' ,.' ' ' #.a.v.}.>XXX}.XX}.>X<X1X>X>X<X>X>X2X>X1X>X2X>X4X>X2X>X>X4X4X>X4X<X}.<X}.<X<X}.>X}.<X>X}.}.}.>X>X}.}.>X>X.X}.>X>X}.}.>X>X}.=X>X>X>X>X>X}.}.>X;XvXzXVXVXVXVXFXVXVXVXSXFXVXCXVXCXCXCXVXVXCXSXAXSXCXSXAXnXMXsX(./.Q.:X>X>X>X<X{.v.a.W ` ` ] ] ] [ _ ] [ ] [ [ [ [ [ [ 3.' [ [ [ [ [ [ [ [ [ [ [ [ [ [ [ 3.[ [ [ [ [ [ [ [ [ [ ' 1.' [ ' ] ] ' ' ,.' ' ' ' ' ' ` ' ' ,.1.' J t e 6 7 6 5 6 6 6 6 6 8 6 8 6 6 8 8 6 8 6 6 6 6 6 8 6 > 6 e 6 6 8 6 e 6 6 6 6 6 6 6 6 6 e 6 0 6 e e 6 e e 0 0 0 0 0 0 0 0 0 0 0 0 0 0 0 e 0 0 6 0 0 0 0 6 0 0 0 0 9 0 6 7 8 8 n T ] ] ] ] _ ] [ ] [ ] [ [ [ ] ] [ ] ] ] [ ] ] ] 1.] 3.[ ] ' ' ] ' ' 1.' 1.' 1.' [ ' :.1.,.,.:.,.a.c.XXXX<X}.<X>X$X>X>X2X>X}.2X>X4X>X1X",
":X=X}.=X>X2X>X>X>X>X:X>X>X>X>X>X1X>X>X,X,X>X>X>X>X>X>X>X>X>X>X>X>X}.<X>X>X>X>X>X>X>X>X>X>X}.3XlXnXAXSXZXSXZXDXDXSXSXDXDXSXDXZXSXSXSXSXSXSXSXSXSXCXSXAXGXlXyX/.=X1X=X>X:X,XG.V.p.` ' ' ' ] ] [ 3.' [ ' ' ' ,.' [ ' ' [ ' ' ' ' ' ' ' _ ' ' ' ] ' ` ,.' ] ] 1.] ] ] [ ] [ [ [ [ ] ] [ ] ] [ ] ] _ ` _ ] ] ` ` ` 1.2.,.1.H q 6 5 7 0 0 6 6 6 0 0 0 6 6 0 q 0 6 0 6 0 0 0 6 0 6 6 0 0 6 6 0 0 0 0 7 0 6 0 0 0 0 0 0 0 0 0 0 e 0 0 0 0 0 0 0 7 0 0 6 0 0 0 6 0 6 0 6 6 u 8 6 6 8 6 u 6 u 6 6 6 6 $ 6 $ $ u j V ] ] ) ] 3.] 1.1.] ' ] ] ] ] ] ] ` ] ] ] ' ` ` ' ' ' ` ' ' ' [ 1.' ' ' ,.' ' ] ' 1.] [ ' ` ,.,.p.j.XXXX}.}.>X<X2X<X>X1X2X>X2X>X>X>X>X>X>X>X>X>X2X>X1X>X>X>X<X}.>X}.}.<X>X4X>X>X}.}.}.>X>X>X>X>X>X>X>X>X>X>X>X>X}.>X>X>X:X>X>X=X>X>X>X>X2X;XlXVXVXFXzXVXVXVXVXVXFXCXCXCXFXFXCXCXCXCXCXCXCXCXCXCXSXzXvXaX/./.Q.=X>X=X>X<X{.S.#.W W ` ' ] ] ] ] ] [ [ [ ' [ [ [ [ ' ' [ [ ' [ [ ' ' [ [ [ [ [ [ [ [ [ ' ' [ [ [ [ [ [ ' [ [ ] ' ' ' ' ' ' ' ' ' ' ' ' ' 1.` ,.,.>.1.:.H e e 7 6 7 6 8 5 8 6 6 6 6 6 e 6 5 6 6 8 6 6 6 8 6 5 e e 6 6 6 6 0 6 6 0 e u 0 6 0 u 6 0 6 0 6 0 0 6 6 7 0 0 0 0 0 0 0 0 0 0 0 0 q 0 0 0 0 0 0 q 0 0 0 0 0 0 0 0 7 0 6 8 8 e e M T 1.0.1.[ ] ' _ ] ] ] ] [ _ [ [ ] ] ] ] ] ] ] [ ] [ ] ] [ ] ] ] [ ] [ 1.' 1.' ,.' :.` ,.' W Q $.a.n.XX>XXX<X}.<X>X>X>X>X>X>X}.>X2X>X>X",
">X>X>X>X>X>X>X=X=X>X>X>X>X>X>X>X:X:X>X>X>X>X>X>X>X>X>X>X>X>X>X>X>X>X>X>X>X:X>X>X>X1X>X>X>X<X@XvXZXSXSXDXSXSXDXZXSXDXDXSXSXDXDXSXSXDXDXDXSXDXDXDXDXSXVXVXlXyX-X-X=X:X=X,X,X.XA.p.W ' ` _ ' _ ' _ ] _ _ [ ' _ ' _ ` ' ' [ _ [ _ ' _ ' ] ' ' _ _ _ ' _ _ ' ' _ _ ' ' _ ] [ _ _ ] [ ' [ _ ' _ ' _ ` ` ` ] ` ) ` ` ' ' ' ' K e 6 6 0 0 $ 0 0 6 0 0 0 e 0 0 u 0 0 0 0 0 0 e 0 0 0 0 0 0 0 0 0 0 0 u 0 0 0 0 0 0 0 0 0 0 0 0 0 0 0 0 0 0 0 0 0 0 0 0 0 0 0 0 0 0 0 6 u 6 e u 6 e u 6 6 6 u 6 u 6 6 6 6 u 6 6 j K 1.1.] ] 1.1.] ] ] 1.] ] 1.] 1.] 1.[ 1.] 1.1.] 1.] 1.' ' ' ] 1.] ] ] ' ] [ ] [ ] ] [ ] 1.1.' ,.<.x.>X>XXX}.<X>X>X4X>X>X<X>X>X1X>X2X>X>X2X>X2X>X>X>X>X>X>X<X>X}.}.}.}.>X>X>X}.>X>X>X>X>X>X>X>X>X>X>X>X>X>X>X>X>X>X>X>X>X-X>X>X>X>X>X>X>XQ.3XzXFXFXVXFXVXFXFXVXFXVXFXVXFXFXCXFXCXFXCXCXSXCXSXCXCXSXGXMXgX/./.Q.>X=X>X>X1X{.v.y.W W _ _ _ _ ] ` ' [ ' ' 3.[ ' ' ' ' [ ' ' ' ' ' ] ' ' ' ' ' ' [ ' [ [ ' ' [ [ [ [ [ [ ' ' ' ' ' ' ] ' ] ,.` 1.,.' ' ` ,.` ,.' ' ,.+.( K e e 8 0 e 6 e e e e e 6 e 6 6 u e i 6 6 e u e 6 6 e u 6 6 e 6 0 0 6 e 0 0 e 6 e 0 6 0 0 0 0 e 0 0 0 0 0 0 0 e 0 0 q 0 0 0 0 e 0 0 0 q 0 0 0 0 0 0 0 0 0 e 0 0 0 0 0 0 e e 8 e n T ] [ 0.[ ] ] ] [ [ [ 3.[ 3.3.[ [ [ [ [ ] 1.[ 1.[ ] 3.[ 3.[ 3.[ 3.1.3.1.,.1.1.' >.,.,.,.+.,.,.,.a.C.XX,X<XXX4X>X>X2X>X2X>X>X>X>X>X>X=X",
"<X>X<X<X<X<X>X}.1X2X>X>X>X>X=X>X:X>X>X>X>X>X>X>X>X>X>X>X}.<X>X>X>X>X>X>X>X>X>X>X:X>X>X>X>X>X5XvXAXAXAXSXSXAXZXDXAXSXSXZXSXSXSXZXSXSXSXZXAXSXZXDXHXHXAXnXvXiX2X-X=X1X:X:X:X,XD.p.I Q Q Q Q ` W Q R Q Q Q W ` W Q Q R Q W R _ Q W Q _ W Q W _ Q W Q ` W Q Q _ R Q ` Q W _ ` Q R ' Q Q W _ W _ W Q Q ` Q ` W W W W W E W N d 8 7 9 0 0 7 0 0 6 0 0 q 0 0 0 e 0 0 0 0 0 0 e 0 0 0 0 0 6 u e 0 0 0 0 0 0 0 u 0 0 0 0 0 u e 0 e 0 0 e 0 0 0 0 0 0 0 0 0 0 0 e 0 6 0 6 6 6 e u 8 6 6 6 e e 6 u 6 6 6 6 6 6 e j A 1.1.1.1.1.1.1.0.1.1.0.1.1.1.1.0.1.1.1.1.1.1.1.1.3.1.1.1.1.1.1.1.1.1.1.1.1.1.0.1.1.0.1.1.1.1.:.>.j.}.<X>X>X<X>X>X2X>X>X>X>X>X>X2X>X-X>X>X>X>X>X,X<X>X,X}.XX}.}.}.>X>X>X>X>X>X>X}.>X>X>X>X>X>X>X>X>X>X}.>X>X>X>X>X>X}.>X>X>X>X>X}.>X>X}.}.3XmXMXGXGXAXAXVXGXGXGXAXAXGXAXGXGXAXGXAXAXAXGXGXAXGXAXGXnXMXhX2X/.Q.2X1X>X=X1XW.v.#.E Q Q Q W W W W ' ,.,.,.,.' ,.' ,.Q ,.Q ' ' ' ` Q ,.,.Q :.,.,.Q ,.#.' ,.' Q ,.Q ' ,.,.Q ' Q ' #.,.Q ,.#.,.#.` #.' #.' #.Q +.W #.W W W z 8 e q q 8 e e q 8 8 6 6 6 e 6 e 6 6 6 e 6 6 u 6 e u e 6 6 e 6 u e 0 0 0 e 0 0 0 0 0 0 0 0 e u 0 0 0 0 0 0 0 0 e 0 0 e 0 0 0 6 u 0 0 0 0 e e u 0 0 0 0 e 0 u 0 0 0 0 0 6 e 8 e m / [ 0.q.q.q.q.3.q.q.[ q.q.q.q.3.q.q.3.q.3.q.q.3.3.3.q.3.q.3.q.q.3.3.2.q.q.3.3.3.3.3.3.3.3.2.,.>.s.S.XX,X<X,X>X>X>X>X>X>X=X>X=X>X>X>X>X",
"D.S.{.S.D.n.S.W.}.1X1X1X>X>X>X>X1X>X>X>X1X:X1X:X>X>X>X>X>X>X2X>X>X>X>X>X>X=X>X1X>X>X,X>X>X>X$X%X0X#X#XeX0X0X0X0X0X0X0X0X0X0X0X0X0X0X0X0X0X0X0X0X0X0X0XOXOX@X2X>X:X:X1X:X>X,XD.x.s.a.a.s.p.s.p.s.s.d.p.s.p.s.p.s.s.p.s.p.s.s.d.p.s.p.s.a.a.a.s.s.p.a.p.s.a.s.s.s.s.a.a.a.s.p.p.s.p.s.a.a.s.s.s.a.p.a.p.a.p.d.a.p.s.s.<.T t 8 9 7 0 0 9 9 0 9 0 0 0 0 0 0 0 0 0 0 u 0 0 0 e 0 0 0 e 0 0 0 0 0 0 0 0 0 0 0 0 0 0 0 0 0 0 0 0 0 0 0 0 0 0 0 u e 0 0 0 e 0 0 0 0 6 a u e 6 8 u 6 u e u 6 6 6 6 6 u 6 u 6 e a B ~ ~ ^ ~ ~ Y ^ ~ ~ ~ ( T ^ ^ ^ ^ ~ T ~ ^ ~ ^ Y ~ ~ ~ R ~ / ~ / ~ R / ~ / / / / ~ Y / / T T Y R W g.XXXX<X>X>X1X1X<X>X>X>X>X1X>X>X>X>X>X>XD.D.S.S.D.S.D.S.D.]..X<X>X>X2X<X>X<X>X<X}.>X>X>X}.>X>X>X>X>X2X>X>X>X>X2X>X>X>X>X>X>X2X>X>X>X2X$X+X+XOXOXOXOXOX!.OXOXOXOXOXOXOX0XOX0X0X0X0X0XOXOX0X0X0XOXOX+X+X+X}.>X>X>X>X=X1X,XT.u.t.y.s.d.s.s.s.s.f.f.s.s.f.s.g.s.s.s.d.s.f.s.s.s.s.s.s.s.s.s.s.s.s.s.s.s.f.s.d.s.f.s.s.s.f.s.f.s.s.d.s.d.d.s.s.f.s.s.d.s.s.s.a.d.s.a.<.T 8 e 8 0 q 8 q q 8 e e e e 8 6 e 6 6 6 6 e 6 e 6 6 6 6 e 6 u 6 6 e 0 0 0 0 0 0 0 e 0 e 0 0 0 6 e 0 0 e e 0 0 0 0 0 0 0 0 0 0 a 0 0 0 0 0 0 0 6 0 e 0 0 0 0 e 0 0 e 0 0 0 6 e e j V ^ / / / ~ / / ( ( ( ( ( / / ( ( / / ( ( / ( ( ( / ( ( ( ( / ( / ( ( / / / ( / R ( R ( / T R W ,.V.XXXXXX<X>X>X>X>X}.>X>X>X>X>X>X>X=X",
"j.f.f.f.j.f.f.v.{.<X>X>X>X>X>X>X>X>X>X>X>X>X:X:X>X>X>X}.>X>X>X>X>X>X>X>X>X>X:X:X>X>X:X>X:X$X[.k.5.5.%.5.5.5.5.5.5.5.5.5.5.5.%.*.5.5.5.5.5.5.5.5.5.5.%.O.7.+X$X>X1X1X:X1X:X:X,Xb.D.v.n.S.D.v.D.A.D.A.n.n.D.n.D.v.D.n.D.D.n.n.D.v.D.n.D.A.D.n.D.A.D.v.n.D.D.v.A.D.n.n.D.v.D.n.D.A.D.n.D.v.D.v.D.b.v.S.D.v.D.S.D.D.n.S.D.W e 0 9 9 0 7 7 0 6 7 9 0 q e e 6 0 0 0 e 0 0 0 0 0 0 0 e 0 0 0 0 0 0 0 0 0 0 0 0 0 0 0 e 0 0 0 0 0 e 0 0 0 0 0 6 0 0 e 0 0 0 0 0 0 u e 6 e u 6 u e e e u e u e u u 6 6 u 6 6 6 u a M N N m M m M M n M m M m M M m M m m M M M m m M M M M M m m M m m n n M m M M m M m M M m z F <.XX4X<X1X>X>X>X>X>X1X1X>X>X>X>X2X>X>X{.j.s.s.f.s.f.f.s.x.D..X<X<X2X<X>X<X}.>X}.>X>X>X>X2X>X>X>X>X>X>X>X>X>X>X2X>X>X>X}.>X>X<X+X}.2X>X>X[.7.5.6.5.5.5.5.5.5.5.5.5.5.5.5.5.5.5.5.5.5.%.5.5.%.5.5.%.&.k.[.}.2X2X1X1X1X1X1X{.T.n.b.n.S.S.S.S.S.S.b.b.S.n.b.S.D.v.n.S.n.n.n.S.n.D.v.D.n.R.n.S.D.n.n.S.S.n.n.S.S.n.n.n.S.n.n.S.n.S.D.n.n.S.n.S.S.S.S.D.S.S.D.D.S.G.S.Z.R r q q q 8 8 q q 8 5 e e 7 5 e 6 e 6 6 e u e 6 e 6 6 e u e e 6 0 0 0 e 0 0 e 0 0 0 0 0 0 0 0 0 0 0 0 u e 0 u 0 0 0 0 0 0 0 0 0 0 6 e u 0 0 0 e 0 0 0 0 0 0 0 0 0 0 0 0 0 0 0 e e n m m m M M M m m V V V N N N m N V m V M M V m N V V m M m V V n m N N m m V N V N N J N N N H W l.XXXX<X<X>X>X>X:X>X>X>X>X=X>X>X>X>X",
"p.,.p.p.,.#.s.j.S.1X=X=XQ.>X>X>X>X:X>X>X>X>X>X>X>X>X>X>X>X>X}.>X>X>X>X>X>X>X>X>X,X>X>X>X>X}.].+.v p p f b p s b p u p p p p p p p p p p p p p p p p p < .. XXX<X>X,X>X>X>X,X>X:X{.{.:X{.,X{.{.:X{.,X,X:X{.,X:X:X:X:X{.:X,X:X,X{.:X{.:X:X{.{.:X:X,X{.:X{.,X{.:X:X,X:X,X{.{.:X:X:X{.:X,X{.:X{.:X:X{.>X:X{.:X{.{.:X{.}..X1.j 7 5 6 q 9 0 9 0 0 0 0 q 0 e q 0 0 0 0 0 e 0 0 0 0 0 0 0 0 0 e 0 6 a 0 0 0 6 0 0 0 0 0 e 0 0 0 0 0 0 0 0 0 0 0 0 0 0 0 0 e u 0 e 6 0 6 e 6 6 e u 6 6 6 6 6 e 6 6 6 6 6 6 6 6 6 6 0 a a a a a e u a a e e u a u e a a u a u 6 a a a u u a a e e e a u a a a e a 0 a a u a u u d v >. XXX<X<X>X>X>X1X>X<X>X>X>X2X=X>X>X>X{.s.3.' [ 3.3.' ' p.V.D.<X<X>X>X>X}.<X}.>X}.>X>X>X<X2X>X}.<X>X>X>X>X>X}.}.>X>X>X>X>X>X2X>X>X}.>X}.].X.z a a k a p k a k k b p a k a p k p p p p p p p p p f 3 O.].[.<X:X=X:X:X:X>X1X:X:X,X:X>X>X>X>X}.}.,X>X,X>X>X>X>X{.}.>X:X,X>X{.>X>X}.>X{.>X>X{.:X{.}.}.:X{.>X>X>X{.}.>X{.>X}.}.:X{.}.,X,X,X}.XX>X{.{.{.>X{.{.,X.X,X.X|.` 8 0 7 8 8 q 8 8 8 7 e 6 e 7 e 8 6 6 0 6 6 6 e u 6 6 6 e 6 6 e 0 0 0 0 e u 6 0 0 0 0 0 0 e 0 0 0 0 0 0 0 0 e e 0 0 0 e 0 0 0 0 0 0 0 0 0 0 0 0 0 0 0 e 0 0 e 0 0 0 0 0 6 0 6 6 7 q a a e 6 q e e j a q e q e e e u e e e a e q e a q e e t e t e e e a e a e e e e e 8 q q t 8 j P 4..X<X<X,X>X>X>X>X>X>X>X>X>X>X>X>X>X",
"' Q Q ,.Q W #.a.D.>X{.W.>X>X>X>X>X>X>X>X>X>X,X>X>X>X>X>X2X>X>X>X>X>X>X>X>X:X>X:X>X:X>X>X>X>X).L 1 X O @ @ @ O @ @ @ O O O @ O @ @ O @ O @ O @ O O O O O c |.}.4X,X{.>X,X>X,X>X>X,X,X>X1X>X1X<X1X>X1X<X<X1X<X1X<X1X<X>X1X>X1X<X<X<X1X>X1X>X1X<X1X>X<X<X1X1X<X<X1X>X1X>X1X>X1X<X1X>X<X1X,X1X<X1X<X<X1X<X<X1X>X<X1X>X<X<X,.g 8 7 0 9 q 0 0 9 0 0 0 e q e 0 0 0 0 0 0 0 0 e 0 0 e u 0 e 0 0 0 0 0 0 0 0 u 0 0 0 0 0 0 0 0 0 0 0 0 e e 0 0 0 e 0 0 0 0 0 0 0 e 6 6 0 6 u e 6 6 u 6 8 6 u u e 6 6 6 6 6 6 6 @ 6 ; 6 u 6 5 6 6 6 6 6 6 7 6 6 6 6 6 6 7 6 6 6 5 6 ; 6 6 6 6 7 6 6 6 7 6 6 6 6 6 5 6 7 6 6 6 ; > f +.{.$X<X1X1X>X>X>X1X>X2X>X>X>X>X>X>X>XD.a.Q Q ' Q ' Q Q ' d.D.<X<X>X>X}.<X}.>X}.>X>X2X}.>X>X>X<X}.>X>X}.<X>X>X>X>X>X>X>X>X>X}.2X>X>X2X}.c.K > o o O + + + $ o o + + + @ O @ O O @ O O + O @ O @ O = G [.}.4X:X*X:X:X:X:X1X1X1X<X4X<X4X<X<X<X1X<X1X<X1X<X1X<X<X1X<X1X<X1X<X1X>X<X<X<X<X1X1X<X1X<X1X>X1X<X<X<X1X1X1X1X<X<X<X1X<X<X<X1X<X<X<X<X1X<X<X1X<X1X<X1X<X>X.X:.t 0 7 0 7 8 q 8 7 e e 8 7 5 e e 8 e 6 6 e 6 u e 6 u e 6 6 e u 0 e 0 0 e 0 0 0 u 0 e e 0 0 0 0 0 e 0 0 a 0 0 0 0 0 0 0 u 0 e 0 e u e 0 0 0 0 0 e 0 0 0 0 0 0 0 e 0 0 0 0 0 6 7 6 6 7 6 5 $ - $ $ 6 7 7 5 5 ; 5 ; 5 7 7 5 5 5 5 ; 5 5 5 5 ; 7 5 5 5 5 5 5 5 5 9 5 5 7 7 9 5 7 5 7 z ,.XX,X,X,X<X<X>X>X1X>X>X>X>X>X:X>X>X",
"Q ' ,.Q W Q ,.s.n.>X=XQ.:X>X>X>X>X>X1X:X>X>X>X<X>X>X>X>X>X>X>X>X>X>X>X>X>X>X>X>X>X,X>X>X>X>X].I g - @ 6 ; ; @ ; 6 @ < ; 6 5 @ ; $ 6 6 @ 6 $ ; ; ; = < ; L ]. X<X>X:X>X>X>X:X1X,X>X>X>X>X1X>X>X>X>X>X>X,X>X>X,X>X,X<X>X>X>X<X,X>X>X1X>X<X>X>X,X>X>X<X>X>X>X>X>X>X>X<X,X1X>X,X>X1X<X>X>X>X<X>X>X>X>X>X,X<X,X<X>X<X,X<X,X2.j 8 7 7 8 9 7 0 0 7 0 e e 0 e q 0 0 q 0 0 0 0 0 0 0 0 0 0 0 0 e 0 0 0 e e 0 0 0 e 0 0 0 0 0 e 0 0 0 0 0 0 0 0 0 0 0 e 0 0 0 e 0 u 0 0 6 6 8 u 6 8 e u e 8 e 6 e e u 6 6 6 u 6 6 6 6 6 6 6 u 6 6 6 6 6 6 u 6 6 6 6 6 6 6 6 6 u 6 6 6 6 6 6 6 6 6 6 6 6 6 6 6 6 6 6 6 6 6 6 6 u u f +. X4X<X1X>X>X<X>X>X>X>X>X>X>X>X>X>X>XD.a.' ' ' ' ' ' Q ,.V.D.<X>X>X}.>X}.<X}.<X}.>X}.>X>X>X>X>X>X>X>X>X2X>X>X>X>X>X>X2X>X>X>X>X>X>X>X<X_.L a @ 5 0 9 9 $ $ 9 9 9 0 0 6 6 6 6 6 5 6 6 u ; u ; ; ; < G |.}.>X=X=X:X=X1X=X1X>X>X1X>X1X<X<X1X>X1X<X>X<X<X<X>X<X>X>X>X>X<X>X>X>X1X>X>X>X<X>X>X,X>X>X<X>X>X>X>X<X>X:X>X>X>X>X<X>X>X>X<X<X,X<X<X<X<X<X,X<X,X,X<X<X,XXX.X:.8 q 0 0 q 8 q q 8 7 6 e 6 e e 8 e e 6 e u 6 e 6 6 6 6 e 6 6 6 0 0 0 0 u 0 e 0 e 0 u 0 0 0 0 e 0 0 0 0 6 0 0 0 e 0 e 0 e 0 0 0 0 0 0 0 e 0 0 0 0 0 u e 0 0 0 0 0 0 0 0 0 6 0 6 6 6 6 6 6 6 6 5 6 6 0 7 5 6 6 6 6 7 8 7 6 6 6 6 6 6 6 6 7 6 7 0 6 6 6 6 6 0 7 0 7 0 q q 7 0 q 5 : z >.XX<X<X,X>X>X>X>X:X:X>X>X>X>X1X>X1X",
"Q ,.' ,.Q W ,.a.D.,X=X:X>X}.>X>X>X>X>X>X>X>X>X>X>X>X>X>X>X>X>X>X>X>X2X>X>X>X>X>X>X,X>X>X>X}.].R j ; 8 8 6 6 $ 6 6 6 6 6 $ u 0 0 0 0 0 0 0 0 0 6 ; 6 > 1 K |.XX4X>X,X:X>X:X>X>X>X>X1X>X>X>X>X:X:X>X>X>X1X>X>X>X>X>X>X1X>X>X>X1X>X>X:X:X>X>X>X>X>X1X>X>X,X1X=X>X>X,X>X>X>X>X>X>X:X>X:X>X>X,X:X:X>X>X>X>X>X>X>X>X>X<X<XXX4.j e 9 7 8 0 0 7 7 0 0 q 0 e 0 q 0 q 0 0 e 0 u 0 0 0 0 0 0 0 0 u e 0 0 0 0 0 0 0 0 0 a 6 u e 0 0 e 0 0 0 0 0 e 0 0 0 u 0 0 0 0 0 0 0 0 u 6 6 e e 6 6 6 6 6 6 6 6 6 e 6 u u 6 6 u 6 e 6 e u 6 e 6 6 6 u 6 e 6 6 6 u 6 0 u 0 6 6 6 u e u 8 u u 6 u u 6 u u u u 6 u u u 6 u 6 u 6 i k +. X<X<X<X>X>X>X1X1X>X>X>X>X>X>X>X>X>X{.p.' ' ' ' ' ' W ,.f.D.<X1X>X>X}.>X}.>X}.>X>X>X>X>X>X>X>X>X>X>X>X>X>X>X>X>X<X}.>X>X>X>X}.>X>X}.}.S.R j 9 9 9 y 9 9 y 9 9 y 9 e 0 e 0 e 0 u e u e u u 6 u 1 i I ].XX1X>X*X1X:X1X:X1X>X4X>X>X>X>X>X>X>X>X>X1X1X>X>X,X>X>X>X>X>X>X>X>X>X:X>X,X>X>X>X>X1X:X,X>X>X>X>X>X>X>X>X>X1X:X:X>X>X>X>X>X>X<X,X>X>X,X1X:X,X<X,X<X<X,X.XXX+.r 0 0 7 q q 8 8 q q 8 e 7 7 6 7 e 8 6 6 6 e 6 e 6 6 e u e 6 e 6 0 0 0 e 0 0 0 e 0 0 0 0 0 0 0 0 0 0 0 0 0 e 0 0 0 0 0 0 e 0 0 0 0 0 0 0 0 0 0 u e 0 0 0 e 0 0 u 6 0 0 0 0 6 0 6 6 6 0 6 6 6 6 6 7 0 6 6 6 6 6 6 e e e 0 0 e e 6 e 6 e 6 e e u 0 e e 0 0 0 0 0 e 0 0 0 9 0 q 5 : z >.XXXX,X>X>X>X1X>X>X>X>X:X>X>X>X>X:X",
"Q Q ,.' ` Q ,.s.v.,X:XQ.>X}.>X>X:X>X>X:X1X>X>X>X>X>X>X>X>X>X>X>X>X>X>X>X>X>X>X1X:X:X>X>X>X}.].W k ; ; u 8 6 6 6 6 0 6 9 0 9 0 0 9 0 0 0 0 9 0 6 u ; > > L |.XX4X:X:X>X1X:X:X>X>X:X>X>X,X>X>X1X>X>X>X>X:X>X:X1X>X:X>X:X>X>X:X>X>X>X>X>X>X1X,X>X>X:X>X>X>X:X>X>X>X>X>X>X>X>X>X>X>X>X1X>X>X>X>X1X>X>X1X:X>X>X>X<X>X>X<X,X<.z e 7 9 9 9 0 0 q 9 0 e q q 0 e 0 0 0 0 0 0 e 0 0 e 0 0 0 0 e 0 0 0 0 0 0 0 0 0 0 0 0 0 6 e 0 0 0 0 0 e u 0 0 0 0 0 0 e e 0 0 0 0 e 6 6 u e u 6 u e u e u e u e 6 u e 6 6 6 6 0 e u 6 u 6 e 0 u 6 u 6 6 6 0 u u 6 6 6 6 u 0 u 6 6 e 6 6 6 6 6 6 6 6 6 6 6 6 6 6 6 6 0 6 u 6 u i f +. X<X1X>X1X,X>X>X>X>X>X>X>X>X=X>X>X>Xb.s.' ' ' ' ' ' _ ,.x.G.<X<X>X>X<X>X<X>X>X<X>X>X>X2X}.>X2X}.>X>X>X>X}.>X>X>X2X>X}.<X>X>X>X>X>X>X<XZ.R j # 9 y 9 9 9 9 y y 9 y 9 9 9 y 0 0 0 e e 0 6 6 u 6 u 3 o.|.$X>X1X:X:X=X:X>X>X=X>X>X>X>X1X>X>X1X<X>X>X>X>X>X>X1X>X:X1X>X,X>X>X>X>X>X>X1X>X>X>X>X>X>X>X1X:X>X>X,X>X>X>X>X:X1X>X>X>X>X>X,X>X>X>X<X>X,X,X<X,X,X<X<X>X.X.X:.8 9 7 8 q 8 q 8 8 8 6 e 6 e 6 e 6 e 6 e 6 6 e u 6 6 6 e 6 6 0 0 0 e 0 0 0 0 0 0 0 0 0 0 e u 0 0 0 0 0 0 0 0 0 0 0 0 0 0 0 0 0 0 0 e 0 0 0 e 0 0 0 0 0 0 0 0 0 0 0 0 0 0 0 0 0 6 9 6 9 7 6 6 6 6 6 6 6 6 6 6 8 e e e u e 0 6 e e e e u e e e e 6 e 0 e e e 0 q e q q 0 0 q q 5 7 D ,. XXX<X<X>X>X:X>X>X>X1X:X>X>X>X>X>X",
"' ,.,.Q ' W ,.s.n.<X>X>X}.>X>X>X>X>X>X>X1X>X>X>X>X>X>X>X>X>X>X>X>X>X>X>X}.>X>X>X:X>X:X>X>X>X].R k - 5 i e 6 6 6 6 0 6 0 0 9 9 0 0 0 y b $ $ y y 0 6 ; > G ].XX<X>X:X>X>X>X>X:X>X>X1X:X>X>X>X>X>X>X>X>X1X>X>X>X>X:X1X>X>X>X>X>X:X1X>X=X>X>X>X>X:X>X>X>X:X:X1X>X>X>X>X1X:X>X>X>X>X:X>X>X>X>X>X>X>X>X>X:X:X>X>X>X1X>X>X<X4.j 8 7 q 0 7 0 q 7 0 0 q 0 q 0 e 0 0 0 e 0 0 0 0 0 0 0 0 e 0 0 0 0 0 e 0 0 0 0 0 0 0 0 0 0 0 a 0 0 0 0 6 0 0 0 0 0 0 0 u 0 e 0 0 e 0 0 a e 6 6 e 6 6 6 8 6 6 6 e 6 6 6 6 6 6 u 0 6 e 6 6 6 u e 6 e e 6 u e 6 6 6 e u 6 e 6 6 6 u u e 6 e 6 6 6 8 6 e e 6 6 e 6 6 e 6 6 6 6 6 u u f +.[.4X<X<X<X>X>X>X>X1X>X>X>X>X>X>X>X}.{.p.' ' ' ' ' ' ' 3.N.D.4X>X>X>X>X<X4X}.>X>X>X>X<X}.>X>X>X>X>X2X>X>X>X2X<X}.>X>X>X>XXX<X>X>X>X>X}.Z.R k 9 9 9 y 9 9 y w 9 y y q e 9 e e 0 e u 0 u 0 u e u i 1 I  X}.<X>X>X>X1X:X1X=X:X1X=X1X>X>X1X>X>X>X>X1X>X>X1X>X>X>X>X:X1X>X>X>X>X1X>X>X>X>X>X>X>X>X:X>X>X>X:X:X1X>X>X>X>X>X>X>X>X>X>X>X>X>X>X,X>X,X>X,X,X>X,X1X,X<X,X.X+.r q 9 8 7 q q 8 q 0 8 0 0 8 8 0 8 e 6 6 e 6 6 6 6 6 u u e 6 6 e 0 0 e 0 0 u e 0 0 0 0 0 0 0 0 0 0 6 u e 0 0 e 0 0 0 0 0 0 0 0 e 0 0 0 0 0 0 0 0 0 e 0 0 e 0 0 0 0 0 0 0 e 0 6 6 6 e e 6 6 7 6 6 e 8 8 6 5 e 8 e 6 6 e 6 e 8 8 e 8 6 e 8 e e 6 e 6 e e e e 6 0 q e e 0 0 e e 5 : z ,.,XXX<X<X<X}.<X>X>X>X>X>X,X>X>X:X:X",
"#.Q ' ,.Q W ' a.v.>X:X=X=X}.>X>X>X>X>X>X:X>X>X>X>X>X>X>X>X>X>X>X>X>X>X>X>X>X>X>X>X>X>X1X>X>XS.W j ; 7 u e 5 6 6 0 0 0 0 0 0 y $ $ 0 $ $ $ y $ y 0 0 > 1 P _.XX4X:X*X:X>X>X>X>X>X>X>X>X>X>X>X:X>X:X1X:X>X>X:X>X>X:X>X>X>X:X:X>X>X>X>X1X:X>X>X>X1X>X1X>X>X>X>X1X:X>X>X>X:X>X1X:X:X1X>X>X>X>X>X>X>X>X>X>X1X>X>X>X:X>X<X,Xa.j 8 7 8 0 q 9 0 9 0 0 q q e 0 q q 0 0 0 0 0 0 e 0 e 0 0 0 0 0 0 0 0 0 0 0 e 0 0 0 0 e 0 0 0 0 0 0 0 0 0 0 0 a 6 0 0 0 0 0 0 0 0 0 0 6 6 6 u 8 u u e u u u e u 6 u e u e 0 6 6 6 e u u e 6 e u 6 u 6 6 8 u 6 u e 6 8 u e u e 6 e 6 e 6 u u e u e u 6 u e u e u e u e u e 6 u u 8 f +. X<X4X<X>X>X1X>X>X>X>X>X:X>X>X>X}.>X].a.' ' ' ' ' ' Q 3.d.D.<X<X>X>X>X}.>X>X>X>X>X$X>X>X>X>X>X>X<X}.>X>X>X>X>X>X>X>X>X>X>X>X>X>X>X}.4XS.Y b # 9 y 9 9 9 9 y y y q y y y 0 0 a e 0 a e u 6 u e 1 i o._.}.4X>X>X>X:X:X1X:X>X=X>X>X>X1X>X>X>X1X>X>X1X>X>X>X>X>X>X>X>X>X>X>X:X:X>X>X>X>X:X>X>X>X1X=X>X>X>X>X>X>X:X>X>X>X,X>X>X1X>X>X>X>X<X>X>X<X<X>X,X1X>X,X<X<X,X.X:.8 0 7 9 8 q 8 8 q 0 7 7 8 8 0 0 7 e 6 u e e 6 e 6 e e 6 6 e 6 6 0 0 0 0 0 0 0 0 0 0 e e u e 0 0 0 0 e 0 0 0 0 e 0 u 0 0 e 0 0 0 0 0 0 0 e 0 0 0 0 0 0 u e 0 0 e 0 e u 0 6 0 0 6 8 7 8 8 e e 6 8 8 6 e 6 6 8 8 8 6 6 7 8 e 5 e 8 6 8 e 6 7 6 8 8 8 e 5 e e 8 8 8 0 q q 7 e q 5 7 M >.XX<X<X,X<X>X>X>X<X>X>X1X>X>X>X>X1X",
"' ' ,.Q Q W ' s.n.1X>X:X>X>X>X>X>X:X>X>X>X>X>X>X>X>X>X>X>X>X>X>X>X>X>X2X>X>X>X>X>X,X,X>X>X>XD.R k - 5 a 6 6 6 6 6 9 0 0 $ u y y y y $ b y y y $ $ 0 0 b G ].}.>X:XQ.:X:X1X:X>X>X>X>X>X:X:X1X>X>X>X>X>X>X>X>X:X1X>X>X>X>X1X>X>X>X>X>X>X>X>X>X>X>X:X:X>X>X>X>X>X>X>X:X>X>X>X>X>X>X>X>X:X>X>X1X>X>X>X>X>X>X1X>X:X>X,X<X<X,.j q 7 0 0 9 7 0 0 7 0 q 0 e e q 0 0 0 0 e u 0 0 0 0 u e 0 0 e 0 0 0 0 u 0 e 0 0 u e 0 0 e 0 0 6 0 0 0 0 e 0 6 6 0 0 0 0 0 e 0 0 u e 6 6 u e 6 6 e e e 6 e 6 8 u e 6 e u 0 6 u 0 6 6 e u e u e 6 6 e 6 u u 8 6 e 6 u e 6 8 u e 6 e 6 u 6 e 6 6 u e 6 6 u 8 6 6 u 6 e 8 e u 6 6 1 k +. X<X4X<X>X>X,X>X>X1X>X>X>X:X}.>X>X}.{.a.' ' ' ' ' Q ' ,.x.G.4X<X4X}.>X>X>X>X>X<X>X>X>X>X>X2X>X>X}.>X>X>X>X}.>X>X>X>X>X>XXX.X>X>X>X>X>XZ.R n 9 9 e 9 y 9 9 9 9 y y e e e 0 e 0 u 8 i u e u e 6 i < o.|.}.4X>X:X>X*X:X=X:X1X1X>X2X>X>X>X>X>X1X>X1X>X>X>X>X1X:X>X:X>X>X>X>X1X:X>X>X:X1X:X1X>X>X>X1X>X:X>X>X>X>X1X>X>X>X>X>X:X:X>X<X>X>X>X>X>X,X,X,X>X,X,X>X<X,X.X.X+.r q 8 q 8 e 8 8 8 q 7 0 e 0 7 q e e 6 6 6 6 u e 6 6 6 6 e 6 0 u e 0 0 0 e 0 0 e 0 0 0 0 0 0 0 0 e 0 0 0 0 0 0 0 0 e 0 0 0 e 0 0 0 u e 0 0 0 0 e 0 0 0 0 0 0 0 0 0 0 0 e 6 e e 6 8 0 8 7 6 8 e 7 6 8 7 e 5 8 6 e 7 e 7 8 6 8 e 6 7 7 6 8 6 8 8 5 e 8 8 e 5 8 8 q 0 q 0 0 q e 5 5 z ,.XX,X,X<X,X>X>X>X>X>X>X>X>X:X>X>X>X"
};
